7cmdehdrb/project_th/tune/gain_tuner100.csv
EXP, ShoulderPan_PE, ShoulderPan_VE, ShoulderLift_PE, \ShoulderLift_VE, Elbow_PE,             Elbow_VE, Wrist1_PE, Wrist1_VE, Wrist2_PE, Wrist2_VE, Wrist3_PE, Wrist3_VE
0, -0.0105, -1.5406, 0.0068, 0.3021, -0.0280, -1.0992, 0.0039, -0.1803, -0.0048, 0.0971, 0.0351, -0.0182
0, -0.0105, -1.5406, 0.0068, 0.3021, -0.0280, -1.0992, 0.0039, -0.1803, -0.0048, 0.0971, 0.0351, -0.0182
0, -0.0105, -1.5406, 0.0068, 0.3021, -0.0280, -1.0992, 0.0039, -0.1803, -0.0048, 0.0971, 0.0351, -0.0182
0, -0.0105, -1.5406, 0.0068, 0.3021, -0.0280, -1.0992, 0.0039, -0.1803, -0.0048, 0.0971, 0.0351, -0.0182
0, -0.0209, 1.1898, 0.0100, 0.2027, -0.0442, 0.1070, 0.0076, 0.0002, -0.0080, -0.1137, 0.0601, -0.0121
0, -0.0138, -0.3237, 0.0076, 0.7899, -0.0319, -1.6928, 0.0057, -0.2992, -0.0060, -0.0043, 0.0443, -0.1120
0, -0.0160, -0.7608, 0.0068, 0.3081, -0.0324, -1.1044, 0.0057, -0.1532, -0.0059, 0.0313, 0.0445, 0.0786
0, -0.0128, -0.4365, 0.0077, 0.6494, -0.0310, -1.5095, 0.0062, -0.2298, -0.0064, -0.0051, 0.0458, 0.0183
0, -0.0140, -0.0711, 0.0075, 0.4785, -0.0360, -0.8846, 0.0073, -0.1291, -0.0075, -0.0246, 0.0533, -0.0253
0, -0.0175, 0.8886, 0.0082, 0.3022, -0.0391, -0.3053, 0.0077, -0.0336, -0.0078, -0.1036, 0.0570, -0.0280
0, -0.0216, -0.1838, 0.0089, -0.0886, -0.0374, -0.1132, 0.0060, -0.0105, -0.0062, 0.0147, 0.0491, -0.0324
0, -0.0178, -0.4092, 0.0085, 0.5136, -0.0358, -1.0305, 0.0075, -0.1423, -0.0072, 0.0073, 0.0540, -0.0298
0, -0.0211, 0.6890, 0.0088, 0.4505, -0.0463, -0.3420, 0.0088, -0.0436, -0.0090, -0.0779, 0.0666, -0.0750
0, -0.0236, 0.4965, 0.0088, 0.1912, -0.0450, -0.3365, 0.0075, -0.0164, -0.0078, -0.0701, 0.0602, 0.0350
0, -0.0133, -0.1230, 0.0065, 0.2812, -0.0268, -0.7963, 0.0063, -0.0976, -0.0059, -0.0066, 0.0434, -0.0670
0, -0.0137, 0.7685, 0.0065, 0.4938, -0.0287, -0.3114, 0.0069, -0.0205, -0.0064, -0.0854, 0.0471, -0.0733
0, -0.0212, 0.5258, 0.0072, 0.4005, -0.0385, -0.2532, 0.0063, -0.0162, -0.0065, -0.0631, 0.0510, -0.0340
0, -0.0188, 0.2706, 0.0063, 0.2942, -0.0363, -0.3868, 0.0071, -0.0496, -0.0069, -0.0297, 0.0531, -0.0979
0, -0.0242, 0.2152, 0.0084, -0.0092, -0.0425, -0.0606, 0.0063, 0.0034, -0.0067, -0.0224, 0.0537, -0.0060
0, -0.0219, -0.0917, 0.0085, -0.0174, -0.0384, -0.1921, 0.0067, -0.0277, -0.0066, 0.0125, 0.0524, -0.0674
0, -0.0093, 0.0334, 0.0047, -0.0286, -0.0229, -0.2495, 0.0052, -0.0357, -0.0050, -0.0027, 0.0551, -0.0903
0, -0.0112, 0.1987, 0.0053, -0.0037, -0.0238, -0.2038, 0.0046, -0.0174, -0.0046, -0.0218, 0.0345, -0.0145
0, -0.0069, 0.3831, 0.0035, 0.0985, -0.0169, -0.1437, 0.0053, -0.0017, -0.0047, -0.0389, 0.0332, -0.0358
0, -0.0144, 0.0548, 0.0060, 0.2036, -0.0264, -0.4748, 0.0043, -0.0466, -0.0045, -0.0218, 0.0349, 0.0040
0, -0.0142, 0.2749, 0.0059, 0.0534, -0.0264, 0.0291, 0.0051, 0.0135, -0.0050, -0.0228, 0.0381, -0.0362
0, -0.0125, 0.0793, 0.0053, 0.1462, -0.0234, -0.2122, 0.0051, -0.0204, -0.0048, -0.0104, 0.0365, -0.0495
0, -0.0091, 0.2273, 0.0039, 0.0965, -0.0176, 0.0409, 0.0045, 0.0192, -0.0040, -0.0191, 0.0301, -0.0448
0, -0.0073, 0.0832, 0.0032, 0.1958, -0.0140, -0.1966, 0.0040, 0.0031, -0.0035, -0.0228, 0.0259, 0.0173
0, -0.0130, -0.0314, 0.0058, 0.1861, -0.0236, -0.3166, 0.0037, -0.0458, -0.0039, -0.0011, 0.0304, -0.0578
0, -0.0128, 0.1202, 0.0058, 0.0306, -0.0236, -0.0461, 0.0041, -0.0017, -0.0041, -0.0112, 0.0321, -0.0168
0, -0.0062, 0.2496, 0.0020, -0.0361, -0.0135, 0.2466, 0.0034, 0.0352, -0.0031, -0.0113, 0.0231, -0.0462
0, -0.0074, -0.1461, 0.0029, 0.2163, -0.0149, -0.3945, 0.0030, -0.0442, -0.0029, -0.0011, 0.0222, -0.0112
0, -0.0093, 0.0897, 0.0041, 0.0864, -0.0179, 0.0060, 0.0030, 0.0116, -0.0031, -0.0115, 0.0238, -0.0004
0, -0.0116, -0.1247, 0.0053, 0.1380, -0.0218, -0.4446, 0.0029, -0.0821, -0.0033, 0.0112, 0.0259, -0.0961
0, -0.0095, 0.2620, 0.0040, -0.0996, -0.0185, 0.2036, 0.0031, 0.0289, -0.0032, -0.0148, 0.0248, -0.0170
0, -0.0090, -0.1288, 0.0037, 0.1213, -0.0180, -0.5107, 0.0023, -0.0796, -0.0027, 0.0011, 0.0209, -0.0294
0, -0.0036, 0.0193, 0.0016, 0.1163, -0.0071, -0.1057, 0.0022, -0.0137, -0.0018, -0.0039, 0.0136, -0.0306
0, -0.0044, 0.0195, 0.0022, 0.0725, -0.0086, -0.1611, 0.0017, -0.0198, -0.0017, -0.0061, 0.0126, -0.0200
0, -0.0039, 0.0639, 0.0018, 0.0216, -0.0080, -0.1052, 0.0017, -0.0139, -0.0016, -0.0071, 0.0123, -0.0225
0, -0.0046, 0.0136, 0.0020, 0.0655, -0.0095, -0.1887, 0.0016, -0.0290, -0.0017, -0.0042, 0.0128, -0.0280
0, -0.0034, 0.0398, 0.0016, 0.0760, -0.0072, -0.1279, 0.0010, -0.0170, -0.0012, -0.0068, 0.0089, -0.0155
0, -0.0052, 0.1029, 0.0023, 0.0560, -0.0104, -0.0012, 0.0017, -0.0118, -0.0018, -0.0010, 0.0139, -0.0636
0, -0.0030, 0.0386, 0.0015, 0.0858, -0.0062, -0.1444, 0.0011, -0.0223, -0.0011, -0.0054, 0.0084, -0.0284
0, -0.0031, 0.0702, 0.0015, 0.0598, -0.0064, -0.0834, 0.0011, -0.0138, -0.0011, -0.0063, 0.0086, -0.0234
0, -0.0011, 0.1023, 0.0006, 0.0503, -0.0027, -0.0060, 0.0008, -0.0038, -0.0007, -0.0058, 0.0049, -0.0342
0, -0.0003, 0.0944, 0.0004, 0.0380, -0.0012, -0.0266, 0.0003, -0.0029, -0.0003, -0.0081, 0.0020, -0.0134
0, 0.0003, 0.0209, 0.0001, 0.0905, -0.0001, -0.1607, 0.0002, -0.0246, -0.0001, -0.0047, 0.0007, -0.0224
0, 0.0001, 0.0356, 0.0003, 0.0807, -0.0004, -0.1408, -0.0000, -0.0169, -0.0000, -0.0083, -0.0000, 0.0009
0, 0.0006, 0.0685, 0.0001, 0.0641, 0.0002, -0.0884, -0.0002, -0.0169, -0.0000, -0.0083, -0.0007, -0.0228
0, 0.0010, 0.0335, 0.0002, 0.0872, 0.0003, -0.1568, -0.0008, -0.0275, 0.0000, -0.0075, -0.0026, -0.0241
0, 0.0018, 0.0498, 0.0002, 0.0667, 0.0005, -0.1104, -0.0016, -0.0219, 0.0001, -0.0072, -0.0053, -0.0273
0, 0.0023, 0.0593, 0.0003, 0.1037, 0.0007, -0.1429, -0.0022, -0.0270, 0.0001, -0.0100, -0.0073, -0.0262
0, 0.0030, 0.0310, 0.0003, 0.0562, 0.0011, -0.1074, -0.0029, -0.0274, 0.0002, -0.0045, -0.0095, -0.0441
0, 0.0034, 0.0215, 0.0003, 0.0809, 0.0011, -0.1384, -0.0034, -0.0300, 0.0002, -0.0057, -0.0112, -0.0339
0, 0.0059, 0.1401, 0.0005, 0.1281, 0.0022, -0.1392, -0.0065, -0.0420, 0.0004, -0.0160, -0.0212, -0.0692
0, 0.0110, 0.1418, 0.0007, 0.1281, 0.0042, -0.1385, -0.0121, -0.0439, 0.0008, -0.0159, -0.0396, -0.0754
0, 0.0158, 0.0736, 0.0005, 0.0778, 0.0064, -0.1310, -0.0173, -0.0456, 0.0011, -0.0081, -0.0566, -0.0818
0, 0.0060, -0.5783, 0.0026, 0.3539, -0.0023, -0.4070, -0.0059, -0.0668, 0.0001, 0.0314, -0.0177, -0.0349
0, 0.0062, 0.1555, 0.0023, -0.0932, 0.0023, 0.4196, -0.0063, 0.0462, 0.0003, -0.0013, -0.0210, -0.0297
0, 0.0069, -0.0233, 0.0006, 0.0476, 0.0035, -0.4275, -0.0066, -0.0877, 0.0004, -0.0086, -0.0222, -0.0402
0, 0.0061, 0.1575, 0.0007, 0.1247, 0.0006, -0.1985, -0.0076, -0.0449, 0.0005, -0.0217, -0.0240, -0.0306
0, 0.0085, 0.1278, 0.0002, 0.1067, 0.0035, 0.0221, -0.0084, -0.0105, 0.0005, -0.0114, -0.0279, -0.0532
0, 0.0086, -0.0545, 0.0014, 0.2686, 0.0025, -0.3295, -0.0094, -0.0613, 0.0006, -0.0090, -0.0303, -0.0448
0, 0.0090, 0.1929, 0.0017, 0.1258, 0.0026, -0.0705, -0.0102, -0.0303, 0.0006, -0.0209, -0.0329, -0.0531
0, 0.0110, 0.0999, 0.0009, 0.1059, 0.0042, -0.1868, -0.0114, -0.0335, 0.0007, -0.0167, -0.0375, -0.0058
0, 0.0061, 0.2053, 0.0004, 0.1731, 0.0027, -0.1371, -0.0070, -0.0185, 0.0005, -0.0280, -0.0230, 0.0131
0, 0.0113, 0.1486, 0.0008, 0.1418, 0.0042, -0.1074, -0.0125, -0.0599, 0.0008, -0.0158, -0.0408, -0.1246
0, 0.0115, 0.0830, 0.0009, 0.1665, 0.0043, -0.1924, -0.0127, -0.0447, 0.0008, -0.0164, -0.0415, -0.0378
0, 0.0121, 0.0881, 0.0013, 0.1791, 0.0040, -0.1898, -0.0135, -0.0502, 0.0008, -0.0161, -0.0437, -0.0585
0, 0.0091, 0.1838, -0.0001, 0.0369, 0.0044, -0.1147, -0.0098, -0.0168, 0.0007, -0.0201, -0.0325, 0.0048
0, 0.0097, -0.1077, -0.0006, -0.0531, 0.0045, -0.1212, -0.0105, -0.0326, 0.0007, 0.0084, -0.0346, -0.0208
0, 0.0069, -0.0927, 0.0008, 0.3248, 0.0052, -0.3230, -0.0088, -0.0387, 0.0007, 0.0035, -0.0482, -0.0147
0, 0.0130, 0.4599, 0.0007, 0.3252, 0.0050, -0.3156, -0.0155, -0.0856, 0.0011, -0.0564, -0.0505, -0.0927
0, 0.0085, -0.1888, -0.0000, 0.0372, 0.0037, -0.1732, -0.0102, -0.0491, 0.0008, 0.0091, -0.0334, -0.0207
0, 0.0138, 0.4737, 0.0010, 0.4700, 0.0053, -0.4372, -0.0171, -0.1016, 0.0012, -0.0633, -0.0554, -0.0858
0, 0.0098, -0.3118, -0.0005, -0.0499, 0.0045, -0.1782, -0.0111, -0.0517, 0.0008, 0.0238, -0.0365, -0.0267
0, 0.0121, -0.2518, -0.0006, -0.2592, 0.0059, 0.1699, -0.0135, -0.0065, 0.0010, 0.0351, -0.0446, -0.0657
0, 0.0113, -0.2782, -0.0006, -0.0671, 0.0056, -0.1132, -0.0132, -0.0489, 0.0010, 0.0218, -0.0434, -0.0327
0, 0.0129, -0.0648, 0.0006, 0.1044, 0.0047, -0.1255, -0.0156, -0.0596, 0.0011, 0.0002, -0.0506, -0.0803
0, 0.0137, 0.1269, 0.0015, 0.2704, 0.0046, -0.1719, -0.0160, -0.0588, 0.0011, -0.0237, -0.0518, -0.0588
0, 0.0154, 0.2082, 0.0016, 0.2026, 0.0059, -0.1437, -0.0174, -0.0714, 0.0012, -0.0260, -0.0568, -0.1080
0, 0.0166, 0.1100, 0.0011, 0.0764, 0.0066, -0.1788, -0.0182, -0.0700, 0.0012, -0.0139, -0.0597, -0.0919
0, 0.0181, 0.0433, 0.0014, 0.2044, 0.0056, -0.2909, -0.0200, -0.0816, 0.0012, -0.0138, -0.0647, -0.0813
0, 0.0162, 0.4901, 0.0014, 0.4096, 0.0061, -0.1902, -0.0203, -0.0270, 0.0015, -0.0557, -0.0659, 0.0282
0, 0.0204, 0.4080, 0.0014, 0.3627, 0.0086, -0.2896, -0.0235, -0.0968, 0.0016, -0.0504, -0.0769, -0.1101
0, 0.0152, 0.7009, 0.0014, 0.4567, 0.0066, -0.3661, -0.0209, -0.0550, 0.0017, -0.0659, -0.0678, -0.0758
0, 0.0176, 0.7172, 0.0003, 0.2671, 0.0093, -0.2260, -0.0222, -0.0608, 0.0018, -0.0692, -0.0733, -0.0574
0, 0.0157, -0.1079, 0.0002, -0.0800, 0.0067, 0.1792, -0.0179, -0.0028, 0.0013, 0.0156, -0.0587, -0.0453
0, 0.0214, -0.2862, 0.0007, -0.0215, 0.0089, -0.1384, -0.0230, -0.0686, 0.0015, 0.0288, -0.0754, -0.1141
0, 0.0179, -0.0230, 0.0015, 0.1671, 0.0056, -0.2114, -0.0212, -0.0944, 0.0014, -0.0039, -0.0683, -0.0971
0, 0.0175, 0.4149, 0.0019, 0.4403, 0.0055, -0.2186, -0.0209, -0.1018, 0.0014, -0.0419, -0.0675, -0.1759
0, 0.0166, 0.3139, 0.0011, 0.4410, 0.0052, -0.3520, -0.0234, 0.0427, 0.0018, -0.0232, -0.0793, 1.2984
0, 0.0143, 0.9665, 0.0009, 0.6135, 0.0076, -0.1603, -0.0203, 0.0275, 0.0017, -0.0785, -0.0680, 0.9098
0, 0.0183, 0.4723, 0.0018, 0.5614, 0.0073, -0.6341, -0.0220, -0.0823, 0.0016, -0.0713, -0.0717, 0.0848
0, 0.0175, 0.5335, 0.0016, 0.2837, 0.0064, -0.2064, -0.0209, -0.0710, 0.0014, -0.0536, -0.0677, -0.0865
0, 0.0164, 0.4876, 0.0009, 0.3508, 0.0069, -0.3643, -0.0196, -0.0720, 0.0014, -0.0502, -0.0642, -0.0461
0, 0.0169, 0.3538, 0.0011, 0.3115, 0.0060, -0.3341, -0.0199, -0.0546, 0.0014, -0.0426, -0.0645, 0.0072
0, 0.0169, 0.3666, 0.0011, 0.3468, 0.0059, -0.2814, -0.0195, -0.0561, 0.0013, -0.0412, -0.0634, -0.0241
0, 0.0159, 0.5318, 0.0012, 0.4681, 0.0062, -0.3238, -0.0197, -0.0458, 0.0014, -0.0522, -0.0641, -0.0347
0, 0.0149, 0.6495, 0.0013, 0.5053, 0.0065, -0.3630, -0.0194, -0.0226, 0.0015, -0.0608, -0.0631, -0.0021
0, 0.0122, 0.5710, 0.0010, 0.3676, 0.0059, -0.3401, -0.0160, -0.0538, 0.0013, -0.0494, -0.0524, -0.0783
0, 0.0141, 0.3425, 0.0009, 0.1957, 0.0061, -0.3064, -0.0169, -0.0206, 0.0012, -0.0345, -0.0552, 0.0360
0, 0.0135, 0.2032, 0.0007, 0.1584, 0.0046, -0.2915, -0.0155, -0.0349, 0.0010, -0.0179, -0.0502, -0.0214
0, 0.0122, 0.1149, 0.0004, 0.1125, 0.0041, -0.1455, -0.0133, -0.0118, 0.0009, -0.0058, -0.0434, -0.0283
0, 0.0118, 0.1857, 0.0009, 0.3293, 0.0029, -0.3143, -0.0135, -0.0162, 0.0009, -0.0208, -0.0432, 0.0257
0, 0.0117, 0.1725, 0.0005, 0.1527, 0.0052, -0.0283, -0.0125, 0.0014, 0.0008, -0.0084, -0.0414, -0.0624
0, 0.0089, 0.1795, -0.0003, -0.1601, 0.0014, -0.4677, -0.0113, -0.0150, 0.0008, -0.0211, -0.0599, 0.1290
0, 0.0083, 0.0678, 0.0005, 0.2685, 0.0018, -0.4384, -0.0121, -0.0278, 0.0009, 0.0088, -0.0382, -0.1012
0, 0.0097, 0.4852, 0.0003, 0.2994, 0.0050, -0.0380, -0.0123, 0.0735, 0.0010, -0.0349, -0.0406, 0.0501
0, 0.0095, 0.2638, 0.0007, 0.3255, 0.0049, -0.4326, -0.0125, -0.0044, 0.0010, -0.0234, -0.0412, 0.0266
0, 0.0084, -0.2297, 0.0005, 0.0591, 0.0054, -0.0886, -0.0124, 0.0462, 0.0010, -0.0121, -0.0409, 0.0359
0, 0.0077, 0.0082, 0.0002, 0.1027, 0.0015, -0.0918, -0.0083, 0.0282, 0.0005, 0.0034, -0.0265, 0.0184
0, 0.0086, 0.1137, 0.0004, 0.2635, 0.0027, -0.2066, -0.0094, 0.0293, 0.0006, -0.0100, -0.0306, 0.0431
0, 0.0073, 0.2203, 0.0008, 0.3032, 0.0024, -0.2114, -0.0088, 0.0208, 0.0006, -0.0159, -0.0285, -0.0138
0, 0.0070, 0.2594, 0.0009, 0.2773, 0.0032, -0.2310, -0.0087, 0.0357, 0.0006, -0.0211, -0.0284, 0.0328
0, 0.0075, 0.1685, 0.0008, 0.1621, 0.0035, -0.2261, -0.0091, 0.0275, 0.0007, -0.0143, -0.0298, 0.0452
0, 0.0061, -0.0470, -0.0001, 0.0230, 0.0018, -0.1429, -0.0061, 0.0034, 0.0004, 0.0040, -0.0199, 0.0186
0, 0.0057, 0.1014, 0.0002, 0.1858, 0.0012, -0.2039, -0.0065, 0.0221, 0.0004, -0.0072, -0.0209, 0.0131
0, 0.0078, 0.0023, 0.0002, 0.0160, 0.0026, -0.2013, -0.0090, 0.0352, 0.0006, 0.0009, -0.0291, 0.0757
0, 0.0069, -0.0408, -0.0002, -0.0162, 0.0029, -0.1051, -0.0072, 0.0314, 0.0005, 0.0067, -0.0238, 0.0406
0, 0.0047, 0.0827, 0.0006, 0.1367, 0.0017, -0.1308, -0.0047, 0.0044, 0.0003, -0.0092, -0.0153, 0.0078
0, 0.0037, 0.1181, 0.0007, 0.1794, 0.0009, -0.2366, -0.0044, 0.0161, 0.0003, -0.0108, -0.0141, 0.0205
0, 0.0034, 0.1901, 0.0006, 0.1822, 0.0010, -0.1967, -0.0039, 0.0224, 0.0002, -0.0165, -0.0126, 0.0164
0, 0.0034, 0.1742, 0.0005, 0.1763, 0.0013, -0.2359, -0.0041, 0.0189, 0.0003, -0.0167, -0.0132, 0.0313
0, 0.0031, 0.1198, 0.0003, 0.1012, 0.0015, -0.1792, -0.0035, 0.0102, 0.0002, -0.0109, -0.0116, 0.0145
0, 0.0031, 0.0013, 0.0002, 0.0150, 0.0016, -0.1579, -0.0033, 0.0010, 0.0002, -0.0016, -0.0110, 0.0256
0, 0.0021, 0.0000, 0.0001, 0.0188, 0.0008, -0.1652, -0.0025, 0.0190, 0.0002, -0.0004, -0.0082, 0.0462
0, 0.0018, 0.0322, -0.0000, 0.0496, 0.0006, -0.1612, -0.0020, 0.0087, 0.0001, -0.0033, -0.0063, 0.0209
0, 0.0012, 0.0276, -0.0000, 0.0670, 0.0003, -0.1613, -0.0012, 0.0032, 0.0001, -0.0041, -0.0037, 0.0195
0, 0.0011, 0.0195, -0.0000, 0.0708, 0.0003, -0.1488, -0.0010, -0.0023, 0.0000, -0.0045, -0.0031, 0.0185
0, 0.0005, 0.0073, 0.0000, 0.0713, 0.0001, -0.1513, -0.0004, -0.0009, 0.0000, -0.0039, -0.0012, 0.0269
1, 0.0002, 0.0190, 0.0001, 0.0738, -0.0001, -0.1473, -0.0000, -0.0080, -0.0000, -0.0043, 0.0001, 0.0044
1, -0.0008, 0.0057, -0.0001, 0.0510, -0.0004, -0.1188, 0.0009, 0.0015, 0.0001, -0.0028, -0.0007, -0.0164
1, -0.0018, -0.0935, -0.0006, 0.0184, -0.0004, -0.1203, 0.0016, -0.0044, 0.0002, 0.0067, -0.0014, -0.0089
1, -0.0037, -0.1500, -0.0013, -0.0223, -0.0004, -0.0820, 0.0030, 0.0054, 0.0004, 0.0134, -0.0025, -0.0104
1, -0.0054, -0.2264, -0.0019, -0.0709, -0.0006, -0.0339, 0.0042, 0.0152, 0.0005, 0.0222, -0.0035, -0.0110
1, -0.0076, -0.1360, -0.0027, -0.0356, -0.0010, -0.0356, 0.0060, 0.0107, 0.0007, 0.0131, -0.0050, -0.0093
1, -0.0091, -0.1223, -0.0031, -0.0018, -0.0014, -0.1035, 0.0072, -0.0078, 0.0009, 0.0102, -0.0060, -0.0035
1, -0.0117, -0.3680, -0.0042, -0.1241, -0.0012, -0.0248, 0.0092, 0.0007, 0.0012, 0.0368, -0.0076, 0.0019
1, -0.0142, -0.1394, -0.0050, -0.0569, -0.0018, -0.0008, 0.0111, 0.0197, 0.0014, 0.0144, -0.0092, -0.0142
1, -0.0164, -0.3493, -0.0058, -0.0961, -0.0020, -0.0711, 0.0126, 0.0179, 0.0016, 0.0342, -0.0105, -0.0195
1, -0.0180, -0.4113, -0.0064, -0.1581, -0.0018, 0.0114, 0.0139, 0.0154, 0.0018, 0.0431, -0.0115, -0.0067
1, -0.0190, -0.3147, -0.0066, -0.1228, -0.0025, 0.0085, 0.0150, 0.0072, 0.0018, 0.0335, -0.0124, -0.0017
1, -0.0223, -0.3774, -0.0079, -0.1694, -0.0027, 0.0624, 0.0170, 0.0273, 0.0022, 0.0413, -0.0141, -0.0145
1, -0.0243, -0.4890, -0.0085, -0.2323, -0.0031, 0.1253, 0.0188, 0.0130, 0.0024, 0.0556, -0.0156, 0.0055
1, -0.0243, -0.6197, -0.0086, -0.2196, -0.0027, -0.0048, 0.0189, 0.0169, 0.0024, 0.0671, -0.0156, -0.0126
1, -0.0263, -0.2954, -0.0091, -0.1688, -0.0036, 0.1103, 0.0206, 0.0198, 0.0025, 0.0355, -0.0172, -0.0052
1, -0.0315, -0.9180, -0.0114, -0.4345, -0.0029, 0.2360, 0.0234, 0.0445, 0.0031, 0.1091, -0.0194, -0.0069
1, -0.0193, -1.2287, -0.0129, -0.1655, 0.0003, 0.3339, 0.0266, -0.0056, 0.0019, 0.1514, -0.0219, -0.0051
1, -0.0245, -0.7142, -0.0094, -0.3540, -0.0008, 0.1972, 0.0187, 0.0455, 0.0024, 0.0900, -0.0153, -0.0052
1, -0.0218, -1.9608, -0.0089, -0.8840, 0.0010, 0.4380, 0.0168, 0.0882, 0.0022, 0.2431, -0.0265, -0.0309
1, -0.0404, -1.2004, -0.0154, -0.2938, -0.0012, -0.2354, 0.0311, -0.0287, 0.0040, 0.1349, -0.0253, -0.0052
1, -0.0398, -0.9143, -0.0149, -0.6279, -0.0026, 0.5660, 0.0311, 0.1042, 0.0039, 0.1300, -0.0255, -0.0137
1, -0.0449, -0.9654, -0.0166, -0.4521, -0.0034, 0.2346, 0.0331, 0.0133, 0.0044, 0.1266, -0.0273, 0.0147
1, -0.0426, -1.3495, -0.0159, -0.5891, -0.0026, 0.2931, 0.0328, 0.0479, 0.0042, 0.1763, -0.0269, -0.0075
1, -0.0517, -0.5046, -0.0191, -0.2215, -0.0034, 0.0169, 0.0388, 0.0367, 0.0051, 0.0631, -0.0319, -0.0353
1, -0.0499, -1.5225, -0.0190, -0.5955, -0.0021, 0.1713, 0.0385, 0.0080, 0.0049, 0.1986, -0.0314, 0.0076
1, -0.0556, -0.9202, -0.0211, -0.4680, -0.0026, 0.2499, 0.0424, 0.0801, 0.0055, 0.1258, -0.0347, -0.0395
1, -0.0372, -1.4229, -0.0145, -0.8943, -0.0009, 0.7553, 0.0278, 0.1135, 0.0037, 0.2137, -0.0227, 0.0012
1, -0.0432, -1.2076, -0.0156, -0.8709, -0.0042, 0.8813, 0.0316, 0.1266, 0.0042, 0.1912, -0.0261, -0.0012
1, -0.0401, -1.2689, -0.0148, -0.4418, -0.0026, 0.1625, 0.0311, -0.0159, 0.0039, 0.1690, -0.0255, 0.0173
1, -0.0504, -0.1309, -0.0176, -0.3932, -0.0055, 0.4953, 0.0371, 0.0421, 0.0049, 0.0414, -0.0308, 0.0247
1, -0.0435, -1.7809, -0.0166, -0.7088, -0.0026, 0.2547, 0.0338, 0.0033, 0.0042, 0.2406, -0.0278, 0.0068
1, -0.0497, -0.4286, -0.0193, -0.2901, -0.0006, 0.6803, 0.0214, 0.0567, 0.0049, 0.0671, -0.0308, 0.0124
1, -0.0459, -0.8905, -0.0169, -0.4400, -0.0030, 0.2203, 0.0354, 0.0306, 0.0045, 0.1241, -0.0291, -0.0131
1, -0.0258, -1.1988, -0.0098, -0.7700, -0.0010, 0.7243, 0.0199, 0.0727, 0.0025, 0.1835, -0.0162, 0.0131
1, -0.0313, -0.7145, -0.0111, -0.6302, -0.0031, 0.6702, 0.0227, 0.0581, 0.0031, 0.1207, -0.0188, 0.0177
1, -0.0304, -0.4326, -0.0108, -0.1660, -0.0034, -0.0274, 0.0233, -0.0579, 0.0029, 0.0570, -0.0193, 0.0326
1, -0.0316, -0.8512, -0.0114, -0.6502, -0.0027, 0.7019, 0.0240, 0.0601, 0.0031, 0.1365, -0.0198, 0.0161
1, -0.0331, -0.3883, -0.0111, -0.3482, -0.0047, 0.3069, 0.0241, -0.0046, 0.0032, 0.0644, -0.0201, 0.0284
1, -0.0273, -0.8007, -0.0105, -0.3627, -0.0014, 0.1626, 0.0216, 0.0137, 0.0027, 0.1069, -0.0177, -0.0095
1, -0.0282, -0.1713, -0.0104, -0.1926, -0.0018, 0.1837, 0.0216, -0.0317, 0.0027, 0.0315, -0.0177, 0.0384
1, -0.0279, -0.1142, -0.0092, -0.1630, -0.0044, 0.0462, 0.0204, 0.0011, 0.0027, 0.0193, -0.0171, -0.0010
1, -0.0196, -0.7813, -0.0079, -0.3307, -0.0006, 0.1196, 0.0169, -0.0195, 0.0019, 0.1017, -0.0137, 0.0111
1, -0.0243, 0.0360, -0.0082, -0.1951, -0.0027, 0.2579, 0.0173, 0.0345, 0.0024, 0.0075, -0.0144, -0.0026
1, -0.0167, -0.1540, -0.0059, -0.3646, -0.0014, 0.4957, 0.0120, 0.0348, 0.0016, 0.0396, -0.0099, 0.0170
1, -0.0178, -0.2987, -0.0059, -0.1890, -0.0027, 0.0144, 0.0127, -0.0384, 0.0017, 0.0405, -0.0106, 0.0225
1, -0.0170, -0.0656, -0.0061, -0.0894, -0.0018, -0.0122, 0.0131, -0.0166, 0.0016, 0.0102, -0.0108, 0.0078
1, -0.0154, -0.1768, -0.0057, -0.1001, -0.0010, -0.0218, 0.0121, -0.0213, 0.0015, 0.0226, -0.0099, 0.0082
1, -0.0145, -0.1182, -0.0053, -0.1384, -0.0009, 0.0505, 0.0113, -0.0205, 0.0014, 0.0190, -0.0092, 0.0150
1, -0.0120, -0.1237, -0.0046, -0.0875, -0.0003, -0.0699, 0.0095, -0.0232, 0.0012, 0.0153, -0.0078, 0.0047
1, -0.0099, 0.0652, -0.0039, 0.0330, -0.0001, -0.1759, 0.0082, -0.0524, 0.0010, -0.0105, -0.0066, 0.0211
1, -0.0054, -0.0357, -0.0017, -0.0926, -0.0009, -0.0304, 0.0039, -0.0167, 0.0005, 0.0065, -0.0032, 0.0054
1, -0.0046, -0.0993, -0.0015, -0.1140, -0.0007, 0.0120, 0.0035, -0.0207, 0.0004, 0.0151, -0.0029, 0.0124
1, -0.0027, -0.0197, -0.0008, -0.0568, -0.0003, -0.0605, 0.0021, -0.0266, 0.0002, 0.0033, -0.0018, 0.0114
1, -0.0020, 0.0019, -0.0005, -0.0617, -0.0002, -0.0533, 0.0015, -0.0306, 0.0002, 0.0013, -0.0012, 0.0155
1, 0.0001, -0.0088, 0.0002, -0.0541, -0.0000, -0.0783, 0.0001, -0.0218, -0.0000, 0.0015, -0.0001, 0.0059
1, 0.0001, 0.0008, 0.0002, -0.0585, 0.0000, -0.0565, -0.0001, -0.0179, -0.0000, 0.0014, 0.0001, 0.0053
1, 0.0021, 0.0164, 0.0009, -0.0479, 0.0002, -0.0679, -0.0015, -0.0357, -0.0001, 0.0005, 0.0012, 0.0183
1, 0.0042, 0.0509, 0.0018, -0.0400, 0.0002, -0.0719, -0.0032, -0.0373, -0.0002, -0.0034, 0.0026, 0.0198
1, 0.0037, 0.0687, 0.0017, -0.0222, 0.0001, -0.1004, -0.0029, -0.0210, -0.0002, -0.0080, 0.0024, 0.0051
1, 0.0050, 0.1234, 0.0020, 0.0429, 0.0006, -0.1991, -0.0038, -0.0403, -0.0003, -0.0171, 0.0031, 0.0117
1, 0.0083, 0.1518, 0.0030, 0.0702, 0.0012, -0.2190, -0.0058, -0.0397, -0.0005, -0.0216, 0.0048, 0.0098
1, 0.0106, 0.1587, 0.0043, 0.0007, 0.0006, -0.0957, -0.0081, -0.0317, -0.0006, -0.0174, 0.0066, 0.0156
1, 0.0140, -0.0293, 0.0054, -0.0754, 0.0013, -0.0492, -0.0104, -0.0393, -0.0008, 0.0071, 0.0085, 0.0223
1, 0.0166, 0.1679, 0.0064, 0.0118, 0.0014, -0.1119, -0.0127, -0.0338, -0.0009, -0.0191, 0.0104, 0.0159
1, 0.0174, 0.1473, 0.0068, 0.0148, 0.0014, -0.1224, -0.0134, -0.0603, -0.0009, -0.0151, 0.0109, 0.0353
1, 0.0176, 0.0999, 0.0070, -0.0684, 0.0013, 0.0000, -0.0139, -0.0217, -0.0009, -0.0070, 0.0113, 0.0168
1, 0.0192, 0.3832, 0.0078, 0.1608, 0.0006, -0.3069, -0.0151, -0.0596, -0.0010, -0.0512, 0.0122, 0.0207
1, 0.0173, 0.4420, 0.0066, 0.2555, 0.0016, -0.4221, -0.0127, -0.0633, -0.0010, -0.0641, 0.0104, 0.0126
1, 0.0182, 0.6251, 0.0073, 0.3207, 0.0010, -0.4687, -0.0141, -0.0814, -0.0010, -0.0865, 0.0114, 0.0252
1, 0.0262, 0.0764, 0.0097, 0.0532, 0.0028, -0.2020, -0.0188, -0.0540, -0.0015, -0.0118, 0.0154, 0.0210
1, 0.0239, 0.8094, 0.0109, 0.1341, -0.0016, -0.0631, -0.0201, -0.0282, -0.0013, -0.0941, 0.0159, 0.0280
1, 0.0329, -0.2347, 0.0119, 0.0980, 0.0036, -0.4579, -0.0238, -0.1085, -0.0018, 0.0180, 0.0196, 0.0311
1, 0.0330, 0.7361, 0.0130, 0.1358, 0.0022, -0.0148, -0.0255, 0.0134, -0.0018, -0.0888, 0.0207, 0.0004
1, 0.0366, 0.3952, 0.0150, 0.1857, 0.0009, -0.3836, -0.0287, -0.0968, -0.0020, -0.0546, 0.0231, 0.0396
1, 0.0234, 0.5911, 0.0086, 0.2683, 0.0040, -0.3309, -0.0185, -0.0601, -0.0011, -0.0814, 0.0153, 0.0185
1, 0.0335, 0.6468, 0.0126, 0.3963, 0.0032, -0.6149, -0.0245, -0.1196, -0.0019, -0.0963, 0.0200, 0.0325
1, 0.0311, 0.5240, 0.0112, 0.2222, 0.0043, -0.2947, -0.0239, -0.0265, -0.0016, -0.0748, 0.0197, -0.0048
1, 0.0410, 0.6911, 0.0161, 0.2645, 0.0023, -0.2812, -0.0310, -0.0981, -0.0023, -0.0885, 0.0252, 0.0550
1, 0.0452, 0.7155, 0.0176, 0.3497, 0.0026, -0.4461, -0.0343, -0.0815, -0.0025, -0.1016, 0.0278, 0.0224
1, 0.0470, 0.9068, 0.0187, 0.3161, 0.0018, -0.2668, -0.0363, -0.0869, -0.0026, -0.1163, 0.0293, 0.0492
1, 0.0470, 1.0365, 0.0184, 0.5752, 0.0022, -0.6357, -0.0359, -0.1652, -0.0026, -0.1455, 0.0290, 0.0649
1, 0.0516, 1.5160, 0.0202, 0.9685, 0.0014, -1.0511, -0.0383, -0.1796, -0.0030, -0.2310, 0.0309, 0.0205
1, 0.0359, 0.6662, 0.0130, 0.3717, 0.0053, -0.5710, -0.0271, -0.0566, -0.0018, -0.1032, 0.0224, -0.0178
1, 0.0420, 1.0476, 0.0155, 0.4790, 0.0041, -0.4944, -0.0314, -0.0695, -0.0023, -0.1461, 0.0257, 0.0080
1, 0.0448, 1.0610, 0.0175, 0.4623, 0.0020, -0.3732, -0.0339, -0.0450, -0.0025, -0.1449, 0.0274, 0.0008
1, 0.0415, 1.5062, 0.0167, 0.6657, 0.0005, -0.5564, -0.0322, -0.0974, -0.0023, -0.2036, 0.0259, 0.0127
1, 0.0377, 0.3410, 0.0136, 0.2595, 0.0036, -0.4661, -0.0289, -0.0825, -0.0020, -0.0542, 0.0236, 0.0095
1, 0.0389, 0.5735, 0.0139, 0.3467, 0.0052, -0.2817, -0.0291, -0.0399, -0.0020, -0.0803, 0.0240, 0.0006
1, 0.0353, 1.4628, 0.0141, 0.6241, 0.0019, -0.4573, -0.0271, -0.0798, -0.0019, -0.1882, 0.0219, 0.0159
1, 0.0384, -0.1292, 0.0145, -0.1562, 0.0030, 0.0580, -0.0293, 0.0219, -0.0021, 0.0185, 0.0239, -0.0134
1, 0.0342, 1.6888, 0.0136, 0.7529, 0.0003, -0.4999, -0.0261, -0.0952, -0.0019, -0.2124, 0.0209, 0.0165
1, 0.0239, 0.8134, 0.0085, 0.5294, 0.0037, -0.6699, -0.0173, -0.0846, -0.0013, -0.1137, 0.0143, -0.0155
1, 0.0289, 0.1346, 0.0105, 0.0240, 0.0034, -0.0316, -0.0210, -0.0149, -0.0016, -0.0145, 0.0173, 0.0076
1, 0.0300, 0.8049, 0.0118, 0.2294, 0.0010, -0.0155, -0.0228, 0.0112, -0.0017, -0.0913, 0.0184, -0.0105
1, 0.0281, 1.4852, 0.0117, 0.7981, -0.0011, -0.6963, -0.0212, -0.1170, -0.0017, -0.1836, 0.0168, 0.0015
1, 0.0280, 0.5648, 0.0110, 0.5170, 0.0013, -0.7171, -0.0206, -0.1135, -0.0016, -0.0820, 0.0167, -0.0128
1, 0.0194, 0.3264, 0.0072, 0.2061, 0.0016, -0.2390, -0.0148, -0.0224, -0.0011, -0.0419, 0.0120, -0.0147
1, 0.0185, 0.4035, 0.0070, 0.2140, 0.0016, -0.1994, -0.0141, -0.0128, -0.0010, -0.0490, 0.0115, -0.0199
1, 0.0151, 0.4485, 0.0056, 0.2199, 0.0015, -0.1962, -0.0120, -0.0414, -0.0008, -0.0507, 0.0098, 0.0031
1, 0.0196, 1.5792, 0.0082, 0.7424, -0.0009, -0.5027, -0.0140, -0.0774, -0.0012, -0.1737, 0.0112, -0.0019
1, 0.0174, 0.3919, 0.0072, 0.3402, -0.0003, -0.4577, -0.0130, -0.0830, -0.0010, -0.0517, 0.0104, -0.0086
1, 0.0156, 0.4267, 0.0060, 0.3122, 0.0010, -0.4046, -0.0115, -0.0640, -0.0009, -0.0525, 0.0093, -0.0111
1, 0.0138, 0.1763, 0.0052, 0.0436, 0.0008, -0.0174, -0.0101, -0.0027, -0.0008, -0.0183, 0.0082, -0.0075
1, 0.0118, 0.3443, 0.0046, 0.1874, 0.0002, -0.1581, -0.0090, -0.0185, -0.0007, -0.0380, 0.0073, -0.0116
1, 0.0108, 0.2993, 0.0044, 0.2031, -0.0001, -0.2274, -0.0080, -0.0302, -0.0006, -0.0348, 0.0064, -0.0123
1, 0.0082, 0.2608, 0.0032, 0.2234, 0.0003, -0.3290, -0.0062, -0.0408, -0.0005, -0.0325, 0.0050, -0.0146
1, 0.0052, 0.0981, 0.0021, 0.1269, 0.0001, -0.2081, -0.0038, -0.0251, -0.0003, -0.0137, 0.0030, -0.0062
1, 0.0042, 0.1139, 0.0017, 0.1053, 0.0001, -0.1719, -0.0030, -0.0052, -0.0002, -0.0151, 0.0024, -0.0195
1, 0.0031, 0.0547, 0.0012, 0.0814, -0.0000, -0.1536, -0.0022, -0.0194, -0.0002, -0.0082, 0.0018, -0.0040
1, 0.0016, 0.0724, 0.0007, 0.1055, -0.0002, -0.1876, -0.0011, -0.0101, -0.0001, -0.0112, 0.0008, -0.0155
2, 0.0004, 0.0055, 0.0003, 0.0577, -0.0003, -0.1368, -0.0001, -0.0164, -0.0000, -0.0031, 0.0000, -0.0035
2, 0.0004, -0.0587, 0.0000, -0.0103, -0.0004, -0.0561, 0.0000, -0.0072, 0.0000, 0.0077, 0.0003, 0.0158
2, 0.0016, -0.1281, -0.0012, -0.0426, -0.0003, -0.0455, 0.0007, -0.0046, 0.0003, 0.0154, 0.0021, 0.0204
2, 0.0024, -0.0894, -0.0022, -0.0336, -0.0000, -0.0205, 0.0013, 0.0026, 0.0006, 0.0142, 0.0039, 0.0304
2, 0.0024, -0.1374, -0.0024, -0.0096, -0.0000, -0.0852, 0.0014, -0.0158, 0.0007, 0.0123, 0.0041, 0.0061
2, 0.0047, -0.1229, -0.0061, -0.0331, 0.0002, -0.0761, 0.0028, -0.0058, 0.0014, 0.0169, 0.0083, 0.0318
2, 0.0052, -0.1233, -0.0065, -0.0267, 0.0006, -0.0557, 0.0033, -0.0096, 0.0017, 0.0128, 0.0098, 0.0106
2, 0.0063, -0.1064, -0.0083, -0.0361, 0.0007, -0.0086, 0.0040, -0.0001, 0.0021, 0.0136, 0.0120, 0.0174
2, 0.0063, -0.1062, -0.0084, -0.0457, 0.0007, 0.0021, 0.0041, 0.0004, 0.0021, 0.0132, 0.0123, 0.0130
2, 0.0062, -0.0942, -0.0076, -0.0127, 0.0013, 0.0947, 0.0043, 0.0073, 0.0022, 0.0086, 0.0128, -0.0064
2, 0.0075, -0.0711, -0.0105, -0.0898, 0.0007, 0.0848, 0.0049, 0.0111, 0.0026, 0.0103, 0.0147, 0.0020
2, 0.0075, -0.0904, -0.0092, -0.0239, 0.0021, 0.1484, 0.0053, 0.0270, 0.0027, 0.0174, 0.0154, 0.0313
2, 0.0086, 0.0580, -0.0111, -0.1388, 0.0022, 0.3664, 0.0062, 0.0587, 0.0032, 0.0047, 0.0182, 0.0095
2, 0.0095, -0.0572, -0.0135, -0.1565, 0.0014, 0.1212, 0.0061, 0.0350, 0.0031, 0.0233, 0.0179, 0.0560
2, 0.0083, 0.0426, -0.0103, -0.0338, 0.0026, 0.4986, 0.0067, 0.0744, 0.0035, 0.0053, 0.0196, 0.0078
2, 0.0109, 0.1320, -0.0157, -0.2557, 0.0017, 0.4498, 0.0077, 0.0667, 0.0040, -0.0042, 0.0227, -0.0228
2, 0.0134, 0.0328, -0.0182, -0.0093, 0.0037, 0.5200, 0.0098, 0.0786, 0.0050, 0.0069, 0.0283, 0.0091
2, 0.0145, 0.0427, -0.0202, -0.2050, 0.0039, 0.3398, 0.0103, 0.0533, 0.0053, 0.0065, 0.0296, -0.0040
2, 0.0155, -0.1143, -0.0240, -0.1947, 0.0020, 0.0724, 0.0106, 0.0075, 0.0056, 0.0180, 0.0313, -0.0100
2, 0.0131, -0.0674, -0.0198, -0.0673, 0.0023, 0.3079, 0.0104, 0.0459, 0.0056, 0.0180, 0.0309, 0.0119
2, 0.0178, 0.0591, -0.0276, -0.2700, 0.0028, 0.2888, 0.0132, 0.0380, 0.0071, 0.0002, 0.0390, -0.0347
2, 0.0144, -0.3321, -0.0193, -0.0637, 0.0050, -0.1468, 0.0098, 0.0086, 0.0048, 0.0630, 0.0275, 0.1243
2, 0.0113, 0.1547, -0.0151, -0.0907, 0.0045, 0.6273, 0.0096, 0.0964, 0.0051, -0.0023, 0.0276, -0.0029
2, 0.0120, 0.4086, -0.0187, -0.2925, 0.0029, 0.8059, 0.0104, 0.1331, 0.0057, -0.0215, 0.0307, -0.0062
2, 0.0153, 0.0768, -0.0265, -0.3194, 0.0015, 0.2880, 0.0121, 0.0400, 0.0067, -0.0005, 0.0364, -0.0359
2, 0.0143, -0.5884, -0.0264, -0.2161, 0.0012, -0.2533, 0.0116, -0.0517, 0.0065, 0.0595, 0.0351, -0.0314
2, 0.0142, -0.6488, -0.0223, 0.1406, 0.0039, 0.0579, 0.0118, -0.0254, 0.0063, 0.0533, 0.0345, -0.0635
2, 0.0152, -0.0031, -0.0210, -0.0011, 0.0061, 0.5608, 0.0126, 0.0885, 0.0066, 0.0126, 0.0360, 0.0051
2, 0.0169, 0.0618, -0.0260, -0.3771, 0.0045, 0.3612, 0.0129, 0.0601, 0.0068, 0.0052, 0.0375, -0.0198
2, 0.0167, -0.2421, -0.0284, -0.0735, 0.0051, 0.5600, 0.0148, 0.0811, 0.0081, 0.0306, 0.0432, -0.0188
2, 0.0203, -0.5534, -0.0325, -0.6239, 0.0057, -0.0380, 0.0160, -0.0014, 0.0084, 0.0598, 0.0462, -0.0076
2, 0.0275, -0.5817, -0.0403, -0.4122, 0.0068, -0.0090, 0.0180, -0.0037, 0.0090, 0.0532, 0.0514, -0.0176
2, 0.0267, -0.1651, -0.0392, 0.1359, 0.0084, 0.7502, 0.0195, 0.1050, 0.0100, 0.0118, 0.0557, -0.0434
2, 0.0372, -0.2998, -0.0507, -0.5121, 0.0094, -0.4287, 0.0237, -0.0904, 0.0118, 0.0068, 0.0676, -0.0721
2, 0.0302, -0.0520, -0.0434, -1.0107, 0.0066, 0.5606, 0.0196, 0.0942, 0.0099, 0.0059, 0.0564, -0.0608
2, 0.0159, 0.1530, -0.0280, 0.7731, 0.0061, 0.2440, 0.0148, 0.0251, 0.0079, -0.0163, 0.0424, -0.0079
2, 0.0180, -0.6036, -0.0254, -0.3975, 0.0078, 0.7615, 0.0148, 0.1275, 0.0076, 0.0425, 0.0417, -0.0087
2, 0.0165, -0.0632, -0.0268, -0.5026, 0.0065, 0.4583, 0.0141, 0.0710, 0.0073, -0.0025, 0.0402, -0.0455
2, 0.0168, -0.4736, -0.0272, -0.2024, 0.0072, 0.7901, 0.0148, 0.1182, 0.0077, 0.0192, 0.0420, -0.0450
2, 0.0242, 0.1796, -0.0318, -0.5411, 0.0074, 0.0744, 0.0158, -0.0055, 0.0078, -0.0196, 0.0445, -0.0288
2, 0.0252, -0.1893, -0.0370, -0.8549, 0.0052, 0.2751, 0.0161, 0.0459, 0.0082, 0.0013, 0.0466, -0.0401
2, 0.0236, -0.1660, -0.0362, -0.2449, 0.0051, 0.5964, 0.0158, 0.0822, 0.0081, -0.0094, 0.0457, -0.0670
2, 0.0238, -0.0406, -0.0332, -0.3632, 0.0069, 0.5433, 0.0160, 0.0800, 0.0080, -0.0141, 0.0455, -0.0525
2, 0.0275, -0.0299, -0.0186, 0.4462, 0.0047, 0.5899, 0.0171, 0.0032, 0.0054, 0.0065, 0.0491, -0.0656
2, 0.0185, -0.4743, -0.0320, -0.0663, 0.0052, 0.2938, 0.0146, 0.0391, 0.0076, 0.0137, 0.0419, -0.0274
2, 0.0093, -0.6915, -0.0150, 0.1684, 0.0042, 0.2976, 0.0085, 0.0323, 0.0044, 0.0221, 0.0410, -0.0553
2, 0.0197, -0.6661, -0.0296, 0.0420, 0.0060, 0.5276, 0.0143, 0.0665, 0.0072, 0.0110, 0.0407, -0.0575
2, 0.0191, 0.4365, -0.0255, -0.6961, 0.0032, 0.1382, 0.0113, 0.0164, 0.0058, -0.0364, 0.0330, -0.0524
2, 0.0168, -0.5097, -0.0258, -0.1857, 0.0041, 0.1717, 0.0110, 0.0265, 0.0055, 0.0176, 0.0314, -0.0040
2, 0.0154, 0.1687, -0.0240, -0.2944, 0.0030, 0.2792, 0.0105, 0.0365, 0.0054, -0.0238, 0.0305, -0.0442
2, 0.0074, -0.1244, -0.0240, -0.1832, 0.0035, 0.1496, 0.0069, 0.0191, 0.0053, -0.0149, 0.0302, -0.0520
2, 0.0095, -0.0044, -0.0136, -0.2423, 0.0033, 0.3266, 0.0069, 0.0375, 0.0035, -0.0211, 0.0195, -0.0602
2, 0.0072, -0.1966, -0.0111, -0.1662, 0.0024, 0.2698, 0.0055, 0.0474, 0.0028, 0.0021, 0.0157, 0.0065
2, 0.0065, -0.0698, -0.0110, -0.1844, 0.0034, 0.4444, 0.0059, 0.0638, 0.0030, -0.0164, 0.0165, -0.0355
2, 0.0090, 0.1054, -0.0118, -0.4041, 0.0041, 0.3510, 0.0063, 0.0577, 0.0030, -0.0187, 0.0174, -0.0129
2, 0.0112, -0.1085, -0.0147, -0.3956, 0.0029, -0.0409, 0.0065, -0.0161, 0.0032, -0.0051, 0.0184, -0.0352
2, 0.0096, -0.0902, -0.0150, -0.4909, 0.0020, 0.1734, 0.0062, 0.0208, 0.0031, -0.0119, 0.0178, -0.0328
2, 0.0069, -0.1348, -0.0134, -0.0893, 0.0023, 0.2670, 0.0057, 0.0368, 0.0029, -0.0073, 0.0163, -0.0229
2, 0.0031, -0.2009, -0.0043, -0.1684, 0.0027, 0.2182, 0.0032, 0.0349, 0.0015, -0.0002, 0.0083, -0.0034
2, 0.0027, 0.0304, -0.0045, -0.3031, 0.0024, 0.2154, 0.0029, 0.0278, 0.0014, -0.0161, 0.0077, -0.0301
2, 0.0036, -0.0601, -0.0052, -0.2298, 0.0021, 0.1532, 0.0028, 0.0201, 0.0013, -0.0080, 0.0074, -0.0191
2, 0.0029, -0.0446, -0.0047, -0.1971, 0.0016, 0.1073, 0.0023, 0.0084, 0.0011, -0.0097, 0.0063, -0.0315
2, 0.0025, -0.0026, -0.0040, -0.2069, 0.0013, 0.1188, 0.0018, 0.0160, 0.0009, -0.0082, 0.0049, -0.0143
2, 0.0007, -0.0595, -0.0017, -0.1285, 0.0010, 0.1497, 0.0009, 0.0167, 0.0004, -0.0086, 0.0049, -0.0337
2, 0.0005, 0.0429, -0.0010, -0.1214, 0.0011, 0.0829, 0.0006, 0.0107, 0.0002, -0.0077, 0.0013, -0.0118
2, 0.0002, -0.0075, -0.0001, -0.1356, 0.0009, 0.0677, 0.0002, 0.0080, -0.0000, -0.0053, 0.0002, -0.0115
2, -0.0002, -0.0087, 0.0000, -0.1458, 0.0008, 0.0351, 0.0001, 0.0046, -0.0000, -0.0032, -0.0001, -0.0055
2, -0.0009, 0.0078, 0.0010, -0.1447, 0.0005, 0.0329, -0.0005, -0.0002, -0.0003, -0.0067, -0.0017, -0.0194
2, -0.0015, -0.0058, 0.0018, -0.0968, 0.0002, -0.0090, -0.0010, -0.0082, -0.0006, -0.0050, -0.0030, -0.0219
2, -0.0028, 0.0125, 0.0036, -0.0988, -0.0001, 0.0276, -0.0017, 0.0012, -0.0009, -0.0047, -0.0052, -0.0119
2, -0.0036, 0.0128, 0.0049, -0.0521, -0.0002, -0.0224, -0.0024, -0.0111, -0.0013, -0.0053, -0.0070, -0.0238
2, -0.0060, -0.0149, 0.0079, -0.0384, -0.0007, 0.0304, -0.0036, 0.0038, -0.0019, -0.0015, -0.0105, -0.0042
2, -0.0058, 0.1069, 0.0090, -0.1539, -0.0004, 0.0202, -0.0040, -0.0047, -0.0022, -0.0121, -0.0075, -0.0208
2, -0.0066, -0.0460, 0.0105, -0.1586, -0.0016, -0.1422, -0.0053, -0.0366, -0.0028, -0.0044, -0.0151, -0.0417
2, -0.0034, 0.1961, 0.0065, -0.1681, -0.0013, -0.1436, -0.0038, -0.0257, -0.0021, -0.0078, -0.0110, -0.0120
2, -0.0074, -0.1583, 0.0097, -0.0075, -0.0018, -0.1414, -0.0051, -0.0239, -0.0026, 0.0102, -0.0145, 0.0014
2, -0.0074, 0.1909, 0.0098, -0.0165, -0.0018, -0.2331, -0.0052, -0.0428, -0.0027, -0.0051, -0.0148, -0.0161
2, -0.0130, -0.2173, 0.0161, 0.2861, -0.0022, 0.0831, -0.0073, 0.0081, -0.0036, 0.0071, -0.0209, -0.0086
2, -0.0119, 0.3383, 0.0179, -0.0034, -0.0014, -0.0709, -0.0077, -0.0179, -0.0040, -0.0172, -0.0226, -0.0248
2, -0.0137, -0.2034, 0.0196, 0.1036, -0.0017, -0.1489, -0.0086, -0.0184, -0.0044, 0.0180, -0.0250, 0.0258
2, -0.0128, 0.2989, 0.0195, -0.3673, -0.0027, -0.2373, -0.0092, -0.0406, -0.0048, -0.0131, -0.0265, -0.0168
2, -0.0151, -0.1279, 0.0221, -0.2588, -0.0046, -0.1743, -0.0115, -0.0391, -0.0059, 0.0001, -0.0326, -0.0349
2, -0.0184, 0.0150, 0.0241, -0.0606, -0.0029, -0.3285, -0.0124, -0.0364, -0.0062, -0.0062, -0.0350, -0.0394
2, -0.0152, -0.2077, 0.0205, 0.0451, -0.0043, -0.1353, -0.0102, -0.0219, -0.0051, 0.0134, -0.0288, 0.0074
2, -0.0118, 0.4995, 0.0175, -0.1262, -0.0035, -0.5539, -0.0095, -0.0719, -0.0049, -0.0014, -0.0272, 0.0531
2, -0.0143, -0.2026, 0.0299, -0.3351, -0.0042, -0.3659, -0.0158, -0.0642, -0.0080, -0.0271, -0.0443, -0.0566
2, -0.0204, -0.1702, 0.0288, 0.1963, -0.0070, -0.5225, -0.0157, -0.1098, -0.0080, 0.0049, -0.0442, -0.0592
2, -0.0113, 0.0707, 0.0179, 0.0903, -0.0049, -0.7041, -0.0102, -0.1181, -0.0052, 0.0080, -0.0286, 0.0033
2, -0.0191, -0.2039, 0.0220, 0.4958, -0.0071, -0.6066, -0.0121, -0.1069, -0.0057, 0.0208, -0.0331, 0.0072
2, -0.0240, -0.4348, 0.0310, 0.1016, -0.0084, -0.6052, -0.0176, -0.1873, -0.0088, -0.0244, -0.0491, -0.2568
2, -0.0273, 0.2856, 0.0325, 0.1901, -0.0134, -1.6829, -0.0197, -0.2600, -0.0093, 0.0203, -0.0530, 0.0772
2, -0.0215, 0.5690, 0.0331, 0.2148, -0.0092, -0.2975, -0.0186, -0.0667, -0.0094, -0.0381, -0.0517, -0.0537
2, -0.0190, 0.3625, 0.0261, 0.0988, -0.0071, -0.4651, -0.0140, -0.0793, -0.0069, -0.0183, -0.0389, -0.0063
2, -0.0220, -0.0738, 0.0302, 0.4201, -0.0048, -0.2022, -0.0143, -0.0487, -0.0072, -0.0011, -0.0409, -0.0252
2, -0.0284, 0.0915, 0.0402, 0.0385, -0.0066, -0.2516, -0.0184, -0.0451, -0.0092, -0.0070, -0.0523, -0.0096
2, -0.0286, 0.0861, 0.0420, -0.0747, -0.0059, -0.3520, -0.0192, -0.0795, -0.0097, -0.0197, -0.0548, -0.0719
2, -0.0283, 0.1853, 0.0406, -0.2045, -0.0090, -0.7409, -0.0211, -0.1346, -0.0107, -0.0231, -0.0595, -0.0522
2, -0.0270, 0.1729, 0.0394, 0.2959, -0.0105, -0.6525, -0.0218, -0.1468, -0.0111, -0.0396, -0.0610, -0.1112
2, -0.0274, -0.0635, 0.0411, -0.1944, -0.0090, -0.4792, -0.0217, -0.0836, -0.0111, -0.0031, -0.0614, -0.0275
2, -0.0294, 0.2211, 0.0415, 0.1824, -0.0094, -0.3697, -0.0216, -0.0816, -0.0108, -0.0350, -0.0606, -0.0629
2, -0.0296, 0.0832, 0.0429, 0.0993, -0.0092, -0.5026, -0.0215, -0.0938, -0.0108, -0.0211, -0.0605, -0.0360
2, -0.0267, -0.2006, 0.0401, -0.3698, -0.0098, -0.6761, -0.0217, -0.1256, -0.0111, -0.0016, -0.0610, -0.0735
2, -0.0239, 0.5722, 0.0331, 0.2469, -0.0061, -0.0657, -0.0146, -0.0040, -0.0070, -0.0525, -0.0407, 0.0184
2, -0.0238, 0.1751, 0.0386, 0.1805, -0.0088, -0.5482, -0.0213, -0.0840, -0.0112, -0.0263, -0.0604, 0.0128
2, -0.0252, 0.2560, 0.0379, 0.0909, -0.0079, -0.3139, -0.0196, -0.0428, -0.0101, -0.0300, -0.0556, 0.0127
2, -0.0222, -0.4533, 0.0323, -0.4678, -0.0086, -0.6970, -0.0185, -0.1060, -0.0095, 0.0369, -0.0520, -0.0232
2, -0.0190, -0.2013, 0.0309, 0.4479, -0.0052, 0.1769, -0.0115, 0.0430, -0.0056, -0.0724, -0.0478, -0.0188
2, -0.0209, 0.4896, 0.0290, 0.1107, -0.0076, 0.3697, -0.0138, 0.0727, -0.0066, -0.0407, -0.0379, 0.0337
2, -0.0189, -0.0041, 0.0248, -0.1920, -0.0089, -0.4748, -0.0140, -0.0673, -0.0068, -0.0053, -0.0382, -0.0021
2, -0.0167, -0.3432, 0.0228, 0.2161, -0.0074, -0.5851, -0.0125, -0.1063, -0.0062, 0.0136, -0.0344, -0.0245
2, -0.0177, -0.2721, 0.0250, -0.0806, -0.0070, -0.5818, -0.0130, -0.0912, -0.0064, 0.0197, -0.0360, -0.0025
2, -0.0175, -0.3312, 0.0238, 0.0016, -0.0078, -0.5236, -0.0132, -0.0945, -0.0065, 0.0193, -0.0363, -0.0327
2, -0.0162, -0.4926, 0.0233, 0.0467, -0.0062, -0.6634, -0.0127, -0.1006, -0.0065, 0.0455, -0.0356, 0.0239
2, -0.0155, -0.4275, 0.0234, -0.0365, -0.0050, -0.5950, -0.0123, -0.0900, -0.0042, 0.0029, -0.0231, 0.0368
2, -0.0116, 0.2584, 0.0182, -0.2096, -0.0033, 0.5698, -0.0081, 0.1017, -0.0040, -0.0061, -0.0225, 0.0227
2, -0.0119, 0.1956, 0.0181, -0.1631, -0.0038, 0.5885, -0.0083, 0.0886, -0.0041, -0.0092, -0.0232, -0.0202
2, -0.0105, 0.1257, 0.0154, -0.1936, -0.0040, 0.4814, -0.0076, 0.0859, -0.0037, 0.0070, -0.0209, 0.0259
2, -0.0103, -0.0829, 0.0147, -0.0836, -0.0043, 0.2406, -0.0075, 0.0302, -0.0037, 0.0132, -0.0207, -0.0153
2, -0.0100, -0.0209, 0.0145, -0.1957, -0.0041, 0.2759, -0.0070, 0.0559, -0.0034, 0.0220, -0.0192, 0.0414
2, -0.0078, -0.3534, 0.0095, -0.0120, -0.0054, -0.1903, -0.0067, -0.0384, -0.0033, 0.0334, -0.0182, -0.0076
2, -0.0087, -0.3612, 0.0123, -0.0658, -0.0043, -0.2668, -0.0064, -0.0401, -0.0031, 0.0401, -0.0173, 0.0218
2, -0.0069, -0.3355, 0.0093, -0.0368, -0.0041, -0.1777, -0.0054, -0.0332, -0.0026, 0.0337, -0.0145, 0.0037
2, -0.0072, -0.3441, 0.0103, -0.0646, -0.0037, -0.2396, -0.0056, -0.0353, -0.0028, 0.0383, -0.0153, 0.0249
2, -0.0058, -0.3557, 0.0078, -0.0086, -0.0038, -0.2054, -0.0047, -0.0462, -0.0023, 0.0285, -0.0126, -0.0207
2, -0.0046, -0.3519, 0.0068, -0.0563, -0.0026, -0.2759, -0.0038, -0.0425, -0.0019, 0.0363, -0.0103, 0.0200
2, -0.0038, -0.3217, 0.0058, -0.0345, -0.0023, -0.1980, -0.0032, -0.0343, -0.0016, 0.0315, -0.0086, 0.0110
2, -0.0034, -0.2370, 0.0055, -0.0817, -0.0021, -0.0824, -0.0028, -0.0124, -0.0014, 0.0276, -0.0074, 0.0189
2, -0.0021, -0.2296, 0.0037, -0.0683, -0.0016, -0.0645, -0.0020, -0.0115, -0.0010, 0.0255, -0.0052, 0.0139
2, -0.0010, -0.2761, 0.0018, -0.0515, -0.0015, -0.1688, -0.0014, -0.0234, -0.0007, 0.0309, -0.0038, 0.0286
2, -0.0005, -0.2295, 0.0018, -0.0811, -0.0007, -0.1069, -0.0006, -0.0189, -0.0003, 0.0239, -0.0016, 0.0084
2, 0.0003, -0.2257, 0.0003, -0.0474, -0.0007, -0.0678, -0.0002, -0.0108, -0.0001, 0.0253, -0.0004, 0.0195
3, 0.0004, -0.2042, 0.0005, -0.0781, -0.0005, -0.0577, -0.0001, -0.0140, -0.0000, 0.0200, 0.0000, -0.0029
3, -0.0009, -0.3039, 0.0001, -0.0899, -0.0006, 0.0009, 0.0007, 0.0149, 0.0002, 0.0352, -0.0010, -0.0245
3, -0.0019, -0.2874, 0.0001, -0.0934, -0.0010, -0.0226, 0.0018, 0.0078, 0.0006, 0.0325, -0.0025, -0.0206
3, -0.0031, -0.2791, 0.0003, -0.0845, -0.0015, -0.0447, 0.0032, 0.0040, 0.0010, 0.0311, -0.0043, -0.0200
3, -0.0042, -0.2817, 0.0004, -0.0648, -0.0020, -0.0626, 0.0045, 0.0058, 0.0014, 0.0317, -0.0060, -0.0265
3, -0.0061, -0.2800, 0.0006, -0.0762, -0.0028, -0.1045, 0.0069, -0.0022, 0.0021, 0.0308, -0.0092, -0.0238
3, -0.0070, -0.2905, 0.0007, -0.0549, -0.0030, -0.1616, 0.0080, -0.0073, 0.0024, 0.0314, -0.0106, -0.0292
3, -0.0089, -0.2616, 0.0008, -0.0546, -0.0028, -0.0197, 0.0104, -0.0105, 0.0031, 0.0275, -0.0137, -0.0188
3, -0.0072, -0.2452, 0.0006, 0.0054, -0.0031, -0.0285, 0.0082, 0.0227, 0.0025, 0.0296, -0.0109, -0.0427
3, -0.0089, -0.2412, 0.0008, -0.0270, -0.0041, -0.0684, 0.0104, 0.0036, 0.0031, 0.0266, -0.0137, -0.0255
3, -0.0097, -0.3482, 0.0003, 0.0433, -0.0041, -0.3217, 0.0111, -0.0427, 0.0034, 0.0309, -0.0146, -0.0215
3, -0.0108, -0.2807, 0.0007, -0.0170, -0.0046, -0.2745, 0.0123, -0.0251, 0.0037, 0.0283, -0.0162, -0.0299
3, -0.0127, -0.2705, 0.0014, -0.0155, -0.0055, -0.1975, 0.0148, -0.0197, 0.0044, 0.0269, -0.0195, -0.0220
3, -0.0129, -0.4221, 0.0004, 0.0639, -0.0048, -0.4968, 0.0148, -0.0641, 0.0045, 0.0371, -0.0194, -0.0309
3, -0.0139, -0.2521, 0.0015, -0.1002, -0.0055, -0.3075, 0.0162, -0.0250, 0.0048, 0.0282, -0.0212, -0.0329
3, -0.0145, -0.3701, 0.0012, 0.1193, -0.0060, -0.2641, 0.0166, -0.0412, 0.0050, 0.0308, -0.0218, -0.0151
3, -0.0181, -0.5089, 0.0012, 0.1090, -0.0085, -0.4944, 0.0215, -0.0901, 0.0064, 0.0397, -0.0284, -0.0030
3, -0.0167, -0.5106, 0.0003, -0.0173, -0.0064, -0.7014, 0.0191, -0.1009, 0.0058, 0.0453, -0.0250, -0.0260
3, -0.0175, -0.3070, 0.0018, 0.0578, -0.0079, -0.1153, 0.0195, -0.0398, 0.0059, 0.0228, -0.0258, 0.0152
3, -0.0176, -0.4557, 0.0007, 0.1199, -0.0075, -0.2494, 0.0203, -0.0168, 0.0061, 0.0443, -0.0267, -0.0456
3, -0.0178, -0.4548, 0.0007, 0.0030, -0.0075, -0.3643, 0.0206, -0.0517, 0.0062, 0.0425, -0.0271, -0.0233
3, -0.0207, -0.7442, 0.0004, 0.0518, -0.0101, -0.7396, 0.0409, 2.8721, 0.0071, 0.0582, -0.0310, 0.0085
3, -0.0223, -0.5230, 0.0013, -0.1564, -0.0093, -0.3600, 0.0273, -0.0672, 0.0081, 0.0494, -0.0358, -0.0060
3, -0.0195, -0.3081, 0.0030, -0.0735, -0.0084, 0.1930, 0.0236, 0.0324, 0.0070, 0.0314, -0.0439, 0.0215
3, -0.0213, -1.0224, 0.0014, 0.2526, -0.0107, -0.1287, 0.0574, 1.6242, 0.0072, 0.0798, -0.0314, 0.0107
3, -0.0228, -1.0194, 0.0005, -0.0114, -0.0117, -0.2308, 0.0907, 2.1450, 0.0080, 0.0821, -0.0350, 0.0189
3, -0.0206, -1.2767, -0.0004, -0.1357, -0.0108, -0.6961, 0.1263, 3.2058, 0.0075, 0.1186, -0.0334, -0.0709
3, -0.0237, -0.9093, 0.0005, -0.2690, -0.0120, -0.2728, 0.1481, 2.4329, 0.0084, 0.0792, -0.0369, -0.0019
3, -0.0381, -1.2907, 0.0037, 0.3079, -0.0190, -0.2729, 0.1832, 2.2715, 0.0136, 0.1138, -0.0604, -0.0881
3, -0.0340, -0.8519, 0.0032, -0.3229, -0.0164, -0.1496, 0.2226, 1.5700, 0.0121, 0.0598, -0.0537, 0.0849
3, -0.0313, -0.4823, 0.0054, -0.9762, -0.0150, -0.0124, 0.2344, -0.1409, 0.0114, 0.0519, -0.0513, 0.0287
3, -0.0213, -1.2871, 0.0010, 0.1967, -0.0101, -0.2937, 0.2483, 2.3497, 0.0072, 0.0953, -0.0312, 0.0044
3, -0.0210, -1.2985, -0.0000, 0.1420, -0.0106, -0.2973, 0.2971, 2.3835, 0.0074, 0.0850, -0.0328, 0.0648
3, -0.0224, -1.1402, 0.0000, -0.0729, -0.0113, -0.1505, 0.3467, 2.0419, 0.0079, 0.0888, -0.0351, -0.0031
3, -0.0210, -0.9354, -0.0003, -0.2978, -0.0108, -0.0849, 0.3848, 1.9482, 0.0076, 0.0746, -0.0335, 0.0064
3, -0.0277, -1.4543, 0.0019, 0.1941, -0.0137, -0.4186, 0.4275, 2.7202, 0.0099, 0.0880, -0.0441, 0.0845
3, -0.0264, -0.8090, 0.0032, -0.2814, -0.0128, 0.2847, 0.4548, -0.0034, 0.0093, 0.0586, -0.0415, 0.0290
3, -0.0241, -0.5982, 0.0020, -0.5964, -0.0120, 0.1711, 0.4895, 0.8418, 0.0086, 0.0395, -0.0380, 0.0723
3, -0.0247, -0.4638, 0.0029, -0.6417, -0.0123, 0.3470, 0.5268, 0.1084, 0.0088, 0.0346, -0.0392, 0.0444
3, -0.0235, -0.3576, 0.0032, -0.7783, -0.0114, 0.3657, 0.5589, -0.3762, 0.0083, 0.0333, -0.0370, 0.0169
3, -0.0147, -0.9834, 0.0018, 0.1927, -0.0072, 0.3527, 0.5881, 0.0290, 0.0049, 0.0623, -0.0214, 0.0144
3, -0.0205, -0.6977, 0.0020, -0.2984, -0.0104, 0.2393, 0.6235, 0.8640, 0.0072, 0.0489, -0.0317, 0.0218
3, -0.0193, -0.5179, 0.0025, -0.4295, -0.0097, 0.4758, 0.6578, -0.3578, 0.0069, 0.0390, -0.0306, 0.0079
3, -0.0168, -0.4803, 0.0018, -0.4978, -0.0086, 0.4506, 0.6945, -0.0858, 0.0059, 0.0281, -0.0260, 0.0557
3, -0.0135, -0.4597, 0.0002, -0.5770, -0.0073, 0.3927, 0.7230, 0.0186, 0.0049, 0.0329, -0.0216, 0.0251
3, -0.0105, -0.7013, -0.0008, -0.3215, -0.0060, 0.2908, 0.7551, 0.6273, 0.0038, 0.0503, -0.0167, 0.0023
3, -0.0077, -0.7101, -0.0017, -0.1806, -0.0049, 0.3594, 0.7771, 0.3579, 0.0029, 0.0432, -0.0131, 0.0295
3, -0.0083, -0.6989, -0.0006, 0.0455, -0.0050, 0.4811, 0.7912, -0.4680, 0.0032, 0.0355, -0.0142, 0.0446
3, -0.0076, -0.6173, -0.0003, -0.0060, -0.0046, 0.5214, 0.8071, -0.6640, 0.0029, 0.0323, -0.0129, 0.0347
3, -0.0068, -0.6046, 0.0000, -0.0082, -0.0040, 0.5288, 0.8243, -0.7191, 0.0025, 0.0319, -0.0109, 0.0307
3, -0.0052, -0.7043, -0.0005, 0.0968, -0.0033, 0.4751, 0.8376, -0.4328, 0.0018, 0.0418, -0.0081, 0.0034
3, -0.0045, -0.6220, -0.0002, 0.1081, -0.0029, 0.5262, 0.8437, -0.9646, 0.0017, 0.0319, -0.0075, 0.0264
3, -0.0045, -0.4571, 0.0005, -0.0135, -0.0027, 0.5718, 0.8437, -1.4682, 0.0017, 0.0242, -0.0078, 0.0181
3, -0.0034, -0.3915, 0.0003, -0.0818, -0.0021, 0.5711, 0.8391, -1.5018, 0.0013, 0.0182, -0.0057, 0.0311
3, -0.0024, -0.3391, 0.0004, -0.1088, -0.0015, 0.5797, 0.8309, -1.6725, 0.0009, 0.0170, -0.0042, 0.0203
3, -0.0009, -0.3233, 0.0004, -0.0565, -0.0005, 0.5621, 0.8140, -1.7541, 0.0003, 0.0166, -0.0015, 0.0122
3, -0.0002, -0.3011, 0.0004, -0.0553, -0.0001, 0.5573, 0.7996, -1.8185, 0.0001, 0.0145, -0.0006, 0.0146
3, 0.0001, -0.2805, 0.0004, -0.0687, 0.0001, 0.5515, 0.7889, -1.8509, -0.0000, 0.0156, 0.0000, 0.0015
3, 0.0006, -0.2525, 0.0004, -0.0594, 0.0005, 0.5460, 0.7653, -1.9066, -0.0002, 0.0089, 0.0007, 0.0238
3, 0.0015, -0.2189, 0.0004, -0.0743, 0.0011, 0.5340, 0.7448, -1.9514, -0.0005, 0.0096, 0.0021, 0.0100
3, 0.0029, -0.1942, 0.0002, -0.0677, 0.0019, 0.5226, 0.7213, -2.0015, -0.0011, 0.0061, 0.0043, 0.0182
3, 0.0045, -0.2010, 0.0000, -0.0263, 0.0028, 0.4993, 0.6942, -2.0336, -0.0017, 0.0056, 0.0068, 0.0197
3, 0.0059, -0.1564, -0.0001, -0.0105, 0.0036, 0.4813, 0.6633, -2.1184, -0.0022, 0.0004, 0.0090, 0.0295
3, 0.0072, -0.0658, -0.0001, -0.0709, 0.0044, 0.4607, 0.6281, -2.1925, -0.0027, -0.0006, 0.0108, 0.0099
3, 0.0058, 0.0554, 0.0003, -0.1486, 0.0038, 0.4454, 0.5779, -2.2175, -0.0022, -0.0119, 0.0086, 0.0312
3, 0.0074, 0.0099, 0.0003, -0.0720, 0.0047, 0.4043, 0.5333, -2.1697, -0.0028, -0.0047, 0.0114, 0.0083
3, 0.0088, 0.0324, 0.0003, 0.0042, 0.0054, 0.3982, 0.4883, -2.1318, -0.0034, -0.0097, 0.0138, 0.0244
3, 0.0099, -0.0051, -0.0000, 0.0958, 0.0060, 0.3881, 0.4459, -2.1711, -0.0039, -0.0077, 0.0157, 0.0150
3, 0.0127, -0.0843, -0.0007, 0.1651, 0.0075, 0.3785, 0.4014, -2.2505, -0.0050, -0.0030, 0.0203, 0.0086
3, 0.0125, 0.1247, 0.0004, 0.1439, 0.0070, 0.4362, 0.3565, -2.3929, -0.0048, -0.0100, 0.0195, -0.0076
3, 0.0149, 0.0758, -0.0005, 0.1550, 0.0087, 0.4035, 0.3156, -2.2238, -0.0059, -0.0220, 0.0240, 0.0567
3, 0.0122, 0.3460, 0.0002, -0.1384, 0.0068, 0.5091, 0.2616, -2.4572, -0.0047, -0.0200, 0.0189, -0.0137
3, 0.0144, 0.1475, -0.0004, 0.1284, 0.0083, 0.4271, 0.2178, -2.3499, -0.0057, -0.0215, 0.0230, 0.0288
3, 0.0169, 0.0702, -0.0009, 0.2765, 0.0094, 0.4235, 0.1696, -2.5105, -0.0066, -0.0167, 0.0267, 0.0217
3, 0.0185, -0.1899, -0.0013, 0.6513, 0.0102, 0.4386, 0.1235, -2.8665, -0.0073, 0.0009, 0.0297, -0.0214
3, 0.0216, -0.2321, -0.0023, 0.7334, 0.0116, 0.4393, 0.0769, -3.0009, -0.0084, -0.0076, 0.0341, 0.0255
3, 0.0222, -0.1050, -0.0025, 0.6589, 0.0116, 0.4687, 0.0295, -3.1069, -0.0085, -0.0193, 0.0342, 0.0425
3, 0.0255, 0.1847, -0.0036, 0.2916, 0.0132, 0.5572, -0.0262, -3.1626, -0.0096, -0.0284, 0.0388, 0.0307
3, 0.0285, -0.0685, -0.0040, -0.0214, 0.0137, -0.0984, -0.0335, -0.0686, -0.0107, -0.0053, 0.0430, 0.0615
3, 0.0304, 0.1748, -0.0039, -0.3574, 0.0144, -0.0927, -0.0351, -0.0283, -0.0112, -0.0047, 0.0450, 0.0036
3, 0.0202, 0.3925, -0.0010, -0.3115, 0.0093, 0.5425, -0.0387, -0.1576, -0.0123, -0.0003, 0.0496, 0.1051
3, 0.0220, -0.0075, -0.0012, 0.1065, 0.0087, 0.1483, -0.0263, 0.0020, -0.0083, -0.0092, 0.0335, 0.0294
3, 0.0248, 0.1377, -0.0010, 0.0355, 0.0089, 0.3053, -0.0301, 0.0932, -0.0094, -0.0055, 0.0380, -0.0483
3, 0.0284, -0.1887, -0.0036, 0.2024, 0.0115, -0.0539, -0.0348, -0.0317, -0.0109, 0.0053, 0.0441, 0.0294
3, 0.0346, -0.2032, -0.0050, 0.0707, 0.0145, -0.2056, -0.0426, -0.0952, -0.0133, 0.0023, 0.0540, 0.0710
3, 0.0336, 0.3684, -0.0028, -0.4666, 0.0141, 0.1660, -0.0398, 0.0309, -0.0126, -0.0198, 0.0506, -0.0065
3, 0.0335, -0.0321, -0.0031, -0.0453, 0.0146, -0.0386, -0.0404, -0.0448, -0.0128, -0.0048, 0.0515, 0.0436
3, 0.0353, -0.1154, -0.0048, -0.0999, 0.0158, -0.2167, -0.0425, -0.0396, -0.0134, 0.0123, 0.0542, 0.0006
3, 0.0349, 0.3298, -0.0043, -0.5176, 0.0158, 0.1328, -0.0421, -0.0084, -0.0133, -0.0241, 0.0537, 0.0376
3, 0.0331, 0.4721, -0.0011, -0.3622, 0.0162, 0.8384, -0.0483, -2.3406, -0.0127, -0.0201, 0.0508, -0.0446
3, 0.0305, 0.3684, -0.0015, -0.1970, 0.0141, 0.9029, -0.0393, -1.4309, -0.0116, -0.0260, 0.0465, 0.0261
3, 0.0323, -0.0895, -0.0040, -0.1478, 0.0158, 0.1684, -0.0382, 0.0230, -0.0122, 0.0114, 0.0490, 0.0002
3, 0.0285, -0.1265, -0.0030, -0.2333, 0.0125, -0.0584, -0.0336, -0.0394, -0.0107, 0.0100, 0.0429, 0.0318
3, 0.0274, -0.1262, -0.0022, -0.3213, 0.0126, 0.0645, -0.0326, 0.0545, -0.0104, 0.0294, 0.0417, -0.0547
3, 0.0248, 0.0031, -0.0017, -0.3419, 0.0110, 0.2354, -0.0292, 0.0581, -0.0093, 0.0134, 0.0373, -0.0221
3, 0.0243, -0.1167, -0.0015, -0.2134, 0.0107, 0.3507, -0.0287, 0.0659, -0.0092, 0.0205, 0.0366, -0.0138
3, 0.0140, -0.0328, -0.0003, -0.2968, 0.0050, 0.5084, -0.0163, 0.0722, -0.0052, 0.0119, 0.0358, 0.0229
3, 0.0152, -0.2165, -0.0011, -0.1135, 0.0055, 0.4224, -0.0182, 0.1005, -0.0058, 0.0350, 0.0230, -0.0468
3, 0.0157, -0.3876, -0.0028, 0.0108, 0.0052, 0.1601, -0.0197, 0.0054, -0.0061, 0.0343, 0.0247, 0.0100
3, 0.0170, -0.2353, -0.0023, -0.3760, 0.0069, 0.0648, -0.0210, 0.0181, -0.0066, 0.0334, 0.0265, -0.0096
3, 0.0130, -0.3892, -0.0007, -0.1474, 0.0044, 0.0742, -0.0162, 0.0085, -0.0051, 0.0409, 0.0203, -0.0047
3, 0.0124, -0.2465, -0.0010, -0.1853, 0.0040, 0.4011, -0.0153, 0.0924, -0.0048, 0.0394, 0.0191, -0.0398
3, 0.0124, -0.2867, -0.0015, -0.2302, 0.0049, 0.2261, -0.0151, 0.0485, -0.0048, 0.0386, 0.0191, -0.0196
3, 0.0115, -0.3047, -0.0010, -0.2601, 0.0050, 0.1200, -0.0139, 0.0258, -0.0044, 0.0382, 0.0177, -0.0103
3, 0.0089, -0.4244, -0.0007, -0.1314, 0.0032, 0.0528, -0.0110, 0.0261, -0.0035, 0.0489, 0.0138, -0.0292
3, 0.0090, -0.3193, -0.0010, -0.2036, 0.0034, 0.1526, -0.0112, 0.0446, -0.0035, 0.0423, 0.0142, -0.0283
3, 0.0069, -0.3218, -0.0004, -0.2110, 0.0025, 0.1475, -0.0085, 0.0357, -0.0027, 0.0408, 0.0107, -0.0180
3, 0.0065, -0.3700, -0.0008, -0.1435, 0.0026, 0.0536, -0.0082, 0.0163, -0.0026, 0.0418, 0.0104, -0.0157
3, 0.0047, -0.3648, -0.0005, -0.1704, 0.0015, 0.0264, -0.0061, 0.0223, -0.0019, 0.0438, 0.0077, -0.0260
3, 0.0042, -0.3243, -0.0004, -0.1762, 0.0017, 0.0459, -0.0055, 0.0173, -0.0017, 0.0384, 0.0069, -0.0155
3, 0.0030, -0.3197, -0.0002, -0.1426, 0.0012, 0.0640, -0.0040, 0.0312, -0.0012, 0.0401, 0.0050, -0.0295
3, 0.0021, -0.3162, -0.0002, -0.1359, 0.0007, 0.0466, -0.0028, 0.0187, -0.0009, 0.0371, 0.0035, -0.0180
3, 0.0001, -0.3063, 0.0000, -0.1353, -0.0003, 0.0323, -0.0005, 0.0134, -0.0001, 0.0353, 0.0005, -0.0144
4, -0.0003, -0.2926, 0.0000, -0.1302, -0.0003, 0.0303, -0.0001, 0.0043, 0.0000, 0.0318, -0.0000, -0.0039
4, -0.0006, -0.1714, -0.0001, -0.0724, 0.0000, 0.0317, 0.0000, 0.0057, 0.0002, 0.0253, -0.0000, -0.0027
4, -0.0004, -0.0916, -0.0002, -0.0306, 0.0015, -0.0234, 0.0007, 0.0007, 0.0011, 0.0194, -0.0005, -0.0048
4, -0.0002, -0.0107, -0.0003, -0.0309, 0.0032, 0.0830, 0.0014, 0.0195, 0.0020, 0.0166, -0.0009, -0.0063
4, -0.0001, -0.0332, -0.0003, -0.0210, 0.0050, 0.0171, 0.0022, 0.0079, 0.0030, 0.0147, -0.0014, -0.0050
4, 0.0003, 0.0196, -0.0006, 0.0182, 0.0077, 0.1429, 0.0032, 0.0299, 0.0043, 0.0179, -0.0019, -0.0085
4, 0.0005, 0.0382, -0.0010, 0.0476, 0.0101, 0.1448, 0.0042, 0.0275, 0.0056, 0.0107, -0.0026, -0.0063
4, 0.0005, 0.1725, -0.0011, 0.0307, 0.0112, 0.2564, 0.0047, 0.0496, 0.0063, 0.0045, -0.0029, -0.0084
4, 0.0010, 0.1966, -0.0014, 0.0176, 0.0139, 0.2671, 0.0058, 0.0492, 0.0076, -0.0037, -0.0035, -0.0055
4, 0.0000, 0.2173, -0.0004, -0.0507, 0.0102, 0.2272, 0.0044, 0.0480, 0.0059, -0.0007, -0.0027, -0.0072
4, 0.0003, 0.2706, -0.0006, -0.0206, 0.0130, 0.2778, 0.0055, 0.0491, 0.0074, -0.0205, -0.0034, -0.0006
4, 0.0008, 0.2759, -0.0009, 0.0030, 0.0163, 0.3076, 0.0068, 0.0643, 0.0091, 0.0012, -0.0041, -0.0110
4, 0.0017, 0.1223, -0.0018, 0.0941, 0.0218, 0.2015, 0.0091, 0.0397, 0.0119, 0.0070, -0.0054, -0.0087
4, 0.0004, 0.5076, -0.0010, -0.1150, 0.0234, 0.4369, 0.0059, 0.0840, 0.0129, -0.0050, -0.0059, -0.0134
4, 0.0005, 0.5287, -0.0006, -0.0461, 0.0184, 0.4621, 0.0076, 0.0872, 0.0102, -0.0418, -0.0046, -0.0014
4, 0.0003, 0.6272, -0.0005, -0.0313, 0.0196, 0.4973, 0.0083, 0.0971, 0.0112, -0.0481, -0.0051, -0.0031
4, 0.0017, 0.7663, -0.0023, 0.0149, 0.0238, 0.6625, 0.0098, 0.1268, 0.0128, -0.0603, -0.0058, -0.0037
4, 0.0012, 0.9578, -0.0016, -0.0765, 0.0249, 0.7235, 0.0102, 0.1519, 0.0134, -0.0626, -0.0061, -0.0102
4, 0.0014, 0.4947, -0.0015, 0.0894, 0.0274, 0.3144, 0.0117, 0.0585, 0.0158, -0.0498, -0.0072, 0.0012
4, 0.0026, 1.0035, -0.0028, -0.0674, 0.0306, 0.7094, 0.0126, 0.1480, 0.0163, -0.0809, -0.0075, -0.0047
4, 0.0030, 0.7274, -0.0029, -0.0212, 0.0361, 0.5448, 0.0151, 0.1231, 0.0198, -0.0357, -0.0090, -0.0142
4, 0.0037, 0.8638, -0.0038, -0.1720, 0.0386, 0.5778, 0.0160, 0.1375, 0.0209, -0.0485, -0.0096, -0.0133
4, 0.0043, 1.1644, -0.0040, -0.1154, 0.0414, 0.7777, 0.0170, 0.1704, 0.0219, -0.0967, -0.0101, -0.0049
4, 0.0056, 1.3922, -0.0008, 0.0886, 0.0454, 0.8563, 0.0124, 0.1869, 0.0234, -0.1070, -0.0073, -0.0006
4, 0.0043, 1.3617, -0.0023, -0.3110, 0.0366, 0.9006, 0.0147, 0.1865, 0.0186, -0.1679, -0.0086, 0.0192
4, 0.0048, 0.8720, -0.0035, 0.1453, 0.0398, 1.0602, 0.0162, 0.2189, 0.0205, -0.0659, -0.0095, -0.0109
4, 0.0067, 1.2858, -0.0026, -0.2168, 0.0462, 0.8107, 0.0182, 0.1874, 0.0223, -0.1065, -0.0104, -0.0039
4, 0.0069, 1.0134, -0.0035, -0.1172, 0.0481, 0.6118, 0.0191, 0.1431, 0.0236, -0.0751, -0.0110, -0.0060
4, 0.0069, 0.7270, -0.0031, -0.7114, 0.0504, 0.5970, 0.0202, 0.1568, 0.0252, -0.0751, -0.0117, 0.0034
4, 0.0079, 0.5309, -0.0049, -0.5362, 0.0516, 0.4215, 0.0207, 0.1418, 0.0257, 0.0312, -0.0119, -0.0336
4, 0.0087, 0.2962, -0.0056, -0.1415, 0.0577, 0.0413, 0.0232, 0.0290, 0.0289, 0.0266, -0.0134, -0.0181
4, 0.0073, 0.3149, -0.0033, -0.0854, 0.0532, 0.0868, 0.0211, 0.0174, 0.0261, -0.0235, -0.0121, 0.0036
4, 0.0064, 0.2450, -0.0044, 0.4138, 0.0478, -0.2211, 0.0195, -0.0790, 0.0246, 0.0414, -0.0114, -0.0077
4, 0.0078, -0.3865, -0.0036, 0.4083, 0.0600, -0.8430, 0.0243, -0.2043, 0.0310, 0.0793, -0.0143, -0.0064
4, 0.0080, -0.2637, -0.0021, 0.4311, 0.0626, -0.7728, 0.0252, -0.1856, 0.0321, 0.1156, -0.0148, -0.0215
4, 0.0084, -0.3779, -0.0022, 0.3779, 0.0671, -0.6186, 0.0272, -0.1471, 0.0352, 0.0948, -0.0162, -0.0189
4, 0.0092, -0.1102, -0.0037, 0.3978, 0.0702, -0.6754, 0.0285, -0.1836, 0.0367, 0.0870, -0.0169, -0.0085
4, 0.0095, -0.1706, -0.0039, -0.4831, 0.0788, 0.5302, 0.0306, 0.1023, 0.0395, -0.0018, -0.0182, -0.0091
4, 0.0086, -0.0847, -0.0045, -0.1129, 0.0536, -0.6348, 0.0220, -0.1616, 0.0288, 0.0285, -0.0132, 0.0089
4, 0.0089, 0.3161, -0.0048, 0.1039, 0.0581, -0.2216, 0.0239, -0.0641, 0.0313, 0.1300, -0.0143, -0.0325
4, 0.0097, 0.6135, -0.0051, 0.0871, 0.0671, 0.4114, 0.0275, 0.0862, 0.0359, 0.0283, -0.0165, -0.0110
4, 0.0087, 0.6641, -0.0063, 0.0946, 0.0741, 0.0596, 0.0306, -0.0132, 0.0398, 0.0761, -0.0183, -0.0149
4, 0.0086, 0.4744, -0.0049, 0.0732, 0.0782, 0.0201, 0.0320, 0.0013, 0.0415, 0.1504, -0.0191, -0.0475
4, 0.0093, 0.6053, -0.0053, -0.1739, 0.0969, 0.2456, 0.0356, 0.0186, 0.0455, 0.0135, -0.0210, 0.0003
4, 0.0064, 0.0124, -0.0045, -0.0810, 0.0597, 0.1900, 0.0245, 0.0503, 0.0316, -0.0743, -0.0145, 0.0210
4, 0.0064, -0.0667, -0.0063, -0.2266, 0.0549, 0.0726, 0.0228, 0.0376, 0.0298, -0.0075, -0.0137, -0.0025
4, 0.0069, 0.2552, -0.0047, 0.1500, 0.0848, -0.9167, 0.0308, 0.4099, 0.0388, -0.5524, -0.0181, -0.0298
4, 0.0048, 0.2926, -0.0033, -0.3366, 0.0739, 0.2387, 0.0172, -0.0281, 0.0421, -1.5373, -0.0169, -0.0076
4, 0.0069, -0.0360, -0.0047, -0.1976, 0.0558, -0.4741, 0.0221, -0.0212, 0.0284, -0.0266, -0.0131, 0.0126
4, 0.0075, 0.2000, -0.0044, -0.0738, 0.0621, 0.3554, 0.0254, 0.0768, 0.0329, -0.0299, -0.0151, 0.0025
4, 0.0062, 0.1815, -0.0047, 0.0826, 0.0649, 0.3423, 0.0268, 0.0773, 0.0348, -0.0010, -0.0160, -0.0088
4, 0.0062, 0.2359, -0.0064, 0.2750, 0.0597, -0.4301, 0.0248, -0.0779, 0.0325, 0.0970, -0.0149, -0.0254
4, 0.0054, -0.1590, -0.0062, -0.0843, 0.0594, -0.5509, 0.0244, -0.1201, 0.0315, -0.0008, -0.0145, 0.0157
4, 0.0062, 0.1619, -0.0046, 0.0571, 0.0623, -0.6444, 0.0257, -0.1189, 0.0334, 0.0715, -0.0153, -0.0100
4, 0.0039, 0.0062, -0.0047, -0.3563, 0.0613, -0.2405, 0.0236, -0.0197, 0.0303, -0.0223, -0.0140, 0.0110
4, 0.0052, 0.0050, -0.0068, 0.0507, 0.0399, -0.0020, 0.0161, 0.0043, 0.0206, 0.0086, -0.0095, -0.0037
4, 0.0050, 0.0183, -0.0041, 0.3799, 0.0497, -0.1690, 0.0206, -0.0327, 0.0268, -0.0010, -0.0123, 0.0046
4, 0.0054, 0.0977, -0.0025, 0.7512, 0.0453, -0.7324, 0.0185, -0.1200, 0.0238, 0.0681, -0.0110, -0.0073
4, 0.0029, 0.1475, -0.0017, 0.6216, 0.0465, -0.8939, 0.0189, -0.1373, 0.0242, 0.0837, -0.0112, -0.0107
4, 0.0031, 0.0937, -0.0034, 0.1098, 0.0462, -0.7808, 0.0183, -0.1457, 0.0231, 0.0134, -0.0107, 0.0155
4, 0.0034, 0.1611, -0.0043, 0.0902, 0.0448, -1.0080, 0.0180, -0.1641, 0.0229, 0.0664, -0.0106, -0.0008
4, 0.0050, -0.0661, -0.0060, 0.1694, 0.0441, -0.5046, 0.0175, -0.0832, 0.0222, 0.0282, -0.0103, 0.0023
4, 0.0049, 0.1788, -0.0048, 0.6677, 0.0496, -0.7785, 0.0199, -0.1333, 0.0253, -0.0003, -0.0117, 0.0175
4, 0.0033, 0.1998, -0.0034, 0.4318, 0.0313, -0.7753, 0.0123, -0.1144, 0.0154, 0.0420, -0.0071, -0.0005
4, 0.0006, 0.4365, -0.0047, 0.1625, 0.0337, -0.6123, 0.0133, -0.0830, 0.0169, 0.0383, -0.0078, -0.0060
4, 0.0027, -0.0979, -0.0046, 0.4556, 0.0327, -0.5853, 0.0126, -0.0820, 0.0157, 0.0424, -0.0073, -0.0031
4, 0.0016, 0.3585, -0.0039, 0.1660, 0.0354, -0.4262, 0.0136, -0.0697, 0.0169, -0.0137, -0.0078, 0.0103
4, 0.0012, -0.1513, -0.0052, 0.0196, 0.0339, -0.0561, 0.0131, -0.0128, 0.0163, 0.0025, -0.0076, 0.0025
4, 0.0015, -0.1146, -0.0041, 0.0051, 0.0298, 0.2452, 0.0111, 0.0425, 0.0136, 0.0065, -0.0063, -0.0063
4, 0.0011, 0.0046, -0.0039, 0.0827, 0.0305, -0.0404, 0.0114, -0.0185, 0.0139, -0.0301, -0.0065, 0.0131
4, 0.0007, 0.0275, -0.0044, 0.0224, 0.0280, 0.1100, 0.0104, 0.0136, 0.0128, -0.0153, -0.0059, 0.0036
4, -0.0000, 0.1135, -0.0047, -0.0218, 0.0265, 0.2774, 0.0099, 0.0326, 0.0123, -0.0413, -0.0057, 0.0097
4, -0.0011, 0.0257, -0.0044, -0.0585, 0.0254, 0.3504, 0.0095, 0.0456, 0.0120, -0.0302, -0.0055, 0.0056
4, -0.0004, -0.0929, -0.0038, -0.0626, 0.0231, 0.3303, 0.0086, 0.0367, 0.0107, -0.0312, -0.0049, 0.0092
4, -0.0003, -0.0290, -0.0035, -0.0811, 0.0217, 0.3433, 0.0082, 0.0355, 0.0103, -0.0421, -0.0047, 0.0125
4, -0.0011, 0.0430, -0.0036, -0.0645, 0.0202, 0.4035, 0.0076, 0.0483, 0.0096, -0.0425, -0.0044, 0.0103
4, -0.0003, -0.0976, -0.0025, -0.0962, 0.0205, 0.3161, 0.0079, 0.0398, 0.0100, -0.0134, -0.0046, 0.0031
4, -0.0004, -0.1888, -0.0024, -0.0432, 0.0182, 0.2617, 0.0069, 0.0240, 0.0087, -0.0217, -0.0040, 0.0098
4, 0.0010, -0.0695, -0.0014, 0.0102, 0.0118, 0.3077, 0.0044, 0.0465, 0.0054, -0.0029, -0.0025, -0.0018
4, 0.0006, 0.0925, -0.0019, 0.0540, 0.0101, 0.3743, 0.0038, 0.0520, 0.0046, -0.0330, -0.0021, 0.0058
4, 0.0001, 0.1391, -0.0016, -0.0337, 0.0090, 0.3259, 0.0034, 0.0458, 0.0043, -0.0285, -0.0020, 0.0038
4, -0.0004, 0.0926, -0.0011, -0.0089, 0.0072, 0.2631, 0.0027, 0.0289, 0.0034, -0.0395, -0.0015, 0.0106
4, -0.0001, 0.0707, -0.0010, 0.0461, 0.0061, 0.2815, 0.0023, 0.0398, 0.0029, -0.0234, -0.0013, 0.0039
4, -0.0003, 0.0568, -0.0008, 0.0038, 0.0044, 0.2086, 0.0017, 0.0226, 0.0022, -0.0307, -0.0010, 0.0087
4, -0.0004, -0.0401, -0.0002, -0.0235, 0.0030, 0.1226, 0.0011, 0.0117, 0.0015, -0.0119, -0.0007, 0.0047
4, -0.0003, -0.0815, -0.0000, 0.0558, 0.0010, 0.1297, 0.0003, 0.0127, 0.0004, -0.0130, -0.0002, 0.0058
4, -0.0001, -0.0818, -0.0000, 0.0481, -0.0000, 0.1310, -0.0001, 0.0174, -0.0001, -0.0025, 0.0000, 0.0015
4, -0.0002, -0.0704, 0.0002, 0.0302, -0.0017, 0.1043, -0.0007, 0.0086, -0.0009, -0.0119, 0.0005, 0.0059
4, -0.0003, -0.0520, 0.0003, 0.0361, -0.0031, 0.1125, -0.0013, 0.0101, -0.0016, -0.0139, 0.0008, 0.0061
4, -0.0002, -0.0558, 0.0006, 0.0302, -0.0046, 0.0980, -0.0018, 0.0103, -0.0023, -0.0080, 0.0011, 0.0037
4, 0.0001, -0.1234, 0.0011, 0.0475, -0.0061, 0.0337, -0.0025, -0.0030, -0.0031, -0.0078, 0.0015, 0.0065
4, -0.0001, -0.0992, 0.0011, 0.0896, -0.0090, 0.0695, -0.0037, 0.0081, -0.0047, -0.0021, 0.0023, 0.0024
4, 0.0001, -0.0071, 0.0012, 0.0890, -0.0113, 0.0855, -0.0046, 0.0093, -0.0057, -0.0145, 0.0028, 0.0050
4, 0.0001, 0.1073, 0.0014, 0.1131, -0.0139, 0.1396, -0.0056, 0.0262, -0.0070, -0.0106, 0.0034, -0.0009
4, -0.0015, -0.0262, 0.0014, 0.0560, -0.0122, -0.0064, -0.0048, -0.0056, -0.0058, -0.0102, 0.0029, 0.0052
4, -0.0008, 0.1528, 0.0021, 0.0863, -0.0207, 0.0836, -0.0084, 0.0138, -0.0104, -0.0199, 0.0051, 0.0031
4, -0.0009, -0.2269, 0.0025, 0.0636, -0.0151, -0.2308, -0.0059, -0.0405, -0.0072, 0.0132, 0.0035, 0.0036
4, 0.0006, -0.2766, 0.0031, 0.1840, -0.0161, -0.2532, -0.0062, -0.0445, -0.0077, 0.0106, 0.0037, 0.0060
4, 0.0007, -0.0862, 0.0027, 0.1773, -0.0210, -0.1303, -0.0084, -0.0158, -0.0105, 0.0110, 0.0051, -0.0011
4, 0.0009, -0.0200, 0.0042, 0.1349, -0.0226, -0.1950, -0.0089, -0.0247, -0.0110, 0.0121, 0.0053, -0.0017
4, -0.0003, 0.1139, 0.0030, 0.2318, -0.0254, -0.0942, -0.0100, -0.0107, -0.0123, -0.0101, 0.0060, 0.0030
4, -0.0016, 0.1564, 0.0014, 0.1641, -0.0291, -0.0777, -0.0115, -0.0066, -0.0140, -0.0054, 0.0068, 0.0002
4, -0.0014, -0.2853, 0.0043, 0.0949, -0.0242, -0.1645, -0.0095, -0.0350, -0.0116, 0.0031, 0.0057, 0.0076
4, 0.0008, 0.0189, 0.0033, 0.1091, -0.0255, -0.0147, -0.0096, -0.0031, -0.0114, -0.0079, 0.0056, 0.0031
4, -0.0005, -0.0543, 0.0055, 0.2148, -0.0284, 0.0465, -0.0112, 0.0122, -0.0138, 0.0024, 0.0067, -0.0018
4, 0.0001, 0.2575, 0.0043, 0.4717, -0.0285, -0.3925, -0.0113, -0.0493, -0.0138, 0.0048, 0.0067, 0.0015
4, -0.0021, 0.2154, 0.0040, -0.0278, -0.0326, 0.2294, -0.0127, 0.0303, -0.0151, -0.0362, 0.0074, 0.0069
4, -0.0020, -0.1069, 0.0040, 0.1150, -0.0337, 0.2188, -0.0133, 0.0431, -0.0159, 0.0092, 0.0078, -0.0084
4, -0.0024, 0.0041, 0.0047, -0.0356, -0.0389, 0.4888, -0.0156, 0.0854, -0.0191, -0.0075, 0.0094, -0.0095
4, -0.0051, -0.0190, 0.0037, -0.4482, -0.0434, 0.5393, -0.0175, 0.0719, -0.0211, -0.0443, 0.0104, 0.0061
4, -0.0047, -0.0892, 0.0034, -0.5028, -0.0475, 0.4832, -0.0192, 0.0643, -0.0232, -0.0363, 0.0114, 0.0046
4, -0.0063, -0.0734, 0.0022, -0.4389, -0.0539, 0.5826, -0.0221, 0.0956, -0.0271, -0.0150, 0.0133, -0.0081
4, -0.0034, -0.0982, 0.0044, 0.0584, -0.0472, -0.0128, -0.0192, 0.0071, -0.0236, 0.0219, 0.0116, -0.0085
4, -0.0021, 0.3576, 0.0028, 0.8260, -0.0349, -0.4148, -0.0146, -0.0696, -0.0183, -0.0135, 0.0089, 0.0133
4, -0.0061, -0.1789, 0.0055, -0.1487, -0.0444, 0.9001, -0.0186, 0.1471, -0.0232, -0.0646, 0.0113, 0.0026
4, -0.0055, -0.0919, 0.0054, -0.2861, -0.0507, 0.9221, -0.0217, 0.1585, -0.0277, -0.0558, 0.0134, -0.0026
4, -0.0055, -0.0747, 0.0043, -0.4449, -0.0525, 0.8936, -0.0223, 0.1541, -0.0282, -0.0588, 0.0137, -0.0006
4, -0.0092, -0.0176, 0.0051, -0.4239, -0.0627, 0.6600, -0.0267, 0.1204, -0.0340, -0.0343, 0.0165, -0.0045
4, -0.0044, 0.0188, 0.0019, 0.0317, -0.0679, 0.6624, -0.0290, 0.1289, -0.0368, -0.0243, 0.0179, -0.0090
4, -0.0011, -0.2878, 0.0019, 0.2591, -0.0586, -0.3371, -0.0191, -0.0034, -0.0239, -0.0050, 0.0117, 0.0025
4, -0.0070, 0.0585, 0.0044, 0.0043, -0.0551, 0.9250, -0.0233, 0.1809, -0.0295, -0.0666, 0.0144, 0.0002
4, -0.0068, 0.2001, 0.0042, 0.5793, -0.0641, -0.3521, -0.0256, 0.0128, -0.0322, 0.0175, 0.0157, -0.0090
4, -0.0055, 0.0127, 0.0041, 0.4360, -0.0660, -0.2194, -0.0226, -0.0075, -0.0284, -0.0075, 0.0138, 0.0032
4, -0.0054, -0.0071, 0.0039, -0.0023, -0.0597, 0.6332, -0.0254, 0.1506, -0.0322, -0.0193, 0.0157, -0.0121
4, -0.0069, 0.2501, 0.0056, 0.1664, -0.0818, 0.0291, -0.0267, -0.0232, -0.0334, -0.0110, 0.0163, 0.0082
4, -0.0082, 0.0135, 0.0054, 0.1345, -0.0899, 0.2483, -0.0297, 0.0007, -0.0372, 0.0054, 0.0182, -0.0023
4, -0.0078, -0.0228, 0.0051, 0.0516, -0.0944, 0.4097, -0.0302, 0.0223, -0.0379, 0.0281, 0.0185, -0.0140
4, -0.0084, 0.0383, 0.0057, -0.1243, -0.1067, 0.7414, -0.0337, 0.0496, -0.0421, 0.0577, 0.0206, -0.0283
4, -0.0093, -0.0457, 0.0061, -0.1707, -0.1243, 0.6853, -0.0376, -0.0130, -0.0471, -0.0325, 0.0230, 0.0138
4, -0.0089, -0.0907, 0.0059, -0.1819, -0.1416, 0.6911, -0.0360, 0.0226, -0.0450, 0.0035, 0.0220, -0.0056
4, -0.0068, -0.1251, 0.0044, -0.3808, -0.1599, 1.0818, -0.0298, 0.0913, -0.0608, 0.2747, 0.0182, -0.0474
4, -0.0077, -0.3004, 0.0044, -0.4118, -0.1816, 1.1227, -0.0319, 0.0592, -0.0693, 0.9944, 0.0195, -0.0254
4, -0.0077, -0.4730, 0.0039, -0.4010, -0.1971, 1.0150, -0.0310, 0.0039, -0.0824, 1.1533, 0.0190, 0.0100
4, -0.0099, -0.6210, 0.0047, -0.1322, -0.2147, 0.5345, -0.0360, 0.0273, -0.1006, 1.2663, 0.0220, -0.0099
4, -0.0090, -0.6376, 0.0034, 0.1348, -0.2142, 0.2257, -0.0297, -0.0109, -0.1102, 1.1622, 0.0182, 0.0070
4, -0.0097, -0.2557, 0.0039, -0.0464, -0.2009, 1.1064, -0.0320, 0.0055, -0.0880, 1.7308, 0.0196, 0.0001
4, -0.0100, -0.1274, 0.0041, 0.1568, -0.1690, 0.9351, -0.0335, -0.0243, -0.0422, -0.0207, 0.0205, 0.0100
4, -0.0089, 0.1711, 0.0020, 0.3140, -0.0772, 1.1756, -0.0318, 0.0015, -0.0227, 0.0371, 0.0111, -0.0079
4, -0.0096, -0.2005, 0.0086, 0.3817, -0.0747, -0.1964, -0.0317, -0.0701, -0.0394, 0.0119, 0.0193, 0.0044
4, -0.0093, 0.5976, 0.0049, -0.3272, -0.0705, 0.6927, -0.0299, 0.1657, -0.0378, -0.0559, 0.0184, 0.0031
4, -0.0082, 0.3901, 0.0045, -0.4723, -0.0671, 0.5215, -0.0281, 0.1291, -0.0351, 0.0058, 0.0171, -0.0173
4, -0.0089, 0.4192, 0.0034, -0.6081, -0.0689, 0.7799, -0.0288, 0.1980, -0.0357, -0.0806, 0.0175, 0.0084
4, -0.0059, 0.4681, -0.0009, 0.6868, -0.0392, -0.4556, -0.0164, -0.0833, -0.0205, 0.0413, 0.0100, -0.0181
4, -0.0089, -0.0258, 0.0033, -0.3897, -0.0671, 0.4037, -0.0276, 0.1145, -0.0336, 0.0045, 0.0165, -0.0101
4, -0.0069, -0.0018, 0.0020, 0.5439, -0.0392, -0.1911, -0.0160, -0.0364, -0.0192, 0.0096, 0.0095, -0.0021
4, -0.0073, -0.4445, 0.0053, -0.3710, -0.0400, -0.0267, -0.0167, 0.0029, -0.0200, 0.0193, 0.0099, 0.0057
4, -0.0076, -0.4556, 0.0031, -0.4925, -0.0489, -0.1267, -0.0199, 0.0243, -0.0240, 0.1227, 0.0118, -0.0385
4, -0.0057, -0.9700, 0.0019, -0.2489, -0.0399, -0.7211, -0.0160, -0.1477, -0.0190, 0.0799, 0.0094, 0.0060
4, -0.0053, -0.8369, 0.0017, 0.0468, -0.0405, -0.7097, -0.0167, -0.1390, -0.0205, 0.1051, 0.0100, -0.0120
4, -0.0057, -1.4120, 0.0035, 0.0308, -0.0361, -0.8513, -0.0148, -0.1719, -0.0178, 0.1580, 0.0088, -0.0130
4, -0.0051, -1.1002, 0.0016, -0.1528, -0.0384, -0.8064, -0.0159, -0.1391, -0.0196, 0.1536, 0.0096, -0.0229
4, -0.0049, -1.2743, 0.0021, 0.2379, -0.0364, -0.7154, -0.0153, -0.1750, -0.0190, 0.0832, 0.0093, 0.0148
4, -0.0048, -1.0951, 0.0037, -0.0261, -0.0342, -0.6109, -0.0146, -0.1269, -0.0183, 0.1020, 0.0090, -0.0004
4, -0.0052, -1.0322, 0.0032, -0.0568, -0.0379, -0.5217, -0.0158, -0.1049, -0.0195, 0.1030, 0.0095, -0.0034
4, -0.0024, -0.9132, 0.0003, -0.0834, -0.0239, -0.4696, -0.0101, -0.0904, -0.0129, 0.0933, 0.0063, -0.0039
4, -0.0047, -1.0551, 0.0027, -0.0737, -0.0368, -0.5664, -0.0152, -0.1094, -0.0187, 0.1056, 0.0061, -0.0025
4, -0.0015, -1.0326, 0.0002, -0.0711, -0.0201, -0.5087, -0.0087, -0.0885, -0.0113, 0.1220, 0.0055, -0.0130
4, -0.0023, -1.1577, 0.0015, -0.0861, -0.0191, -0.7519, -0.0079, -0.1426, -0.0098, 0.1018, 0.0048, 0.0015
4, -0.0034, -1.2949, 0.0032, -0.0895, -0.0271, -0.8905, -0.0113, -0.1620, -0.0140, 0.1221, 0.0068, -0.0028
4, -0.0016, -0.6410, -0.0000, -0.0743, -0.0163, -0.2804, -0.0070, -0.0498, -0.0089, 0.0685, 0.0043, -0.0045
4, -0.0019, -0.5394, 0.0007, -0.1460, -0.0168, -0.2984, -0.0072, -0.0467, -0.0092, 0.0615, 0.0045, -0.0051
4, -0.0020, -0.7957, 0.0017, -0.1396, -0.0141, -0.5999, -0.0060, -0.1047, -0.0074, 0.0676, 0.0036, 0.0018
4, -0.0021, -0.4141, 0.0012, -0.0871, -0.0142, -0.1330, -0.0060, -0.0254, -0.0075, 0.0404, 0.0037, -0.0005
4, -0.0020, -0.3739, 0.0009, -0.0773, -0.0145, -0.1936, -0.0061, -0.0314, -0.0076, 0.0397, 0.0037, -0.0026
4, -0.0018, -0.4665, 0.0010, -0.1081, -0.0123, -0.3209, -0.0052, -0.0493, -0.0064, 0.0504, 0.0031, -0.0040
4, -0.0017, -0.4411, 0.0010, -0.0694, -0.0106, -0.2820, -0.0044, -0.0429, -0.0054, 0.0496, 0.0026, -0.0051
4, -0.0014, -0.2853, 0.0007, -0.1237, -0.0083, -0.1270, -0.0035, -0.0146, -0.0044, 0.0395, 0.0021, -0.0056
4, -0.0007, -0.3556, -0.0000, 0.0193, -0.0038, -0.2138, -0.0028, -0.0473, -0.0033, 0.0407, 0.0016, -0.0037
4, -0.0007, -0.1856, -0.0002, -0.0106, -0.0034, -0.0249, -0.0014, -0.0003, -0.0017, 0.0303, 0.0009, -0.0065
4, -0.0007, -0.1839, -0.0001, -0.0585, -0.0021, -0.1082, -0.0008, -0.0141, -0.0009, 0.0234, 0.0005, -0.0031
4, -0.0007, -0.1186, 0.0000, -0.0637, -0.0009, -0.0334, -0.0003, 0.0003, -0.0002, 0.0226, 0.0001, -0.0051
5, -0.0006, -0.0925, -0.0000, -0.0342, -0.0003, -0.0128, -0.0000, -0.0038, 0.0001, 0.0093, -0.0000, 0.0003
5, -0.0006, 0.0534, 0.0006, 0.0077, -0.0006, 0.0328, -0.0008, -0.0153, 0.0011, 0.0271, -0.0001, -0.0036
5, -0.0007, -0.0222, 0.0017, 0.0358, -0.0010, 0.0113, -0.0023, -0.0163, 0.0032, 0.0255, -0.0003, -0.0027
5, -0.0007, -0.0604, 0.0028, 0.0734, -0.0013, 0.0001, -0.0037, -0.0201, 0.0051, 0.0279, -0.0006, -0.0027
5, -0.0008, -0.0651, 0.0038, 0.0683, -0.0014, -0.0167, -0.0049, -0.0249, 0.0067, 0.0320, -0.0007, -0.0031
5, -0.0009, -0.1259, 0.0050, 0.0999, -0.0018, -0.0303, -0.0065, -0.0273, 0.0090, 0.0334, -0.0010, -0.0027
5, -0.0009, -0.1645, 0.0061, 0.1776, -0.0021, -0.0010, -0.0079, -0.0273, 0.0109, 0.0358, -0.0012, -0.0028
5, -0.0011, 0.0204, 0.0068, -0.1130, -0.0016, -0.1033, -0.0080, -0.0420, 0.0112, 0.0473, -0.0012, -0.0052
5, -0.0013, -0.0408, 0.0081, -0.0735, -0.0017, -0.1094, -0.0093, -0.0381, 0.0129, 0.0403, -0.0014, -0.0040
5, -0.0015, -0.1599, 0.0111, 0.1223, -0.0025, -0.0280, -0.0128, -0.0208, 0.0178, 0.0230, -0.0020, -0.0014
5, -0.0014, -0.1939, 0.0102, -0.0035, -0.0025, -0.2019, -0.0124, -0.0899, 0.0172, 0.0988, -0.0019, -0.0093
5, -0.0011, -0.0535, 0.0079, -0.2354, -0.0021, -0.2022, -0.0101, -0.0464, 0.0140, 0.0450, -0.0016, -0.0042
5, -0.0008, -0.4070, 0.0128, 0.3667, -0.0044, 0.0057, -0.0094, -0.0615, 0.0240, 0.0348, -0.0027, -0.0004
5, -0.0010, -0.1416, 0.0103, -0.1471, -0.0029, -0.1719, -0.0135, -0.0452, 0.0188, 0.0455, -0.0021, -0.0037
5, -0.0016, -0.1572, 0.0132, -0.1470, -0.0032, -0.1600, -0.0162, -0.0604, 0.0226, 0.0701, -0.0025, -0.0064
5, -0.0019, -0.4021, 0.0159, 0.2739, -0.0037, -0.0205, -0.0186, -0.0584, 0.0259, 0.0699, -0.0029, -0.0049
5, -0.0018, -0.6752, 0.0175, 0.5600, -0.0046, 0.0350, -0.0212, -0.0781, 0.0295, 0.0930, -0.0033, -0.0056
5, -0.0013, -1.0860, 0.0161, 0.8865, -0.0051, 0.0637, -0.0205, -0.1089, 0.0284, 0.1205, -0.0032, -0.0060
5, -0.0010, -0.0866, 0.0119, -0.7196, -0.0034, -0.2464, -0.0161, 0.0087, 0.0225, -0.0158, -0.0025, 0.0024
5, -0.0009, -0.8551, 0.0206, 0.5665, -0.0065, 0.0852, -0.0277, -0.1036, 0.0385, 0.1259, -0.0043, -0.0083
5, -0.0011, -0.3279, 0.0159, -0.6428, -0.0046, -0.1764, -0.0205, -0.0271, 0.0286, 0.0386, -0.0032, -0.0027
5, -0.0017, -0.5088, 0.0197, -0.0648, -0.0049, 0.0598, -0.0238, -0.0739, 0.0331, 0.1066, -0.0037, -0.0090
5, -0.0016, -0.6531, 0.0217, -0.0207, -0.0056, 0.1205, -0.0260, -0.0494, 0.0361, 0.0691, -0.0040, -0.0041
5, -0.0009, -0.8632, 0.0223, 0.1924, -0.0062, 0.2049, -0.0268, -0.0606, 0.0373, 0.0714, -0.0042, -0.0030
5, 0.0002, -1.0603, 0.0226, 0.5404, -0.0070, 0.3159, -0.0276, -0.1113, 0.0384, 0.1235, -0.0043, -0.0073
5, 0.0006, -1.0667, 0.0260, 0.9310, -0.0076, 0.4754, -0.0320, 0.0450, 0.0445, -0.0379, -0.0050, 0.0072
5, 0.0002, -0.7240, 0.0299, 0.6854, -0.0080, 0.4971, -0.0358, -0.0618, 0.0499, 0.0596, -0.0056, -0.0009
5, 0.0008, 0.0634, 0.0210, -0.0968, -0.0082, 0.5416, -0.0379, -0.0206, 0.0528, 0.0145, -0.0059, 0.0032
5, -0.0000, 0.1484, 0.0244, 0.3950, -0.0060, 0.4946, -0.0277, -0.0257, 0.0386, 0.0465, -0.0043, -0.0028
5, 0.0000, 0.2684, 0.0268, 0.7178, -0.0064, 0.5207, -0.0309, -0.0841, 0.0432, 0.1075, -0.0048, -0.0085
5, -0.0010, 0.2949, 0.0283, 0.7793, -0.0061, 0.5254, -0.0324, -0.0289, 0.0453, 0.0167, -0.0051, 0.0024
5, 0.0006, 0.2883, 0.0296, 1.2194, -0.0068, 0.5738, -0.0353, -0.0460, 0.0495, 0.0123, -0.0055, 0.0049
5, -0.0031, 0.3275, 0.0522, 0.8467, -0.0100, 0.4589, -0.0617, -0.0831, 0.0861, 0.0758, -0.0096, -0.0038
5, -0.0007, 0.4858, 0.0332, 1.0587, -0.0066, 0.4537, -0.0404, -0.0266, 0.0729, -2.0891, -0.0064, -0.0199
5, -0.0009, 0.4684, 0.0353, 0.6938, -0.0068, 0.3174, -0.0438, 0.0615, 0.0613, -0.1247, -0.0068, 0.0175
5, -0.0015, 0.5010, 0.0345, 0.6417, -0.0065, 0.1949, -0.0429, 0.0213, 0.0600, -0.0496, -0.0067, 0.0079
5, -0.0007, 0.3349, 0.0306, 0.9893, -0.0058, 0.0843, -0.0384, 0.0197, 0.0537, -0.0542, -0.0060, 0.0087
5, -0.0006, 0.4484, 0.0278, 0.7290, -0.0055, 0.1367, -0.0357, -0.0374, 0.0499, 0.0405, -0.0056, -0.0025
5, -0.0004, 0.4475, 0.0292, 0.6970, -0.0056, 0.1155, -0.0373, 0.0750, 0.0522, -0.1101, -0.0058, 0.0139
5, -0.0009, 0.3813, 0.0270, 0.0826, -0.0056, -0.0945, -0.0351, 0.0964, 0.0491, -0.1026, -0.0055, 0.0096
5, -0.0008, 0.4169, 0.0236, -0.1684, -0.0047, 0.0331, -0.0309, 0.0518, 0.0431, -0.0637, -0.0048, 0.0060
5, -0.0001, 0.4142, 0.0202, 0.4483, -0.0038, 0.1120, -0.0273, 0.0057, 0.0381, -0.0139, -0.0042, 0.0023
5, -0.0002, 0.2500, 0.0266, 0.6400, -0.0051, -0.0431, -0.0334, 0.0888, 0.0466, -0.0960, -0.0052, 0.0104
5, -0.0007, 0.1261, 0.0247, 0.5069, -0.0046, -0.0010, -0.0312, 0.0141, 0.0435, -0.0025, -0.0049, 0.0005
5, -0.0007, -0.0521, 0.0161, 0.6192, -0.0025, 0.0748, -0.0187, 0.0257, 0.0261, -0.0216, -0.0029, 0.0038
5, -0.0004, -0.0719, 0.0152, 1.0540, -0.0025, 0.1942, -0.0181, 0.0054, 0.0252, 0.0081, -0.0028, 0.0020
5, -0.0001, -0.1055, 0.0164, 1.2061, -0.0028, 0.1996, -0.0194, 0.0463, 0.0270, -0.0321, -0.0030, 0.0064
5, -0.0007, -0.1426, 0.0181, 0.5293, -0.0030, 0.1020, -0.0205, 0.0314, 0.0287, -0.0256, -0.0032, 0.0044
5, -0.0004, -0.0339, 0.0136, 0.8910, -0.0025, 0.2056, -0.0179, 0.0497, 0.0248, -0.0387, -0.0028, 0.0064
5, -0.0003, -0.0467, 0.0123, 1.0694, -0.0022, 0.2125, -0.0151, 0.0283, 0.0211, 0.0060, -0.0023, 0.0013
5, -0.0005, -0.0863, 0.0138, 0.9238, -0.0022, 0.1949, -0.0154, 0.0443, 0.0216, -0.0160, -0.0024, 0.0036
5, -0.0007, -0.0575, 0.0136, 0.5541, -0.0022, 0.1462, -0.0156, 0.0246, 0.0218, -0.0072, -0.0024, 0.0020
5, -0.0008, -0.0067, 0.0144, 0.3067, -0.0027, 0.1173, -0.0180, 0.0532, 0.0250, -0.0596, -0.0028, 0.0074
5, -0.0005, 0.0035, 0.0097, 0.4138, -0.0019, 0.1731, -0.0130, 0.0351, 0.0180, -0.0300, -0.0020, 0.0043
5, -0.0007, -0.0011, 0.0125, 0.3154, -0.0022, 0.1107, -0.0154, 0.0322, 0.0215, -0.0276, -0.0024, 0.0037
5, -0.0005, 0.0408, 0.0095, 0.0356, -0.0019, 0.1125, -0.0127, 0.0135, 0.0177, -0.0258, -0.0020, 0.0033
5, -0.0006, -0.0162, 0.0100, 0.2862, -0.0019, 0.1370, -0.0130, 0.0416, 0.0181, -0.0416, -0.0020, 0.0054
5, -0.0002, 0.0123, 0.0051, 0.1905, -0.0008, 0.1247, -0.0060, -0.0033, 0.0084, 0.0107, -0.0009, -0.0007
5, -0.0006, 0.0080, 0.0091, 0.3397, -0.0014, 0.1372, -0.0103, 0.0398, 0.0144, -0.0332, -0.0016, 0.0043
5, -0.0003, 0.0537, 0.0070, -0.0012, -0.0011, 0.0958, -0.0083, 0.0172, 0.0116, -0.0316, -0.0013, 0.0037
5, -0.0001, 0.0562, 0.0050, 0.1342, -0.0003, 0.0845, -0.0064, 0.0276, 0.0089, -0.0331, -0.0006, 0.0022
5, -0.0000, 0.0144, 0.0027, 0.1768, -0.0002, 0.1149, -0.0029, 0.0176, 0.0041, -0.0153, -0.0005, 0.0021
5, -0.0002, 0.0115, 0.0032, 0.2278, -0.0002, 0.1069, -0.0031, 0.0327, 0.0043, -0.0294, -0.0005, 0.0036
5, -0.0000, 0.0302, 0.0018, 0.1531, 0.0000, 0.0953, -0.0016, 0.0176, 0.0022, -0.0165, -0.0002, 0.0020
5, 0.0000, 0.0241, 0.0012, 0.1292, 0.0002, 0.0810, -0.0009, 0.0231, 0.0013, -0.0247, -0.0001, 0.0029
5, 0.0001, 0.0214, 0.0004, 0.1373, 0.0003, 0.0748, 0.0000, 0.0085, -0.0000, -0.0042, 0.0000, 0.0006
5, 0.0000, 0.0243, 0.0003, 0.1166, 0.0004, 0.0659, 0.0003, 0.0188, -0.0004, -0.0190, 0.0000, 0.0017
5, 0.0001, 0.0269, -0.0010, 0.1105, 0.0006, 0.0639, 0.0018, 0.0164, -0.0025, -0.0164, 0.0002, 0.0015
5, 0.0001, 0.0247, -0.0014, 0.0640, 0.0007, 0.0491, 0.0024, 0.0139, -0.0033, -0.0165, 0.0003, 0.0015
5, 0.0001, 0.0262, -0.0037, 0.0483, 0.0010, 0.0420, 0.0051, 0.0178, -0.0069, -0.0226, 0.0006, 0.0019
5, 0.0001, 0.0236, -0.0040, 0.0980, 0.0012, 0.0289, 0.0058, 0.0185, -0.0079, -0.0182, 0.0007, 0.0015
5, 0.0001, 0.0514, -0.0039, 0.0067, 0.0013, 0.0037, 0.0061, 0.0060, -0.0083, -0.0096, 0.0007, 0.0006
5, 0.0002, 0.0589, -0.0050, -0.0828, 0.0014, -0.0110, 0.0075, 0.0055, -0.0102, -0.0162, 0.0009, 0.0011
5, 0.0003, 0.0517, -0.0060, -0.0865, 0.0016, -0.0126, 0.0087, 0.0052, -0.0119, -0.0155, 0.0010, 0.0011
5, 0.0003, 0.0414, -0.0076, 0.0082, 0.0019, 0.0065, 0.0108, 0.0075, -0.0147, -0.0112, 0.0012, 0.0008
5, 0.0002, 0.0321, -0.0087, 0.0535, 0.0021, 0.0067, 0.0121, 0.0043, -0.0165, -0.0031, 0.0014, 0.0002
5, 0.0002, 0.0539, -0.0089, -0.1504, 0.0022, -0.0229, 0.0127, 0.0151, -0.0173, -0.0320, 0.0014, 0.0024
5, 0.0003, 0.0408, -0.0098, -0.1990, 0.0021, -0.0212, 0.0129, -0.0039, -0.0177, -0.0108, 0.0015, 0.0007
5, 0.0002, 0.0457, -0.0104, -0.3388, 0.0023, -0.0360, 0.0142, 0.0042, -0.0194, -0.0305, 0.0016, 0.0022
5, 0.0003, 0.0409, -0.0131, -0.2429, 0.0027, -0.0043, 0.0172, 0.0036, -0.0235, -0.0235, 0.0020, 0.0018
5, 0.0003, 0.0079, -0.0147, 0.0739, 0.0030, 0.0260, 0.0198, -0.0040, -0.0270, 0.0074, 0.0023, -0.0005
5, 0.0003, -0.0023, -0.0190, 0.1657, 0.0037, 0.0700, 0.0245, 0.1039, -0.0336, -0.1316, 0.0028, 0.0114
5, 0.0003, 0.0256, -0.0202, -0.1330, 0.0039, 0.0185, 0.0261, -0.0580, -0.0357, 0.0642, 0.0030, -0.0053
5, 0.0005, 0.0272, -0.0209, 0.0722, 0.0039, 0.0633, 0.0267, 0.0184, -0.0365, -0.0276, 0.0030, 0.0027
5, 0.0001, 0.0886, -0.0156, -0.4914, 0.0029, 0.0078, 0.0195, -0.0074, -0.0268, -0.0199, 0.0022, 0.0012
5, -0.0000, 0.0193, -0.0174, -0.5427, 0.0034, 0.0452, 0.0235, -0.0162, -0.0322, -0.0120, 0.0027, 0.0009
5, -0.0001, 0.0890, -0.0174, -0.6733, 0.0030, -0.0346, 0.0219, -0.0240, -0.0299, 0.0073, 0.0025, -0.0016
5, -0.0001, -0.0068, -0.0195, -0.4652, 0.0037, 0.1055, 0.0261, -0.0074, -0.0358, -0.0227, 0.0030, 0.0023
5, 0.0002, -0.1367, -0.0251, -0.1211, 0.0047, 0.1270, 0.0334, -0.0269, -0.0457, 0.0126, 0.0038, 0.0001
5, -0.0002, -0.1462, -0.0229, -0.2452, 0.0040, 0.0846, 0.0303, -0.0068, -0.0415, -0.0121, 0.0035, 0.0017
5, 0.0003, -0.0792, -0.0170, -0.6038, 0.0053, 0.1829, 0.0376, -0.0185, -0.0515, -0.0137, 0.0026, 0.0000
5, -0.0009, -0.0813, -0.0197, -0.9982, 0.0035, 0.0560, 0.0256, 0.0275, -0.0351, -0.0534, 0.0029, 0.0035
5, -0.0007, -0.0256, -0.0255, -0.6743, 0.0046, 0.1240, 0.0331, -0.0705, -0.0454, 0.0702, 0.0038, -0.0060
5, 0.0002, -0.2056, -0.0269, 0.2402, 0.0045, 0.1450, 0.0343, -0.0443, -0.0470, 0.0247, 0.0039, -0.0000
5, 0.0005, -0.3865, -0.0264, -0.1453, 0.0044, 0.1228, 0.0337, -0.0312, -0.0462, 0.0065, 0.0039, 0.0008
5, -0.0001, -0.4385, -0.0291, -0.4464, 0.0051, 0.2296, 0.0375, -0.0153, -0.0515, -0.0255, 0.0043, 0.0038
5, 0.0004, -0.5397, -0.0283, -0.0179, 0.0053, 0.0651, 0.0366, -0.0643, -0.0503, 0.0512, 0.0042, -0.0029
5, 0.0005, -0.4985, -0.0352, 0.0292, 0.0061, 0.2098, 0.0441, -0.0255, -0.0606, -0.0165, 0.0051, 0.0039
5, 0.0001, -0.0342, -0.0347, -0.3236, 0.0058, -0.0588, 0.0404, -0.0551, -0.0555, 0.0982, 0.0046, -0.0094
5, 0.0008, -0.2265, -0.0310, -0.5038, 0.0053, 0.0703, 0.0362, 0.0129, -0.0496, -0.0142, 0.0041, 0.0008
5, -0.0014, -0.3376, -0.0302, -1.0605, 0.0061, 0.1093, 0.0365, -0.0545, -0.0503, 0.0913, 0.0042, -0.0089
5, -0.0008, -0.6013, -0.0254, -0.2327, 0.0055, 0.2502, 0.0322, -0.0009, -0.0443, -0.0255, 0.0037, 0.0042
5, -0.0012, -0.6241, -0.0265, -0.0447, 0.0058, 0.3553, 0.0335, -0.1095, -0.0460, 0.1236, 0.0039, -0.0074
5, -0.0010, -0.5920, -0.0306, -0.2962, 0.0063, 0.4379, 0.0377, -0.0312, -0.0518, 0.0314, 0.0043, 0.0000
5, -0.0000, -0.4939, -0.0333, -0.1944, 0.0061, 0.4694, 0.0389, -0.0129, -0.0532, 0.0170, 0.0044, 0.0012
5, -0.0006, -0.1424, -0.0320, -0.6585, 0.0060, 0.4165, 0.0363, 0.0434, -0.0497, -0.0169, 0.0042, 0.0018
5, -0.0011, -0.0848, -0.0336, -0.3750, 0.0064, 0.4436, 0.0391, -0.0194, -0.0536, 0.0676, 0.0045, -0.0049
5, -0.0022, 0.3912, -0.0178, -0.6877, 0.0041, 0.3342, 0.0209, 0.0763, -0.0287, -0.0350, 0.0024, 0.0013
5, -0.0025, 0.3054, -0.0193, -0.1651, 0.0043, 0.3546, 0.0239, 0.0065, -0.0328, 0.0434, 0.0028, -0.0044
5, -0.0025, 0.6314, -0.0262, -0.3343, 0.0058, 0.3352, 0.0318, 0.1633, -0.0438, -0.3640, 0.0037, -0.0004
5, -0.0020, 0.7216, -0.0258, -0.3047, 0.0052, 0.2890, 0.0317, 0.0589, -0.0434, -0.0156, 0.0036, -0.0017
5, -0.0005, 0.6811, -0.0212, 0.0438, 0.0037, 0.3974, 0.0250, 0.0436, -0.0343, 0.0094, 0.0029, -0.0006
5, -0.0011, 0.7117, -0.0162, 0.0238, 0.0028, 0.3693, 0.0193, 0.0141, -0.0265, 0.0430, 0.0022, -0.0069
5, -0.0015, 0.8868, -0.0189, -0.4368, 0.0041, 0.2480, 0.0241, 0.2528, -0.0331, -0.5266, 0.0028, 0.0041
5, -0.0010, 0.8318, -0.0164, -0.4091, 0.0028, 0.2397, 0.0202, 0.0401, -0.0277, 0.0045, 0.0023, -0.0047
5, -0.0010, 0.6222, -0.0185, 0.0755, 0.0035, 0.4993, 0.0234, 0.0832, -0.0321, -0.0412, 0.0027, 0.0001
5, -0.0009, 0.5788, -0.0175, -0.2192, 0.0029, 0.1914, 0.0134, 0.0046, -0.0298, 0.0259, 0.0025, -0.0054
5, -0.0007, 0.1098, -0.0105, 0.3115, 0.0013, 0.3393, 0.0134, 0.0360, -0.0185, -0.0088, 0.0015, -0.0001
5, -0.0007, 0.1471, -0.0115, 0.2516, 0.0018, 0.2469, 0.0145, 0.0262, -0.0200, -0.0082, 0.0017, -0.0004
5, -0.0004, 0.2740, -0.0124, -0.0776, 0.0014, 0.1593, 0.0145, 0.0325, -0.0200, -0.0180, 0.0017, -0.0001
5, -0.0002, 0.2694, -0.0113, -0.1418, 0.0010, 0.1281, 0.0127, 0.0295, -0.0175, -0.0166, 0.0015, -0.0002
5, -0.0000, 0.2038, -0.0109, -0.1250, 0.0006, 0.1037, 0.0118, 0.0145, -0.0162, 0.0007, 0.0014, -0.0012
5, -0.0001, 0.1864, -0.0099, -0.1049, 0.0005, 0.0797, 0.0106, 0.0023, -0.0146, 0.0126, 0.0012, -0.0021
5, -0.0009, 0.2000, -0.0038, -0.1654, 0.0005, 0.0380, 0.0057, 0.0104, -0.0078, -0.0049, 0.0007, -0.0007
5, -0.0008, 0.1270, -0.0039, 0.0673, 0.0006, 0.1221, 0.0056, -0.0016, -0.0078, 0.0178, 0.0007, -0.0024
5, -0.0006, 0.0744, -0.0042, 0.0579, 0.0002, 0.0991, 0.0052, 0.0065, -0.0072, 0.0042, 0.0006, -0.0009
5, -0.0005, 0.0799, -0.0035, 0.0441, -0.0001, 0.0782, 0.0040, -0.0071, -0.0056, 0.0202, 0.0005, -0.0023
5, -0.0004, 0.0322, -0.0032, 0.0319, -0.0002, 0.0483, 0.0035, -0.0015, -0.0048, 0.0087, 0.0004, -0.0010
5, -0.0004, 0.0898, -0.0018, -0.0286, -0.0004, 0.0248, 0.0017, -0.0140, -0.0024, 0.0230, 0.0002, -0.0025
5, -0.0004, 0.0511, -0.0009, -0.0347, -0.0006, 0.0050, 0.0006, -0.0090, -0.0010, 0.0139, 0.0001, -0.0014
6, -0.0005, 0.0401, -0.0001, -0.0265, -0.0006, -0.0017, -0.0001, -0.0008, 0.0001, 0.0004, -0.0000, -0.0002
6, -0.0003, 0.1038, 0.0002, -0.0042, 0.0003, 0.1149, -0.0003, 0.0093, 0.0001, -0.0084, 0.0003, 0.0095
6, 0.0000, 0.1184, 0.0010, -0.0010, 0.0025, 0.1493, -0.0009, 0.0162, 0.0001, -0.0084, 0.0011, 0.0070
6, 0.0005, 0.1616, 0.0013, 0.0222, 0.0043, 0.2597, -0.0013, 0.0278, 0.0001, -0.0114, 0.0017, 0.0109
6, 0.0009, 0.1706, 0.0019, 0.0870, 0.0066, 0.3314, -0.0018, 0.0406, 0.0001, -0.0134, 0.0025, 0.0067
6, 0.0013, 0.2388, 0.0023, 0.0910, 0.0083, 0.4811, -0.0022, 0.0559, 0.0001, -0.0174, 0.0031, 0.0134
6, 0.0011, 0.2430, 0.0037, 0.0271, 0.0103, 0.4420, -0.0028, 0.0578, 0.0002, -0.0169, 0.0039, 0.0084
6, 0.0020, 0.2760, 0.0040, 0.1170, 0.0131, 0.5558, -0.0033, 0.0713, 0.0002, -0.0209, 0.0048, 0.0089
6, 0.0025, 0.3251, 0.0040, 0.1903, 0.0146, 0.7146, -0.0036, 0.0887, 0.0002, -0.0251, 0.0052, 0.0125
6, 0.0035, 0.3668, 0.0037, 0.3597, 0.0171, 0.9079, -0.0040, 0.1125, 0.0002, -0.0311, 0.0060, 0.0114
6, 0.0024, 0.5325, 0.0031, -0.4119, 0.0129, 0.5484, -0.0034, 0.0968, 0.0002, -0.0307, 0.0049, 0.0070
6, 0.0027, 0.5196, 0.0046, -0.3559, 0.0165, 0.5800, -0.0042, 0.0891, 0.0003, -0.0299, 0.0061, 0.0169
6, 0.0031, 0.4146, 0.0065, -0.0542, 0.0206, 0.6482, -0.0052, 0.0960, 0.0003, -0.0280, 0.0074, 0.0077
6, 0.0043, 0.4325, 0.0067, 0.2180, 0.0242, 0.8805, -0.0057, 0.1115, 0.0003, -0.0332, 0.0084, 0.0157
6, 0.0053, 0.3719, 0.0058, 0.4057, 0.0255, 0.9710, -0.0059, 0.1205, 0.0003, -0.0317, 0.0088, 0.0117
6, 0.0058, 0.4171, 0.0058, -0.0102, 0.0268, 0.8080, -0.0064, 0.1143, 0.0003, -0.0273, 0.0095, 0.0125
6, 0.0068, 0.4590, 0.0071, -0.0877, 0.0319, 0.6319, -0.0077, 0.0937, 0.0004, -0.0304, 0.0113, 0.0123
6, 0.0051, 0.3371, 0.0065, 0.1571, 0.0254, 0.5405, -0.0055, 0.0695, 0.0003, -0.0257, 0.0084, 0.0108
6, 0.0054, 0.2698, 0.0074, 0.2068, 0.0284, 0.4427, -0.0066, 0.0494, 0.0003, -0.0212, 0.0098, 0.0128
6, 0.0064, 0.1527, 0.0089, 0.1826, 0.0335, 0.2352, -0.0079, 0.0180, 0.0004, -0.0125, 0.0117, 0.0114
6, 0.0074, -0.0173, 0.0071, 0.2892, 0.0334, 0.0056, -0.0075, -0.0194, 0.0003, -0.0030, 0.0114, 0.0046
6, 0.0069, -0.0028, 0.0037, 0.2170, 0.0285, 0.4183, -0.0071, 0.0341, 0.0004, -0.0004, 0.0105, 0.0185
6, 0.0068, -0.0829, 0.0094, 0.0034, 0.0362, -0.3915, -0.0090, -0.0543, 0.0005, 0.0035, 0.0132, -0.0102
6, 0.0081, -0.3005, 0.0090, 0.2540, 0.0394, -0.5728, -0.0095, -0.1091, 0.0005, 0.0127, 0.0141, -0.0051
6, 0.0085, -0.3276, 0.0083, -0.1016, 0.0406, -0.3295, -0.0101, -0.0458, 0.0006, 0.0153, 0.0148, -0.0086
6, 0.0089, -0.3110, 0.0107, 0.0113, 0.0446, -0.5890, -0.0110, -0.1042, 0.0006, 0.0119, 0.0162, -0.0033
6, 0.0088, -0.2310, 0.0131, 0.1736, 0.0495, -0.4431, -0.0122, -0.0645, 0.0007, 0.0051, 0.0179, -0.0255
6, 0.0092, -0.3928, 0.0169, 0.5517, 0.0535, -0.8770, -0.0135, -0.1928, 0.0008, 0.0079, 0.0195, -0.0080
6, 0.0084, -0.3152, 0.0107, 0.1878, 0.0406, -0.5229, -0.0112, -0.1259, 0.0007, 0.0039, 0.0157, 0.0092
6, 0.0099, -0.0859, 0.0103, -0.6485, 0.0416, 0.1847, -0.0114, 0.0955, 0.0007, -0.0033, 0.0160, -0.0129
6, 0.0111, 0.3554, 0.0123, -0.5488, 0.0498, 0.1552, -0.0135, 0.0921, 0.0008, 0.0007, 0.0191, -0.0159
6, 0.0100, 0.9222, 0.0116, 0.4244, 0.0469, -0.7694, -0.0131, -0.2200, 0.0008, 0.0219, 0.0183, 0.0216
6, 0.0061, 0.5200, 0.0155, 0.2940, 0.0418, -0.2924, -0.0115, -0.0816, 0.0007, 0.0151, 0.0158, -0.0059
6, 0.0057, 0.3830, 0.0120, 0.4218, 0.0390, -0.8033, -0.0106, -0.2177, 0.0006, 0.0139, 0.0148, -0.0023
6, 0.0076, 0.3409, 0.0155, -0.5506, 0.0470, 0.2341, -0.0123, 0.0546, 0.0008, 0.0109, 0.0174, -0.0011
6, 0.0080, 0.3677, 0.0149, -0.0317, 0.0561, -1.3172, -0.0141, 0.0080, 0.0008, 0.0117, 0.0201, -0.0127
6, 0.0072, 0.0791, 0.0123, 0.1606, 0.0475, -0.2217, -0.0136, -0.0927, 0.0008, 0.0034, 0.0188, 0.0148
6, 0.0066, 0.1668, 0.0148, -0.3103, 0.0515, -0.1195, -0.0153, -0.0688, 0.0008, 0.0041, 0.0206, -0.0263
6, 0.0081, -0.0324, 0.0153, -0.5209, 0.0580, 0.3422, -0.0164, 0.1731, 0.0009, -0.0024, 0.0227, -0.0029
6, 0.0100, -0.0367, 0.0165, -0.1714, 0.0620, 0.0708, -0.0174, 0.0426, 0.0010, -0.0017, 0.0241, -0.0026
6, 0.0133, -0.1340, 0.0234, 0.0070, 0.0939, -0.8309, -0.0204, 0.0063, 0.0013, -0.0048, 0.0287, -0.0098
6, 0.0054, -0.0199, 0.0145, 0.5203, 0.0540, -1.9310, -0.0133, 0.0634, 0.0007, 0.0013, 0.0186, -0.0154
6, 0.0136, -0.0234, 0.0254, -0.0618, 0.0937, 0.5531, -0.0248, 0.1628, 0.0015, 0.0017, 0.0350, 0.0677
6, 0.0116, 0.0175, 0.0240, 0.2392, 0.1158, -1.5854, -0.0198, 0.0192, 0.0012, -0.0006, 0.0278, -0.0615
6, 0.0201, -0.0863, 0.0446, 0.3712, 0.1735, -1.9062, -0.0377, 0.0059, 0.0022, -0.0022, 0.0529, -0.0166
6, 0.0350, -0.0976, 0.0761, 0.3475, 0.2716, -1.9801, -0.0641, 0.0258, 0.0038, -0.0034, 0.0898, -0.0444
6, 0.0296, -0.6868, 0.0860, -0.1036, 0.2902, -2.0739, -0.0340, 2.4310, 0.0009, -0.0020, 0.0599, -2.6869
6, -0.0038, -0.0431, 0.0319, -1.8022, 0.2394, -1.4733, -0.0147, -0.0142, 0.0009, 0.0010, 0.0206, 0.0226
6, 0.0064, -0.4547, 0.0041, -0.0304, 0.1882, -1.8798, -0.0148, 0.0277, 0.0008, -0.0156, 0.0207, -0.0311
6, 0.0091, 0.1463, 0.0201, 0.1213, 0.1294, -2.0867, -0.0171, -0.0009, 0.0010, 0.0052, 0.0240, 0.0022
6, 0.0049, -0.1816, 0.0067, -0.7372, 0.0416, 1.4317, -0.0113, 0.0693, 0.0006, -0.0101, 0.0159, -0.0145
6, 0.0051, -0.0363, 0.0108, -0.5241, 0.0451, 0.4469, -0.0126, -0.0286, 0.0007, -0.0043, 0.0175, -0.0108
6, 0.0090, 0.1885, 0.0156, -0.0347, 0.0557, 0.4503, -0.0151, 0.0776, 0.0009, 0.0070, 0.0211, -0.0384
6, 0.0055, -0.2051, 0.0082, -0.3692, 0.0409, 0.2857, -0.0116, -0.0404, 0.0006, -0.0089, 0.0160, 0.0101
6, 0.0089, 0.2487, 0.0157, 0.0710, 0.0550, 0.1577, -0.0147, -0.0027, 0.0009, 0.0073, 0.0206, -0.0472
6, 0.0085, -0.2485, 0.0192, -0.1030, 0.0577, 0.1655, -0.0154, 0.0142, 0.0009, -0.0128, 0.0217, -0.0584
6, 0.0084, 0.0913, 0.0172, -0.1107, 0.0545, 0.3725, -0.0148, -0.0376, 0.0009, 0.0022, 0.0207, -0.0036
6, 0.0047, 0.0666, 0.0084, 0.1710, 0.0333, 0.0232, -0.0095, 0.0141, 0.0006, 0.0022, 0.0133, -0.0098
6, 0.0051, -0.0867, 0.0106, -0.2511, 0.0390, 0.0776, -0.0110, -0.0155, 0.0006, -0.0041, 0.0155, -0.0124
6, 0.0059, -0.0094, 0.0122, 0.1949, 0.0405, 0.0596, -0.0113, 0.0273, 0.0007, -0.0024, 0.0159, -0.0381
6, 0.0050, -0.0421, 0.0104, -0.1700, 0.0367, -0.2706, -0.0104, 0.0267, 0.0006, -0.0015, 0.0146, -0.0251
6, 0.0059, -0.0247, 0.0117, 0.3021, 0.0390, -0.0057, -0.0106, 0.0081, 0.0006, -0.0017, 0.0148, -0.0081
6, 0.0072, -0.0243, 0.0155, 0.0954, 0.0442, -0.1211, -0.0118, 0.0253, 0.0007, -0.0017, 0.0166, -0.0150
6, 0.0056, 0.0114, 0.0113, 0.1987, 0.0394, -0.2618, -0.0110, 0.0430, 0.0006, -0.0001, 0.0155, -0.0125
6, 0.0059, 0.0351, 0.0123, 0.2634, 0.0406, -0.3821, -0.0112, 0.0516, 0.0007, 0.0011, 0.0158, -0.0014
6, 0.0056, 0.0448, 0.0108, 0.3090, 0.0421, -0.4843, -0.0119, 0.0696, 0.0007, 0.0009, 0.0165, -0.0133
6, 0.0029, 0.1145, 0.0058, 0.4274, 0.0242, -0.7959, -0.0070, 0.1053, 0.0004, 0.0033, 0.0098, -0.0178
6, 0.0040, -0.0625, 0.0096, -0.1149, 0.0235, -0.5506, -0.0062, 0.0420, 0.0004, -0.0022, 0.0089, -0.0086
6, 0.0035, 0.1225, 0.0081, 0.4341, 0.0247, -0.3749, -0.0068, 0.0710, 0.0004, 0.0024, 0.0095, -0.0189
6, 0.0033, -0.0388, 0.0076, -0.0431, 0.0229, -0.2342, -0.0062, 0.0210, 0.0004, -0.0019, 0.0088, -0.0095
6, 0.0030, 0.0562, 0.0074, 0.1333, 0.0195, -0.6284, -0.0053, 0.0697, 0.0003, 0.0006, 0.0075, -0.0200
6, 0.0022, 0.1159, 0.0053, 0.3115, 0.0167, -0.6289, -0.0046, 0.0754, 0.0003, 0.0020, 0.0065, -0.0086
6, 0.0023, 0.0458, 0.0056, 0.1374, 0.0169, -0.3870, -0.0046, 0.0434, 0.0003, 0.0002, 0.0065, -0.0073
6, 0.0024, 0.2141, 0.0049, 0.5377, 0.0225, -1.0355, -0.0063, 0.1228, 0.0003, 0.0032, 0.0087, -0.0109
6, 0.0032, -0.1218, 0.0079, -0.3771, 0.0217, -0.2370, -0.0058, -0.0061, 0.0003, -0.0029, 0.0082, -0.0065
6, 0.0023, 0.2200, 0.0059, 0.5367, 0.0179, -0.3277, -0.0047, 0.0642, 0.0003, 0.0041, 0.0067, -0.0022
6, 0.0011, 0.0194, 0.0030, -0.0743, 0.0100, -0.5493, -0.0027, 0.0362, 0.0001, -0.0002, 0.0037, -0.0037
6, 0.0013, 0.0550, 0.0037, 0.0415, 0.0100, -0.3167, -0.0026, 0.0292, 0.0001, 0.0008, 0.0036, -0.0063
6, 0.0014, 0.0644, 0.0039, 0.0643, 0.0105, -0.1703, -0.0027, 0.0208, 0.0002, 0.0014, 0.0038, -0.0070
6, 0.0010, 0.1022, 0.0031, 0.1332, 0.0083, -0.1532, -0.0021, 0.0249, 0.0001, 0.0023, 0.0030, -0.0077
6, 0.0004, 0.1699, 0.0017, 0.3014, 0.0066, -0.2503, -0.0017, 0.0453, 0.0001, 0.0031, 0.0024, -0.0093
6, 0.0001, 0.0823, 0.0010, 0.0685, 0.0043, -0.1257, -0.0011, 0.0183, 0.0000, 0.0020, 0.0015, -0.0080
6, -0.0001, 0.0847, 0.0007, 0.0892, 0.0022, -0.0649, -0.0005, 0.0153, 0.0000, 0.0021, 0.0007, -0.0074
6, -0.0004, 0.0605, 0.0001, 0.0156, 0.0005, -0.0968, -0.0001, 0.0104, -0.0000, 0.0017, 0.0001, -0.0047
6, -0.0004, 0.0599, 0.0002, 0.0305, 0.0004, -0.0068, 0.0000, 0.0035, -0.0000, 0.0019, -0.0000, -0.0016
6, -0.0006, 0.0678, -0.0003, 0.0557, -0.0011, -0.0345, 0.0004, 0.0127, -0.0001, 0.0013, -0.0006, -0.0097
6, -0.0010, 0.0552, -0.0010, 0.0367, -0.0031, 0.0122, 0.0010, 0.0078, -0.0001, 0.0012, -0.0013, -0.0094
6, -0.0013, 0.0401, -0.0018, 0.0148, -0.0054, 0.0234, 0.0017, 0.0047, -0.0002, 0.0009, -0.0022, -0.0082
6, -0.0016, 0.0155, -0.0023, -0.0180, -0.0074, 0.0628, 0.0022, 0.0042, -0.0003, -0.0002, -0.0029, -0.0154
6, -0.0017, -0.0316, -0.0024, -0.0862, -0.0089, 0.3034, 0.0027, -0.0244, -0.0003, 0.0001, -0.0035, -0.0053
6, -0.0021, 0.0111, -0.0035, 0.0300, -0.0105, 0.0221, 0.0031, 0.0133, -0.0004, -0.0012, -0.0041, -0.0194
6, -0.0025, -0.0848, -0.0040, -0.2075, -0.0143, 0.2570, 0.0043, -0.0336, -0.0005, -0.0009, -0.0054, -0.0001
6, -0.0025, -0.0782, -0.0040, -0.1104, -0.0144, 0.2397, 0.0044, -0.0144, -0.0005, -0.0030, -0.0056, -0.0166
6, -0.0028, -0.0623, -0.0047, -0.0534, -0.0166, 0.3608, 0.0050, -0.0175, -0.0006, -0.0028, -0.0064, -0.0190
6, -0.0033, -0.0596, -0.0059, -0.0470, -0.0191, 0.2465, 0.0056, -0.0098, -0.0007, -0.0031, -0.0072, -0.0178
6, -0.0022, -0.3006, -0.0029, -0.6183, -0.0165, 0.8031, 0.0052, -0.0921, -0.0006, -0.0082, -0.0065, -0.0181
6, -0.0036, 0.0849, -0.0069, 0.3172, -0.0224, 0.0349, 0.0066, 0.0253, -0.0008, 0.0007, -0.0084, -0.0077
6, -0.0038, -0.2069, -0.0070, -0.4008, -0.0243, 0.3501, 0.0073, -0.0464, -0.0009, -0.0070, -0.0092, -0.0131
6, -0.0038, -0.0346, -0.0078, 0.0849, -0.0206, 0.2662, 0.0060, -0.0103, -0.0008, -0.0026, -0.0077, -0.0059
6, -0.0037, 0.0482, -0.0091, 0.2163, -0.0203, -0.0817, 0.0057, 0.0259, -0.0007, 0.0002, -0.0076, -0.0065
6, -0.0039, -0.1063, -0.0084, -0.0002, -0.0221, -0.0577, 0.0065, 0.0180, -0.0008, -0.0067, -0.0084, -0.0199
6, -0.0041, -0.1153, -0.0076, -0.1812, -0.0277, 0.1899, 0.0084, -0.0277, -0.0010, -0.0045, -0.0107, 0.0006
6, -0.0034, -0.2550, -0.0063, -0.1722, -0.0267, 0.8486, 0.0082, -0.0600, -0.0010, -0.0148, -0.0104, -0.0258
6, -0.0053, -0.1387, -0.0102, -0.0798, -0.0338, 0.4237, 0.0101, -0.0269, -0.0012, -0.0088, -0.0129, -0.0206
6, -0.0051, -0.1973, -0.0098, -0.1151, -0.0375, 0.6878, 0.0113, -0.0505, -0.0013, -0.0120, -0.0144, -0.0162
6, -0.0055, -0.0001, -0.0124, -0.0884, -0.0365, 0.0934, 0.0108, 0.0026, -0.0013, -0.0023, -0.0140, -0.0274
6, -0.0049, 0.1201, -0.0104, -0.1062, -0.0286, -0.2580, 0.0082, 0.0141, -0.0010, 0.0069, -0.0106, -0.0001
6, -0.0056, 0.0371, -0.0114, 0.1529, -0.0312, -0.1663, 0.0089, 0.0272, -0.0011, 0.0015, -0.0115, -0.0044
6, -0.0052, -0.0795, -0.0098, 0.1594, -0.0337, -0.1902, 0.0100, 0.0541, -0.0012, -0.0071, -0.0128, -0.0436
6, -0.0054, -0.0419, -0.0112, 0.2229, -0.0408, 0.0206, 0.0122, 0.0334, -0.0014, -0.0049, -0.0156, -0.0276
6, -0.0058, 0.0175, -0.0120, 0.1350, -0.0447, 0.5105, 0.0134, -0.0282, -0.0016, -0.0028, -0.0170, -0.0083
6, -0.0070, 0.1082, -0.0109, 0.0605, -0.0450, -0.0154, 0.0137, 0.0162, -0.0017, 0.0028, -0.0174, -0.0204
6, -0.0073, -0.0943, -0.0150, 0.2734, -0.0525, -0.0400, 0.0156, 0.0295, -0.0019, -0.0052, -0.0199, -0.0157
6, -0.0057, -0.0747, -0.0118, -0.1030, -0.0397, -0.6517, 0.0112, 0.0678, -0.0013, 0.0002, -0.0143, -0.0091
6, -0.0051, -0.0176, -0.0218, 0.2734, -0.0525, 1.1578, 0.0143, 0.0262, -0.0016, -0.0037, -0.0183, -0.0376
6, -0.0094, -0.0518, -0.0199, 0.6033, -0.0576, 0.5097, 0.0167, -0.0357, -0.0020, -0.0059, -0.0213, -0.0003
6, -0.0072, 0.0834, -0.0168, 0.1764, -0.0620, 1.1716, 0.0164, 0.0399, -0.0019, -0.0003, -0.0209, -0.0461
6, -0.0079, 0.0330, -0.0119, -0.1022, -0.0463, -0.3145, 0.0136, -0.0642, -0.0017, -0.0061, -0.0172, -0.0194
6, -0.0074, 0.2041, -0.0173, -0.1316, -0.0561, -0.0958, 0.0161, 0.0281, -0.0019, 0.0034, -0.0205, -0.0434
6, -0.0076, 0.0176, -0.0190, -0.5715, -0.0655, 2.0018, 0.0181, 0.0064, -0.0021, -0.0051, -0.0231, -0.0208
6, -0.0069, -0.1380, -0.0178, -0.5579, -0.0756, 2.0336, 0.0169, -0.0095, -0.0020, -0.0067, -0.0215, -0.0118
6, -0.0103, -0.0430, -0.0237, -0.9334, -0.1120, 1.9186, 0.0202, -0.0262, -0.0024, -0.0026, -0.0258, 0.0051
6, -0.0102, -0.0248, -0.0235, -0.9640, -0.2000, 1.2301, 0.0209, 0.0041, -0.0025, -0.0036, -0.0267, 0.0006
6, -0.0085, -0.1960, -0.0163, -0.9228, -0.3182, 0.5870, 0.0149, 0.0061, -0.0018, -0.0101, -0.0190, -0.0026
6, -0.0096, 0.2382, -0.0197, -0.9683, -0.4453, 0.4610, 0.0178, 0.0127, -0.0022, 0.0030, -0.0227, -0.0203
6, -0.0085, 0.3353, -0.0214, -0.9349, -0.5824, 0.7535, 0.0189, -0.0297, -0.0022, 0.0094, -0.0242, 0.0259
6, -0.0081, -0.1172, -0.0213, -0.7614, -0.7042, 0.1872, 0.0196, 0.0268, -0.0023, -0.0111, -0.0250, -0.0430
6, -0.0115, -0.3224, -0.0230, -0.6290, -0.8241, 0.0627, 0.0211, -0.0246, -0.0026, -0.0128, -0.0269, 0.0249
6, -0.0113, 0.1398, -0.0227, -0.7643, -0.9382, 0.4157, 0.0144, 0.0317, -0.0025, -0.0008, -0.0268, -0.0188
6, -0.0081, 0.0578, -0.0158, -0.8152, -1.0496, 0.6436, 0.0150, -0.0331, -0.0018, -0.0011, -0.0191, 0.0249
6, -0.0060, 0.1823, -0.0158, -0.9626, -1.1520, 0.9164, 0.0147, -0.0034, -0.0017, -0.0011, -0.0188, -0.0186
6, -0.0081, -0.2328, -0.0178, -0.6952, -1.2571, 0.4775, 0.0168, -0.0239, -0.0020, -0.0122, -0.0214, 0.0168
6, -0.0076, 0.0384, -0.0158, -0.7385, -1.3480, 0.5130, 0.0150, 0.0131, -0.0018, -0.0066, -0.0191, -0.0351
6, -0.0071, -0.0766, -0.0177, -0.5077, -1.4470, 0.2545, 0.0169, -0.0302, -0.0020, -0.0051, -0.0215, 0.0242
6, -0.0080, -0.1910, -0.0151, -0.6291, -1.5241, 0.5682, 0.0145, -0.0106, -0.0018, -0.0124, -0.0184, -0.0006
6, -0.0039, 0.2269, -0.0114, -0.3158, -1.6160, 0.0527, 0.0120, -0.0210, -0.0013, 0.0069, -0.0152, 0.0130
6, -0.0057, -0.2939, -0.0132, -0.7731, -1.6844, 0.9247, 0.0125, -0.0099, -0.0015, -0.0186, -0.0159, -0.0040
6, -0.0068, 0.0458, -0.0134, -0.7514, -1.7577, 0.8827, 0.0130, -0.0366, -0.0016, -0.0033, -0.0166, 0.0280
6, -0.0059, -0.0597, -0.0091, -0.5117, -1.8277, 0.3080, 0.0101, -0.0153, -0.0012, -0.0069, -0.0129, 0.0068
6, -0.0039, 0.0299, -0.0114, -0.8487, -1.8988, 1.1696, 0.0111, -0.0366, -0.0013, -0.0057, -0.0142, 0.0255
6, -0.0049, -0.1957, -0.0096, -0.6550, -1.9654, 0.7768, 0.0097, -0.0275, -0.0011, -0.0134, -0.0123, 0.0216
6, -0.0053, 0.0061, -0.0121, -0.7925, -2.0326, 1.1473, 0.0117, -0.0425, -0.0014, -0.0059, -0.0149, 0.0358
6, -0.0055, -0.1645, -0.0112, -0.7155, -2.0904, 0.8595, 0.0111, -0.0038, -0.0013, -0.0155, -0.0141, -0.0093
6, -0.0071, -0.0480, -0.0128, -0.6103, -2.1477, 0.7564, 0.0129, -0.0411, -0.0015, -0.0064, -0.0164, 0.0390
6, -0.0055, -0.1281, -0.0120, -0.7653, -2.2023, 0.9943, 0.0118, -0.0116, -0.0014, -0.0146, -0.0150, -0.0005
6, -0.0036, -0.1218, -0.0078, -0.6972, -2.2545, 0.9645, 0.0084, -0.0131, -0.0010, -0.0137, -0.0107, 0.0027
6, -0.0039, -0.1246, -0.0076, -0.7547, -2.3036, 1.0640, 0.0081, -0.0070, -0.0009, -0.0153, -0.0103, -0.0055
6, -0.0029, -0.1640, -0.0072, -0.8627, -2.3477, 1.3026, 0.0073, -0.0047, -0.0008, -0.0190, -0.0093, -0.0097
6, -0.0041, -0.1099, -0.0082, -0.8341, -2.3913, 1.3978, 0.0083, -0.0282, -0.0010, -0.0146, -0.0106, 0.0208
6, -0.0041, -0.1382, -0.0080, -0.8005, -2.4303, 1.3555, 0.0082, -0.0252, -0.0010, -0.0159, -0.0104, 0.0185
6, -0.0038, -0.1436, -0.0074, -0.6766, -2.4671, 1.0177, 0.0081, -0.0177, -0.0009, -0.0152, -0.0103, 0.0116
6, -0.0040, -0.0994, -0.0070, -0.7350, -2.5006, 1.1911, 0.0077, -0.0200, -0.0009, -0.0141, -0.0097, 0.0138
6, -0.0038, -0.1477, -0.0067, -0.6561, -2.5324, 1.0754, 0.0076, -0.0242, -0.0009, -0.0150, -0.0096, 0.0213
6, -0.0034, -0.1392, -0.0066, -0.7323, -2.5586, 1.3468, 0.0071, -0.0241, -0.0008, -0.0160, -0.0091, 0.0207
6, -0.0015, -0.2312, -0.0032, -0.6102, -2.5788, 1.0550, 0.0043, -0.0092, -0.0005, -0.0198, -0.0055, 0.0053
6, -0.0015, -0.1511, -0.0033, -0.7261, -2.5986, 1.3901, 0.0041, -0.0099, -0.0004, -0.0179, -0.0052, 0.0052
6, -0.0018, -0.1347, -0.0030, -0.6625, -2.6147, 1.2525, 0.0041, -0.0095, -0.0005, -0.0163, -0.0052, 0.0062
6, -0.0015, -0.2042, -0.0028, -0.6882, -2.6279, 1.3728, 0.0037, -0.0126, -0.0004, -0.0200, -0.0047, 0.0114
6, -0.0017, -0.1264, -0.0030, -0.6456, -2.6381, 1.2978, 0.0041, -0.0103, -0.0004, -0.0158, -0.0052, 0.0093
6, -0.0019, -0.1034, -0.0026, -0.6839, -2.6451, 1.3999, 0.0037, -0.0088, -0.0004, -0.0155, -0.0047, 0.0082
6, -0.0018, -0.1667, -0.0009, -0.6214, -2.6482, 1.2532, 0.0023, -0.0051, -0.0004, -0.0176, -0.0029, 0.0056
6, -0.0006, -0.1650, -0.0005, -0.6818, -2.6515, 1.4002, 0.0018, -0.0015, -0.0002, -0.0193, -0.0023, 0.0017
6, -0.0005, -0.1669, -0.0003, -0.6733, -2.6539, 1.3991, 0.0016, -0.0063, -0.0001, -0.0189, -0.0020, 0.0088
6, -0.0003, -0.1708, 0.0002, -0.6665, -2.6534, 1.3907, 0.0012, -0.0022, -0.0001, -0.0194, -0.0016, 0.0045
6, -0.0001, -0.1676, 0.0006, -0.6845, -2.6515, 1.4497, 0.0008, -0.0030, -0.0001, -0.0194, -0.0010, 0.0064
6, 0.0001, -0.1695, 0.0011, -0.6639, -2.6474, 1.4186, 0.0005, -0.0013, -0.0000, -0.0194, -0.0006, 0.0050
6, 0.0003, -0.1667, 0.0016, -0.6553, -2.6414, 1.4062, 0.0001, -0.0012, 0.0000, -0.0191, -0.0001, 0.0055
6, 0.0003, -0.1676, 0.0018, -0.6522, -2.6347, 1.3716, -0.0000, 0.0040, 0.0000, -0.0194, 0.0000, -0.0004
7, 0.0003, -0.1718, 0.0017, -0.6616, -2.6291, 1.3641, -0.0000, 0.0050, 0.0000, -0.0195, -0.0000, -0.0006
7, -0.0008, -0.2220, -0.0004, -0.8658, -2.6234, 1.6488, 0.0011, 0.0294, 0.0003, -0.0174, -0.0007, -0.0156
7, -0.0023, -0.2095, -0.0019, -0.9160, -2.6252, 1.6628, 0.0030, 0.0273, 0.0009, -0.0184, -0.0020, -0.0141
