7cmdehdrb/project_th/tune/gain_tuner3.csv
EXP, ShoulderPan_PE, ShoulderPan_VE, ShoulderLift_PE, \ShoulderLift_VE, Elbow_PE,             Elbow_VE, Wrist1_PE, Wrist1_VE, Wrist2_PE, Wrist2_VE, Wrist3_PE, Wrist3_VE
745, 0.0004, -0.0036, 0.0005, -0.0043, -0.0006, 0.0049, -0.0006, 0.0048, -0.0005, 0.0045, -0.0006, 0.0054
745, 0.0002, -0.0079, 0.0006, 0.0025, 0.0005, 0.0265, -0.0006, -0.0056, -0.0002, 0.0066, 0.0002, 0.0201
745, -0.0001, -0.0055, 0.0009, -0.0000, 0.0023, 0.0120, -0.0010, -0.0030, 0.0002, 0.0033, 0.0014, 0.0102
745, -0.0004, -0.0070, 0.0013, 0.0023, 0.0041, 0.0193, -0.0015, -0.0067, 0.0005, 0.0040, 0.0026, 0.0152
745, -0.0007, -0.0040, 0.0017, -0.0016, 0.0058, 0.0028, -0.0020, -0.0015, 0.0008, 0.0012, 0.0037, 0.0040
745, -0.0011, -0.0054, 0.0022, 0.0004, 0.0077, 0.0100, -0.0027, -0.0043, 0.0011, 0.0021, 0.0051, 0.0089
745, -0.0014, -0.0061, 0.0026, 0.0013, 0.0095, 0.0134, -0.0033, -0.0057, 0.0014, 0.0026, 0.0063, 0.0112
745, -0.0019, -0.0050, 0.0032, -0.0002, 0.0119, 0.0077, -0.0041, -0.0038, 0.0018, 0.0017, 0.0079, 0.0074
745, -0.0021, -0.0003, 0.0036, -0.0065, 0.0134, -0.0171, -0.0046, 0.0049, 0.0020, -0.0021, 0.0089, -0.0095
745, -0.0032, -0.0052, 0.0050, 0.0001, 0.0191, 0.0093, -0.0066, -0.0045, 0.0029, 0.0019, 0.0128, 0.0086
745, -0.0034, 0.0049, 0.0053, -0.0135, 0.0201, -0.0446, -0.0070, 0.0146, 0.0030, -0.0063, 0.0135, -0.0282
745, -0.0038, 0.0008, 0.0059, -0.0080, 0.0223, -0.0226, -0.0078, 0.0068, 0.0034, -0.0030, 0.0150, -0.0132
745, -0.0041, -0.0006, 0.0062, -0.0061, 0.0237, -0.0147, -0.0083, 0.0039, 0.0036, -0.0017, 0.0160, -0.0077
745, -0.0043, -0.0023, 0.0065, -0.0039, 0.0247, -0.0061, -0.0086, 0.0008, 0.0037, -0.0004, 0.0166, -0.0018
745, -0.0044, 0.0067, 0.0067, -0.0161, 0.0256, -0.0538, -0.0089, 0.0177, 0.0039, -0.0077, 0.0172, -0.0343
745, -0.0046, 0.0032, 0.0069, -0.0113, 0.0263, -0.0348, -0.0092, 0.0110, 0.0040, -0.0048, 0.0178, -0.0214
745, -0.0048, 0.0080, 0.0072, -0.0178, 0.0274, -0.0605, -0.0096, 0.0201, 0.0041, -0.0087, 0.0185, -0.0388
745, -0.0051, 0.0026, 0.0076, -0.0105, 0.0290, -0.0315, -0.0102, 0.0098, 0.0044, -0.0043, 0.0196, -0.0190
745, -0.0057, 0.0174, 0.0085, -0.0305, 0.0324, -0.1099, -0.0113, 0.0375, 0.0049, -0.0162, 0.0219, -0.0724
745, -0.0061, -0.0043, 0.0089, -0.0013, 0.0342, 0.0052, -0.0120, -0.0034, 0.0052, 0.0014, 0.0231, 0.0062
745, -0.0060, 0.0179, 0.0088, -0.0312, 0.0338, -0.1121, -0.0118, 0.0382, 0.0051, -0.0166, 0.0228, -0.0738
745, -0.0089, 0.0162, 0.0127, -0.0289, 0.0492, -0.1021, -0.0173, 0.0346, 0.0075, -0.0150, 0.0333, -0.0668
745, -0.0085, 0.0155, 0.0122, -0.0279, 0.0472, -0.0989, -0.0166, 0.0334, 0.0072, -0.0145, 0.0320, -0.0646
745, -0.0081, 0.0251, 0.0117, -0.0407, 0.0451, -0.1490, -0.0158, 0.0512, 0.0068, -0.0222, 0.0305, -0.0987
745, -0.0088, 0.0208, 0.0126, -0.0348, 0.0487, -0.1267, -0.0171, 0.0433, 0.0074, -0.0187, 0.0330, -0.0835
745, -0.0089, 0.0205, 0.0126, -0.0343, 0.0490, -0.1250, -0.0172, 0.0426, 0.0074, -0.0185, 0.0332, -0.0823
745, -0.0089, 0.0113, 0.0126, -0.0216, 0.0491, -0.0758, -0.0172, 0.0251, 0.0075, -0.0109, 0.0332, -0.0486
745, -0.0085, 0.0179, 0.0121, -0.0303, 0.0472, -0.1110, -0.0166, 0.0375, 0.0072, -0.0163, 0.0319, -0.0726
745, -0.0092, 0.0247, 0.0130, -0.0393, 0.0506, -0.1457, -0.0178, 0.0497, 0.0077, -0.0216, 0.0342, -0.0961
745, -0.0087, 0.0192, 0.0123, -0.0311, 0.0482, -0.1167, -0.0169, 0.0395, 0.0073, -0.0172, 0.0326, -0.0765
745, -0.0094, 0.0336, 0.0130, -0.0501, 0.0514, -0.1921, -0.0181, 0.0663, 0.0078, -0.0287, 0.0348, -0.1278
745, -0.0127, 0.0403, 0.0176, -0.0593, 0.0692, -0.2264, -0.0244, 0.0782, 0.0105, -0.0339, 0.0470, -0.1510
745, -0.0128, 0.0476, 0.0176, -0.0686, 0.0697, -0.2640, -0.0245, 0.0916, 0.0106, -0.0396, 0.0473, -0.1767
745, -0.0130, 0.0373, 0.0177, -0.0535, 0.0705, -0.2097, -0.0248, 0.0724, 0.0107, -0.0314, 0.0478, -0.1397
745, -0.0129, 0.0437, 0.0175, -0.0613, 0.0700, -0.2430, -0.0247, 0.0842, 0.0107, -0.0365, 0.0475, -0.1625
745, -0.0126, 0.0374, 0.0168, -0.0521, 0.0680, -0.2086, -0.0239, 0.0720, 0.0104, -0.0312, 0.0461, -0.1390
745, -0.0129, 0.0471, 0.0172, -0.0635, 0.0699, -0.2601, -0.0246, 0.0903, 0.0106, -0.0391, 0.0475, -0.1743
745, -0.0119, 0.0277, 0.0156, -0.0356, 0.0645, -0.1562, -0.0227, 0.0534, 0.0098, -0.0232, 0.0437, -0.1036
745, -0.0169, 0.0508, 0.0223, -0.0667, 0.0908, -0.2780, -0.0320, 0.0965, 0.0138, -0.0419, 0.0617, -0.1867
745, -0.0159, 0.0417, 0.0207, -0.0533, 0.0853, -0.2287, -0.0301, 0.0791, 0.0130, -0.0344, 0.0580, -0.1532
745, -0.0155, 0.0802, 0.0201, -0.1046, 0.0833, -0.4322, -0.0294, 0.1514, 0.0127, -0.0656, 0.0566, -0.2924
745, -0.0141, 0.0457, 0.0176, -0.0530, 0.0755, -0.2486, -0.0266, 0.0865, 0.0115, -0.0376, 0.0514, -0.1677
745, -0.0143, 0.0596, 0.0177, -0.0690, 0.0766, -0.3222, -0.0271, 0.1129, 0.0117, -0.0490, 0.0522, -0.2183
745, -0.0134, 0.0444, 0.0162, -0.0459, 0.0721, -0.2404, -0.0255, 0.0839, 0.0110, -0.0365, 0.0491, -0.1629
745, -0.0133, 0.0417, 0.0157, -0.0392, 0.0712, -0.2255, -0.0252, 0.0789, 0.0109, -0.0344, 0.0485, -0.1532
745, -0.0130, 0.0433, 0.0152, -0.0398, 0.0696, -0.2335, -0.0246, 0.0820, 0.0107, -0.0357, 0.0475, -0.1591
745, -0.0125, 0.0553, 0.0145, -0.0551, 0.0670, -0.2970, -0.0237, 0.1047, 0.0103, -0.0455, 0.0458, -0.2028
745, -0.0157, 0.0282, 0.0188, -0.0188, 0.0839, -0.1524, -0.0297, 0.0535, 0.0129, -0.0234, 0.0573, -0.1042
745, -0.0140, 0.0687, 0.0167, -0.0751, 0.0748, -0.3666, -0.0265, 0.1296, 0.0115, -0.0563, 0.0511, -0.2508
745, -0.0129, 0.0489, 0.0150, -0.0466, 0.0688, -0.2617, -0.0244, 0.0926, 0.0106, -0.0402, 0.0471, -0.1794
745, -0.0126, 0.0601, 0.0146, -0.0612, 0.0670, -0.3207, -0.0238, 0.1139, 0.0103, -0.0493, 0.0458, -0.2198
745, -0.0119, 0.0409, 0.0138, -0.0366, 0.0634, -0.2189, -0.0225, 0.0777, 0.0097, -0.0337, 0.0434, -0.1503
745, -0.0111, 0.0342, 0.0131, -0.0298, 0.0593, -0.1832, -0.0210, 0.0649, 0.0091, -0.0282, 0.0406, -0.1259
745, -0.0133, 0.0533, 0.0161, -0.0568, 0.0707, -0.2846, -0.0251, 0.1008, 0.0109, -0.0438, 0.0484, -0.1951
745, -0.0128, 0.0611, 0.0157, -0.0690, 0.0683, -0.3260, -0.0242, 0.1154, 0.0105, -0.0501, 0.0467, -0.2232
745, -0.0113, 0.0357, 0.0137, -0.0356, 0.0601, -0.1915, -0.0213, 0.0676, 0.0092, -0.0295, 0.0411, -0.1312
745, -0.0102, 0.0421, 0.0124, -0.0456, 0.0546, -0.2254, -0.0193, 0.0797, 0.0084, -0.0347, 0.0373, -0.1543
745, -0.0091, 0.0298, 0.0150, -0.0466, 0.0643, -0.2276, -0.0173, 0.0565, 0.0099, -0.0350, 0.0334, -0.1097
745, -0.0085, 0.0284, 0.0141, -0.0390, 0.0603, -0.1950, -0.0214, 0.0689, 0.0069, -0.0235, 0.0412, -0.1333
745, -0.0079, 0.0356, 0.0096, -0.0388, 0.0423, -0.1909, -0.0150, 0.0675, 0.0065, -0.0293, 0.0289, -0.1304
745, -0.0076, 0.0303, 0.0093, -0.0326, 0.0404, -0.1627, -0.0143, 0.0575, 0.0062, -0.0250, 0.0276, -0.1110
745, -0.0072, 0.0261, 0.0089, -0.0276, 0.0386, -0.1409, -0.0137, 0.0498, 0.0059, -0.0216, 0.0263, -0.0960
745, -0.0067, 0.0241, 0.0083, -0.0256, 0.0358, -0.1300, -0.0127, 0.0459, 0.0055, -0.0199, 0.0244, -0.0884
745, -0.0060, 0.0221, 0.0074, -0.0234, 0.0322, -0.1195, -0.0114, 0.0423, 0.0049, -0.0183, 0.0219, -0.0812
745, -0.0078, 0.0189, 0.0071, -0.0205, 0.0419, -0.1021, -0.0109, 0.0375, 0.0064, -0.0156, 0.0286, -0.0692
745, -0.0055, 0.0232, 0.0069, -0.0258, 0.0400, -0.1508, -0.0105, 0.0443, 0.0045, -0.0191, 0.0273, -0.1023
745, -0.0071, 0.0236, 0.0090, -0.0267, 0.0378, -0.1273, -0.0134, 0.0452, 0.0058, -0.0194, 0.0258, -0.0862
745, -0.0065, 0.0320, 0.0082, -0.0387, 0.0347, -0.1725, -0.0123, 0.0612, 0.0053, -0.0263, 0.0236, -0.1169
745, -0.0059, 0.0210, 0.0074, -0.0241, 0.0313, -0.1136, -0.0111, 0.0403, 0.0048, -0.0173, 0.0213, -0.0766
745, -0.0052, 0.0270, 0.0066, -0.0324, 0.0280, -0.1457, -0.0099, 0.0517, 0.0043, -0.0222, 0.0190, -0.0984
745, -0.0046, 0.0243, 0.0058, -0.0289, 0.0247, -0.1309, -0.0088, 0.0465, 0.0038, -0.0199, 0.0168, -0.0883
745, -0.0040, 0.0188, 0.0050, -0.0216, 0.0217, -0.1017, -0.0077, 0.0363, 0.0033, -0.0154, 0.0147, -0.0683
745, -0.0046, 0.0136, 0.0058, -0.0144, 0.0246, -0.0737, -0.0088, 0.0264, 0.0037, -0.0110, 0.0167, -0.0492
745, -0.0041, 0.0193, 0.0051, -0.0223, 0.0217, -0.1038, -0.0077, 0.0371, 0.0033, -0.0157, 0.0147, -0.0697
745, -0.0035, 0.0147, 0.0044, -0.0163, 0.0189, -0.0794, -0.0067, 0.0284, 0.0029, -0.0119, 0.0128, -0.0529
745, -0.0029, 0.0152, 0.0035, -0.0171, 0.0154, -0.0819, -0.0055, 0.0293, 0.0023, -0.0123, 0.0104, -0.0546
745, -0.0024, 0.0151, 0.0029, -0.0171, 0.0130, -0.0817, -0.0046, 0.0292, 0.0020, -0.0123, 0.0088, -0.0543
745, -0.0019, 0.0108, 0.0022, -0.0113, 0.0101, -0.0584, -0.0036, 0.0209, 0.0015, -0.0087, 0.0068, -0.0385
745, -0.0015, 0.0100, 0.0017, -0.0103, 0.0081, -0.0541, -0.0029, 0.0195, 0.0012, -0.0080, 0.0054, -0.0355
745, -0.0011, 0.0093, 0.0011, -0.0094, 0.0059, -0.0504, -0.0021, 0.0182, 0.0009, -0.0075, 0.0039, -0.0329
745, -0.0008, 0.0076, 0.0007, -0.0072, 0.0042, -0.0416, -0.0015, 0.0151, 0.0006, -0.0061, 0.0027, -0.0269
745, -0.0004, 0.0054, 0.0002, -0.0041, 0.0022, -0.0294, -0.0008, 0.0108, 0.0003, -0.0042, 0.0014, -0.0186
745, -0.0002, 0.0018, -0.0000, 0.0007, 0.0012, -0.0103, -0.0005, 0.0040, 0.0002, -0.0013, 0.0007, -0.0055
745, -0.0000, 0.0058, -0.0003, -0.0040, 0.0002, -0.0290, -0.0001, 0.0107, 0.0000, -0.0042, -0.0000, -0.0186
745, 0.0005, 0.0067, -0.0009, -0.0050, -0.0021, -0.0329, 0.0007, 0.0121, -0.0004, -0.0048, -0.0017, -0.0214
745, 0.0010, 0.0038, -0.0015, -0.0016, -0.0046, -0.0193, 0.0016, 0.0072, -0.0007, -0.0027, -0.0033, -0.0119
745, 0.0014, 0.0055, -0.0020, -0.0036, -0.0064, -0.0272, 0.0022, 0.0100, -0.0010, -0.0039, -0.0046, -0.0174
745, 0.0019, 0.0025, -0.0026, 0.0002, -0.0062, -0.0053, 0.0031, 0.0048, -0.0014, -0.0017, -0.0062, -0.0073
745, 0.0025, 0.0040, -0.0033, -0.0016, -0.0116, -0.0198, 0.0030, -0.0029, -0.0018, -0.0028, -0.0083, -0.0123
745, 0.0023, -0.0027, -0.0040, -0.0019, -0.0107, 0.0117, 0.0052, 0.0078, -0.0023, -0.0030, -0.0076, 0.0096
745, 0.0035, 0.0073, -0.0045, -0.0055, -0.0165, -0.0354, 0.0059, 0.0129, -0.0026, -0.0052, -0.0117, -0.0232
745, 0.0038, 0.0003, -0.0048, 0.0029, -0.0177, -0.0026, 0.0063, 0.0012, -0.0028, -0.0001, -0.0125, -0.0004
745, 0.0043, 0.0008, -0.0054, 0.0025, -0.0200, -0.0047, 0.0071, 0.0019, -0.0031, -0.0005, -0.0141, -0.0019
745, 0.0043, 0.0010, -0.0055, 0.0023, -0.0201, -0.0058, 0.0072, 0.0022, -0.0031, -0.0007, -0.0142, -0.0027
745, 0.0046, -0.0016, -0.0058, 0.0055, -0.0214, 0.0064, 0.0076, -0.0021, -0.0033, 0.0012, -0.0151, 0.0058
745, 0.0052, -0.0019, -0.0066, 0.0058, -0.0243, 0.0075, 0.0087, -0.0026, -0.0038, 0.0014, -0.0171, 0.0066
745, 0.0055, -0.0017, -0.0070, 0.0061, -0.0259, 0.0070, 0.0092, -0.0024, -0.0040, 0.0013, -0.0182, 0.0061
745, 0.0059, -0.0225, -0.0075, 0.0313, -0.0276, 0.1048, 0.0098, -0.0372, -0.0043, 0.0164, -0.0194, 0.0742
745, 0.0060, -0.0154, -0.0076, 0.0230, -0.0283, 0.0712, 0.0101, -0.0253, -0.0044, 0.0112, -0.0268, 0.0149
745, 0.0061, -0.0115, -0.0077, 0.0187, -0.0285, 0.0530, 0.0102, -0.0187, -0.0044, 0.0084, -0.0200, 0.0379
745, 0.0063, -0.0144, -0.0081, 0.0226, -0.0296, 0.0667, 0.0106, -0.0235, -0.0046, 0.0105, -0.0208, 0.0473
745, 0.0094, -0.0020, -0.0117, 0.0078, -0.0441, 0.0081, 0.0157, -0.0025, -0.0068, 0.0015, -0.0308, 0.0064
745, 0.0099, -0.0120, -0.0124, 0.0202, -0.0466, 0.0551, 0.0166, -0.0194, -0.0072, 0.0087, -0.0326, 0.0391
745, 0.0099, 0.0007, -0.0123, 0.0053, -0.0462, -0.0048, 0.0165, 0.0017, -0.0071, -0.0006, -0.0324, -0.0028
745, 0.0092, -0.0076, -0.0116, 0.0159, -0.0433, 0.0344, 0.0155, -0.0123, -0.0067, 0.0054, -0.0303, 0.0245
745, 0.0092, -0.0305, -0.0117, 0.0442, -0.0431, 0.1424, 0.0154, -0.0507, -0.0067, 0.0221, -0.0301, 0.0998
745, 0.0127, -0.0111, -0.0159, 0.0213, -0.0596, 0.0510, 0.0212, -0.0180, -0.0092, 0.0080, -0.0416, 0.0358
745, 0.0124, -0.0086, -0.0156, 0.0190, -0.0584, 0.0389, 0.0208, -0.0137, -0.0090, 0.0061, -0.0408, 0.0273
745, 0.0121, -0.0242, -0.0154, 0.0388, -0.0569, 0.1122, 0.0203, -0.0400, -0.0088, 0.0173, -0.0397, 0.0783
745, 0.0121, -0.0250, -0.0154, 0.0403, -0.0568, 0.1163, 0.0203, -0.0415, -0.0088, 0.0179, -0.0397, 0.0811
745, 0.0118, -0.0340, -0.0152, 0.0531, -0.0553, 0.1585, 0.0197, -0.0565, -0.0085, 0.0244, -0.0386, 0.1103
745, 0.0104, -0.0268, -0.0136, 0.0460, -0.0486, 0.1241, 0.0174, -0.0442, -0.0075, 0.0191, -0.0339, 0.0862
745, 0.0156, -0.0140, -0.0199, 0.0311, -0.0734, 0.0643, 0.0262, -0.0228, -0.0113, 0.0098, -0.0512, 0.0443
745, 0.0148, -0.0308, -0.0190, 0.0517, -0.0696, 0.1434, 0.0248, -0.0513, -0.0107, 0.0220, -0.0485, 0.0995
745, 0.0135, -0.0101, -0.0176, 0.0283, -0.0635, 0.0454, 0.0227, -0.0165, -0.0098, 0.0068, -0.0443, 0.0311
745, 0.0139, -0.0362, -0.0182, 0.0615, -0.0653, 0.1685, 0.0233, -0.0603, -0.0101, 0.0258, -0.0455, 0.1168
745, 0.0130, -0.0222, -0.0173, 0.0469, -0.0612, 0.1025, 0.0218, -0.0366, -0.0094, 0.0156, -0.0426, 0.0706
745, 0.0134, -0.0194, -0.0180, 0.0444, -0.0632, 0.0895, 0.0226, -0.0320, -0.0097, 0.0136, -0.0440, 0.0615
745, 0.0072, -0.0009, -0.0107, 0.0234, -0.0339, 0.0020, 0.0121, -0.0010, -0.0052, 0.0001, -0.0236, 0.0005
745, -0.0006, 0.1021, -0.0010, -0.1099, 0.0029, -0.4809, -0.0009, 0.1706, 0.0005, -0.0743, 0.0021, -0.3361
745, 0.0096, -0.0223, -0.0138, 0.0437, -0.0447, 0.1034, 0.0161, -0.0381, -0.0069, 0.0159, -0.0312, 0.0719
745, 0.0099, -0.0024, -0.0139, 0.0240, -0.0463, 0.0096, 0.0166, -0.0039, -0.0071, 0.0014, -0.0323, 0.0064
745, 0.0112, 0.0020, -0.0155, 0.0196, -0.0525, -0.0127, 0.0188, 0.0037, -0.0081, -0.0020, -0.0367, -0.0089
745, 0.0127, -0.0254, -0.0174, 0.0541, -0.0593, 0.1155, 0.0213, -0.0421, -0.0092, 0.0179, -0.0414, 0.0807
745, 0.0186, -0.0511, -0.0244, 0.0855, -0.0871, 0.2356, 0.0224, -0.0886, -0.0134, 0.0364, -0.0608, 0.1647
745, 0.0122, -0.0531, -0.0165, 0.0849, -0.0571, 0.2446, 0.0205, -0.0883, -0.0088, 0.0379, -0.0400, 0.1715
745, 0.0166, -0.0279, -0.0215, 0.0535, -0.0774, 0.1251, 0.0278, -0.0457, -0.0120, 0.0195, -0.0542, 0.0883
745, 0.0176, -0.0688, -0.0226, 0.1003, -0.0822, 0.3171, 0.0295, -0.1143, -0.0127, 0.0492, -0.0576, 0.2227
745, 0.0155, -0.0363, -0.0197, 0.0583, -0.0724, 0.1630, 0.0260, -0.0596, -0.0112, 0.0255, -0.0508, 0.1154
745, 0.0147, -0.0528, -0.0184, 0.0746, -0.0683, 0.2402, 0.0246, -0.0873, -0.0106, 0.0375, -0.0479, 0.1697
745, 0.0138, -0.0124, -0.0172, 0.0237, -0.0642, 0.0494, 0.0231, -0.0192, -0.0100, 0.0081, -0.0451, 0.0369
745, 0.0135, -0.0456, -0.0167, 0.0616, -0.0626, 0.2046, 0.0225, -0.0746, -0.0097, 0.0321, -0.0440, 0.1453
745, 0.0136, -0.0386, -0.0166, 0.0514, -0.0631, 0.1710, 0.0227, -0.0626, -0.0098, 0.0270, -0.0444, 0.1220
745, 0.0133, -0.0444, -0.0161, 0.0566, -0.0615, 0.1972, 0.0221, -0.0720, -0.0096, 0.0310, -0.0433, 0.1404
745, 0.0121, -0.0391, -0.0145, 0.0482, -0.0560, 0.1712, 0.0202, -0.0629, -0.0087, 0.0271, -0.0394, 0.1224
745, 0.0109, -0.0679, -0.0129, 0.0816, -0.0500, 0.3049, 0.0181, -0.1105, -0.0078, 0.0476, -0.0353, 0.2156
745, 0.0145, -0.0584, -0.0171, 0.0692, -0.0669, 0.2596, 0.0241, -0.0944, -0.0104, 0.0407, -0.0470, 0.1841
745, 0.0141, -0.0484, -0.0165, 0.0559, -0.0649, 0.2127, 0.0234, -0.0777, -0.0101, 0.0335, -0.0457, 0.1514
745, 0.0138, -0.0500, -0.0160, 0.0566, -0.0477, 0.1861, 0.0228, -0.0802, -0.0099, 0.0345, -0.0446, 0.1563
745, 0.0120, -0.0387, -0.0138, 0.0423, -0.0549, 0.1657, 0.0198, -0.0609, -0.0086, 0.0262, -0.0387, 0.1187
745, 0.0118, -0.0559, -0.0135, 0.0623, -0.0538, 0.2457, 0.0194, -0.0894, -0.0084, 0.0385, -0.0379, 0.1744
745, 0.0105, -0.0375, -0.0119, 0.0397, -0.0478, 0.1595, 0.0172, -0.0586, -0.0074, 0.0253, -0.0337, 0.1144
745, 0.0097, -0.0404, -0.0110, 0.0429, -0.0441, 0.1730, 0.0159, -0.0633, -0.0069, 0.0274, -0.0311, 0.1237
745, 0.0093, -0.0456, -0.0105, 0.0488, -0.0423, 0.1971, 0.0153, -0.0719, -0.0066, 0.0311, -0.0298, 0.1404
745, 0.0087, -0.0286, -0.0097, 0.0282, -0.0392, 0.1168, 0.0142, -0.0432, -0.0061, 0.0187, -0.0277, 0.0843
745, 0.0078, -0.0321, -0.0087, 0.0321, -0.0350, 0.1330, 0.0127, -0.0489, -0.0055, 0.0211, -0.0248, 0.0956
745, 0.0096, -0.0366, -0.0108, 0.0374, -0.0435, 0.1531, 0.0157, -0.0560, -0.0068, 0.0242, -0.0307, 0.1094
745, 0.0078, -0.0348, -0.0087, 0.0351, -0.0352, 0.1460, 0.0127, -0.0535, -0.0055, 0.0231, -0.0249, 0.1045
745, 0.0069, -0.0369, -0.0076, 0.0375, -0.0310, 0.1558, 0.0112, -0.0570, -0.0048, 0.0246, -0.0219, 0.1113
745, 0.0062, -0.0239, -0.0067, 0.0220, -0.0274, 0.0954, 0.0099, -0.0355, -0.0043, 0.0153, -0.0194, 0.0692
745, 0.0075, -0.0420, -0.0082, 0.0435, -0.0334, 0.1797, 0.0121, -0.0654, -0.0052, 0.0283, -0.0236, 0.1278
745, 0.0068, -0.0349, -0.0074, 0.0350, -0.0302, 0.1470, 0.0109, -0.0538, -0.0047, 0.0232, -0.0213, 0.1051
745, 0.0061, -0.0261, -0.0065, 0.0245, -0.0268, 0.1055, 0.0097, -0.0390, -0.0042, 0.0168, -0.0190, 0.0761
745, 0.0050, -0.0253, -0.0052, 0.0235, -0.0216, 0.1016, 0.0078, -0.0375, -0.0034, 0.0162, -0.0153, 0.0733
745, 0.0047, -0.0272, -0.0049, 0.0259, -0.0205, 0.1110, 0.0074, -0.0409, -0.0032, 0.0176, -0.0145, 0.0798
745, 0.0041, -0.0208, -0.0041, 0.0183, -0.0174, 0.0809, 0.0063, -0.0302, -0.0027, 0.0130, -0.0124, 0.0589
745, 0.0036, -0.0166, -0.0036, 0.0132, -0.0151, 0.0608, 0.0055, -0.0230, -0.0024, 0.0099, -0.0108, 0.0448
745, 0.0030, -0.0183, -0.0029, 0.0153, -0.0125, 0.0689, 0.0046, -0.0258, -0.0020, 0.0111, -0.0090, 0.0504
745, 0.0026, -0.0151, -0.0025, 0.0115, -0.0107, 0.0541, 0.0039, -0.0205, -0.0017, 0.0089, -0.0077, 0.0401
745, 0.0025, -0.0183, -0.0023, 0.0153, -0.0099, 0.0690, 0.0037, -0.0258, -0.0016, 0.0111, -0.0072, 0.0504
745, 0.0025, -0.0150, -0.0023, 0.0114, -0.0099, 0.0535, 0.0037, -0.0203, -0.0016, 0.0088, -0.0071, 0.0396
745, 0.0019, -0.0172, -0.0016, 0.0140, -0.0071, 0.0635, 0.0027, -0.0238, -0.0012, 0.0103, -0.0052, 0.0465
745, 0.0014, -0.0113, -0.0009, 0.0070, -0.0046, 0.0360, 0.0018, -0.0140, -0.0008, 0.0060, -0.0034, 0.0273
745, 0.0009, -0.0110, -0.0003, 0.0067, -0.0022, 0.0347, 0.0009, -0.0136, -0.0004, 0.0058, -0.0018, 0.0265
746, 0.0006, -0.0052, 0.0000, -0.0002, -0.0009, 0.0073, 0.0004, -0.0038, -0.0002, 0.0016, -0.0008, 0.0072
746, 0.0004, -0.0051, 0.0004, 0.0091, -0.0004, 0.0021, -0.0001, -0.0151, 0.0003, 0.0188, -0.0005, 0.0020
746, 0.0003, -0.0042, 0.0015, 0.0051, -0.0003, -0.0004, -0.0015, -0.0100, 0.0022, 0.0126, -0.0006, 0.0008
746, 0.0002, -0.0037, 0.0027, 0.0053, -0.0003, -0.0023, -0.0029, -0.0101, 0.0042, 0.0135, -0.0008, -0.0007
746, 0.0002, -0.0033, 0.0035, 0.0016, -0.0003, -0.0027, -0.0040, -0.0056, 0.0057, 0.0074, -0.0010, -0.0004
746, 0.0001, -0.0032, 0.0047, -0.0005, -0.0005, -0.0028, -0.0054, -0.0030, 0.0077, 0.0039, -0.0013, -0.0002
746, 0.0000, -0.0027, 0.0057, -0.0067, -0.0006, -0.0020, -0.0067, 0.0047, 0.0094, -0.0068, -0.0015, 0.0013
746, -0.0001, -0.0026, 0.0071, -0.0077, -0.0009, -0.0019, -0.0084, 0.0060, 0.0118, -0.0086, -0.0019, 0.0015
746, -0.0001, -0.0026, 0.0076, -0.0074, -0.0009, -0.0020, -0.0090, 0.0057, 0.0127, -0.0081, -0.0020, 0.0013
746, -0.0001, -0.0023, 0.0087, -0.0135, -0.0011, -0.0010, -0.0103, 0.0133, 0.0145, -0.0188, -0.0023, 0.0030
746, -0.0002, -0.0020, 0.0098, -0.0181, -0.0013, -0.0002, -0.0118, 0.0190, 0.0166, -0.0268, -0.0026, 0.0043
746, -0.0003, -0.0019, 0.0109, -0.0203, -0.0015, 0.0002, -0.0131, 0.0218, 0.0184, -0.0307, -0.0029, 0.0049
746, -0.0004, -0.0021, 0.0146, -0.0137, -0.0021, -0.0008, -0.0177, 0.0138, 0.0249, -0.0194, -0.0040, 0.0031
746, -0.0005, -0.0005, 0.0155, -0.0403, -0.0023, 0.0038, -0.0188, 0.0467, 0.0264, -0.0656, -0.0042, 0.0104
746, -0.0005, 0.0002, 0.0162, -0.0538, -0.0024, 0.0061, -0.0197, 0.0635, 0.0277, -0.0892, -0.0044, 0.0141
746, -0.0006, -0.0004, 0.0173, -0.0430, -0.0026, 0.0043, -0.0211, 0.0503, 0.0296, -0.0706, -0.0047, 0.0112
746, -0.0005, -0.0007, 0.0162, -0.0372, -0.0024, 0.0035, -0.0197, 0.0434, 0.0277, -0.0609, -0.0044, 0.0097
746, -0.0006, 0.0012, 0.0173, -0.0723, -0.0026, 0.0094, -0.0210, 0.0868, 0.0296, -0.1219, -0.0047, 0.0193
746, -0.0006, -0.0009, 0.0174, -0.0333, -0.0026, 0.0030, -0.0212, 0.0390, 0.0298, -0.0547, -0.0047, 0.0087
746, -0.0007, 0.0003, 0.0196, -0.0543, -0.0030, 0.0066, -0.0240, 0.0650, 0.0337, -0.0912, -0.0053, 0.0145
746, -0.0008, 0.0015, 0.0203, -0.0744, -0.0031, 0.0101, -0.0249, 0.0901, 0.0349, -0.1263, -0.0055, 0.0200
746, -0.0008, -0.0001, 0.0213, -0.0437, -0.0033, 0.0051, -0.0262, 0.0524, 0.0368, -0.0734, -0.0058, 0.0116
746, -0.0013, -0.0010, 0.0303, -0.0310, -0.0048, 0.0029, -0.0372, 0.0368, 0.0523, -0.0519, -0.0083, 0.0082
746, -0.0013, 0.0022, 0.0304, -0.0854, -0.0049, 0.0123, -0.0373, 0.1044, 0.0524, -0.1462, -0.0083, 0.0232
746, -0.0013, 0.0013, 0.0307, -0.0647, -0.0049, 0.0089, -0.0377, 0.0794, 0.0530, -0.1107, -0.0084, 0.0176
746, -0.0014, 0.0024, 0.0312, -0.0824, -0.0050, 0.0120, -0.0384, 0.1018, 0.0539, -0.1416, -0.0085, 0.0225
746, -0.0014, 0.0015, 0.0314, -0.0618, -0.0051, 0.0087, -0.0387, 0.0770, 0.0543, -0.1063, -0.0086, 0.0169
746, -0.0015, 0.0026, 0.0331, -0.0816, -0.0054, 0.0121, -0.0409, 0.1018, 0.0573, -0.1411, -0.0091, 0.0224
746, -0.0015, 0.0038, 0.0325, -0.1002, -0.0053, 0.0153, -0.0402, 0.1259, 0.0563, -0.1735, -0.0089, 0.0275
746, -0.0016, 0.0055, 0.0347, -0.1285, -0.0057, 0.0201, -0.0430, 0.1616, 0.0601, -0.2228, -0.0095, 0.0353
746, -0.0016, 0.0032, 0.0336, -0.0828, -0.0055, 0.0125, -0.0418, 0.1062, 0.0584, -0.1442, -0.0093, 0.0229
746, -0.0017, 0.0055, 0.0358, -0.1238, -0.0059, 0.0194, -0.0446, 0.1579, 0.0622, -0.2155, -0.0099, 0.0342
746, -0.0018, 0.0040, 0.0367, -0.0939, -0.0060, 0.0145, -0.0457, 0.1218, 0.0637, -0.1642, -0.0101, 0.0261
746, -0.0017, 0.0057, 0.0355, -0.1248, -0.0058, 0.0196, -0.0443, 0.1613, 0.0616, -0.2181, -0.0098, 0.0346
746, -0.0022, 0.0068, 0.0444, -0.1468, -0.0073, 0.0234, -0.0553, 0.1871, 0.0773, -0.2569, -0.0123, 0.0408
746, -0.0020, 0.0069, 0.0398, -0.1465, -0.0066, 0.0233, -0.0497, 0.1874, 0.0694, -0.2568, -0.0110, 0.0407
746, -0.0018, 0.0058, 0.0371, -0.1248, -0.0061, 0.0196, -0.0463, 0.1611, 0.0646, -0.2194, -0.0102, 0.0348
746, -0.0017, 0.0048, 0.0340, -0.1046, -0.0056, 0.0162, -0.0425, 0.1359, 0.0592, -0.1848, -0.0094, 0.0293
746, -0.0016, 0.0042, 0.0322, -0.0894, -0.0052, 0.0133, -0.0404, 0.1183, 0.0562, -0.1585, -0.0089, 0.0252
746, -0.0015, 0.0079, 0.0299, -0.1576, -0.0048, 0.0243, -0.0377, 0.2038, 0.0522, -0.2764, -0.0083, 0.0439
746, -0.0015, 0.0054, 0.0290, -0.1086, -0.0046, 0.0160, -0.0365, 0.1433, 0.0506, -0.1917, -0.0080, 0.0304
746, -0.0014, 0.0060, 0.0268, -0.1177, -0.0043, 0.0173, -0.0339, 0.1543, 0.0469, -0.2074, -0.0074, 0.0329
746, -0.0016, 0.0029, 0.0317, -0.0584, -0.0051, 0.0074, -0.0397, 0.0795, 0.0553, -0.1049, -0.0088, 0.0166
746, -0.0014, 0.0065, 0.0280, -0.1267, -0.0045, 0.0188, -0.0350, 0.1626, 0.0488, -0.2233, -0.0077, 0.0354
746, -0.0013, 0.0048, 0.0260, -0.0905, -0.0041, 0.0127, -0.0327, 0.1181, 0.0455, -0.1607, -0.0072, 0.0255
746, -0.0012, 0.0043, 0.0230, -0.0802, -0.0036, 0.0108, -0.0289, 0.1053, 0.0402, -0.1427, -0.0064, 0.0226
746, -0.0011, 0.0049, 0.0209, -0.0888, -0.0032, 0.0122, -0.0265, 0.1161, 0.0367, -0.1576, -0.0058, 0.0250
746, -0.0011, 0.0048, 0.0197, -0.0840, -0.0030, 0.0114, -0.0250, 0.1102, 0.0346, -0.1494, -0.0055, 0.0237
746, -0.0009, 0.0037, 0.0173, -0.0624, -0.0026, 0.0078, -0.0220, 0.0831, 0.0304, -0.1120, -0.0064, 0.0198
746, -0.0011, 0.0040, 0.0205, -0.0670, -0.0032, 0.0087, -0.0259, 0.0884, 0.0360, -0.1200, -0.0057, 0.0190
746, -0.0010, 0.0042, 0.0190, -0.0691, -0.0029, 0.0092, -0.0239, 0.0908, 0.0333, -0.1239, -0.0053, 0.0197
746, -0.0009, 0.0036, 0.0163, -0.0562, -0.0025, 0.0071, -0.0206, 0.0746, 0.0286, -0.1016, -0.0045, 0.0161
746, -0.0008, 0.0021, 0.0145, -0.0258, -0.0022, 0.0021, -0.0184, 0.0370, 0.0256, -0.0490, -0.0041, 0.0078
746, -0.0007, 0.0047, 0.0127, -0.0755, -0.0019, 0.0104, -0.0162, 0.0984, 0.0225, -0.1351, -0.0036, 0.0214
746, -0.0008, 0.0026, 0.0137, -0.0339, -0.0021, 0.0036, -0.0175, 0.0472, 0.0243, -0.0633, -0.0039, 0.0100
746, -0.0007, 0.0036, 0.0118, -0.0518, -0.0018, 0.0066, -0.0151, 0.0692, 0.0210, -0.0942, -0.0033, 0.0149
746, -0.0006, 0.0030, 0.0102, -0.0398, -0.0015, 0.0047, -0.0131, 0.0544, 0.0182, -0.0737, -0.0029, 0.0117
746, -0.0005, 0.0031, 0.0083, -0.0401, -0.0012, 0.0048, -0.0108, 0.0546, 0.0149, -0.0742, -0.0024, 0.0118
746, -0.0005, 0.0027, 0.0067, -0.0314, -0.0009, 0.0034, -0.0088, 0.0438, 0.0122, -0.0592, -0.0019, 0.0094
746, -0.0004, 0.0031, 0.0052, -0.0387, -0.0007, 0.0047, -0.0069, 0.0528, 0.0095, -0.0719, -0.0015, 0.0114
746, -0.0003, 0.0021, 0.0039, -0.0198, -0.0005, 0.0016, -0.0053, 0.0295, 0.0072, -0.0393, -0.0011, 0.0062
746, -0.0002, 0.0024, 0.0024, -0.0241, -0.0002, 0.0023, -0.0035, 0.0348, 0.0047, -0.0467, -0.0008, 0.0074
746, -0.0002, 0.0020, 0.0014, -0.0167, -0.0001, 0.0012, -0.0023, 0.0256, 0.0030, -0.0339, -0.0005, 0.0054
746, -0.0001, 0.0015, 0.0005, -0.0067, 0.0001, -0.0005, -0.0011, 0.0134, 0.0013, -0.0168, -0.0002, 0.0027
746, -0.0001, 0.0012, 0.0001, -0.0030, 0.0002, -0.0012, -0.0006, 0.0087, 0.0007, -0.0105, -0.0001, 0.0016
746, -0.0001, 0.0011, -0.0007, -0.0097, 0.0003, -0.0002, 0.0004, 0.0171, -0.0008, -0.0229, 0.0001, 0.0035
746, -0.0001, 0.0010, -0.0015, -0.0044, 0.0004, -0.0010, 0.0013, 0.0105, -0.0022, -0.0133, 0.0003, 0.0020
746, -0.0001, 0.0010, -0.0037, -0.0059, 0.0007, -0.0007, 0.0041, 0.0124, -0.0062, -0.0161, 0.0010, 0.0025
746, -0.0001, 0.0010, -0.0045, -0.0130, 0.0008, 0.0003, 0.0050, 0.0211, -0.0075, -0.0288, 0.0012, 0.0044
746, -0.0001, 0.0010, -0.0058, 0.0026, 0.0010, -0.0020, 0.0067, 0.0018, -0.0100, -0.0006, 0.0015, 0.0001
746, -0.0001, 0.0009, -0.0069, -0.0106, 0.0012, -0.0001, 0.0080, 0.0181, -0.0119, -0.0246, 0.0018, 0.0038
746, -0.0001, 0.0010, -0.0075, 0.0146, 0.0013, -0.0039, 0.0087, -0.0131, -0.0130, 0.0211, 0.0020, -0.0032
746, -0.0001, 0.0010, -0.0079, 0.0158, 0.0014, -0.0041, 0.0093, -0.0145, -0.0138, 0.0235, 0.0021, -0.0036
746, -0.0001, 0.0010, -0.0083, 0.0259, 0.0014, -0.0057, 0.0098, -0.0270, -0.0145, 0.0417, 0.0022, -0.0064
746, -0.0001, 0.0008, -0.0118, 0.0003, 0.0020, -0.0019, 0.0141, 0.0045, -0.0209, -0.0046, 0.0032, 0.0007
746, -0.0001, 0.0008, -0.0134, 0.0151, 0.0022, -0.0042, 0.0161, -0.0138, -0.0237, 0.0223, 0.0036, -0.0034
746, -0.0001, 0.0008, -0.0139, 0.0200, 0.0023, -0.0050, 0.0166, -0.0197, -0.0246, 0.0312, 0.0038, -0.0048
746, -0.0001, 0.0008, -0.0151, 0.0223, 0.0025, -0.0054, 0.0182, -0.0227, -0.0269, 0.0355, 0.0041, -0.0055
746, -0.0001, 0.0008, -0.0144, 0.0430, 0.0024, -0.0085, 0.0173, -0.0480, -0.0256, 0.0729, 0.0039, -0.0112
746, -0.0001, 0.0008, -0.0146, 0.0577, 0.0024, -0.0108, 0.0176, -0.0663, -0.0260, 0.0997, 0.0040, -0.0153
746, -0.0001, 0.0007, -0.0213, 0.0603, 0.0034, -0.0113, 0.0258, -0.0694, -0.0381, 0.1044, 0.0058, -0.0160
746, -0.0001, 0.0006, -0.0221, 0.0551, 0.0035, -0.0106, 0.0268, -0.0629, -0.0396, 0.0951, 0.0061, -0.0146
746, -0.0001, 0.0005, -0.0219, 0.0389, 0.0035, -0.0082, 0.0266, -0.0429, -0.0393, 0.0658, 0.0060, -0.0101
746, -0.0001, 0.0006, -0.0223, 0.0799, 0.0036, -0.0144, 0.0270, -0.0935, -0.0399, 0.1404, 0.0061, -0.0216
746, -0.0001, 0.0004, -0.0221, 0.0635, 0.0036, -0.0120, 0.0267, -0.0733, -0.0396, 0.1106, 0.0061, -0.0170
746, -0.0001, 0.0003, -0.0222, 0.0713, 0.0036, -0.0132, 0.0270, -0.0832, -0.0399, 0.1248, 0.0061, -0.0192
746, -0.0001, 0.0002, -0.0242, 0.0806, 0.0039, -0.0145, 0.0293, -0.0947, -0.0433, 0.1416, 0.0067, -0.0218
746, -0.0001, 0.0002, -0.0253, 0.0871, 0.0040, -0.0154, 0.0307, -0.1027, -0.0454, 0.1534, 0.0070, -0.0236
746, -0.0001, -0.0000, -0.0256, 0.0616, 0.0041, -0.0116, 0.0311, -0.0708, -0.0460, 0.1072, 0.0071, -0.0165
746, -0.0001, -0.0001, -0.0256, 0.0588, 0.0041, -0.0110, 0.0310, -0.0675, -0.0459, 0.1021, 0.0071, -0.0157
746, -0.0001, -0.0003, -0.0260, 0.0643, 0.0041, -0.0116, 0.0316, -0.0747, -0.0467, 0.1120, 0.0072, -0.0172
746, -0.0000, -0.0004, -0.0252, 0.0701, 0.0040, -0.0122, 0.0306, -0.0817, -0.0452, 0.1223, 0.0069, -0.0188
746, -0.0000, -0.0005, -0.0264, 0.0540, 0.0041, -0.0096, 0.0321, -0.0622, -0.0474, 0.0931, 0.0073, -0.0143
746, -0.0001, -0.0004, -0.0362, 0.1369, 0.0040, -0.0207, 0.0443, -0.1658, -0.0651, 0.2431, 0.0100, -0.0373
746, -0.0000, -0.0005, -0.0356, 0.1476, 0.0054, -0.0231, 0.0434, -0.1779, -0.0640, 0.2627, 0.0098, -0.0403
746, -0.0000, -0.0005, -0.0360, 0.1653, 0.0055, -0.0257, 0.0440, -0.1996, -0.0649, 0.2950, 0.0100, -0.0453
746, -0.0000, -0.0008, -0.0338, 0.1164, 0.0051, -0.0183, 0.0412, -0.1400, -0.0608, 0.2066, 0.0093, -0.0317
746, -0.0000, -0.0009, -0.0327, 0.1012, 0.0050, -0.0159, 0.0400, -0.1218, -0.0588, 0.1794, 0.0090, -0.0276
746, 0.0000, -0.0009, -0.0297, 0.1180, 0.0045, -0.0185, 0.0364, -0.1426, -0.0535, 0.2102, 0.0082, -0.0323
746, 0.0000, -0.0011, -0.0300, 0.1130, 0.0046, -0.0178, 0.0368, -0.1370, -0.0541, 0.2016, 0.0083, -0.0310
746, 0.0000, -0.0013, -0.0291, 0.0922, 0.0045, -0.0148, 0.0357, -0.1116, -0.0525, 0.1643, 0.0081, -0.0252
746, 0.0000, -0.0013, -0.0360, 0.1576, 0.0055, -0.0246, 0.0443, -0.1932, -0.0651, 0.2830, 0.0100, -0.0435
746, 0.0000, -0.0015, -0.0328, 0.1518, 0.0050, -0.0239, 0.0404, -0.1861, -0.0593, 0.2729, 0.0091, -0.0419
746, 0.0001, -0.0016, -0.0292, 0.1546, 0.0045, -0.0244, 0.0360, -0.1902, -0.0529, 0.2786, 0.0081, -0.0428
746, 0.0001, -0.0018, -0.0259, 0.0855, 0.0040, -0.0142, 0.0319, -0.1050, -0.0469, 0.1540, 0.0072, -0.0236
746, 0.0001, -0.0021, -0.0291, 0.1065, 0.0045, -0.0175, 0.0360, -0.1315, -0.0527, 0.1921, 0.0081, -0.0295
746, 0.0001, -0.0021, -0.0267, 0.1243, 0.0041, -0.0203, 0.0330, -0.1537, -0.0483, 0.2249, 0.0074, -0.0345
746, 0.0001, -0.0022, -0.0251, 0.1030, 0.0039, -0.0172, 0.0310, -0.1276, -0.0455, 0.1868, 0.0070, -0.0287
746, 0.0001, -0.0022, -0.0236, 0.1038, 0.0037, -0.0174, 0.0293, -0.1287, -0.0429, 0.1887, 0.0066, -0.0290
746, 0.0002, -0.0024, -0.0221, 0.0755, 0.0035, -0.0133, 0.0274, -0.0941, -0.0401, 0.1379, 0.0062, -0.0212
746, 0.0002, -0.0024, -0.0202, 0.1148, 0.0032, -0.0193, 0.0250, -0.1428, -0.0367, 0.2092, 0.0056, -0.0321
746, 0.0002, -0.0026, -0.0181, 0.0781, 0.0029, -0.0139, 0.0225, -0.0977, -0.0329, 0.1431, 0.0051, -0.0220
746, 0.0002, -0.0026, -0.0171, 0.0839, 0.0028, -0.0149, 0.0213, -0.1051, -0.0312, 0.1540, 0.0048, -0.0236
746, 0.0002, -0.0028, -0.0149, 0.0481, 0.0025, -0.0097, 0.0186, -0.0612, -0.0272, 0.0895, 0.0042, -0.0138
746, 0.0002, -0.0028, -0.0138, 0.0720, 0.0023, -0.0133, 0.0172, -0.0909, -0.0252, 0.1331, 0.0039, -0.0204
746, 0.0002, -0.0029, -0.0160, 0.0590, 0.0027, -0.0114, 0.0200, -0.0748, -0.0293, 0.1095, 0.0045, -0.0168
746, 0.0003, -0.0029, -0.0107, 0.0457, 0.0019, -0.0095, 0.0135, -0.0587, -0.0197, 0.0858, 0.0030, -0.0132
746, 0.0003, -0.0029, -0.0098, 0.0336, 0.0017, -0.0078, 0.0123, -0.0438, -0.0180, 0.0641, 0.0028, -0.0098
746, 0.0003, -0.0029, -0.0092, 0.0482, 0.0017, -0.0101, 0.0154, -0.0781, -0.0170, 0.0908, 0.0026, -0.0139
746, 0.0003, -0.0030, -0.0109, 0.0432, 0.0019, -0.0094, 0.0137, -0.0559, -0.0201, 0.0818, 0.0031, -0.0126
746, 0.0003, -0.0031, -0.0094, 0.0527, 0.0017, -0.0109, 0.0119, -0.0677, -0.0175, 0.0991, 0.0027, -0.0152
746, 0.0003, -0.0031, -0.0077, 0.0426, 0.0015, -0.0094, 0.0098, -0.0554, -0.0143, 0.0811, 0.0022, -0.0125
746, 0.0003, -0.0030, -0.0063, 0.0396, 0.0012, -0.0090, 0.0080, -0.0518, -0.0117, 0.0758, 0.0018, -0.0116
746, 0.0003, -0.0030, -0.0047, 0.0295, 0.0010, -0.0075, 0.0061, -0.0393, -0.0089, 0.0576, 0.0014, -0.0088
746, 0.0003, -0.0030, -0.0035, 0.0283, 0.0008, -0.0073, 0.0046, -0.0380, -0.0067, 0.0555, 0.0010, -0.0085
746, 0.0003, -0.0030, -0.0031, 0.0228, 0.0008, -0.0065, 0.0041, -0.0312, -0.0060, 0.0457, 0.0009, -0.0070
746, 0.0003, -0.0030, -0.0013, 0.0182, 0.0005, -0.0059, 0.0019, -0.0255, -0.0028, 0.0373, 0.0004, -0.0057
746, 0.0003, -0.0030, -0.0004, 0.0053, 0.0004, -0.0039, 0.0008, -0.0096, -0.0012, 0.0140, 0.0002, -0.0022
747, 0.0003, -0.0028, -0.0002, 0.0009, 0.0003, -0.0024, 0.0005, -0.0036, -0.0007, 0.0064, 0.0001, -0.0012
747, 0.0006, 0.0037, 0.0001, 0.0024, 0.0013, 0.0219, 0.0008, 0.0099, 0.0003, 0.0218, -0.0003, -0.0090
747, 0.0010, -0.0015, 0.0004, -0.0008, 0.0029, 0.0030, 0.0015, 0.0017, 0.0016, 0.0061, -0.0008, -0.0023
747, 0.0018, 0.0006, 0.0007, -0.0005, 0.0060, 0.0106, 0.0030, 0.0061, 0.0038, 0.0107, -0.0019, -0.0047
747, 0.0022, -0.0001, 0.0009, -0.0011, 0.0072, 0.0079, 0.0036, 0.0052, 0.0047, 0.0083, -0.0023, -0.0037
747, 0.0027, -0.0113, 0.0011, -0.0053, 0.0093, -0.0333, 0.0046, -0.0157, 0.0062, -0.0206, -0.0030, 0.0099
747, 0.0029, -0.0056, 0.0012, -0.0034, 0.0100, -0.0123, 0.0050, -0.0049, 0.0067, -0.0062, -0.0032, 0.0030
747, 0.0036, -0.0098, 0.0014, -0.0051, 0.0124, -0.0282, 0.0062, -0.0129, 0.0084, -0.0173, -0.0040, 0.0083
747, 0.0038, -0.0079, 0.0015, -0.0045, 0.0132, -0.0213, 0.0066, -0.0093, 0.0090, -0.0125, -0.0043, 0.0060
747, 0.0056, -0.0074, 0.0022, -0.0043, 0.0199, -0.0196, 0.0101, -0.0084, 0.0136, -0.0112, -0.0065, 0.0054
747, 0.0061, -0.0114, 0.0024, -0.0059, 0.0217, -0.0345, 0.0110, -0.0160, 0.0149, -0.0215, -0.0071, 0.0103
747, 0.0067, -0.0136, 0.0026, -0.0068, 0.0240, -0.0430, 0.0122, -0.0203, 0.0165, -0.0273, -0.0078, 0.0130
747, 0.0068, -0.0099, 0.0026, -0.0056, 0.0244, -0.0297, 0.0123, -0.0133, 0.0167, -0.0179, -0.0080, 0.0086
747, 0.0078, -0.0072, 0.0030, -0.0046, 0.0282, -0.0200, 0.0143, -0.0083, 0.0194, -0.0111, -0.0092, 0.0053
747, 0.0081, -0.0137, 0.0031, -0.0072, 0.0293, -0.0444, 0.0148, -0.0207, 0.0201, -0.0279, -0.0096, 0.0133
747, 0.0092, -0.0229, 0.0035, -0.0106, 0.0331, -0.0788, 0.0168, -0.0382, 0.0227, -0.0516, -0.0108, 0.0246
747, 0.0094, -0.0259, 0.0036, -0.0120, 0.0342, -0.0906, 0.0173, -0.0439, 0.0235, -0.0594, -0.0112, 0.0283
747, 0.0097, -0.0246, 0.0037, -0.0117, 0.0352, -0.0863, 0.0178, -0.0417, 0.0241, -0.0563, -0.0115, 0.0268
747, 0.0099, -0.0353, 0.0038, -0.0157, 0.0361, -0.1266, 0.0183, -0.0621, 0.0248, -0.0840, -0.0118, 0.0400
747, 0.0106, -0.0290, 0.0040, -0.0134, 0.0384, -0.1033, 0.0195, -0.0503, 0.0264, -0.0678, -0.0126, 0.0323
747, 0.0111, -0.0280, 0.0043, -0.0133, 0.0406, -0.1005, 0.0206, -0.0486, 0.0279, -0.0655, -0.0133, 0.0312
747, 0.0117, -0.0413, 0.0045, -0.0182, 0.0427, -0.1502, 0.0216, -0.0740, 0.0293, -0.0998, -0.0140, 0.0476
747, 0.0112, -0.0307, 0.0043, -0.0146, 0.0410, -0.1119, 0.0208, -0.0542, 0.0281, -0.0729, -0.0134, 0.0347
747, 0.0125, -0.0311, 0.0048, -0.0148, 0.0458, -0.1138, 0.0232, -0.0551, 0.0315, -0.0740, -0.0150, 0.0353
747, 0.0127, -0.0245, 0.0048, -0.0124, 0.0465, -0.0896, 0.0236, -0.0429, 0.0319, -0.0571, -0.0152, 0.0272
747, 0.0140, -0.0406, 0.0053, -0.0183, 0.0514, -0.1496, 0.0261, -0.0736, 0.0353, -0.0985, -0.0168, 0.0470
747, 0.0141, -0.0322, 0.0053, -0.0156, 0.0516, -0.1199, 0.0262, -0.0581, 0.0354, -0.0773, -0.0169, 0.0369
747, 0.0149, -0.0344, 0.0056, -0.0162, 0.0549, -0.1280, 0.0279, -0.0626, 0.0376, -0.0829, -0.0179, 0.0396
747, 0.0135, -0.0233, 0.0051, -0.0124, 0.0496, -0.0882, 0.0252, -0.0419, 0.0340, -0.0548, -0.0162, 0.0261
747, 0.0202, -0.0162, 0.0075, -0.0086, 0.0742, -0.0588, 0.0379, -0.0278, 0.0512, -0.0353, -0.0244, 0.0168
747, 0.0189, -0.0235, 0.0069, -0.0112, 0.0691, -0.0862, 0.0353, -0.0423, 0.0477, -0.0543, -0.0227, 0.0259
747, 0.0192, -0.0105, 0.0069, -0.0052, 0.0702, -0.0362, 0.0360, -0.0176, 0.0485, -0.0203, -0.0231, 0.0097
747, 0.0196, -0.0476, 0.0070, -0.0187, 0.0716, -0.1742, 0.0367, -0.0887, 0.0495, -0.1160, -0.0236, 0.0553
747, 0.0212, -0.0438, 0.0075, -0.0166, 0.0775, -0.1599, 0.0398, -0.0819, 0.0535, -0.1064, -0.0255, 0.0507
747, 0.0157, -0.0381, 0.0055, -0.0144, 0.0575, -0.1400, 0.0296, -0.0721, 0.0396, -0.0923, -0.0189, 0.0440
747, 0.0171, -0.0527, 0.0060, -0.0196, 0.0626, -0.1947, 0.0322, -0.1004, 0.0432, -0.1301, -0.0206, 0.0620
747, 0.0234, -0.0295, 0.0081, -0.0100, 0.0859, -0.1083, 0.0441, -0.0558, 0.0595, -0.0704, -0.0283, 0.0336
747, 0.0186, -0.0545, 0.0063, -0.0188, 0.0684, -0.2017, 0.0352, -0.1042, 0.0473, -0.1353, -0.0225, 0.0645
747, 0.0190, -0.0548, 0.0062, -0.0175, 0.0698, -0.2021, 0.0360, -0.1054, 0.0483, -0.1364, -0.0307, 0.0448
747, 0.0201, -0.0877, 0.0087, -0.0161, 0.0983, -0.2177, 0.0508, -0.1154, 0.0511, -0.2213, -0.0326, 0.0711
747, 0.0199, -0.0745, 0.0060, -0.0194, 0.0725, -0.2712, 0.0374, -0.1423, 0.0505, -0.1875, -0.0241, 0.0892
747, 0.0209, -0.0741, 0.0063, -0.0182, 0.0762, -0.2696, 0.0392, -0.1406, 0.0531, -0.1865, -0.0253, 0.0888
747, 0.0207, -0.0809, 0.0060, -0.0199, 0.0755, -0.2949, 0.0387, -0.1525, 0.0526, -0.2041, -0.0251, 0.0973
747, 0.0200, -0.0775, 0.0056, -0.0167, 0.0728, -0.2812, 0.0372, -0.1446, 0.0508, -0.1954, -0.0242, 0.0932
747, 0.0193, -0.0803, 0.0051, -0.0159, 0.0703, -0.2906, 0.0358, -0.1484, 0.0492, -0.2027, -0.0235, 0.0967
747, 0.0188, -0.0760, 0.0048, -0.0118, 0.0683, -0.2729, 0.0347, -0.1386, 0.0479, -0.1918, -0.0228, 0.0914
747, 0.0192, -0.0969, 0.0049, -0.0189, 0.0698, -0.3496, 0.0354, -0.1770, 0.0490, -0.2453, -0.0234, 0.1170
747, 0.0186, -0.0682, 0.0046, -0.0071, 0.0674, -0.2430, 0.0341, -0.1216, 0.0474, -0.1720, -0.0226, 0.0821
747, 0.0182, -0.0759, 0.0045, -0.0100, 0.0659, -0.2709, 0.0333, -0.1358, 0.0464, -0.1918, -0.0221, 0.0914
747, 0.0222, -0.0663, 0.0058, -0.0065, 0.0806, -0.2351, 0.0409, -0.1178, 0.0567, -0.1673, -0.0270, 0.0797
747, 0.0211, -0.0908, 0.0055, -0.0148, 0.0764, -0.3245, 0.0388, -0.1638, 0.0538, -0.2303, -0.0256, 0.1097
747, 0.0197, -0.0572, 0.0050, -0.0023, 0.0715, -0.2003, 0.0363, -0.1000, 0.0504, -0.1446, -0.0240, 0.0689
747, 0.0178, -0.0815, 0.0045, -0.0133, 0.0645, -0.2901, 0.0328, -0.1468, 0.0455, -0.2063, -0.0217, 0.0983
747, 0.0166, -0.0659, 0.0043, -0.0090, 0.0602, -0.2329, 0.0306, -0.1181, 0.0425, -0.1663, -0.0202, 0.0792
747, 0.0151, -0.0688, 0.0038, -0.0108, 0.0546, -0.2439, 0.0278, -0.1238, 0.0386, -0.1739, -0.0245, 0.0730
747, 0.0174, -0.0508, 0.0047, -0.0045, 0.0631, -0.1776, 0.0322, -0.0899, 0.0445, -0.1280, -0.0212, 0.0610
747, 0.0162, -0.0742, 0.0044, -0.0147, 0.0587, -0.2642, 0.0300, -0.1350, 0.0414, -0.1876, -0.0197, 0.0894
747, 0.0190, -0.0559, 0.0055, -0.0086, 0.0690, -0.1970, 0.0354, -0.1008, 0.0486, -0.1409, -0.0232, 0.0672
747, 0.0163, -0.0545, 0.0046, -0.0085, 0.0590, -0.1920, 0.0303, -0.0986, 0.0416, -0.1376, -0.0198, 0.0656
747, 0.0153, -0.0416, 0.0043, -0.0044, 0.0555, -0.1445, 0.0286, -0.0746, 0.0391, -0.1046, -0.0187, 0.0499
747, 0.0138, -0.0526, 0.0038, -0.0085, 0.0497, -0.1844, 0.0257, -0.0961, 0.0352, -0.1329, -0.0168, 0.0633
747, 0.0119, -0.0513, 0.0032, -0.0090, 0.0428, -0.1801, 0.0221, -0.0939, 0.0303, -0.1294, -0.0144, 0.0617
747, 0.0106, -0.0490, 0.0028, -0.0088, 0.0380, -0.1723, 0.0197, -0.0900, 0.0269, -0.1237, -0.0128, 0.0590
747, 0.0097, -0.0334, 0.0026, -0.0035, 0.0350, -0.1148, 0.0182, -0.0607, 0.0248, -0.0838, -0.0118, 0.0399
747, 0.0093, -0.0290, 0.0025, -0.0023, 0.0334, -0.0989, 0.0174, -0.0527, 0.0237, -0.0727, -0.0113, 0.0347
747, 0.0089, -0.0188, 0.0024, 0.0010, 0.0319, -0.0615, 0.0166, -0.0336, 0.0226, -0.0466, -0.0108, 0.0222
747, 0.0092, -0.0280, 0.0026, -0.0029, 0.0331, -0.0959, 0.0172, -0.0512, 0.0235, -0.0703, -0.0112, 0.0335
747, 0.0085, -0.0237, 0.0024, -0.0018, 0.0307, -0.0805, 0.0160, -0.0431, 0.0217, -0.0591, -0.0104, 0.0282
747, 0.0079, -0.0383, 0.0022, -0.0076, 0.0282, -0.1345, 0.0147, -0.0707, 0.0200, -0.0962, -0.0095, 0.0459
747, 0.0072, -0.0325, 0.0020, -0.0057, 0.0259, -0.1134, 0.0135, -0.0599, 0.0183, -0.0815, -0.0087, 0.0388
747, 0.0068, -0.0203, 0.0018, -0.0015, 0.0246, -0.0686, 0.0128, -0.0369, 0.0174, -0.0503, -0.0083, 0.0240
747, 0.0058, -0.0281, 0.0015, -0.0045, 0.0208, -0.0973, 0.0109, -0.0516, 0.0148, -0.0702, -0.0070, 0.0335
747, 0.0055, -0.0226, 0.0014, -0.0027, 0.0196, -0.0773, 0.0102, -0.0412, 0.0139, -0.0561, -0.0066, 0.0267
747, 0.0048, -0.0185, 0.0012, -0.0014, 0.0171, -0.0623, 0.0090, -0.0335, 0.0122, -0.0456, -0.0058, 0.0217
747, 0.0044, -0.0185, 0.0011, -0.0016, 0.0156, -0.0628, 0.0082, -0.0336, 0.0111, -0.0457, -0.0053, 0.0218
747, 0.0037, -0.0148, 0.0008, -0.0004, 0.0132, -0.0493, 0.0069, -0.0266, 0.0094, -0.0362, -0.0045, 0.0172
747, 0.0031, -0.0177, 0.0006, -0.0017, 0.0108, -0.0600, 0.0057, -0.0320, 0.0077, -0.0434, -0.0037, 0.0207
747, 0.0031, -0.0153, 0.0006, -0.0009, 0.0109, -0.0514, 0.0057, -0.0275, 0.0077, -0.0373, -0.0037, 0.0178
747, 0.0023, -0.0162, 0.0004, -0.0013, 0.0081, -0.0549, 0.0043, -0.0293, 0.0058, -0.0398, -0.0028, 0.0190
747, 0.0016, -0.0138, 0.0001, -0.0005, 0.0055, -0.0462, 0.0029, -0.0248, 0.0040, -0.0336, -0.0019, 0.0160
747, 0.0011, -0.0115, -0.0001, 0.0003, 0.0036, -0.0376, 0.0019, -0.0204, 0.0026, -0.0276, -0.0013, 0.0132
747, 0.0005, -0.0071, -0.0003, 0.0018, 0.0014, -0.0215, 0.0008, -0.0121, 0.0011, -0.0164, -0.0005, 0.0078
747, 0.0003, -0.0026, -0.0003, 0.0034, 0.0006, -0.0047, 0.0004, -0.0035, 0.0005, -0.0047, -0.0003, 0.0022
747, 0.0000, -0.0074, -0.0004, 0.0016, -0.0003, -0.0226, -0.0001, -0.0128, -0.0001, -0.0169, 0.0000, 0.0084
747, -0.0004, -0.0049, -0.0006, 0.0025, -0.0019, -0.0134, -0.0009, -0.0081, -0.0012, -0.0106, 0.0006, 0.0053
747, -0.0009, -0.0049, -0.0008, 0.0025, -0.0037, -0.0134, -0.0018, -0.0080, -0.0024, -0.0106, 0.0012, 0.0053
747, -0.0017, -0.0010, -0.0011, 0.0040, -0.0067, 0.0008, -0.0034, -0.0006, -0.0045, -0.0009, 0.0023, 0.0004
747, -0.0024, -0.0035, -0.0013, 0.0032, -0.0093, -0.0080, -0.0048, -0.0054, -0.0062, -0.0072, 0.0031, 0.0036
747, -0.0029, 0.0017, -0.0015, 0.0052, -0.0083, 0.0109, -0.0042, 0.0045, -0.0076, 0.0061, 0.0038, -0.0030
747, -0.0034, -0.0003, -0.0017, 0.0045, -0.0130, 0.0038, -0.0067, 0.0007, -0.0088, 0.0008, 0.0044, -0.0004
747, -0.0039, 0.0074, -0.0019, 0.0075, -0.0151, 0.0325, -0.0078, 0.0156, -0.0102, 0.0204, 0.0051, -0.0102
747, -0.0043, 0.0015, -0.0021, 0.0054, -0.0165, 0.0108, -0.0085, 0.0042, -0.0112, 0.0054, 0.0056, -0.0027
747, -0.0048, 0.0159, -0.0022, 0.0110, -0.0181, 0.0642, -0.0093, 0.0321, -0.0123, 0.0420, 0.0062, -0.0210
747, -0.0052, 0.0060, -0.0024, 0.0074, -0.0198, 0.0276, -0.0103, 0.0129, -0.0135, 0.0168, 0.0068, -0.0084
747, -0.0050, 0.0167, -0.0023, 0.0115, -0.0190, 0.0673, -0.0098, 0.0336, -0.0129, 0.0441, 0.0065, -0.0221
747, -0.0057, 0.0039, -0.0026, 0.0068, -0.0217, 0.0202, -0.0112, 0.0090, -0.0148, 0.0116, 0.0074, -0.0058
747, -0.0062, 0.0146, -0.0028, 0.0111, -0.0235, 0.0601, -0.0122, 0.0297, -0.0160, 0.0388, 0.0080, -0.0194
747, -0.0068, 0.0084, -0.0031, 0.0091, -0.0256, 0.0371, -0.0133, 0.0175, -0.0174, 0.0227, 0.0087, -0.0114
747, -0.0072, 0.0078, -0.0032, 0.0092, -0.0270, 0.0353, -0.0140, 0.0164, -0.0184, 0.0212, 0.0092, -0.0106
747, -0.0078, 0.0084, -0.0035, 0.0096, -0.0295, 0.0376, -0.0153, 0.0177, -0.0201, 0.0227, 0.0101, -0.0114
747, -0.0078, 0.0287, -0.0035, 0.0175, -0.0296, 0.1130, -0.0154, 0.0573, -0.0201, 0.0746, 0.0101, -0.0373
747, -0.0088, 0.0163, -0.0039, 0.0136, -0.0332, 0.0677, -0.0172, 0.0332, -0.0226, 0.0428, 0.0113, -0.0214
747, -0.0094, 0.0293, -0.0042, 0.0190, -0.0353, 0.1160, -0.0183, 0.0584, -0.0240, 0.0756, 0.0120, -0.0379
747, -0.0107, 0.0205, -0.0047, 0.0163, -0.0401, 0.0842, -0.0208, 0.0416, -0.0273, 0.0533, 0.0137, -0.0267
747, -0.0103, 0.0093, -0.0046, 0.0124, -0.0388, 0.0430, -0.0201, 0.0201, -0.0264, 0.0249, 0.0132, -0.0125
747, -0.0135, 0.0391, -0.0059, 0.0246, -0.0508, 0.1536, -0.0265, 0.0783, -0.0346, 0.1005, 0.0173, -0.0503
747, -0.0139, 0.0495, -0.0061, 0.0291, -0.0521, 0.1922, -0.0272, 0.0989, -0.0356, 0.1271, 0.0178, -0.0636
747, -0.0136, 0.0312, -0.0060, 0.0230, -0.0510, 0.1249, -0.0266, 0.0638, -0.0348, 0.0804, 0.0174, -0.0403
747, -0.0129, 0.0446, -0.0058, 0.0289, -0.0484, 0.1750, -0.0253, 0.0904, -0.0330, 0.1147, 0.0165, -0.0574
747, -0.0125, 0.0369, -0.0058, 0.0268, -0.0471, 0.1468, -0.0246, 0.0759, -0.0320, 0.0951, 0.0160, -0.0477
747, -0.0133, 0.0361, -0.0061, 0.0273, -0.0499, 0.1439, -0.0261, 0.0748, -0.0339, 0.0930, 0.0170, -0.0466
747, -0.0178, 0.0464, -0.0080, 0.0331, -0.0668, 0.1830, -0.0350, 0.0961, -0.0456, 0.1192, 0.0228, -0.0597
747, -0.0178, 0.0795, -0.0081, 0.0470, -0.0669, 0.3056, -0.0351, 0.1616, -0.0456, 0.2035, 0.0228, -0.1019
747, -0.0176, 0.0468, -0.0080, 0.0347, -0.0661, 0.1841, -0.0348, 0.0984, -0.0451, 0.1204, 0.0226, -0.0603
747, -0.0174, 0.0667, -0.0081, 0.0438, -0.0653, 0.2582, -0.0345, 0.1385, -0.0446, 0.1714, 0.0223, -0.0858
747, -0.0176, 0.0643, -0.0082, 0.0441, -0.0660, 0.2495, -0.0349, 0.1348, -0.0450, 0.1653, 0.0225, -0.0828
747, -0.0191, 0.0779, -0.0089, 0.0510, -0.0714, 0.2998, -0.0378, 0.1624, -0.0487, 0.1998, 0.0244, -0.1000
747, -0.0184, 0.0547, -0.0088, 0.0440, -0.0689, 0.2150, -0.0365, 0.1182, -0.0470, 0.1410, 0.0235, -0.0706
747, -0.0183, 0.0597, -0.0089, 0.0471, -0.0688, 0.2337, -0.0366, 0.1285, -0.0469, 0.1538, 0.0235, -0.0770
747, -0.0174, 0.0356, -0.0086, 0.0383, -0.0653, 0.1444, -0.0347, 0.0814, -0.0445, 0.0925, 0.0223, -0.0464
747, -0.0183, 0.0528, -0.0090, 0.0449, -0.0687, 0.2078, -0.0365, 0.1148, -0.0469, 0.1365, 0.0235, -0.0684
747, -0.0240, 0.0758, -0.0113, 0.0553, -0.0897, 0.2933, -0.0476, 0.1596, -0.0613, 0.1949, 0.0307, -0.0977
747, -0.0189, 0.0649, -0.0092, 0.0501, -0.0708, 0.2532, -0.0375, 0.1374, -0.0483, 0.1676, 0.0242, -0.0841
747, -0.0259, 0.0867, -0.0094, 0.0468, -0.0731, 0.2254, -0.0386, 0.1216, -0.0499, 0.1484, 0.0332, -0.1119
747, -0.0249, 0.0941, -0.0114, 0.0598, -0.0932, 0.3614, -0.0491, 0.1920, -0.0638, 0.2425, 0.0320, -0.1216
747, -0.0185, 0.0459, -0.0085, 0.0378, -0.0691, 0.1818, -0.0363, 0.0957, -0.0474, 0.1201, 0.0237, -0.0603
747, -0.0179, 0.0603, -0.0081, 0.0403, -0.0669, 0.2339, -0.0350, 0.1220, -0.0460, 0.1574, 0.0230, -0.0789
747, -0.0176, 0.0613, -0.0077, 0.0374, -0.0658, 0.2361, -0.0344, 0.1227, -0.0453, 0.1605, 0.0227, -0.0804
747, -0.0182, 0.0551, -0.0076, 0.0327, -0.0675, 0.2126, -0.0353, 0.1100, -0.0467, 0.1454, 0.0234, -0.0728
747, -0.0179, 0.0773, -0.0073, 0.0388, -0.0664, 0.2943, -0.0347, 0.1525, -0.0460, 0.2027, 0.0230, -0.1015
747, -0.0172, 0.0468, -0.0069, 0.0252, -0.0638, 0.1807, -0.0334, 0.0928, -0.0443, 0.1254, 0.0222, -0.0628
747, -0.0166, 0.0606, -0.0065, 0.0282, -0.0617, 0.2309, -0.0323, 0.1196, -0.0429, 0.1611, 0.0215, -0.0807
747, -0.0219, 0.0790, -0.0084, 0.0344, -0.0810, 0.2996, -0.0425, 0.1559, -0.0563, 0.2088, 0.0282, -0.1045
747, -0.0187, 0.0785, -0.0071, 0.0336, -0.0693, 0.2992, -0.0364, 0.1561, -0.0482, 0.2086, 0.0242, -0.1044
747, -0.0183, 0.0810, -0.0068, 0.0322, -0.0677, 0.3059, -0.0356, 0.1604, -0.0472, 0.2145, 0.0236, -0.1074
747, -0.0166, 0.0576, -0.0061, 0.0225, -0.0615, 0.2189, -0.0324, 0.1150, -0.0430, 0.1548, 0.0215, -0.0775
747, -0.0156, 0.0591, -0.0057, 0.0225, -0.0579, 0.2249, -0.0305, 0.1186, -0.0405, 0.1591, 0.0203, -0.0797
747, -0.0144, 0.0485, -0.0052, 0.0178, -0.0533, 0.1850, -0.0281, 0.0980, -0.0373, 0.1318, 0.0187, -0.0660
747, -0.0137, 0.0615, -0.0049, 0.0220, -0.0509, 0.2327, -0.0269, 0.1233, -0.0356, 0.1649, 0.0178, -0.0826
747, -0.0124, 0.0389, -0.0044, 0.0130, -0.0461, 0.1484, -0.0244, 0.0794, -0.0324, 0.1069, 0.0162, -0.0535
747, -0.0119, 0.0488, -0.0041, 0.0165, -0.0440, 0.1853, -0.0233, 0.0989, -0.0309, 0.1322, 0.0155, -0.0662
747, -0.0110, 0.0309, -0.0038, 0.0095, -0.0407, 0.1190, -0.0216, 0.0641, -0.0286, 0.0864, 0.0143, -0.0432
747, -0.0106, 0.0428, -0.0037, 0.0139, -0.0393, 0.1632, -0.0209, 0.0875, -0.0276, 0.1167, 0.0138, -0.0584
747, -0.0099, 0.0416, -0.0034, 0.0133, -0.0369, 0.1589, -0.0196, 0.0853, -0.0259, 0.1136, 0.0130, -0.0569
747, -0.0093, 0.0235, -0.0032, 0.0065, -0.0349, 0.0920, -0.0185, 0.0503, -0.0245, 0.0673, 0.0123, -0.0337
747, -0.0088, 0.0349, -0.0030, 0.0107, -0.0331, 0.1343, -0.0176, 0.0725, -0.0232, 0.0963, 0.0116, -0.0482
747, -0.0086, 0.0373, -0.0029, 0.0115, -0.0323, 0.1432, -0.0172, 0.0773, -0.0227, 0.1024, 0.0114, -0.0513
747, -0.0073, 0.0287, -0.0034, 0.0076, -0.0273, 0.1114, -0.0145, 0.0606, -0.0192, 0.0803, 0.0096, -0.0402
747, -0.0073, 0.0228, -0.0025, 0.0061, -0.0276, 0.0899, -0.0147, 0.0493, -0.0194, 0.0653, 0.0097, -0.0327
747, -0.0092, 0.0334, -0.0032, 0.0101, -0.0345, 0.1292, -0.0183, 0.0699, -0.0242, 0.0923, 0.0121, -0.0462
747, -0.0083, 0.0334, -0.0028, 0.0103, -0.0313, 0.1298, -0.0167, 0.0701, -0.0220, 0.0925, 0.0110, -0.0463
747, -0.0073, 0.0221, -0.0025, 0.0060, -0.0277, 0.0880, -0.0147, 0.0481, -0.0194, 0.0635, 0.0097, -0.0318
747, -0.0068, 0.0340, -0.0023, 0.0106, -0.0257, 0.1325, -0.0137, 0.0713, -0.0180, 0.0940, 0.0090, -0.0471
747, -0.0056, 0.0262, -0.0019, 0.0078, -0.0214, 0.1039, -0.0114, 0.0562, -0.0150, 0.0742, 0.0075, -0.0371
747, -0.0049, 0.0277, -0.0016, 0.0084, -0.0188, 0.1096, -0.0101, 0.0592, -0.0133, 0.0780, 0.0066, -0.0391
747, -0.0051, 0.0205, -0.0017, 0.0057, -0.0197, 0.0831, -0.0105, 0.0453, -0.0139, 0.0597, 0.0069, -0.0299
747, -0.0043, 0.0237, -0.0014, 0.0070, -0.0167, 0.0951, -0.0090, 0.0516, -0.0118, 0.0679, 0.0059, -0.0340
747, -0.0034, 0.0169, -0.0011, 0.0045, -0.0134, 0.0702, -0.0072, 0.0384, -0.0095, 0.0507, 0.0047, -0.0254
747, -0.0028, 0.0158, -0.0009, 0.0042, -0.0112, 0.0662, -0.0060, 0.0363, -0.0079, 0.0478, 0.0040, -0.0240
747, -0.0021, 0.0123, -0.0006, 0.0029, -0.0085, 0.0534, -0.0046, 0.0296, -0.0061, 0.0390, 0.0031, -0.0195
747, -0.0016, 0.0101, -0.0004, 0.0021, -0.0068, 0.0453, -0.0037, 0.0253, -0.0049, 0.0333, 0.0025, -0.0167
747, -0.0009, 0.0088, -0.0002, 0.0017, -0.0043, 0.0407, -0.0024, 0.0228, -0.0032, 0.0301, 0.0016, -0.0151
747, -0.0007, 0.0075, -0.0001, 0.0013, -0.0034, 0.0362, -0.0019, 0.0205, -0.0026, 0.0270, 0.0013, -0.0135
747, -0.0001, 0.0029, 0.0001, -0.0004, -0.0013, 0.0190, -0.0008, 0.0114, -0.0011, 0.0151, 0.0005, -0.0075
748, 0.0001, -0.0002, 0.0002, -0.0017, -0.0005, 0.0085, -0.0004, 0.0055, -0.0005, 0.0075, 0.0003, -0.0041
748, 0.0005, 0.0026, 0.0003, -0.0012, 0.0010, 0.0213, 0.0003, 0.0110, 0.0004, 0.0150, -0.0003, -0.0089
748, 0.0009, 0.0021, 0.0004, -0.0014, 0.0029, 0.0195, 0.0011, 0.0100, 0.0016, 0.0137, -0.0010, -0.0083
748, 0.0013, -0.0016, 0.0005, -0.0023, 0.0046, 0.0032, 0.0026, 0.0099, 0.0026, 0.0038, -0.0022, -0.0084
748, 0.0021, 0.0026, 0.0007, -0.0014, 0.0083, 0.0219, 0.0035, 0.0110, 0.0048, 0.0150, -0.0030, -0.0093
748, 0.0024, -0.0028, 0.0007, -0.0026, 0.0096, -0.0020, 0.0041, 0.0004, 0.0056, 0.0007, -0.0035, -0.0004
748, 0.0027, -0.0025, 0.0008, -0.0026, 0.0110, -0.0007, 0.0048, 0.0010, 0.0065, 0.0014, -0.0040, -0.0009
748, 0.0040, -0.0023, 0.0011, -0.0026, 0.0164, -0.0000, 0.0071, 0.0013, 0.0097, 0.0019, -0.0061, -0.0012
748, 0.0041, -0.0088, 0.0011, -0.0042, 0.0170, -0.0284, 0.0074, -0.0112, 0.0100, -0.0151, -0.0063, 0.0094
748, 0.0045, -0.0075, 0.0012, -0.0039, 0.0187, -0.0232, 0.0081, -0.0089, 0.0111, -0.0120, -0.0069, 0.0075
748, 0.0045, -0.0062, 0.0012, -0.0038, 0.0188, -0.0178, 0.0082, -0.0064, 0.0111, -0.0086, -0.0069, 0.0054
748, 0.0049, -0.0153, 0.0013, -0.0059, 0.0205, -0.0578, 0.0089, -0.0240, 0.0122, -0.0326, -0.0076, 0.0203
748, 0.0053, -0.0022, 0.0014, -0.0030, 0.0223, -0.0004, 0.0097, 0.0013, 0.0132, 0.0019, -0.0082, -0.0012
748, 0.0054, -0.0169, 0.0015, -0.0065, 0.0229, -0.0656, 0.0100, -0.0273, 0.0136, -0.0371, -0.0085, 0.0231
748, 0.0059, -0.0196, 0.0016, -0.0072, 0.0251, -0.0779, 0.0109, -0.0326, 0.0149, -0.0444, -0.0093, 0.0276
748, 0.0060, -0.0111, 0.0016, -0.0055, 0.0254, -0.0410, 0.0110, -0.0163, 0.0151, -0.0220, -0.0094, 0.0137
748, 0.0087, -0.0131, 0.0022, -0.0060, 0.0373, -0.0499, 0.0163, -0.0201, 0.0222, -0.0273, -0.0138, 0.0170
748, 0.0078, -0.0234, 0.0020, -0.0087, 0.0335, -0.0962, 0.0146, -0.0403, 0.0199, -0.0548, -0.0124, 0.0341
748, 0.0077, -0.0173, 0.0020, -0.0072, 0.0332, -0.0695, 0.0145, -0.0286, 0.0197, -0.0388, -0.0123, 0.0242
748, 0.0083, -0.0245, 0.0021, -0.0089, 0.0357, -0.1014, 0.0156, -0.0427, 0.0212, -0.0578, -0.0132, 0.0360
748, 0.0082, -0.0235, 0.0021, -0.0089, 0.0353, -0.0977, 0.0154, -0.0409, 0.0210, -0.0553, -0.0131, 0.0345
748, 0.0084, -0.0217, 0.0022, -0.0085, 0.0364, -0.0901, 0.0159, -0.0375, 0.0216, -0.0506, -0.0135, 0.0315
748, 0.0089, -0.0166, 0.0023, -0.0075, 0.0383, -0.0681, 0.0167, -0.0278, 0.0227, -0.0372, -0.0142, 0.0232
748, 0.0094, -0.0306, 0.0024, -0.0106, 0.0406, -0.1299, 0.0177, -0.0551, 0.0241, -0.0743, -0.0150, 0.0463
748, 0.0096, -0.0273, 0.0024, -0.0100, 0.0415, -0.1158, 0.0182, -0.0489, 0.0247, -0.0656, -0.0154, 0.0409
748, 0.0133, -0.0257, 0.0033, -0.0101, 0.0577, -0.1106, 0.0253, -0.0463, 0.0344, -0.0619, -0.0214, 0.0386
748, 0.0137, -0.0146, 0.0034, -0.0072, 0.0597, -0.0611, 0.0262, -0.0246, 0.0255, -0.0770, -0.0222, 0.0201
748, 0.0140, -0.0258, 0.0026, -0.0137, 0.0435, -0.1846, 0.0190, -0.0791, 0.0362, -0.0615, -0.0161, 0.0662
748, 0.0142, -0.0278, 0.0034, -0.0101, 0.0616, -0.1195, 0.0270, -0.0506, 0.0367, -0.0670, -0.0229, 0.0418
748, 0.0143, -0.0112, 0.0034, -0.0064, 0.0622, -0.0471, 0.0273, -0.0187, 0.0371, -0.0232, -0.0231, 0.0145
748, 0.0143, -0.0599, 0.0035, -0.0181, 0.0622, -0.2641, 0.0273, -0.1143, 0.0370, -0.1532, -0.0231, 0.0955
748, 0.0135, -0.0266, 0.0031, -0.0090, 0.0584, -0.1139, 0.0257, -0.0491, 0.0348, -0.0637, -0.0217, 0.0397
748, 0.0134, -0.0488, 0.0032, -0.0145, 0.0584, -0.2135, 0.0258, -0.0933, 0.0348, -0.1232, -0.0217, 0.0768
748, 0.0133, -0.0454, 0.0030, -0.0125, 0.0578, -0.1968, 0.0255, -0.0863, 0.0344, -0.1136, -0.0214, 0.0708
748, 0.0133, -0.0364, 0.0029, -0.0097, 0.0577, -0.1571, 0.0255, -0.0693, 0.0344, -0.0899, -0.0214, 0.0560
748, 0.0138, -0.0455, 0.0029, -0.0103, 0.0600, -0.1960, 0.0266, -0.0871, 0.0359, -0.1139, -0.0223, 0.0709
748, 0.0151, -0.0158, 0.0030, -0.0018, 0.0653, -0.0648, 0.0290, -0.0301, 0.0391, -0.0357, -0.0244, 0.0222
748, 0.0158, -0.0189, 0.0030, -0.0016, 0.0685, -0.0788, 0.0304, -0.0365, 0.0411, -0.0442, -0.0256, 0.0275
748, 0.0162, -0.0395, 0.0030, -0.0056, 0.0702, -0.1703, 0.0312, -0.0778, 0.0421, -0.0996, -0.0262, 0.0620
748, 0.0173, -0.0745, 0.0031, -0.0132, 0.0752, -0.3252, 0.0335, -0.1467, 0.0452, -0.1929, -0.0281, 0.1201
748, 0.0219, -0.0379, 0.0039, -0.0037, 0.0954, -0.1640, 0.0424, -0.0752, 0.0575, -0.0962, -0.0262, 0.0843
748, 0.0158, -0.0653, 0.0024, -0.0069, 0.0688, -0.2830, 0.0306, -0.1279, 0.0415, -0.1690, -0.0258, 0.1052
748, 0.0162, -0.0694, 0.0022, -0.0054, 0.0705, -0.2998, 0.0312, -0.1348, 0.0426, -0.1800, -0.0265, 0.1121
748, 0.0157, -0.0467, 0.0018, 0.0024, 0.0679, -0.1990, 0.0300, -0.0898, 0.0411, -0.1203, -0.0256, 0.0749
748, 0.0168, -0.0810, 0.0019, -0.0029, 0.0727, -0.3482, 0.0321, -0.1551, 0.0441, -0.2114, -0.0275, 0.1315
748, 0.0167, -0.0664, 0.0017, 0.0014, 0.0721, -0.2836, 0.0316, -0.1253, 0.0438, -0.1729, -0.0273, 0.1076
748, 0.0166, -0.0384, 0.0015, 0.0096, 0.0717, -0.1598, 0.0313, -0.0692, 0.0436, -0.0992, -0.0271, 0.0616
748, 0.0162, -0.0615, 0.0015, 0.0045, 0.0699, -0.2608, 0.0304, -0.1127, 0.0426, -0.1604, -0.0265, 0.0997
748, 0.0154, -0.0848, 0.0015, -0.0027, 0.0667, -0.3635, 0.0289, -0.1582, 0.0406, -0.2219, -0.0253, 0.1381
748, 0.0141, -0.0627, 0.0012, 0.0031, 0.0609, -0.2657, 0.0263, -0.1133, 0.0371, -0.1635, -0.0231, 0.1017
748, 0.0135, -0.0787, 0.0012, -0.0013, 0.0583, -0.3357, 0.0251, -0.1436, 0.0355, -0.2057, -0.0221, 0.1281
748, 0.0135, -0.0470, 0.0012, 0.0062, 0.0581, -0.1960, 0.0250, -0.0808, 0.0355, -0.1222, -0.0221, 0.0760
748, 0.0132, -0.0517, 0.0013, 0.0036, 0.0570, -0.2170, 0.0245, -0.0906, 0.0348, -0.1346, -0.0217, 0.0838
748, 0.0169, -0.0653, 0.0022, -0.0009, 0.0731, -0.2768, 0.0317, -0.1178, 0.0445, -0.1704, -0.0277, 0.1061
748, 0.0157, -0.0602, 0.0021, -0.0006, 0.0677, -0.2545, 0.0294, -0.1082, 0.0413, -0.1570, -0.0257, 0.0978
748, 0.0145, -0.0651, 0.0019, -0.0026, 0.0625, -0.2759, 0.0271, -0.1177, 0.0381, -0.1697, -0.0237, 0.1058
748, 0.0139, -0.0545, 0.0019, -0.0006, 0.0601, -0.2291, 0.0261, -0.0974, 0.0367, -0.1418, -0.0228, 0.0883
748, 0.0128, -0.0594, 0.0017, -0.0028, 0.0551, -0.2510, 0.0240, -0.1079, 0.0337, -0.1548, -0.0210, 0.0964
748, 0.0123, -0.0562, 0.0017, -0.0027, 0.0532, -0.2369, 0.0232, -0.1025, 0.0325, -0.1464, -0.0202, 0.0912
748, 0.0137, -0.0620, 0.0021, -0.0050, 0.0591, -0.2624, 0.0259, -0.1144, 0.0360, -0.1613, -0.0224, 0.1004
748, 0.0127, -0.0710, 0.0019, -0.0072, 0.0545, -0.3016, 0.0239, -0.1322, 0.0333, -0.1852, -0.0207, 0.1153
748, 0.0114, -0.0530, 0.0016, -0.0036, 0.0488, -0.2231, 0.0214, -0.0977, 0.0298, -0.1379, -0.0186, 0.0859
748, 0.0136, -0.0648, 0.0022, -0.0069, 0.0586, -0.2748, 0.0258, -0.1209, 0.0357, -0.1686, -0.0222, 0.1050
748, 0.0117, -0.0601, 0.0018, -0.0066, 0.0504, -0.2544, 0.0222, -0.1123, 0.0307, -0.1561, -0.0191, 0.0972
748, 0.0107, -0.0579, 0.0017, -0.0062, 0.0459, -0.2450, 0.0203, -0.1084, 0.0280, -0.1506, -0.0175, 0.0938
748, 0.0095, -0.0436, 0.0014, -0.0033, 0.0409, -0.1821, 0.0181, -0.0808, 0.0250, -0.1127, -0.0156, 0.0702
748, 0.0090, -0.0368, 0.0014, -0.0020, 0.0387, -0.1524, 0.0172, -0.0681, 0.0237, -0.0948, -0.0148, 0.0591
748, 0.0087, -0.0377, 0.0013, -0.0028, 0.0373, -0.1565, 0.0166, -0.0700, 0.0228, -0.0969, -0.0142, 0.0604
748, 0.0077, -0.0358, 0.0012, -0.0027, 0.0330, -0.1483, 0.0147, -0.0665, 0.0202, -0.0918, -0.0126, 0.0572
748, 0.0071, -0.0323, 0.0011, -0.0021, 0.0304, -0.1333, 0.0135, -0.0599, 0.0186, -0.0827, -0.0116, 0.0515
748, 0.0061, -0.0254, 0.0009, -0.0008, 0.0261, -0.1032, 0.0116, -0.0466, 0.0160, -0.0644, -0.0099, 0.0401
748, 0.0075, -0.0337, 0.0012, -0.0030, 0.0320, -0.1393, 0.0143, -0.0625, 0.0195, -0.0859, -0.0122, 0.0535
748, 0.0067, -0.0429, 0.0011, -0.0053, 0.0288, -0.1799, 0.0128, -0.0803, 0.0176, -0.1100, -0.0109, 0.0685
748, 0.0057, -0.0244, 0.0008, -0.0013, 0.0244, -0.0988, 0.0109, -0.0445, 0.0149, -0.0612, -0.0093, 0.0381
748, 0.0050, -0.0283, 0.0007, -0.0022, 0.0213, -0.1158, 0.0095, -0.0521, 0.0130, -0.0714, -0.0081, 0.0445
748, 0.0043, -0.0229, 0.0006, -0.0012, 0.0182, -0.0922, 0.0081, -0.0417, 0.0112, -0.0572, -0.0070, 0.0356
748, 0.0039, -0.0243, 0.0005, -0.0016, 0.0161, -0.0987, 0.0072, -0.0446, 0.0099, -0.0610, -0.0062, 0.0380
748, 0.0034, -0.0180, 0.0004, -0.0002, 0.0141, -0.0711, 0.0063, -0.0324, 0.0087, -0.0443, -0.0054, 0.0276
748, 0.0029, -0.0192, 0.0003, -0.0006, 0.0120, -0.0761, 0.0054, -0.0345, 0.0074, -0.0472, -0.0046, 0.0294
748, 0.0024, -0.0138, 0.0002, 0.0005, 0.0096, -0.0525, 0.0043, -0.0241, 0.0059, -0.0330, -0.0037, 0.0205
748, 0.0021, -0.0167, 0.0001, -0.0002, 0.0083, -0.0655, 0.0037, -0.0298, 0.0051, -0.0407, -0.0032, 0.0254
748, 0.0015, -0.0097, -0.0000, 0.0013, 0.0056, -0.0348, 0.0026, -0.0163, 0.0035, -0.0222, -0.0022, 0.0138
748, 0.0011, -0.0118, -0.0001, 0.0008, 0.0039, -0.0439, 0.0018, -0.0203, 0.0025, -0.0277, -0.0016, 0.0172
748, 0.0006, -0.0082, -0.0002, 0.0016, 0.0020, -0.0281, 0.0010, -0.0133, 0.0013, -0.0181, -0.0008, 0.0113
748, 0.0004, -0.0046, -0.0003, 0.0026, 0.0009, -0.0125, 0.0005, -0.0064, 0.0007, -0.0087, -0.0004, 0.0054
748, 0.0002, -0.0055, -0.0003, 0.0020, 0.0002, -0.0165, 0.0002, -0.0079, 0.0002, -0.0111, -0.0001, 0.0069
748, -0.0002, -0.0051, -0.0004, 0.0021, -0.0017, -0.0148, -0.0006, -0.0071, -0.0009, -0.0101, 0.0006, 0.0063
748, -0.0006, -0.0052, -0.0005, 0.0021, -0.0034, -0.0152, -0.0014, -0.0073, -0.0020, -0.0105, 0.0012, 0.0064
748, -0.0010, -0.0021, -0.0006, 0.0030, -0.0053, -0.0013, -0.0022, -0.0015, -0.0031, -0.0021, 0.0019, 0.0012
748, -0.0015, -0.0020, -0.0007, 0.0030, -0.0075, -0.0012, -0.0031, -0.0014, -0.0044, -0.0020, 0.0027, 0.0012
748, -0.0019, 0.0017, -0.0008, 0.0040, -0.0091, 0.0156, -0.0038, 0.0056, -0.0054, 0.0080, 0.0033, -0.0049
748, -0.0023, 0.0005, -0.0010, 0.0037, -0.0111, 0.0100, -0.0046, 0.0032, -0.0066, 0.0046, 0.0041, -0.0028
748, -0.0028, 0.0066, -0.0011, 0.0055, -0.0133, 0.0375, -0.0055, 0.0148, -0.0079, 0.0211, 0.0049, -0.0130
748, -0.0032, 0.0056, -0.0012, 0.0053, -0.0150, 0.0331, -0.0062, 0.0129, -0.0089, 0.0184, 0.0055, -0.0113
748, -0.0035, 0.0106, -0.0013, 0.0067, -0.0167, 0.0558, -0.0069, 0.0225, -0.0100, 0.0321, 0.0061, -0.0197
748, -0.0053, 0.0084, -0.0018, 0.0063, -0.0184, 0.0342, -0.0102, 0.0182, -0.0146, 0.0259, 0.0090, -0.0159
748, -0.0058, 0.0146, -0.0019, 0.0081, -0.0268, 0.0737, -0.0112, 0.0298, -0.0161, 0.0425, 0.0099, -0.0261
748, -0.0059, 0.0128, -0.0020, 0.0078, -0.0272, 0.0657, -0.0114, 0.0264, -0.0163, 0.0375, 0.0100, -0.0230
748, -0.0064, 0.0145, -0.0021, 0.0084, -0.0297, 0.0736, -0.0124, 0.0297, -0.0178, 0.0421, 0.0109, -0.0258
748, -0.0071, 0.0167, -0.0023, 0.0092, -0.0329, 0.0835, -0.0138, 0.0338, -0.0197, 0.0480, 0.0121, -0.0294
748, -0.0075, 0.0201, -0.0024, 0.0103, -0.0345, 0.0988, -0.0144, 0.0403, -0.0207, 0.0571, 0.0127, -0.0350
748, -0.0079, 0.0178, -0.0026, 0.0100, -0.0363, 0.0887, -0.0152, 0.0359, -0.0218, 0.0506, 0.0134, -0.0311
748, -0.0087, 0.0278, -0.0028, 0.0129, -0.0400, 0.1336, -0.0168, 0.0550, -0.0240, 0.0778, 0.0147, -0.0478
748, -0.0073, 0.0125, -0.0024, 0.0091, -0.0337, 0.0652, -0.0141, 0.0262, -0.0202, 0.0362, 0.0124, -0.0222
748, -0.0077, 0.0252, -0.0032, 0.0124, -0.0353, 0.1222, -0.0148, 0.0505, -0.0282, 0.0680, 0.0173, -0.0417
748, -0.0110, 0.0206, -0.0027, 0.0121, -0.0501, 0.1019, -0.0211, 0.0421, -0.0301, 0.0582, 0.0185, -0.0357
748, -0.0107, 0.0316, -0.0035, 0.0154, -0.0491, 0.1514, -0.0207, 0.0631, -0.0295, 0.0877, 0.0181, -0.0538
748, -0.0106, 0.0424, -0.0035, 0.0193, -0.0486, 0.2004, -0.0204, 0.0841, -0.0291, 0.1167, 0.0179, -0.0716
748, -0.0103, 0.0417, -0.0034, 0.0191, -0.0473, 0.1972, -0.0199, 0.0832, -0.0283, 0.1151, 0.0174, -0.0706
748, -0.0103, 0.0323, -0.0034, 0.0168, -0.0473, 0.1551, -0.0200, 0.0657, -0.0284, 0.0897, 0.0174, -0.0551
748, -0.0107, 0.0378, -0.0036, 0.0188, -0.0489, 0.1801, -0.0207, 0.0768, -0.0293, 0.1048, 0.0180, -0.0643
748, -0.0118, 0.0385, -0.0039, 0.0198, -0.0539, 0.1837, -0.0228, 0.0788, -0.0323, 0.1067, 0.0199, -0.0655
748, -0.0124, 0.0229, -0.0042, 0.0166, -0.0567, 0.1139, -0.0241, 0.0502, -0.0340, 0.0640, 0.0208, -0.0393
748, -0.0122, 0.0488, -0.0042, 0.0248, -0.0559, 0.2306, -0.0238, 0.1005, -0.0335, 0.1342, 0.0205, -0.0824
748, -0.0173, 0.0151, -0.0055, 0.0153, -0.0787, 0.0788, -0.0335, 0.0362, -0.0474, 0.0428, 0.0291, -0.0263
748, -0.0170, 0.0547, -0.0056, 0.0274, -0.0774, 0.2570, -0.0330, 0.1132, -0.0465, 0.1505, 0.0286, -0.0923
748, -0.0172, 0.0387, -0.0057, 0.0239, -0.0784, 0.1855, -0.0335, 0.0838, -0.0472, 0.1072, 0.0290, -0.0657
748, -0.0163, 0.0502, -0.0055, 0.0284, -0.0741, 0.2373, -0.0318, 0.1068, -0.0445, 0.1384, 0.0273, -0.0849
748, -0.0168, 0.0435, -0.0058, 0.0276, -0.0767, 0.2073, -0.0330, 0.0953, -0.0461, 0.1203, 0.0283, -0.0738
748, -0.0168, 0.0303, -0.0058, 0.0248, -0.0763, 0.1477, -0.0328, 0.0703, -0.0459, 0.0842, 0.0282, -0.0517
748, -0.0161, 0.0629, -0.0059, 0.0372, -0.0737, 0.2958, -0.0319, 0.1354, -0.0442, 0.1731, 0.0271, -0.1062
748, -0.0160, 0.0626, -0.0060, 0.0383, -0.0729, 0.2945, -0.0315, 0.1343, -0.0437, 0.1722, 0.0269, -0.1058
748, -0.0168, 0.0559, -0.0064, 0.0377, -0.0769, 0.2642, -0.0332, 0.1215, -0.0461, 0.1539, 0.0283, -0.0945
748, -0.0162, 0.0548, -0.0063, 0.0385, -0.0738, 0.2596, -0.0319, 0.1189, -0.0443, 0.1511, 0.0272, -0.0929
748, -0.0163, 0.0746, -0.0064, 0.0446, -0.0745, 0.3487, -0.0323, 0.1568, -0.0447, 0.2056, 0.0274, -0.1262
748, -0.0217, 0.0740, -0.0078, 0.0456, -0.0986, 0.3472, -0.0423, 0.1557, -0.0594, 0.2045, 0.0365, -0.1255
748, -0.0218, 0.0495, -0.0077, 0.0369, -0.0990, 0.2358, -0.0425, 0.1075, -0.0598, 0.1383, 0.0367, -0.0847
748, -0.0207, 0.0640, -0.0073, 0.0402, -0.0942, 0.3010, -0.0403, 0.1330, -0.0569, 0.1781, 0.0349, -0.1092
748, -0.0200, 0.0613, -0.0071, 0.0388, -0.0908, 0.2892, -0.0387, 0.1263, -0.0548, 0.1712, 0.0336, -0.1050
748, -0.0184, 0.0786, -0.0065, 0.0434, -0.0838, 0.3683, -0.0355, 0.1574, -0.0506, 0.2187, 0.0310, -0.1342
748, -0.0174, 0.0728, -0.0061, 0.0379, -0.0791, 0.3404, -0.0335, 0.1442, -0.0478, 0.2033, 0.0293, -0.1248
748, -0.0156, 0.0601, -0.0054, 0.0325, -0.0711, 0.2836, -0.0299, 0.1183, -0.0430, 0.1691, 0.0264, -0.1039
748, -0.0155, 0.0614, -0.0050, 0.0293, -0.0705, 0.2885, -0.0296, 0.1202, -0.0428, 0.1736, 0.0262, -0.1066
748, -0.0153, 0.0520, -0.0048, 0.0249, -0.0694, 0.2466, -0.0291, 0.1019, -0.0422, 0.1487, 0.0259, -0.0913
748, -0.0147, 0.0305, -0.0044, 0.0167, -0.0670, 0.1496, -0.0281, 0.0610, -0.0408, 0.0908, 0.0250, -0.0558
748, -0.0136, 0.0604, -0.0041, 0.0241, -0.0620, 0.2868, -0.0260, 0.1189, -0.0378, 0.1740, 0.0232, -0.1068
748, -0.0131, 0.0450, -0.0037, 0.0165, -0.0596, 0.2142, -0.0251, 0.0892, -0.0365, 0.1317, 0.0224, -0.0808
748, -0.0167, 0.0192, -0.0045, 0.0078, -0.0758, 0.0963, -0.0320, 0.0395, -0.0464, 0.0609, 0.0284, -0.0374
748, -0.0160, 0.0245, -0.0043, 0.0084, -0.0726, 0.1209, -0.0306, 0.0501, -0.0444, 0.0760, 0.0272, -0.0466
748, -0.0111, 0.0371, -0.0029, 0.0103, -0.0507, 0.1772, -0.0214, 0.0744, -0.0311, 0.1107, 0.0191, -0.0679
748, -0.0150, 0.0058, -0.0038, 0.0011, -0.0680, 0.0352, -0.0287, 0.0148, -0.0417, 0.0249, 0.0256, -0.0153
748, -0.0137, 0.0199, -0.0035, 0.0048, -0.0624, 0.1003, -0.0264, 0.0420, -0.0382, 0.0640, 0.0235, -0.0393
748, -0.0134, 0.0459, -0.0033, 0.0109, -0.0607, 0.2164, -0.0257, 0.0919, -0.0373, 0.1349, 0.0229, -0.0828
748, -0.0122, 0.0079, -0.0029, -0.0005, -0.0552, 0.0422, -0.0235, 0.0192, -0.0340, 0.0301, 0.0209, -0.0184
748, -0.0117, 0.0293, -0.0028, 0.0054, -0.0531, 0.1398, -0.0226, 0.0605, -0.0327, 0.0889, 0.0200, -0.0545
748, -0.0103, 0.0368, -0.0024, 0.0074, -0.0468, 0.1739, -0.0199, 0.0747, -0.0289, 0.1092, 0.0177, -0.0670
748, -0.0101, 0.0242, -0.0024, 0.0037, -0.0461, 0.1164, -0.0197, 0.0508, -0.0284, 0.0745, 0.0174, -0.0457
748, -0.0093, 0.0339, -0.0021, 0.0060, -0.0425, 0.1599, -0.0181, 0.0692, -0.0262, 0.1008, 0.0161, -0.0618
748, -0.0089, 0.0227, -0.0020, 0.0030, -0.0404, 0.1093, -0.0173, 0.0480, -0.0249, 0.0700, 0.0153, -0.0430
748, -0.0081, 0.0206, -0.0018, 0.0022, -0.0372, 0.0991, -0.0159, 0.0438, -0.0229, 0.0638, 0.0141, -0.0392
748, -0.0075, 0.0139, -0.0017, 0.0006, -0.0345, 0.0698, -0.0148, 0.0313, -0.0213, 0.0457, 0.0131, -0.0280
748, -0.0095, 0.0303, -0.0022, 0.0052, -0.0432, 0.1444, -0.0184, 0.0627, -0.0265, 0.0907, 0.0163, -0.0557
748, -0.0082, 0.0189, -0.0019, 0.0021, -0.0375, 0.0930, -0.0160, 0.0409, -0.0231, 0.0594, 0.0142, -0.0365
748, -0.0074, 0.0247, -0.0017, 0.0036, -0.0341, 0.1190, -0.0146, 0.0519, -0.0210, 0.0751, 0.0129, -0.0461
748, -0.0070, 0.0002, -0.0015, -0.0028, -0.0322, 0.0092, -0.0138, 0.0055, -0.0198, 0.0084, 0.0122, -0.0051
748, -0.0062, 0.0181, -0.0014, 0.0019, -0.0288, 0.0894, -0.0123, 0.0394, -0.0177, 0.0569, 0.0109, -0.0349
748, -0.0059, 0.0116, -0.0013, 0.0003, -0.0272, 0.0604, -0.0116, 0.0271, -0.0167, 0.0393, 0.0103, -0.0241
748, -0.0054, 0.0120, -0.0012, 0.0005, -0.0250, 0.0625, -0.0107, 0.0280, -0.0154, 0.0404, 0.0094, -0.0248
748, -0.0050, 0.0090, -0.0011, -0.0002, -0.0233, 0.0494, -0.0100, 0.0224, -0.0144, 0.0324, 0.0088, -0.0199
748, -0.0045, 0.0127, -0.0009, 0.0009, -0.0210, 0.0662, -0.0090, 0.0294, -0.0130, 0.0425, 0.0080, -0.0261
748, -0.0040, 0.0106, -0.0008, 0.0004, -0.0189, 0.0568, -0.0081, 0.0254, -0.0117, 0.0367, 0.0072, -0.0225
748, -0.0033, 0.0165, -0.0006, 0.0021, -0.0159, 0.0837, -0.0069, 0.0368, -0.0099, 0.0529, 0.0061, -0.0325
748, -0.0027, 0.0144, -0.0005, 0.0015, -0.0129, 0.0746, -0.0056, 0.0329, -0.0080, 0.0474, 0.0049, -0.0291
748, -0.0021, 0.0118, -0.0003, 0.0009, -0.0104, 0.0631, -0.0045, 0.0280, -0.0065, 0.0404, 0.0040, -0.0248
748, -0.0017, 0.0069, -0.0002, -0.0004, -0.0084, 0.0411, -0.0037, 0.0187, -0.0053, 0.0270, 0.0033, -0.0165
748, -0.0011, 0.0085, -0.0001, 0.0001, -0.0060, 0.0485, -0.0027, 0.0218, -0.0038, 0.0314, 0.0023, -0.0193
748, -0.0011, 0.0052, -0.0001, -0.0007, -0.0061, 0.0338, -0.0027, 0.0156, -0.0039, 0.0224, 0.0024, -0.0138
748, -0.0006, 0.0079, 0.0000, 0.0000, -0.0037, 0.0459, -0.0017, 0.0207, -0.0024, 0.0298, 0.0015, -0.0183
748, -0.0001, 0.0033, 0.0002, -0.0012, -0.0015, 0.0254, -0.0008, 0.0120, -0.0011, 0.0174, 0.0007, -0.0106
749, 0.0001, -0.0013, 0.0002, -0.0024, -0.0005, 0.0047, -0.0003, 0.0033, -0.0005, 0.0047, 0.0003, -0.0029
749, 0.0007, 0.0201, -0.0001, -0.0170, -0.0002, 0.0035, 0.0002, 0.0197, -0.0003, 0.0039, 0.0005, 0.0094
749, 0.0027, 0.0142, -0.0014, -0.0138, 0.0001, 0.0001, 0.0018, 0.0144, -0.0001, 0.0018, 0.0014, 0.0080
749, 0.0044, 0.0251, -0.0025, -0.0213, 0.0003, -0.0010, 0.0032, 0.0227, -0.0000, 0.0012, 0.0023, 0.0145
749, 0.0058, 0.0012, -0.0034, -0.0056, 0.0004, -0.0023, 0.0043, 0.0037, 0.0000, 0.0004, 0.0030, 0.0021
749, 0.0074, -0.0006, -0.0045, -0.0045, 0.0005, -0.0027, 0.0056, 0.0022, 0.0001, 0.0002, 0.0038, 0.0013
749, 0.0085, 0.0026, -0.0052, -0.0067, 0.0005, -0.0028, 0.0065, 0.0047, 0.0001, 0.0002, 0.0044, 0.0031
749, 0.0103, -0.0106, -0.0064, 0.0020, 0.0006, -0.0032, 0.0079, -0.0057, 0.0001, -0.0000, 0.0053, -0.0039
749, 0.0159, -0.0123, -0.0102, 0.0031, 0.0007, -0.0034, 0.0124, -0.0069, 0.0002, -0.0001, 0.0084, -0.0047
749, 0.0168, -0.0233, -0.0107, 0.0103, 0.0008, -0.0037, 0.0130, -0.0156, 0.0002, -0.0002, 0.0088, -0.0106
749, 0.0181, -0.0183, -0.0116, 0.0069, 0.0008, -0.0037, 0.0141, -0.0117, 0.0002, -0.0002, 0.0095, -0.0079
749, 0.0213, -0.0028, -0.0137, -0.0034, 0.0009, -0.0032, 0.0166, 0.0005, 0.0003, 0.0000, 0.0112, 0.0004
749, 0.0212, -0.0012, -0.0136, -0.0045, 0.0009, -0.0032, 0.0165, 0.0017, 0.0003, 0.0000, 0.0112, 0.0011
749, 0.0245, -0.0334, -0.0158, 0.0168, 0.0010, -0.0042, 0.0191, -0.0236, 0.0003, -0.0004, 0.0129, -0.0160
749, 0.0262, -0.0069, -0.0170, -0.0010, 0.0010, -0.0035, 0.0205, -0.0027, 0.0003, -0.0000, 0.0139, -0.0018
749, 0.0263, -0.0246, -0.0170, 0.0107, 0.0011, -0.0041, 0.0206, -0.0167, 0.0003, -0.0003, 0.0139, -0.0113
749, 0.0281, -0.0537, -0.0182, 0.0302, 0.0011, -0.0049, 0.0220, -0.0399, 0.0004, -0.0006, 0.0149, -0.0269
749, 0.0297, -0.0327, -0.0193, 0.0162, 0.0012, -0.0043, 0.0233, -0.0234, 0.0004, -0.0004, 0.0157, -0.0158
749, 0.0303, -0.0250, -0.0197, 0.0110, 0.0012, -0.0043, 0.0238, -0.0173, 0.0004, -0.0003, 0.0161, -0.0117
749, 0.0334, -0.0387, -0.0218, 0.0201, 0.0013, -0.0047, 0.0262, -0.0282, 0.0004, -0.0005, 0.0177, -0.0190
749, 0.0346, -0.0743, -0.0225, 0.0437, 0.0013, -0.0058, 0.0272, -0.0564, 0.0004, -0.0009, 0.0184, -0.0381
749, 0.0386, -0.0626, -0.0252, 0.0358, 0.0014, -0.0056, 0.0303, -0.0470, 0.0005, -0.0008, 0.0205, -0.0318
749, 0.0366, -0.1016, -0.0327, 0.0737, 0.0014, -0.0065, 0.0289, -0.0785, 0.0005, -0.0013, 0.0266, -0.0622
749, 0.0518, -0.1974, -0.0340, 0.1256, 0.0018, -0.0094, 0.0408, -0.1537, 0.0007, -0.0025, 0.0276, -0.1039
749, 0.0468, -0.1234, -0.0307, 0.0766, 0.0017, -0.0074, 0.0369, -0.0956, 0.0006, -0.0015, 0.0249, -0.0646
749, 0.0442, -0.1953, -0.0289, 0.1242, 0.0021, -0.0102, 0.0478, -0.1672, 0.0008, -0.0027, 0.0323, -0.1131
749, 0.0574, -0.2334, -0.0378, 0.1494, 0.0020, -0.0107, 0.0453, -0.1819, 0.0007, -0.0030, 0.0306, -0.1230
749, 0.0544, -0.1872, -0.0358, 0.1195, 0.0019, -0.0094, 0.0429, -0.1465, 0.0007, -0.0024, 0.0290, -0.0991
749, 0.0529, -0.1598, -0.0348, 0.1015, 0.0019, -0.0086, 0.0418, -0.1251, 0.0007, -0.0020, 0.0282, -0.0846
749, 0.0516, -0.1320, -0.0340, 0.0835, 0.0018, -0.0079, 0.0408, -0.1038, 0.0007, -0.0017, 0.0276, -0.0702
749, 0.0529, -0.2113, -0.0349, 0.1364, 0.0019, -0.0102, 0.0419, -0.1665, 0.0007, -0.0027, 0.0283, -0.1126
749, 0.0501, -0.2182, -0.0330, 0.1411, 0.0018, -0.0104, 0.0397, -0.1720, 0.0007, -0.0028, 0.0268, -0.1163
749, 0.0496, -0.1403, -0.0327, 0.0898, 0.0018, -0.0082, 0.0393, -0.1112, 0.0006, -0.0018, 0.0266, -0.0751
749, 0.0470, -0.1982, -0.0310, 0.1283, 0.0017, -0.0099, 0.0373, -0.1568, 0.0006, -0.0026, 0.0252, -0.1060
749, 0.0414, -0.1295, -0.0273, 0.0828, 0.0016, -0.0080, 0.0328, -0.1029, 0.0005, -0.0017, 0.0222, -0.0695
749, 0.0367, -0.1222, -0.0242, 0.0781, 0.0015, -0.0078, 0.0291, -0.0972, 0.0005, -0.0016, 0.0197, -0.0657
749, 0.0376, -0.0959, -0.0248, 0.0607, 0.0015, -0.0071, 0.0298, -0.0766, 0.0005, -0.0013, 0.0202, -0.0517
749, 0.0349, -0.1114, -0.0230, 0.0713, 0.0014, -0.0075, 0.0277, -0.0892, 0.0005, -0.0015, 0.0187, -0.0602
749, 0.0464, -0.1991, -0.0306, 0.1295, 0.0017, -0.0099, 0.0368, -0.1581, 0.0006, -0.0026, 0.0249, -0.1069
749, 0.0404, -0.1438, -0.0266, 0.0926, 0.0015, -0.0082, 0.0320, -0.1144, 0.0005, -0.0019, 0.0216, -0.0773
749, 0.0380, -0.1422, -0.0250, 0.0916, 0.0015, -0.0082, 0.0301, -0.1133, 0.0005, -0.0019, 0.0204, -0.0765
749, 0.0331, -0.1006, -0.0218, 0.0640, 0.0013, -0.0070, 0.0263, -0.0805, 0.0004, -0.0013, 0.0178, -0.0544
749, 0.0325, -0.1700, -0.0214, 0.1102, 0.0013, -0.0089, 0.0258, -0.1354, 0.0004, -0.0022, 0.0174, -0.0915
749, 0.0424, -0.0576, -0.0280, 0.0355, 0.0016, -0.0058, 0.0337, -0.0467, 0.0006, -0.0009, 0.0228, -0.0316
749, 0.0319, -0.1602, -0.0210, 0.1034, 0.0013, -0.0084, 0.0254, -0.1273, 0.0004, -0.0021, 0.0171, -0.0860
749, 0.0266, -0.1586, -0.0175, 0.1025, 0.0011, -0.0083, 0.0212, -0.1263, 0.0003, -0.0021, 0.0143, -0.0853
749, 0.0310, -0.1308, -0.0204, 0.0840, 0.0012, -0.0075, 0.0246, -0.1044, 0.0004, -0.0017, 0.0166, -0.0705
749, 0.0257, -0.1294, -0.0168, 0.0830, 0.0011, -0.0074, 0.0204, -0.1033, 0.0003, -0.0017, 0.0138, -0.0697
749, 0.0237, -0.1068, -0.0155, 0.0679, 0.0009, -0.0056, 0.0188, -0.0855, 0.0002, -0.0009, 0.0094, -0.0349
749, 0.0141, -0.0346, -0.0091, 0.0199, 0.0008, -0.0047, 0.0113, -0.0286, 0.0002, -0.0005, 0.0076, -0.0193
749, 0.0133, -0.0561, -0.0085, 0.0342, 0.0007, -0.0052, 0.0106, -0.0456, 0.0002, -0.0008, 0.0072, -0.0307
749, 0.0113, -0.0473, -0.0072, 0.0283, 0.0007, -0.0050, 0.0090, -0.0386, 0.0002, -0.0007, 0.0061, -0.0260
749, 0.0101, -0.0525, -0.0064, 0.0317, 0.0006, -0.0050, 0.0081, -0.0427, 0.0001, -0.0007, 0.0055, -0.0288
749, 0.0111, -0.0629, -0.0071, 0.0386, 0.0006, -0.0053, 0.0089, -0.0509, 0.0001, -0.0009, 0.0060, -0.0343
749, 0.0094, -0.0519, -0.0059, 0.0313, 0.0006, -0.0049, 0.0075, -0.0422, 0.0001, -0.0007, 0.0051, -0.0284
749, 0.0068, -0.0580, -0.0042, 0.0353, 0.0005, -0.0051, 0.0055, -0.0471, 0.0001, -0.0008, 0.0037, -0.0317
749, 0.0051, -0.0380, -0.0031, 0.0220, 0.0005, -0.0045, 0.0042, -0.0313, 0.0001, -0.0005, 0.0028, -0.0211
749, 0.0028, -0.0365, -0.0016, 0.0211, 0.0004, -0.0044, 0.0023, -0.0301, 0.0000, -0.0005, 0.0016, -0.0203
749, 0.0010, -0.0185, -0.0004, 0.0090, 0.0003, -0.0039, 0.0009, -0.0159, 0.0000, -0.0002, 0.0006, -0.0106
749, 0.0004, -0.0088, 0.0001, 0.0028, 0.0003, -0.0037, 0.0004, -0.0084, 0.0000, -0.0003, 0.0003, -0.0055
749, -0.0013, -0.0230, 0.0012, 0.0129, 0.0003, -0.0041, -0.0009, -0.0201, -0.0001, -0.0011, -0.0006, -0.0133
749, -0.0031, -0.0182, 0.0025, 0.0096, 0.0002, -0.0040, -0.0024, -0.0163, -0.0001, -0.0009, -0.0016, -0.0107
749, -0.0055, 0.0104, 0.0042, -0.0106, 0.0001, -0.0031, -0.0044, 0.0072, -0.0003, 0.0004, -0.0029, 0.0048
749, -0.0087, -0.0201, 0.0065, 0.0111, 0.0000, -0.0041, -0.0070, -0.0181, -0.0004, -0.0011, -0.0047, -0.0119
749, -0.0106, 0.0154, 0.0078, -0.0140, -0.0000, -0.0030, -0.0086, 0.0111, -0.0005, 0.0007, -0.0057, 0.0074
749, -0.0122, 0.0028, 0.0089, -0.0051, -0.0001, -0.0034, -0.0099, 0.0008, -0.0006, 0.0000, -0.0066, 0.0006
749, -0.0148, 0.0379, 0.0108, -0.0299, -0.0002, -0.0024, -0.0121, 0.0296, -0.0007, 0.0018, -0.0080, 0.0196
749, -0.0162, 0.0069, 0.0117, -0.0079, -0.0002, -0.0034, -0.0132, 0.0041, -0.0008, 0.0002, -0.0087, 0.0028
749, -0.0182, 0.0395, 0.0132, -0.0310, -0.0003, -0.0024, -0.0148, 0.0309, -0.0009, 0.0018, -0.0098, 0.0205
749, -0.0192, 0.0215, 0.0139, -0.0181, -0.0003, -0.0030, -0.0157, 0.0159, -0.0009, 0.0009, -0.0104, 0.0106
749, -0.0218, 0.0656, 0.0157, -0.0493, -0.0004, -0.0017, -0.0178, 0.0521, -0.0011, 0.0031, -0.0118, 0.0346
749, -0.0225, 0.0474, 0.0162, -0.0365, -0.0004, -0.0023, -0.0184, 0.0373, -0.0011, 0.0022, -0.0122, 0.0247
749, -0.0239, 0.0969, 0.0173, -0.0715, -0.0004, -0.0008, -0.0196, 0.0779, -0.0012, 0.0046, -0.0130, 0.0517
749, -0.0259, 0.0971, 0.0186, -0.0716, -0.0005, -0.0009, -0.0212, 0.0781, -0.0013, 0.0046, -0.0140, 0.0517
749, -0.0366, 0.0123, 0.0262, -0.0116, -0.0008, -0.0036, -0.0300, 0.0085, -0.0018, 0.0005, -0.0198, 0.0057
749, -0.0364, 0.0784, 0.0260, -0.0581, -0.0008, -0.0017, -0.0298, 0.0623, -0.0018, 0.0037, -0.0197, 0.0414
749, -0.0367, 0.1560, 0.0263, -0.1130, -0.0008, 0.0008, -0.0301, 0.1262, -0.0018, 0.0075, -0.0199, 0.0836
749, -0.0367, 0.0596, 0.0263, -0.0446, -0.0008, -0.0024, -0.0301, 0.0467, -0.0018, 0.0028, -0.0199, 0.0310
749, -0.0371, 0.1390, 0.0266, -0.1008, -0.0008, 0.0001, -0.0304, 0.1121, -0.0018, 0.0067, -0.0201, 0.0743
749, -0.0495, 0.1211, 0.0354, -0.0880, -0.0012, -0.0005, -0.0406, 0.0972, -0.0024, 0.0058, -0.0269, 0.0644
749, -0.0493, 0.0916, 0.0352, -0.0672, -0.0012, -0.0014, -0.0405, 0.0732, -0.0024, 0.0043, -0.0268, 0.0485
749, -0.0501, 0.0871, 0.0358, -0.0641, -0.0012, -0.0017, -0.0411, 0.0696, -0.0024, 0.0041, -0.0272, 0.0461
749, -0.0619, 0.0161, 0.0441, -0.0136, -0.0016, -0.0040, -0.0508, 0.0110, -0.0030, 0.0007, -0.0336, 0.0074
749, -0.0577, 0.2428, 0.0412, -0.1736, -0.0014, 0.0032, -0.0474, 0.1965, -0.0028, 0.0117, -0.0313, 0.1302
749, -0.0516, 0.1579, 0.0368, -0.1138, -0.0013, 0.0006, -0.0423, 0.1273, -0.0025, 0.0076, -0.0280, 0.0844
749, -0.0542, 0.2007, 0.0387, -0.1441, -0.0013, 0.0020, -0.0445, 0.1625, -0.0026, 0.0097, -0.0294, 0.1076
749, -0.0563, 0.1435, 0.0402, -0.1036, -0.0014, 0.0001, -0.0462, 0.1155, -0.0027, 0.0069, -0.0306, 0.0765
749, -0.0554, 0.1062, 0.0396, -0.0773, -0.0014, -0.0009, -0.0455, 0.0849, -0.0027, 0.0051, -0.0301, 0.0563
749, -0.0543, 0.2181, 0.0387, -0.1563, -0.0014, 0.0027, -0.0446, 0.1765, -0.0026, 0.0105, -0.0295, 0.1169
749, -0.0481, 0.2047, 0.0344, -0.1468, -0.0012, 0.0025, -0.0395, 0.1655, -0.0023, 0.0099, -0.0261, 0.1097
749, -0.0640, 0.2412, 0.0457, -0.1735, -0.0017, 0.0037, -0.0526, 0.1965, -0.0031, 0.0117, -0.0348, 0.1301
749, -0.0547, 0.2229, 0.0391, -0.1603, -0.0014, 0.0032, -0.0450, 0.1811, -0.0027, 0.0108, -0.0298, 0.1200
749, -0.0502, 0.2191, 0.0360, -0.1584, -0.0013, 0.0032, -0.0414, 0.1789, -0.0025, 0.0107, -0.0274, 0.1185
749, -0.0439, 0.1103, 0.0316, -0.0817, -0.0011, -0.0003, -0.0362, 0.0900, -0.0022, 0.0054, -0.0240, 0.0596
749, -0.0433, 0.1877, 0.0311, -0.1369, -0.0010, 0.0022, -0.0357, 0.1540, -0.0021, 0.0092, -0.0236, 0.1019
749, -0.0409, 0.2038, 0.0294, -0.1483, -0.0010, 0.0029, -0.0337, 0.1672, -0.0020, 0.0100, -0.0223, 0.1107
749, -0.0393, 0.1297, 0.0283, -0.0961, -0.0009, 0.0006, -0.0325, 0.1067, -0.0019, 0.0064, -0.0215, 0.0707
749, -0.0369, 0.1571, 0.0266, -0.1157, -0.0008, 0.0015, -0.0305, 0.1295, -0.0018, 0.0077, -0.0201, 0.0857
749, -0.0349, 0.1599, 0.0252, -0.1175, -0.0008, 0.0018, -0.0289, 0.1316, -0.0017, 0.0078, -0.0191, 0.0872
749, -0.0305, 0.1404, 0.0221, -0.1044, -0.0010, 0.0012, -0.0346, 0.1237, -0.0021, 0.0074, -0.0229, 0.0819
749, -0.0385, 0.1316, 0.0278, -0.0983, -0.0009, 0.0008, -0.0319, 0.1097, -0.0019, 0.0065, -0.0211, 0.0726
749, -0.0349, 0.1120, 0.0253, -0.0844, -0.0008, 0.0002, -0.0290, 0.0937, -0.0017, 0.0056, -0.0192, 0.0620
749, -0.0296, 0.0858, 0.0215, -0.0660, -0.0006, -0.0006, -0.0246, 0.0724, -0.0015, 0.0043, -0.0163, 0.0480
749, -0.0353, 0.1497, 0.0255, -0.1111, -0.0008, 0.0016, -0.0292, 0.1247, -0.0017, 0.0074, -0.0193, 0.0826
749, -0.0296, 0.0855, 0.0215, -0.0659, -0.0006, -0.0005, -0.0247, 0.0726, -0.0015, 0.0043, -0.0163, 0.0481
749, -0.0251, 0.0647, 0.0183, -0.0512, -0.0005, -0.0012, -0.0209, 0.0557, -0.0012, 0.0033, -0.0138, 0.0369
749, -0.0236, 0.1361, 0.0172, -0.1016, -0.0005, 0.0012, -0.0197, 0.1144, -0.0012, 0.0068, -0.0130, 0.0757
749, -0.0197, 0.0823, 0.0145, -0.0634, -0.0003, -0.0005, -0.0165, 0.0701, -0.0010, 0.0042, -0.0109, 0.0464
749, -0.0177, 0.0743, 0.0131, -0.0577, -0.0003, -0.0007, -0.0149, 0.0636, -0.0009, 0.0038, -0.0098, 0.0421
749, -0.0152, 0.0587, 0.0113, -0.0466, -0.0002, -0.0012, -0.0128, 0.0509, -0.0008, 0.0030, -0.0085, 0.0337
749, -0.0127, 0.0486, 0.0095, -0.0394, -0.0001, -0.0014, -0.0107, 0.0425, -0.0006, 0.0025, -0.0071, 0.0282
749, -0.0101, 0.0613, 0.0077, -0.0483, -0.0000, -0.0010, -0.0086, 0.0529, -0.0005, 0.0031, -0.0057, 0.0351
749, -0.0083, 0.0461, 0.0063, -0.0375, 0.0000, -0.0015, -0.0071, 0.0405, -0.0004, 0.0024, -0.0047, 0.0268
749, -0.0066, 0.0554, 0.0051, -0.0440, 0.0001, -0.0011, -0.0057, 0.0481, -0.0003, 0.0029, -0.0038, 0.0319
749, -0.0044, 0.0276, 0.0036, -0.0243, 0.0001, -0.0021, -0.0039, 0.0253, -0.0002, 0.0015, -0.0026, 0.0168
749, -0.0026, 0.0368, 0.0023, -0.0307, 0.0002, -0.0018, -0.0024, 0.0328, -0.0001, 0.0020, -0.0016, 0.0218
749, -0.0009, 0.0164, 0.0011, -0.0163, 0.0002, -0.0024, -0.0010, 0.0161, -0.0001, 0.0010, -0.0007, 0.0107
750, -0.0003, 0.0018, 0.0006, -0.0057, 0.0003, -0.0009, -0.0005, 0.0032, -0.0000, 0.0004, -0.0003, 0.0042
750, 0.0000, 0.0004, 0.0006, -0.0019, 0.0012, 0.0153, -0.0008, -0.0091, 0.0000, 0.0012, 0.0005, 0.0151
750, 0.0001, -0.0011, 0.0008, 0.0003, 0.0032, 0.0223, -0.0013, -0.0092, 0.0002, 0.0016, 0.0020, 0.0193
750, 0.0002, -0.0020, 0.0010, -0.0009, 0.0051, 0.0108, -0.0021, -0.0052, 0.0003, 0.0009, 0.0035, 0.0105
750, 0.0003, -0.0025, 0.0012, -0.0018, 0.0063, 0.0033, -0.0026, -0.0024, 0.0004, 0.0004, 0.0044, 0.0048
750, 0.0003, -0.0028, 0.0015, -0.0038, 0.0082, -0.0105, -0.0033, 0.0032, 0.0005, -0.0004, 0.0058, -0.0053
750, 0.0003, -0.0028, 0.0016, -0.0018, 0.0090, 0.0023, -0.0037, -0.0023, 0.0005, 0.0003, 0.0064, 0.0040
750, 0.0004, -0.0029, 0.0019, -0.0028, 0.0108, -0.0046, -0.0044, 0.0006, 0.0006, -0.0001, 0.0077, -0.0010
750, 0.0004, -0.0029, 0.0023, -0.0018, 0.0136, 0.0020, -0.0056, -0.0022, 0.0008, 0.0003, 0.0097, 0.0038
750, 0.0004, -0.0032, 0.0026, -0.0077, 0.0154, -0.0349, -0.0063, 0.0132, 0.0009, -0.0019, 0.0110, -0.0229
750, 0.0004, -0.0031, 0.0028, -0.0080, 0.0166, -0.0361, -0.0068, 0.0137, 0.0010, -0.0019, 0.0118, -0.0238
750, 0.0005, -0.0032, 0.0041, -0.0092, 0.0247, -0.0436, -0.0102, 0.0168, 0.0014, -0.0024, 0.0178, -0.0292
750, 0.0004, -0.0031, 0.0032, -0.0091, 0.0187, -0.0420, -0.0077, 0.0161, 0.0011, -0.0023, 0.0134, -0.0280
750, 0.0005, -0.0028, 0.0046, -0.0036, 0.0278, -0.0075, -0.0082, 0.0182, 0.0016, -0.0002, 0.0200, -0.0030
750, 0.0005, -0.0033, 0.0046, -0.0141, 0.0279, -0.0729, -0.0116, 0.0290, 0.0016, -0.0041, 0.0201, -0.0504
750, 0.0005, -0.0029, 0.0050, -0.0079, 0.0300, -0.0334, -0.0124, 0.0124, 0.0017, -0.0018, 0.0216, -0.0217
750, 0.0005, -0.0029, 0.0049, -0.0072, 0.0295, -0.0296, -0.0122, 0.0108, 0.0017, -0.0015, 0.0212, -0.0189
750, 0.0005, -0.0031, 0.0053, -0.0115, 0.0320, -0.0565, -0.0133, 0.0221, 0.0019, -0.0031, 0.0231, -0.0384
750, 0.0005, -0.0032, 0.0050, -0.0140, 0.0302, -0.0711, -0.0126, 0.0282, 0.0018, -0.0040, 0.0218, -0.0490
750, 0.0005, -0.0032, 0.0048, -0.0136, 0.0289, -0.0694, -0.0120, 0.0275, 0.0017, -0.0038, 0.0208, -0.0478
750, 0.0005, -0.0031, 0.0052, -0.0123, 0.0315, -0.0618, -0.0131, 0.0243, 0.0018, -0.0034, 0.0227, -0.0422
750, 0.0005, -0.0030, 0.0051, -0.0128, 0.0310, -0.0640, -0.0129, 0.0251, 0.0018, -0.0035, 0.0223, -0.0437
750, 0.0007, -0.0035, 0.0078, -0.0230, 0.0479, -0.1271, -0.0199, 0.0516, 0.0028, -0.0072, 0.0346, -0.0895
750, 0.0007, -0.0030, 0.0073, -0.0133, 0.0449, -0.0670, -0.0187, 0.0263, 0.0026, -0.0037, 0.0324, -0.0458
750, 0.0007, -0.0034, 0.0075, -0.0231, 0.0460, -0.1281, -0.0192, 0.0519, 0.0027, -0.0073, 0.0332, -0.0901
750, 0.0006, -0.0034, 0.0069, -0.0250, 0.0427, -0.1411, -0.0178, 0.0573, 0.0025, -0.0080, 0.0308, -0.0995
750, 0.0007, -0.0037, 0.0092, -0.0356, 0.0570, -0.2057, -0.0238, 0.0844, 0.0033, -0.0118, 0.0412, -0.1464
750, 0.0006, -0.0031, 0.0071, -0.0170, 0.0441, -0.0972, -0.0184, 0.0390, 0.0026, -0.0055, 0.0318, -0.0677
750, 0.0006, -0.0026, 0.0071, -0.0085, 0.0446, -0.0462, -0.0186, 0.0176, 0.0026, -0.0025, 0.0322, -0.0307
750, 0.0007, -0.0027, 0.0078, -0.0107, 0.0492, -0.0632, -0.0205, 0.0247, 0.0029, -0.0035, 0.0355, -0.0430
750, 0.0007, -0.0027, 0.0079, -0.0121, 0.0505, -0.0736, -0.0210, 0.0290, 0.0029, -0.0041, 0.0364, -0.0505
750, 0.0006, -0.0035, 0.0073, -0.0317, 0.0465, -0.1969, -0.0193, 0.0807, 0.0027, -0.0113, 0.0335, -0.1400
750, 0.0008, -0.0027, 0.0102, -0.0248, 0.0649, -0.1479, -0.0271, 0.0600, 0.0038, -0.0084, 0.0469, -0.1042
750, 0.0008, -0.0029, 0.0107, -0.0276, 0.0681, -0.1709, -0.0284, 0.0697, 0.0040, -0.0098, 0.0493, -0.1210
750, 0.0007, -0.0028, 0.0097, -0.0232, 0.0628, -0.1512, -0.0262, 0.0615, 0.0037, -0.0086, 0.0454, -0.1067
750, 0.0007, -0.0038, 0.0099, -0.0440, 0.0644, -0.2818, -0.0269, 0.1163, 0.0038, -0.0163, 0.0466, -0.2017
750, 0.0008, -0.0029, 0.0106, -0.0279, 0.0696, -0.1889, -0.0290, 0.0773, 0.0041, -0.0108, 0.0503, -0.1342
750, 0.0008, -0.0020, 0.0104, -0.0136, 0.0691, -0.1052, -0.0288, 0.0422, 0.0040, -0.0059, 0.0500, -0.0734
750, 0.0008, -0.0027, 0.0105, -0.0235, 0.0711, -0.1792, -0.0297, 0.0734, 0.0042, -0.0102, 0.0514, -0.1274
750, 0.0007, -0.0032, 0.0095, -0.0345, 0.0657, -0.2544, -0.0275, 0.1051, 0.0053, -0.0185, 0.0653, -0.2294
750, 0.0009, -0.0043, 0.0133, -0.0529, 0.0905, -0.3741, -0.0379, 0.1555, 0.0053, -0.0218, 0.0656, -0.2695
750, 0.0009, -0.0031, 0.0121, -0.0294, 0.0848, -0.2430, -0.0355, 0.1006, 0.0050, -0.0141, 0.0615, -0.1745
750, 0.0009, -0.0039, 0.0120, -0.0399, 0.0853, -0.3279, -0.0357, 0.1365, 0.0050, -0.0191, 0.0619, -0.2367
750, 0.0010, -0.0040, 0.0141, -0.0463, 0.0987, -0.3522, -0.0413, 0.1469, 0.0058, -0.0205, 0.0716, -0.2545
750, 0.0009, -0.0046, 0.0125, -0.0497, 0.0904, -0.4030, -0.0379, 0.1685, 0.0053, -0.0236, 0.0656, -0.2920
750, 0.0009, -0.0043, 0.0073, -0.0298, 0.0821, -0.3726, -0.0345, 0.1560, 0.0048, -0.0218, 0.0597, -0.2703
750, 0.0006, -0.0027, 0.0069, -0.0103, 0.0578, -0.2010, -0.0243, 0.0843, 0.0034, -0.0118, 0.0421, -0.1461
750, 0.0006, -0.0040, 0.0067, -0.0352, 0.0560, -0.3518, -0.0235, 0.1478, 0.0033, -0.0207, 0.0407, -0.2561
750, 0.0007, -0.0039, 0.0094, -0.0331, 0.0726, -0.3315, -0.0305, 0.1394, 0.0043, -0.0195, 0.0528, -0.2415
750, 0.0007, -0.0036, 0.0092, -0.0311, 0.0706, -0.3074, -0.0297, 0.1293, 0.0042, -0.0181, 0.0514, -0.2241
750, 0.0007, -0.0039, 0.0083, -0.0357, 0.0640, -0.3358, -0.0269, 0.1414, 0.0038, -0.0198, 0.0467, -0.2450
750, 0.0006, -0.0028, 0.0075, -0.0185, 0.0587, -0.2234, -0.0247, 0.0942, 0.0035, -0.0132, 0.0428, -0.1634
750, 0.0006, -0.0030, 0.0068, -0.0238, 0.0534, -0.2504, -0.0225, 0.1056, 0.0031, -0.0148, 0.0389, -0.1831
750, 0.0005, -0.0026, 0.0068, -0.0177, 0.0527, -0.2060, -0.0222, 0.0870, 0.0031, -0.0122, 0.0384, -0.1508
750, 0.0005, -0.0028, 0.0066, -0.0219, 0.0507, -0.2250, -0.0214, 0.0949, 0.0030, -0.0133, 0.0370, -0.1646
750, 0.0005, -0.0020, 0.0064, -0.0100, 0.0485, -0.1459, -0.0204, 0.0617, 0.0029, -0.0086, 0.0354, -0.1071
750, 0.0005, -0.0027, 0.0063, -0.0222, 0.0472, -0.2153, -0.0199, 0.0908, 0.0028, -0.0127, 0.0344, -0.1575
750, 0.0006, -0.0025, 0.0079, -0.0199, 0.0573, -0.1942, -0.0241, 0.0819, 0.0034, -0.0114, 0.0417, -0.1420
750, 0.0005, -0.0029, 0.0072, -0.0276, 0.0520, -0.2348, -0.0219, 0.0989, 0.0031, -0.0138, 0.0379, -0.1714
750, 0.0005, -0.0031, 0.0067, -0.0319, 0.0484, -0.2586, -0.0203, 0.1089, 0.0028, -0.0152, 0.0353, -0.1887
750, 0.0005, -0.0024, 0.0062, -0.0228, 0.0451, -0.2003, -0.0190, 0.0844, 0.0027, -0.0118, 0.0329, -0.1463
750, 0.0004, -0.0023, 0.0059, -0.0204, 0.0428, -0.1799, -0.0235, 0.0624, 0.0025, -0.0106, 0.0408, -0.1081
750, 0.0005, -0.0033, 0.0069, -0.0379, 0.0486, -0.2854, -0.0204, 0.1200, 0.0029, -0.0168, 0.0354, -0.2079
750, 0.0004, -0.0027, 0.0061, -0.0288, 0.0430, -0.2259, -0.0181, 0.0950, 0.0025, -0.0133, 0.0313, -0.1646
750, 0.0004, -0.0025, 0.0055, -0.0254, 0.0393, -0.2029, -0.0165, 0.0853, 0.0023, -0.0119, 0.0286, -0.1478
750, 0.0004, -0.0022, 0.0050, -0.0210, 0.0353, -0.1729, -0.0148, 0.0727, 0.0021, -0.0102, 0.0257, -0.1259
750, 0.0003, -0.0022, 0.0046, -0.0216, 0.0327, -0.1750, -0.0137, 0.0735, 0.0019, -0.0103, 0.0238, -0.1274
750, 0.0003, -0.0019, 0.0042, -0.0175, 0.0302, -0.1466, -0.0127, 0.0616, 0.0018, -0.0086, 0.0220, -0.1066
750, 0.0003, -0.0020, 0.0038, -0.0195, 0.0276, -0.1563, -0.0116, 0.0656, 0.0016, -0.0092, 0.0201, -0.1136
750, 0.0003, -0.0017, 0.0032, -0.0150, 0.0236, -0.1269, -0.0099, 0.0532, 0.0014, -0.0074, 0.0172, -0.0921
750, 0.0002, -0.0016, 0.0029, -0.0137, 0.0213, -0.1173, -0.0090, 0.0492, 0.0013, -0.0069, 0.0155, -0.0852
750, 0.0002, -0.0011, 0.0024, -0.0054, 0.0182, -0.0641, -0.0076, 0.0268, 0.0011, -0.0037, 0.0132, -0.0464
750, 0.0002, -0.0015, 0.0031, -0.0122, 0.0221, -0.1062, -0.0093, 0.0444, 0.0013, -0.0062, 0.0160, -0.0770
750, 0.0002, -0.0015, 0.0025, -0.0121, 0.0185, -0.1040, -0.0057, 0.0325, 0.0011, -0.0061, 0.0134, -0.0753
750, 0.0002, -0.0013, 0.0015, -0.0092, 0.0122, -0.0847, -0.0051, 0.0354, 0.0007, -0.0049, 0.0089, -0.0613
750, 0.0002, -0.0010, 0.0018, -0.0049, 0.0141, -0.0576, -0.0059, 0.0240, 0.0008, -0.0033, 0.0102, -0.0415
750, 0.0001, -0.0012, 0.0014, -0.0077, 0.0115, -0.0742, -0.0048, 0.0309, 0.0007, -0.0043, 0.0083, -0.0536
750, 0.0001, -0.0010, 0.0010, -0.0056, 0.0088, -0.0603, -0.0037, 0.0251, 0.0005, -0.0035, 0.0064, -0.0434
750, 0.0001, -0.0010, 0.0007, -0.0052, 0.0065, -0.0578, -0.0027, 0.0240, 0.0004, -0.0034, 0.0047, -0.0416
750, 0.0001, -0.0008, 0.0003, -0.0023, 0.0040, -0.0388, -0.0016, 0.0160, 0.0002, -0.0022, 0.0028, -0.0278
750, 0.0001, -0.0007, -0.0000, -0.0014, 0.0020, -0.0333, -0.0008, 0.0137, 0.0001, -0.0019, 0.0014, -0.0238
750, 0.0000, -0.0005, -0.0002, 0.0021, 0.0011, -0.0111, -0.0004, 0.0044, 0.0001, -0.0006, 0.0008, -0.0077
750, 0.0000, -0.0010, -0.0004, -0.0000, -0.0001, -0.0230, 0.0001, 0.0093, -0.0000, -0.0012, -0.0002, -0.0165
750, -0.0000, -0.0011, -0.0008, -0.0005, -0.0026, -0.0254, 0.0011, 0.0103, -0.0001, -0.0013, -0.0015, -0.0100
750, -0.0001, -0.0010, -0.0012, 0.0002, -0.0051, -0.0212, 0.0021, 0.0085, -0.0002, -0.0010, -0.0038, -0.0153
750, -0.0002, -0.0005, -0.0015, 0.0035, -0.0069, -0.0025, 0.0029, 0.0008, -0.0003, -0.0001, -0.0052, -0.0014
750, -0.0002, -0.0005, -0.0019, 0.0035, -0.0090, -0.0029, 0.0037, 0.0010, -0.0004, -0.0001, -0.0068, -0.0018
750, -0.0003, -0.0003, -0.0021, 0.0047, -0.0104, 0.0041, 0.0043, -0.0019, -0.0005, 0.0002, -0.0077, 0.0035
750, -0.0003, 0.0002, -0.0024, 0.0075, -0.0119, 0.0195, 0.0049, -0.0082, -0.0006, 0.0010, -0.0089, 0.0148
750, -0.0004, -0.0005, -0.0032, 0.0035, -0.0165, -0.0037, 0.0049, -0.0073, -0.0008, -0.0002, -0.0123, -0.0024
750, -0.0005, 0.0001, -0.0038, 0.0070, -0.0202, 0.0169, 0.0084, -0.0072, -0.0010, 0.0009, -0.0151, 0.0129
750, -0.0006, 0.0004, -0.0040, 0.0089, -0.0209, 0.0267, 0.0087, -0.0112, -0.0010, 0.0013, -0.0156, 0.0201
750, -0.0006, 0.0009, -0.0040, 0.0119, -0.0212, 0.0427, 0.0088, -0.0178, -0.0010, 0.0021, -0.0158, 0.0320
750, -0.0006, 0.0019, -0.0042, 0.0184, -0.0223, 0.0792, 0.0092, -0.0328, -0.0011, 0.0039, -0.0166, 0.0590
750, -0.0006, 0.0010, -0.0043, 0.0135, -0.0228, 0.0498, 0.0094, -0.0206, -0.0011, 0.0024, -0.0170, 0.0371
750, -0.0007, 0.0014, -0.0047, 0.0161, -0.0248, 0.0636, 0.0102, -0.0263, -0.0012, 0.0031, -0.0184, 0.0473
750, -0.0010, 0.0013, -0.0066, 0.0157, -0.0357, 0.0593, 0.0147, -0.0245, -0.0017, 0.0029, -0.0266, 0.0440
750, -0.0010, 0.0015, -0.0066, 0.0172, -0.0358, 0.0677, 0.0148, -0.0280, -0.0017, 0.0033, -0.0266, 0.0503
750, -0.0010, 0.0029, -0.0066, 0.0257, -0.0354, 0.1135, 0.0146, -0.0468, -0.0017, 0.0055, -0.0263, 0.0841
750, -0.0010, 0.0026, -0.0067, 0.0243, -0.0358, 0.1035, 0.0148, -0.0426, -0.0017, 0.0050, -0.0266, 0.0767
750, -0.0010, 0.0029, -0.0068, 0.0268, -0.0363, 0.1155, 0.0150, -0.0475, -0.0018, 0.0056, -0.0269, 0.0855
750, -0.0013, 0.0016, -0.0087, 0.0195, -0.0342, 0.1374, 0.0194, -0.0290, -0.0017, 0.0067, -0.0350, 0.0521
750, -0.0013, 0.0013, -0.0088, 0.0180, -0.0341, 0.1128, 0.0195, -0.0238, -0.0023, 0.0028, -0.0253, 0.0832
750, -0.0013, 0.0018, -0.0089, 0.0221, -0.0478, 0.0789, 0.0197, -0.0322, -0.0023, 0.0038, -0.0355, 0.0580
750, -0.0014, 0.0009, -0.0097, 0.0172, -0.0520, 0.0466, 0.0215, -0.0188, -0.0025, 0.0022, -0.0386, 0.0338
750, -0.0014, 0.0003, -0.0097, 0.0147, -0.0519, 0.0279, 0.0214, -0.0110, -0.0025, 0.0013, -0.0385, 0.0198
750, -0.0015, 0.0024, -0.0099, 0.0282, -0.0527, 0.1032, 0.0217, -0.0422, -0.0026, 0.0050, -0.0391, 0.0758
750, -0.0015, 0.0015, -0.0103, 0.0239, -0.0547, 0.0722, 0.0225, -0.0293, -0.0027, 0.0035, -0.0406, 0.0527
750, -0.0016, 0.0021, -0.0110, 0.0282, -0.0580, 0.0907, 0.0239, -0.0368, -0.0028, 0.0043, -0.0431, 0.0663
750, -0.0016, 0.0019, -0.0112, 0.0288, -0.0591, 0.0876, 0.0243, -0.0356, -0.0029, 0.0042, -0.0438, 0.0639
750, -0.0016, 0.0036, -0.0110, 0.0403, -0.0575, 0.1484, 0.0237, -0.0607, -0.0028, 0.0072, -0.0427, 0.1091
750, -0.0016, 0.0031, -0.0110, 0.0387, -0.0571, 0.1334, 0.0235, -0.0545, -0.0028, 0.0065, -0.0423, 0.0979
750, -0.0016, 0.0035, -0.0110, 0.0427, -0.0565, 0.1479, 0.0233, -0.0605, -0.0028, 0.0072, -0.0419, 0.1087
750, -0.0016, 0.0040, -0.0115, 0.0480, -0.0580, 0.1638, 0.0239, -0.0670, -0.0028, 0.0079, -0.0430, 0.1204
750, -0.0021, 0.0053, -0.0147, 0.0574, -0.0553, 0.2389, 0.0228, -0.0980, -0.0037, 0.0102, -0.0567, 0.1553
750, -0.0022, 0.0031, -0.0152, 0.0451, -0.0790, 0.1363, 0.0326, -0.0557, -0.0038, 0.0066, -0.0586, 0.1002
750, -0.0020, 0.0066, -0.0139, 0.0692, -0.0706, 0.2592, 0.0291, -0.1065, -0.0045, 0.0127, -0.0524, 0.1917
750, -0.0024, 0.0077, -0.0169, 0.0789, -0.0869, 0.2993, 0.0358, -0.1231, -0.0042, 0.0145, -0.0645, 0.2215
750, -0.0023, 0.0076, -0.0164, 0.0795, -0.0844, 0.3007, 0.0348, -0.1238, -0.0041, 0.0146, -0.0627, 0.2229
750, -0.0022, 0.0054, -0.0155, 0.0649, -0.0795, 0.2249, 0.0328, -0.0928, -0.0039, 0.0110, -0.0591, 0.1669
750, -0.0021, 0.0054, -0.0150, 0.0623, -0.0774, 0.2277, 0.0320, -0.0943, -0.0038, 0.0112, -0.0576, 0.1695
750, -0.0021, 0.0028, -0.0145, 0.0455, -0.0748, 0.1341, 0.0309, -0.0558, -0.0037, 0.0066, -0.0557, 0.1002
750, -0.0022, 0.0048, -0.0152, 0.0588, -0.0785, 0.2085, 0.0325, -0.0867, -0.0038, 0.0102, -0.0585, 0.1560
750, -0.0021, 0.0058, -0.0143, 0.0624, -0.0751, 0.2449, 0.0311, -0.1020, -0.0037, 0.0121, -0.0560, 0.1834
750, -0.0019, 0.0017, -0.0133, 0.0346, -0.0707, 0.1010, 0.0293, -0.0428, -0.0035, 0.0051, -0.0527, 0.0769
750, -0.0019, 0.0079, -0.0132, 0.0717, -0.0703, 0.3250, 0.0291, -0.1354, -0.0034, 0.0160, -0.0525, 0.2436
750, -0.0017, 0.0069, -0.0114, 0.0613, -0.0619, 0.2891, 0.0257, -0.1208, -0.0030, 0.0143, -0.0462, 0.2173
750, -0.0017, 0.0032, -0.0114, 0.0367, -0.0631, 0.1613, 0.0262, -0.0682, -0.0031, 0.0081, -0.0472, 0.1225
750, -0.0016, 0.0035, -0.0109, 0.0373, -0.0610, 0.1743, 0.0254, -0.0736, -0.0030, 0.0087, -0.0457, 0.1323
750, -0.0014, 0.0041, -0.0093, 0.0416, -0.0521, 0.2055, 0.0217, -0.0865, -0.0026, 0.0102, -0.0390, 0.1556
750, -0.0019, 0.0044, -0.0126, 0.0441, -0.0714, 0.2233, 0.0296, -0.0938, -0.0035, 0.0111, -0.0534, 0.1688
750, -0.0012, 0.0018, -0.0082, 0.0233, -0.0476, 0.1220, 0.0198, -0.0522, -0.0023, 0.0062, -0.0357, 0.0937
750, -0.0017, 0.0036, -0.0109, 0.0381, -0.0631, 0.2044, 0.0262, -0.0861, -0.0031, 0.0102, -0.0472, 0.1548
750, -0.0015, 0.0042, -0.0101, 0.0409, -0.0586, 0.2273, 0.0243, -0.0955, -0.0029, 0.0113, -0.0438, 0.1719
750, -0.0013, 0.0028, -0.0090, 0.0329, -0.0525, 0.1845, 0.0218, -0.0778, -0.0026, 0.0092, -0.0393, 0.1400
750, -0.0013, 0.0027, -0.0087, 0.0313, -0.0508, 0.1798, 0.0211, -0.0759, -0.0025, 0.0090, -0.0381, 0.1365
750, -0.0011, 0.0037, -0.0075, 0.0383, -0.0444, 0.2232, 0.0185, -0.0938, -0.0022, 0.0111, -0.0333, 0.1687
750, -0.0014, 0.0020, -0.0094, 0.0292, -0.0556, 0.1711, 0.0231, -0.0722, -0.0027, 0.0085, -0.0416, 0.1299
750, -0.0012, 0.0026, -0.0082, 0.0305, -0.0491, 0.1845, 0.0204, -0.0778, -0.0024, 0.0092, -0.0368, 0.1399
750, -0.0010, 0.0016, -0.0071, 0.0240, -0.0423, 0.1489, 0.0176, -0.0631, -0.0021, 0.0075, -0.0317, 0.1135
750, -0.0009, 0.0006, -0.0067, 0.0176, -0.0402, 0.1136, 0.0168, -0.0485, -0.0020, 0.0057, -0.0302, 0.0872
750, -0.0009, 0.0001, -0.0064, 0.0150, -0.0385, 0.0992, 0.0161, -0.0425, -0.0019, 0.0050, -0.0289, 0.0765
750, -0.0008, 0.0018, -0.0062, 0.0258, -0.0377, 0.1628, 0.0157, -0.0687, -0.0019, 0.0081, -0.0283, 0.1237
750, -0.0007, 0.0000, -0.0056, 0.0147, -0.0342, 0.0990, 0.0143, -0.0424, -0.0017, 0.0050, -0.0257, 0.0761
750, -0.0007, 0.0018, -0.0054, 0.0257, -0.0331, 0.1633, 0.0138, -0.0689, -0.0016, 0.0081, -0.0248, 0.1239
750, -0.0007, -0.0008, -0.0051, 0.0098, -0.0315, 0.0713, 0.0131, -0.0309, -0.0016, 0.0036, -0.0237, 0.0555
750, -0.0006, 0.0017, -0.0047, 0.0248, -0.0290, 0.1587, 0.0121, -0.0669, -0.0014, 0.0079, -0.0218, 0.1204
750, -0.0005, -0.0003, -0.0043, 0.0126, -0.0266, 0.0878, 0.0111, -0.0376, -0.0013, 0.0044, -0.0200, 0.0676
750, -0.0005, -0.0001, -0.0042, 0.0133, -0.0257, 0.0924, 0.0108, -0.0395, -0.0013, 0.0047, -0.0194, 0.0711
750, -0.0004, -0.0003, -0.0037, 0.0125, -0.0230, 0.0873, 0.0096, -0.0374, -0.0011, 0.0044, -0.0173, 0.0672
750, -0.0003, 0.0003, -0.0033, 0.0161, -0.0206, 0.1082, 0.0086, -0.0460, -0.0010, 0.0054, -0.0155, 0.0827
750, -0.0003, -0.0012, -0.0031, 0.0073, -0.0196, 0.0571, 0.0082, -0.0249, -0.0010, 0.0029, -0.0148, 0.0447
750, -0.0004, 0.0013, -0.0038, 0.0224, -0.0235, 0.1442, 0.0098, -0.0608, -0.0012, 0.0072, -0.0176, 0.1093
750, -0.0003, -0.0002, -0.0033, 0.0139, -0.0203, 0.0945, 0.0085, -0.0402, -0.0010, 0.0048, -0.0153, 0.0723
750, -0.0002, 0.0000, -0.0027, 0.0151, -0.0170, 0.1020, 0.0071, -0.0433, -0.0008, 0.0051, -0.0128, 0.0779
750, -0.0001, -0.0009, -0.0022, 0.0093, -0.0140, 0.0681, 0.0059, -0.0293, -0.0007, 0.0035, -0.0106, 0.0527
750, -0.0001, -0.0010, -0.0018, 0.0090, -0.0116, 0.0661, 0.0049, -0.0285, -0.0006, 0.0034, -0.0089, 0.0512
750, -0.0000, -0.0014, -0.0014, 0.0064, -0.0093, 0.0509, 0.0039, -0.0222, -0.0005, 0.0026, -0.0071, 0.0399
750, 0.0001, -0.0013, -0.0010, 0.0077, -0.0072, 0.0583, 0.0031, -0.0253, -0.0004, 0.0030, -0.0056, 0.0454
750, 0.0001, -0.0016, -0.0008, 0.0058, -0.0056, 0.0468, 0.0024, -0.0205, -0.0003, 0.0024, -0.0044, 0.0369
750, 0.0002, -0.0019, -0.0004, 0.0040, -0.0035, 0.0365, 0.0015, -0.0163, -0.0002, 0.0019, -0.0028, 0.0292
750, 0.0002, -0.0022, -0.0001, 0.0024, -0.0017, 0.0267, 0.0008, -0.0122, -0.0001, 0.0014, -0.0015, 0.0219
751, 0.0003, -0.0028, 0.0001, -0.0010, -0.0006, 0.0067, 0.0003, -0.0040, -0.0000, 0.0005, -0.0006, 0.0071
751, 0.0006, 0.0129, 0.0001, -0.0042, -0.0003, 0.0000, 0.0005, 0.0135, 0.0000, 0.0026, -0.0002, 0.0149
751, 0.0023, 0.0118, -0.0001, -0.0045, -0.0003, -0.0027, 0.0021, 0.0138, 0.0003, 0.0023, 0.0012, 0.0121
751, 0.0040, 0.0140, -0.0004, -0.0051, -0.0005, -0.0044, 0.0038, 0.0166, 0.0005, 0.0026, 0.0025, 0.0126
751, 0.0057, -0.0018, -0.0006, -0.0027, -0.0007, -0.0024, 0.0054, 0.0012, 0.0008, 0.0003, 0.0036, 0.0014
751, 0.0077, -0.0009, -0.0009, -0.0029, -0.0011, -0.0029, 0.0075, 0.0022, 0.0011, 0.0004, 0.0051, 0.0018
751, 0.0094, -0.0136, -0.0012, -0.0009, -0.0013, -0.0009, 0.0091, -0.0104, 0.0013, -0.0015, 0.0062, -0.0069
751, 0.0142, -0.0150, -0.0020, -0.0007, -0.0021, -0.0008, 0.0139, -0.0116, 0.0020, -0.0017, 0.0095, -0.0078
751, 0.0147, -0.0499, -0.0020, 0.0047, -0.0022, 0.0050, 0.0144, -0.0465, 0.0021, -0.0067, 0.0098, -0.0316
751, 0.0160, -0.0334, -0.0022, 0.0021, -0.0024, 0.0022, 0.0158, -0.0301, 0.0023, -0.0043, 0.0107, -0.0204
751, 0.0165, -0.0592, -0.0023, 0.0062, -0.0025, 0.0065, 0.0162, -0.0560, 0.0023, -0.0081, 0.0110, -0.0381
751, 0.0187, -0.0513, -0.0027, 0.0049, -0.0029, 0.0051, 0.0184, -0.0481, 0.0027, -0.0069, 0.0125, -0.0327
751, 0.0191, -0.0460, -0.0027, 0.0041, -0.0029, 0.0041, 0.0189, -0.0427, 0.0027, -0.0062, 0.0128, -0.0291
751, 0.0268, -0.0285, -0.0028, -0.0015, -0.0042, 0.0010, 0.0193, -0.0076, 0.0028, -0.0011, 0.0181, -0.0170
751, 0.0297, -0.0970, -0.0031, 0.0072, -0.0034, 0.0073, 0.0295, -0.0937, 0.0043, -0.0135, 0.0146, -0.0427
751, 0.0230, -0.0748, -0.0033, 0.0086, -0.0036, 0.0086, 0.0228, -0.0714, 0.0033, -0.0103, 0.0155, -0.0486
751, 0.0247, -0.0364, -0.0036, 0.0025, -0.0039, 0.0019, 0.0245, -0.0330, 0.0036, -0.0048, 0.0167, -0.0224
751, 0.0375, -0.0359, -0.0056, 0.0024, -0.0060, 0.0018, 0.0373, -0.0326, 0.0054, -0.0047, 0.0254, -0.0222
751, 0.0385, -0.1115, -0.0058, 0.0143, -0.0062, 0.0143, 0.0383, -0.1079, 0.0056, -0.0156, 0.0261, -0.0734
751, 0.0413, -0.0761, -0.0062, 0.0087, -0.0067, 0.0082, 0.0412, -0.0726, 0.0060, -0.0105, 0.0280, -0.0494
751, 0.0421, -0.0887, -0.0063, 0.0107, -0.0068, 0.0101, 0.0420, -0.0850, 0.0061, -0.0123, 0.0286, -0.0578
751, 0.0427, -0.1000, -0.0064, 0.0124, -0.0069, 0.0118, 0.0425, -0.0963, 0.0062, -0.0139, 0.0289, -0.0655
751, 0.0435, -0.1582, -0.0066, 0.0215, -0.0070, 0.0214, 0.0433, -0.1544, 0.0063, -0.0224, 0.0295, -0.1051
751, 0.0560, -0.0141, -0.0085, -0.0010, -0.0091, -0.0030, 0.0559, -0.0106, 0.0081, -0.0015, 0.0381, -0.0072
751, 0.0564, -0.1698, -0.0086, 0.0234, -0.0091, 0.0233, 0.0562, -0.1663, 0.0081, -0.0241, 0.0383, -0.1132
751, 0.0534, -0.1786, -0.0081, 0.0248, -0.0086, 0.0245, 0.0533, -0.1751, 0.0077, -0.0254, 0.0363, -0.1192
751, 0.0556, -0.1677, -0.0085, 0.0231, -0.0090, 0.0223, 0.0554, -0.1642, 0.0080, -0.0238, 0.0377, -0.1117
751, 0.0525, -0.1980, -0.0080, 0.0278, -0.0084, 0.0270, 0.0524, -0.1940, 0.0076, -0.0281, 0.0356, -0.1320
751, 0.0546, -0.2031, -0.0083, 0.0287, -0.0088, 0.0278, 0.0544, -0.1993, 0.0079, -0.0289, 0.0370, -0.1356
751, 0.0519, -0.2609, -0.0079, 0.0379, -0.0083, 0.0377, 0.0518, -0.2575, 0.0075, -0.0373, 0.0352, -0.1752
751, 0.0459, -0.1550, -0.0070, 0.0213, -0.0073, 0.0196, 0.0458, -0.1518, 0.0066, -0.0220, 0.0312, -0.1032
751, 0.0604, -0.2237, -0.0093, 0.0322, -0.0097, 0.0313, 0.0603, -0.2209, 0.0087, -0.0320, 0.0411, -0.1503
751, 0.0569, -0.2103, -0.0087, 0.0301, -0.0091, 0.0289, 0.0568, -0.2075, 0.0082, -0.0300, 0.0386, -0.1411
751, 0.0492, -0.0753, -0.0075, 0.0089, -0.0078, 0.0057, 0.0491, -0.0725, 0.0071, -0.0105, 0.0334, -0.0492
751, 0.0493, -0.1883, -0.0075, 0.0267, -0.0078, 0.0250, 0.0492, -0.1856, 0.0071, -0.0269, 0.0334, -0.1262
751, 0.0437, -0.1659, -0.0066, 0.0232, -0.0068, 0.0212, 0.0436, -0.1634, 0.0063, -0.0237, 0.0297, -0.1110
751, 0.0435, -0.1731, -0.0066, 0.0243, -0.0068, 0.0224, 0.0434, -0.1704, 0.0063, -0.0247, 0.0295, -0.1158
