7cmdehdrb/project_th/tune/rtde_tune/data/rtde_log_shoulder_pan_zz.csv
Time,Stiffness,Damping,R_shoulder_pan_p,R_shoulder_lift_p,R_elbow_p,R_wrist_1_p,R_wrist_2_p,R_wrist_3_p,R_shoulder_pan_v,R_shoulder_lift_v,R_elbow_v,R_wrist_1_v,R_wrist_2_v,R_wrist_3_v,S_shoulder_pan_p,S_shoulder_lift_p,S_elbow_p,S_wrist_1_p,S_wrist_2_p,S_wrist_3_p,S_shoulder_pan_v,S_shoulder_lift_v,S_elbow_v,S_wrist_1_v,S_wrist_2_v,S_wrist_3_v,C_shoulder_pan_p,C_shoulder_lift_p,C_elbow_p,C_wrist_1_p,C_wrist_2_p,C_wrist_3_p
4.704,600.0,0.0,-1.417580386863678,-1.5707963267948966,0.0,-1.5968038136467797,0.0,0.0,0.0006253775593555423,0.0,0.0,0.0,0.0,0.0,-1.3897491764110754,-1.5681495441455213,0.0010437819066584355,-1.5967252626420716,7.790087028075934e-07,2.5119939997123605e-07,0.8408800647031781,-0.17958723876375346,0.07216559020491062,0.032219141330211795,-0.022590492812003315,0.0008862221835365535,-1.1490125238418332,-1.5707963267948966,0.0,-1.5968038136467797,0.0,0.0
4.803,600.0,0.0,-1.408467538824988,-1.5707963267948966,0.0,-1.5968038136467797,0.0,0.0,0.29848616632331315,0.0,0.0,0.0,0.0,0.0,-1.2613268881155468,-1.5757748401366907,-0.0013023406487313654,-1.597081859912033,0.0002811900197406115,2.6738091526614043e-06,0.6591104652946456,-0.31155835565938067,0.818138666364719,0.16411533809482912,-0.05743670731892917,0.006015641376879406,-1.1192625585624456,-1.5707963267948966,0.0,-1.5968038136467797,0.0,0.0
4.903,600.0,0.0,-1.3740886733385436,-1.5707963267948966,0.0,-1.5968038136467797,0.0,0.0,0.47673607401346596,0.0,0.0,0.0,0.0,0.0,-1.2181948637328415,-1.5784687607373604,0.001971792637712871,-1.5962855747460996,-0.0003213714379659015,1.3018775173130986e-05,0.440436377396449,1.1314458533329275,-1.3801149248516047,-0.3509878870470897,0.2127697432481932,-0.008450803628431536,-1.1680365544870577,-1.5707963267948966,0.0,-1.5968038136467797,0.0,0.0
5.003,600.0,0.0,-1.293489003108646,-1.5707963267948966,0.0,-1.5968038136467797,0.0,0.0,1.0220533016585216,0.0,0.0,0.0,0.0,0.0,-1.1884195243232651,-1.5665895975370074,0.0011941610426800427,-1.5968008964170297,7.691902163679053e-05,-2.662907111246032e-06,2.161677603647121,0.3546762652883086,0.13448107132162124,0.00791468849505257,0.0022258367495746013,-7.347849838867937e-05,-1.0139631262209718,-1.5707963267948966,0.0,-1.5968038136467797,0.0,0.0
5.102,600.0,0.0,-1.197297521645761,-1.5707963267948966,0.0,-1.5968038136467797,0.0,0.0,0.5487822628751654,0.0,0.0,0.0,0.0,0.0,-1.121820390205054,-1.577027324797355,-0.0032034725226953564,-1.5969437750095126,-0.000188210603917589,-3.583097059898568e-06,-0.9520359478082596,-0.10704634258222344,-0.9357931951618118,-0.11999867647809424,-0.005156904563234705,-0.005107875871596076,-1.0970666116248804,-1.5707963267948966,0.0,-1.5968038136467797,0.0,0.0
5.203,600.0,0.0,-1.1265233010028153,-1.5707963267948966,0.0,-1.5968038136467797,0.0,0.0,0.8243972491238941,0.0,0.0,0.0,0.0,0.0,-1.0444400476249025,-1.5825195619134254,0.0018727482723714683,-1.5962727915728672,-0.00034154673625281883,1.4946372925632034e-05,-0.6536730227180035,-0.7612351696691049,1.3478878793425013,0.44192341997012197,-0.31280062043936174,0.013961801986173446,-0.909856565368387,-1.5707963267948966,0.0,-1.5968038136467797,0.0,0.0
5.303,600.0,0.0,-1.0328030137455935,-1.5707963267948966,0.0,-1.5968038136467797,0.0,0.0,0.8477375911911526,0.0,0.0,0.0,0.0,0.0,-0.9991533261832413,-1.5836400869420761,0.0007487952040401274,-1.5966967668184078,-2.7187442561348607e-05,-1.846526121573952e-07,-0.13300104451294492,-1.0582199088952449,1.5950928780519076,0.5857477009559603,-0.4134214044567397,0.021717277660674564,-0.9533879048143449,-1.5707963267948966,0.0,-1.5968038136467797,0.0,0.0
5.403,600.0,0.0,-0.9633778118900862,-1.5707963267948966,0.0,-1.5968038136467797,0.0,0.0,0.7432617370620077,0.0,0.0,0.0,0.0,0.0,-0.8722654847287892,-1.577075394855031,-0.003640405451340563,-1.5970479046081347,-0.0001296236606790978,-6.313268687267405e-06,-0.7784784053580681,-0.23384007458165487,-0.992994499846324,-0.14719937161432295,0.023529750197176832,-0.005303920938231437,-0.821493746508866,-1.5707963267948966,0.0,-1.5968038136467797,0.0,0.0
5.503,600.0,0.0,-0.9003280872993846,-1.5707963267948966,0.0,-1.5968038136467797,0.0,0.0,0.5227348392400305,0.0,0.0,0.0,0.0,0.0,-0.8192147166031655,-1.5619602246141226,0.0018371128883321462,-1.596322459527197,-0.0002874621997322428,1.1695928452207659e-05,0.15403780337191478,0.7385162084628296,-1.5569532154486647,0.04210640359621298,-0.15018832052950293,0.01788462266740065,-0.6828667663727814,-1.5707963267948966,0.0,-1.5968038136467797,0.0,0.0
5.603,600.0,0.0,-0.8319237852003143,-1.5707963267948966,0.0,-1.5968038136467797,0.0,0.0,0.4563272007876683,0.0,0.0,0.0,0.0,0.0,-0.8490201497330597,-1.5686361036766787,-0.0006080426541473299,-1.5967026257728059,-0.0003015771485654067,-7.321925812996457e-06,-1.2282080831154305,0.3975653095110578,-0.8846253485059014,-0.11193293525451779,-0.021892536546942395,-0.005895129176364118,-0.5998787373894621,-1.5707963267948966,0.0,-1.5968038136467797,0.0,0.0
5.703,600.0,0.0,-0.7409848645353581,-1.5707963267948966,0.0,-1.5968038136467797,0.0,0.0,1.0179711421394178,0.0,0.0,0.0,0.0,0.0,-0.7832858105998247,-1.5730443010710324,-0.0006160854526542342,-1.5968521622680139,-3.233903136792262e-05,-8.963359391642774e-07,1.1706493156336024,0.8713775868213567,-0.20269160931403357,-0.1903087591277626,0.2078790143538308,-0.0018339747014870836,-0.44908622593987124,-1.5707963267948966,0.0,-1.5968038136467797,0.0,0.0
5.803,600.0,0.0,-0.6488297156242666,-1.5707963267948966,0.0,-1.5968038136467797,0.0,0.0,0.9081787656745455,0.0,0.0,0.0,0.0,0.0,-0.6616438638606107,-1.571553729808915,-0.00013891270284308447,-1.5968098180066816,6.792521157992992e-06,9.057780467516723e-07,3.1415937188542293,0.15031948121318933,-0.006382025763847057,-0.033286355283385215,0.036490466808697594,0.015045735597565517,-0.4428129286970876,-1.5707963267948966,0.0,-1.5968038136467797,0.0,0.0
5.903,600.0,0.0,-0.5655435511862574,-1.5707963267948966,0.0,-1.5968038136467797,0.0,0.0,0.6389648633514419,0.0,0.0,0.0,0.0,0.0,-0.4510661851504185,-1.5672077172260148,0.0019363226609443783,-1.5965585487578327,-8.534464955039375e-05,3.870047679210322e-06,1.6931448767503359,-0.1287000976091158,0.09109237646648112,0.03394042348591947,-0.023604408173266922,0.0009508884291452473,-0.40561322648601794,-1.5707963267948966,0.0,-1.5968038136467797,0.0,0.0
6.003,600.0,0.0,-0.4875028779707238,-1.5707963267948966,0.0,-1.5968038136467797,0.0,0.0,0.9422679841441152,0.0,0.0,0.0,0.0,0.0,-0.4445536577312251,-1.5723155270387323,-0.001497729287769913,-1.5970882514986493,0.0001488074093465331,-6.236971921899291e-06,-2.280990815750142,0.1603979313977284,-0.12190694791243371,-0.04434786145005658,0.030623031906927046,-0.0012280469067337237,-0.2989055251905821,-1.5707963267948966,0.0,-1.5968038136467797,0.0,0.0
6.103,600.0,0.0,-0.3997900461795165,-1.5707963267948966,0.0,-1.5968038136467797,0.0,0.0,0.49962853328672957,0.0,0.0,0.0,0.0,0.0,-0.39134689494475006,-1.568020780306816,0.0012447406875570196,-1.5966588167728741,-4.6540645906299066e-05,2.579295247523917e-06,3.05941762236209,1.2959410580677426,-0.626748863571466,-0.20083593531122318,0.10985642694069098,-0.00614478076291033,-0.13275466263547414,-1.5707963267948966,0.0,-1.5968038136467797,0.0,0.0
6.203,600.0,0.0,-0.32997849719453853,-1.5707963267948966,0.0,-1.5968038136467797,0.0,0.0,0.8103433127433047,0.0,0.0,0.0,0.0,0.0,-0.3147991231003845,-1.578155040360949,-0.0008342192819149026,-1.597408363461677,0.0005780189588414954,-1.6742591491376894e-05,0.22597637573865295,-0.6996206075841679,1.654245813762257,0.26275532947243335,-0.09112164627133677,0.000686483476316078,-0.243002985512126,-1.5707963267948966,0.0,-1.5968038136467797,0.0,0.0
6.303,600.0,0.0,-0.24369309925786453,-1.5707963267948966,0.0,-1.5968038136467797,0.0,0.0,0.6954332894882179,0.0,0.0,0.0,0.0,0.0,-0.2472401025015248,-1.5762940233912017,-0.0016989400806896192,-1.5967311215964697,-0.00022126860263021276,3.776502957300349e-06,-1.230295601935889,-0.23501755796811977,-1.0471394277058068,-0.1086951056130915,-0.03631404903123665,-0.0055528365144373254,0.0219147392414365,-1.5707963267948966,0.0,-1.5968038136467797,0.0,0.0
6.403,600.0,0.0,-0.172212179029116,-1.5707963267948966,0.0,-1.5968038136467797,0.0,0.0,0.9107321627609695,0.0,0.0,0.0,0.0,0.0,-0.15183202355429984,-1.572406340831904,-0.00019006560029674507,-1.5967324531770148,-7.52565046402527e-05,2.9085536608711433e-06,0.5557829775033656,-0.9704763409862408,0.569000412440997,0.22333913053493154,-0.15713978683061183,0.0062858227105084975,-0.04727828350038038,-1.5707963267948966,0.0,-1.5968038136467797,0.0,0.0
6.503,600.0,0.0,-0.09719226931841529,-1.5707963267948966,0.0,-1.5968038136467797,0.0,0.0,0.9802997046022345,0.0,0.0,0.0,0.0,0.0,-0.10456662335698022,-1.5708226920896884,9.184361435360214e-05,-1.596775596386674,-1.869485566815892e-05,7.898029937029777e-07,0.47411524517380904,-0.8742059970570754,0.5729923577569712,0.21695295346470558,-0.15127615525577304,0.006052255160530142,0.18743553285840453,-1.5707963267948966,0.0,-1.5968038136467797,0.0,0.0
6.603,600.0,0.0,-0.01130524221441842,-1.5707963267948966,0.0,-1.5968038136467797,0.0,0.0,0.6953984175951368,0.0,0.0,0.0,0.0,0.0,-0.004439947267974448,-1.576288830227076,-0.0014730862051596234,-1.5967854500827074,-0.00011417561961887906,4.016470540214973e-06,-0.7886864349743964,0.08053891821201281,0.02057410119859584,-0.00034129992571820114,0.0016331840586397432,-5.23090131660761e-05,0.04190434692572999,-1.5707963267948966,0.0,-1.5968038136467797,0.0,0.0
6.702,600.0,0.0,0.06148258797971848,-1.5707963267948966,0.0,-1.5968038136467797,0.0,0.0,0.67363719900456,0.0,0.0,0.0,0.0,0.0,0.0510118187055454,-1.5635639802225685,0.001554674901942048,-1.5969329892070978,0.00021624442179735893,-8.031305964701764e-06,1.010237136324042,0.5537641016600038,-0.48638868937354823,-0.17159178002581987,0.11764728832787923,-0.004748742356815086,0.33332741199019494,-1.5707963267948966,0.0,-1.5968038136467797,0.0,0.0
6.803,600.0,0.0,0.14993849704240755,-1.5707963267948966,0.0,-1.5968038136467797,0.0,0.0,0.815427826667584,0.0,0.0,0.0,0.0,0.0,0.16371419945563592,-1.5766032163937598,0.0002963314819353518,-1.5968168753835703,0.0002465601805703964,1.4432347196936865e-05,0.31377939871899313,-0.2708226769150423,0.6934343506880228,0.16799170221949394,-0.08605216101118122,0.005162685495335319,0.3333859285217676,-1.5707963267948966,0.0,-1.5968038136467797,0.0,0.0
6.903,600.0,0.0,0.24639813629411692,-1.5707963267948966,0.0,-1.5968038136467797,0.0,0.0,0.9961176596835691,0.0,0.0,0.0,0.0,0.0,0.28097567896534675,-1.5685022798319024,0.00029901421361840254,-1.5968865170460758,8.972655245519067e-05,-3.320405482819329e-06,2.9392384834306293,0.5635819448871218,-0.08971091990765137,-0.07444437392590735,0.062367029928560476,-0.002401232695011815,0.5213950029272159,-1.5707963267948966,0.0,-1.5968038136467797,0.0,0.0
7.003,600.0,0.0,0.3244722175388299,-1.5707963267948966,0.0,-1.5968038136467797,0.0,0.0,0.9581339547280264,0.0,0.0,0.0,0.0,0.0,0.3291813248302757,-1.5718566643829117,-0.0006093370440638655,-1.596888647574948,3.414755165243265e-05,-1.5551129036786418e-06,-2.9699021202218017,-0.16087114183392184,-0.1466489794407876,-0.02586586054123213,0.012662735933270714,-0.0005164995800584679,0.5486894738954033,-1.5707963267948966,0.0,-1.5968038136467797,0.0,0.0
7.103,600.0,0.0,0.41277478130297834,-1.5707963267948966,0.0,-1.5968038136467797,0.0,0.0,0.7735407173241247,0.0,0.0,0.0,0.0,0.0,0.4319153937516587,-1.570021480075738,0.00014547475192479994,-1.5968232669701865,2.6444186712870272e-05,-9.883654233553424e-07,2.502796980827354,-0.11121908324670046,0.1623280407530065,0.051305016096806315,-0.03399367630474805,0.0013695683013504028,0.5054626686119551,-1.5707963267948966,0.0,-1.5968038136467797,0.0,0.0
7.202,600.0,0.0,0.4920206396399284,-1.5707963267948966,0.0,-1.5968038136467797,0.0,0.0,1.1239412233195907,0.0,0.0,0.0,0.0,0.0,0.555131501721705,-1.571295270025123,-0.0017552342086771203,-1.5971343241855078,0.00013171819363908853,-1.0157765587899526e-05,1.1239694280466934,-0.17933432168398,0.6966253503061558,0.06273062631876195,0.04703759173319856,0.004471077644552602,0.5432303986874418,-1.5707963267948966,0.0,-1.5968038136467797,0.0,0.0
7.303,600.0,0.0,0.5629549465259552,-1.5707963267948966,0.0,-1.5968038136467797,0.0,0.0,1.0599908280995223,0.0,0.0,0.0,0.0,0.0,0.6016982382517991,-1.566679346065743,0.0021508890506862365,-1.5965416376849106,-8.62282358156258e-05,3.965202880901655e-06,0.5127042496319755,-0.37445676112681764,-0.05868897559775487,0.012502833915757471,-0.014836063676586818,0.0005629194336316941,0.6931698282261909,-1.5707963267948966,0.0,-1.5968038136467797,0.0,0.0
7.403,600.0,0.0,0.6499075169670498,-1.5707963267948966,0.0,-1.5968038136467797,0.0,0.0,0.9544899003421691,0.0,0.0,0.0,0.0,0.0,0.7143160636372796,-1.5734303262710394,-0.0009577045870973314,-1.5969222034046828,6.514181589429558e-05,1.3544864197961653e-07,3.1415966483314284,0.008930090961307686,0.08193641199403189,-0.048914953854136294,0.07559413546990022,0.04306430102842245,0.8822942844302448,-1.5707963267948966,0.0,-1.5968038136467797,0.0,0.0
7.503,600.0,0.0,0.7239412245883727,-1.5707963267948966,0.0,-1.5968038136467797,0.0,0.0,0.5852556187507206,0.0,0.0,0.0,0.0,0.0,0.8189772957919849,-1.5730742616332958,-0.0025646145069962737,-1.5972837275226612,0.0002359361931497878,-1.129266187675834e-05,0.6856599842548362,0.36599057202145574,0.13003836934639423,-0.08004790620840786,0.11380033548850295,-0.0006377647282545102,0.8937408856964136,-1.5707963267948966,0.0,-1.5968038136467797,0.0,0.0
7.603,600.0,0.0,0.7999960233634115,-1.5707963267948966,0.0,-1.5968038136467797,0.0,0.0,0.8228900138367942,0.0,0.0,0.0,0.0,0.0,0.8239106685533022,-1.576443693044464,0.0022870572054300986,-1.5962071446519968,-0.00036948343262677077,1.4805705224987834e-05,-0.41239092756244716,0.4645221394531801,0.08105453948856578,-0.015185282117793767,0.02463255896279484,-0.001611995413253963,0.8657569714998732,-1.5707963267948966,0.0,-1.5968038136467797,0.0,0.0
7.704,600.0,0.0,0.8717140551083227,-1.5707963267948966,0.0,-1.5968038136467797,0.0,0.0,0.878988007000504,0.0,0.0,0.0,0.0,0.0,0.9101442907032586,-1.5648207259409768,0.0004813834669187044,-1.5965537550678706,-0.00019893615036218942,1.1018747736976222e-05,0.8589686543011598,0.1326797757393189,-0.9059651251626518,-0.2536279939817025,0.1497725345043143,-0.007721346120804719,1.034219791458165,-1.5707963267948966,0.0,-1.5968038136467797,0.0,0.0
7.803,600.0,0.0,0.9434378631681664,-1.5707963267948966,0.0,-1.5968038136467797,0.0,0.0,0.6853900961531579,0.0,0.0,0.0,0.0,0.0,0.9480422714375768,-1.5689656698615762,0.0008309845424766084,-1.5967194036876733,-1.866658071261575e-05,9.794386388205226e-07,0.9906637678393139,-0.21077979599217236,-0.3581694671111383,-0.08010620446914538,0.04626302797490583,-0.0019225384616342915,1.1339798012488465,-1.5707963267948966,0.0,-1.5968038136467797,0.0,0.0
7.903,600.0,0.0,1.0181116200434406,-1.5707963267948966,0.0,-1.5968038136467797,0.0,0.0,0.9431038608789292,0.0,0.0,0.0,0.0,0.0,1.029858841182555,-1.56062411669523,-0.0027551192102818335,-1.597559764169648,0.00048347989354487555,-2.0071045055462858e-05,0.43296864067327145,0.20819226867705137,-0.6427873517623046,-0.14142149382658473,0.0799279474460566,-0.002404443572630772,1.2814621819908953,-1.5707963267948966,0.0,-1.5968038136467797,0.0,0.0
8.002,600.0,0.0,1.0951771627006002,-1.5707963267948966,0.0,-1.5968038136467797,0.0,0.0,0.7034852252512694,0.0,0.0,0.0,0.0,0.0,1.1883850363871487,-1.5703122972667747,7.887443718293498e-06,-1.5968373817239638,2.9901862675460835e-05,-1.1568471714551508e-06,0.9585734756521861,-0.4803714100485687,-0.21867049263072494,-0.02245064148466593,0.005113871104940658,-0.00026887468770998076,1.3403227511674491,-1.5707963267948966,0.0,-1.5968038136467797,0.0,0.0
8.103,600.0,0.0,1.1773299138641922,-1.5707963267948966,0.0,-1.5968038136467797,0.0,0.0,1.0865647082679106,0.0,0.0,0.0,0.0,0.0,1.1679858882274141,-1.5685591383211754,-7.491017503963151e-05,-1.596666406781981,-0.00027555785015401425,-1.0015206252905607e-05,-1.9830776319889734,0.7827261472967445,-0.6511387586246841,0.07287369977162746,-0.23714652223304275,-0.0029671840751267263,1.2551210381348745,-1.5707963267948966,0.0,-1.5968038136467797,0.0,0.0
8.203,600.0,0.0,1.2620192200085216,-1.5707963267948966,0.0,-1.5968038136467797,0.0,0.0,0.8430199345208276,0.0,0.0,0.0,0.0,0.0,1.238431292749972,-1.5736503033770801,-0.0009263814954442012,-1.5969022296965074,5.256839666885283e-05,1.0354087162306512e-06,3.1415945178025564,-0.02945140539426571,0.057060048955818704,-0.05823586370541311,0.08478191639499749,0.0482714675557459,1.4066483165136903,-1.5707963267948966,0.0,-1.5968038136467797,0.0,0.0
8.303,666.6666870117188,0.0,1.3345057112695893,-1.5707963267948966,0.0,-1.5968038136467797,0.0,0.0,0.15600830037748417,0.0,0.0,0.0,0.0,0.0,1.3760651889399758,-1.5777916520302078,-0.005344632452950072,-1.5976050379081792,0.00030693393195090453,-1.7229806198523495e-05,0.9447560638104735,-0.16463628569356226,0.20048303317727406,-0.05128063568926448,0.10550346517182124,0.0010734004061656037,1.2818677213373249,-1.5707963267948966,0.0,-1.5968038136467797,0.0,0.0
8.403,666.6666870117188,0.0,1.286677127861715,-1.5707963267948966,0.0,-1.5968038136467797,0.0,0.0,-0.6829884145355647,0.0,0.0,0.0,0.0,0.0,1.4204963033024216,-1.5776357239483836,-0.003085490325215643,-1.5971114210001331,6.346638864570822e-05,-3.3535903571660384e-06,-0.3036648127674131,-0.09763078648251873,-0.05567809721547375,-0.006277802538467886,0.0015947877255640657,-5.53633869961807e-05,1.1676081846827686,-1.5707963267948966,0.0,-1.5968038136467797,0.0,0.0
8.502,666.6666870117188,0.0,1.2246026740412388,-1.5707963267948966,0.0,-1.5968038136467797,0.0,0.0,-0.8887579672258681,0.0,0.0,0.0,0.0,0.0,1.281952404967938,-1.5717774353404819,-0.0004715526574260291,-1.596855624377431,1.3651958627128463e-05,-6.629652024633497e-07,-2.7824499342582856,0.011777729012037252,-0.03309648230063557,-0.009843740388124408,0.00623012155198246,-0.0002537225462132618,0.9681702999720488,-1.5707963267948966,0.0,-1.5968038136467797,0.0,0.0
8.603,666.6666870117188,0.0,1.1342447916384089,-1.5707963267948966,0.0,-1.5968038136467797,0.0,0.0,-0.9719902114123973,0.0,0.0,0.0,0.0,0.0,1.123890598478427,-1.5752537926694168,-0.0014039567590375386,-1.596840044885054,-5.959257344448611e-05,1.968544854937619e-06,-1.162055161637862,-0.08103927624656826,0.18081181016724235,0.05627135379899174,-0.03626952014557269,0.0015034485822554534,0.9519950146984135,-1.5707963267948966,0.0,-1.5968038136467797,0.0,0.0
8.703,666.6666870117188,0.0,1.0469659343765798,-1.5707963267948966,0.0,-1.5968038136467797,0.0,0.0,-0.6441924908809276,0.0,0.0,0.0,0.0,0.0,1.0302604458749391,-1.5758376907384166,-0.0010645491016002242,-1.5967163410524199,-0.00014083452206917243,5.09298877834603e-06,-2.6674610299752803,-0.9003139639085309,0.28301552720229295,0.14570152659347832,-0.10799050809006218,0.004077562303979769,0.8941243936778249,-1.5707963267948966,0.0,-1.5968038136467797,0.0,0.0
8.802,666.6666870117188,0.0,0.9699476627381092,-1.5707963267948966,0.0,-1.5968038136467797,0.0,0.0,-0.787818428732466,0.0,0.0,0.0,0.0,0.0,0.9048862120260335,-1.5662371281667355,0.001711299202734756,-1.5966919731284457,1.5665866514475607e-05,-1.5521986235570184e-07,-0.4104143959804176,-0.3526812913157302,0.20464199198310992,0.08032185393841454,-0.05478870960230658,0.00216944314315771,0.9041212040899117,-1.5707963267948966,0.0,-1.5968038136467797,0.0,0.0
8.903,666.6666870117188,0.0,0.8798744794791693,-1.5707963267948966,0.0,-1.5968038136467797,0.0,0.0,-0.7237174275415019,0.0,0.0,0.0,0.0,0.0,0.866220308791391,-1.5565910255404138,-0.002532541360989258,-1.5975353962456738,0.00046386983429449644,-2.0162455085279734e-05,0.5998674481604241,0.9041432566609287,-1.1551333396486372,-0.32898551591112757,0.2114693216879075,-0.008619630876637096,0.7383021538604457,-1.5707963267948966,0.0,-1.5968038136467797,0.0,0.0
9.003,666.6666870117188,0.0,0.817352203940664,-1.5707963267948966,0.0,-1.5968038136467797,0.0,0.0,-0.5654780492477289,0.0,0.0,0.0,0.0,0.0,0.7420086113373323,-1.5699313320728387,-0.00037734232607646587,-1.596315268992254,-0.000699386738868121,-1.1540470548190534e-06,-1.1604613928835041,0.39834754650224136,-0.40505042336034813,0.13351466009630192,-0.22397740702443947,0.0039599748993257135,0.5557882665387517,-1.5707963267948966,0.0,-1.5968038136467797,0.0,0.0
9.103,666.6666870117188,0.0,0.737421570905699,-1.5707963267948966,0.0,-1.5968038136467797,0.0,0.0,-1.0324118158288353,0.0,0.0,0.0,0.0,0.0,0.7095027994411249,-1.5743788110932713,-0.0015428217544965937,-1.5964512233659025,-0.0005960855419903758,1.4915817494145509e-06,-0.8410782704673072,0.21355168063375407,-0.6008016850708239,0.04401953529954184,-0.14533897050057765,0.0021497748922770666,0.4558627127164157,-1.5707963267948966,0.0,-1.5968038136467797,0.0,0.0
9.203,666.6666870117188,0.0,0.645433764151357,-1.5707963267948966,0.0,-1.5968038136467797,0.0,0.0,-0.8407058887637258,0.0,0.0,0.0,0.0,0.0,0.5375846656684726,-1.5706168297374252,0.0002464249906852268,-1.5967510953046453,-2.8821662252205956e-05,1.1992861455579746e-06,-1.3965687330144412,0.4045618664583731,0.1521029835504586,0.010495243217514863,0.0008538060645131761,1.7942539886742455e-05,0.5860139387135624,-1.5707963267948966,0.0,-1.5968038136467797,0.0,0.0
9.303,666.6666870117188,0.0,0.5831736115310848,-1.5707963267948966,0.0,-1.5968038136467797,0.0,0.0,-0.4661352921462784,0.0,0.0,0.0,0.0,0.0,0.4828615655363337,-1.5787681000438853,-0.0011821592627577347,-1.597241383261329,0.00029602355393431137,-1.570360268951337e-05,0.02087240853019834,-0.4713114691781736,1.0970679723484489,-0.007599025883580619,0.0949941404900426,-0.013334320661756046,0.3171776634024544,-1.5707963267948966,0.0,-1.5968038136467797,0.0,0.0
9.403,666.6666870117188,0.0,0.5085276088157977,-1.5707963267948966,0.0,-1.5968038136467797,0.0,0.0,-1.0009248218336761,0.0,0.0,0.0,0.0,0.0,0.5100670543625245,-1.5678170484834248,0.0006240782518721182,-1.5968152774869162,2.9839298545604176e-05,-3.558373236401287e-06,0.3278375270337353,0.4174187093844078,0.18964621458282133,-0.02480341739148024,0.05017470811233864,-0.00011357770061791457,0.3073159581225788,-1.5707963267948966,0.0,-1.5968038136467797,0.0,0.0
9.502,666.6666870117188,0.0,0.42346677836859925,-1.5707963267948966,0.0,-1.5968038136467797,0.0,0.0,-0.8371785712514963,0.0,0.0,0.0,0.0,0.0,0.3336236106865823,-1.569603230626541,0.0009393197379929839,-1.5966312530555917,-9.160784072316024e-05,2.9659927518525363e-06,-3.1415921209575752,-0.16348455174588705,-0.09843149915376467,-0.012059131512501554,0.0011960156326930656,-0.011309015781075208,0.3604946555237792,-1.5707963267948966,0.0,-1.5968038136467797,0.0,0.0
9.603,666.6666870117188,0.0,0.36675007495306566,-1.5707963267948966,0.0,-1.5968038136467797,0.0,0.0,-0.41288986948514195,0.0,0.0,0.0,0.0,0.0,0.31725981736859044,-1.5755607219850483,0.0010211324888065709,-1.596539640314093,-0.00015745455556662806,6.280884354202961e-06,0.3827048706284157,1.3700464448763965,-1.7985401426804943,-0.46346499765847315,0.2757597614571289,-0.010940488381667885,0.1078217585087976,-1.5707963267948966,0.0,-1.5968038136467797,0.0,0.0
9.702,666.6666870117188,0.0,0.296240593833458,-1.5707963267948966,0.0,-1.5968038136467797,0.0,0.0,-0.6284591698511566,0.0,0.0,0.0,0.0,0.0,0.31906044716062026,-1.5701016412245494,-0.0021791264905079953,-1.597203832689959,0.00010376155281532258,-1.5491486679426964e-05,0.7512032415798582,0.4057774330484262,0.6282027497895675,0.04229252526689589,0.041860747791599186,0.002612146730967684,0.12347082501969814,-1.5707963267948966,0.0,-1.5968038136467797,0.0,0.0
9.803,666.6666870117188,0.0,0.21809643560436243,-1.5707963267948966,0.0,-1.5968038136467797,0.0,0.0,-1.0000667386715574,0.0,0.0,0.0,0.0,0.0,0.24335749659305508,-1.5715304271493769,0.0006393366824946187,-1.5965420371590742,-0.00019311966935224982,6.646736291817356e-06,-0.6216550353544714,-0.2700495113163218,-0.460552165216199,-0.02410261071181509,-0.040090598710483163,-0.0019430545548150967,0.03351713717202126,-1.5707963267948966,0.0,-1.5968038136467797,0.0,0.0
9.903,666.6666870117188,0.0,0.1387627742717834,-1.5707963267948966,0.0,-1.5968038136467797,0.0,0.0,-1.0103386727247545,0.0,0.0,0.0,0.0,0.0,0.10892539414597768,-1.571885825996848,-0.0006041217736205686,-1.5968827886205497,2.8364081795317845e-05,-1.2769024579540097e-06,-2.946644468106031,-0.12254793749730215,-0.04005147520959421,-0.0012539243020914272,-0.0015373599335930044,5.5046149147030285e-05,-0.06067442332839734,-1.5707963267948966,0.0,-1.5968038136467797,0.0,0.0
10.003,666.6666870117188,0.0,0.04608480249319946,-1.5707963267948966,0.0,-1.5968038136467797,0.0,0.0,-1.0654372446323843,0.0,0.0,0.0,0.0,0.0,0.1033730028787851,-1.5761860322089989,-0.0021720992822410086,-1.5969834561097547,1.1537741291648902e-05,-7.851382914628979e-07,1.072508833407956,0.26497484121441905,-0.028904294318417158,-0.03948377665016259,0.030851160782616755,-0.0007104786487637058,-0.2296201360246602,-1.5707963267948966,0.0,-1.5968038136467797,0.0,0.0
10.103,666.6666870117188,0.0,-0.04355938663750969,-1.5707963267948966,0.0,-1.5968038136467797,0.0,0.0,-0.4926758103172362,0.0,0.0,0.0,0.0,0.0,-0.05080911053469834,-1.572014722993608,-0.0005542880869268553,-1.596859885435175,1.1802251103195064e-05,-6.130616634631819e-07,-2.5931300734222966,0.027353148625068116,0.005568012891610224,-0.0005912259231867942,0.000862443913076145,-3.1759518720958255e-05,-0.3213660113868867,-1.5707963267948966,0.0,-1.5968038136467797,0.0,0.0
10.203,666.6666870117188,0.0,-0.13448407459549472,-1.5707963267948966,0.0,-1.5968038136467797,0.0,0.0,-1.1149381105615808,0.0,0.0,0.0,0.0,0.0,-0.17097529152298016,-1.5683229159324854,-0.001917698738516588,-1.597309826501344,0.00030602893831777923,-1.2342642882523024e-05,-0.2917245965990701,-0.9243234264000313,0.5558108075367569,0.16961218580853674,-0.1108384592702793,0.00494215339068479,-0.40138921306833286,-1.5707963267948966,0.0,-1.5968038136467797,0.0,0.0
10.303,666.6666870117188,0.0,-0.21919486585122527,-1.5707963267948966,0.0,-1.5968038136467797,0.0,0.0,-0.6419629119053047,0.0,0.0,0.0,0.0,0.0,-0.2673609836168596,-1.5631400049770279,-0.000250863662938822,-1.5967704032225485,-5.4682735914172336e-05,4.444617390122828e-06,0.030851189910941178,0.3446592841906799,-0.9299165307423884,-0.339300338287168,0.2271650444016962,-0.012393934554011148,-0.3078650362285394,-1.5707963267948966,0.0,-1.5968038136467797,0.0,0.0
10.403,666.6666870117188,0.0,-0.292813588287542,-1.5707963267948966,0.0,-1.5968038136467797,0.0,0.0,-0.893961456440473,0.0,0.0,0.0,0.0,0.0,-0.3528986052606807,-1.559716245079622,-0.0022035673653304395,-1.5974404545528123,0.0004040501062452521,-1.7557861514137825e-05,-0.32579747905970735,0.4281296436830838,-0.697836356232842,-0.2015237465970066,0.13153549864269592,-0.005297161086370759,-0.48111919198346303,-1.5707963267948966,0.0,-1.5968038136467797,0.0,0.0
10.503,666.6666870117188,0.0,-0.3791920868472278,-1.5707963267948966,0.0,-1.5968038136467797,0.0,0.0,-1.0597938871521682,0.0,0.0,0.0,0.0,0.0,-0.34139088645336657,-1.5695787295445123,-0.0007511851570515809,-1.5971010346718817,0.00020367724029205972,-8.238790416785825e-06,-0.2742367662087398,0.5763697120723825,0.3745151842232312,0.05844745601520911,-0.025644599708322384,0.0011450694130547149,-0.5057788319553642,-1.5707963267948966,0.0,-1.5968038136467797,0.0,0.0
10.603,666.6666870117188,0.0,-0.446664656417175,-1.5707963267948966,0.0,-1.5968038136467797,0.0,0.0,-0.5989397322582694,0.0,0.0,0.0,0.0,0.0,-0.49493906765887025,-1.5729142056517822,-0.0011600929965615567,-1.596954427653873,5.297757891928519e-05,-2.3976635548507375e-06,-1.4596937734906439,0.22763495917604068,-0.008231204150311186,-0.01932727575524799,0.015846740592352995,-0.0006183048619269357,-0.5044342292206747,-1.5707963267948966,0.0,-1.5968038136467797,0.0,0.0
10.703,666.6666870117188,0.0,-0.5099273455932138,-1.5707963267948966,0.0,-1.5968038136467797,0.0,0.0,-0.9082655852246408,0.0,0.0,0.0,0.0,0.0,-0.5238999125385596,-1.5768929683203605,-0.0025063594185967416,-1.5970134166720182,1.6411866350267905e-05,-1.3307728923500236e-06,-1.9162216359836242,-0.35529215457990304,-0.48688526904830715,-0.10666825693121625,0.05931843452734111,-0.0025332055908158266,-0.5789865665166823,-1.5707963267948966,0.0,-1.5968038136467797,0.0,0.0
10.803,666.6666870117188,0.0,-0.5896879810531246,-1.5707963267948966,0.0,-1.5968038136467797,0.0,0.0,-0.7948540378598309,0.0,0.0,0.0,0.0,0.0,-0.6331696783806198,-1.5711410729980073,-0.0002679736439556695,-1.5968493659488692,2.145138953647805e-05,-9.112820220460818e-07,-3.115402062165518,-0.12947406215616328,-0.11207339203488426,-0.02084757247243875,0.010591871232300805,-0.00045259203627497264,-0.8472103613821746,-1.5707963267948966,0.0,-1.5968038136467797,0.0,0.0
10.903,666.6666870117188,0.0,-0.6755360527973977,-1.5707963267948966,0.0,-1.5968038136467797,0.0,0.0,-0.9266755836234677,0.0,0.0,0.0,0.0,0.0,-0.6552452198675318,-1.576794031885864,-0.0025353842334380526,-1.5970654814713292,5.6559367226256245e-05,-1.5238851902206186e-06,0.6086574110753123,0.1930674444771916,-0.006136432377071312,-0.08835135120403069,0.07104789478491798,-0.00012560223704367762,-0.7442069959506059,-1.5707963267948966,0.0,-1.5968038136467797,0.0,0.0
11.002,666.6666870117188,0.0,-0.758317793121364,-1.5707963267948966,0.0,-1.5968038136467797,0.0,0.0,-0.9496632894168705,0.0,0.0,0.0,0.0,0.0,-0.7627523059630957,-1.5741319360602208,-0.0015305721237423675,-1.5969626834532522,3.6452972380872425e-05,-1.8794709224285732e-06,-2.3341302005610385,-0.14145440051080402,-0.46666917992400203,-0.11650995209484726,0.06885723672886765,-0.002881894260622337,-0.8972867374737608,-1.5707963267948966,0.0,-1.5968038136467797,0.0,0.0
11.103,666.6666870117188,0.0,-0.8395368691114857,-1.5707963267948966,0.0,-1.5968038136467797,0.0,0.0,-0.9335527761371428,0.0,0.0,0.0,0.0,0.0,-0.8973800259146179,-1.5770731311681043,0.0017804550464008487,-1.5962992900257134,-0.000317357970979368,1.3552424322394992e-05,-0.5392239078984437,0.16788143070560788,0.32982417862790714,0.07786892444926184,-0.04592426972305855,0.0014351827129302054,-1.042537725570941,-1.5707963267948966,0.0,-1.5968038136467797,0.0,0.0
11.203,666.6666870117188,0.0,-0.920761281030483,-1.5707963267948966,0.0,-1.5968038136467797,0.0,0.0,-0.6310481808406133,0.0,0.0,0.0,0.0,0.0,-0.9621813265599437,-1.5778533042094431,-0.0028343591758333495,-1.597027131951632,6.482213883243106e-06,-1.0227012027847255e-06,-0.283243560370631,0.15329075339663392,-0.21175914019353537,-0.06798199715899152,0.04396833602758507,-0.0017681138694841509,-0.9749341354872714,-1.5707963267948966,0.0,-1.5968038136467797,0.0,0.0
11.303,666.6666870117188,0.0,-0.9919028275398354,-1.5707963267948966,0.0,-1.5968038136467797,0.0,0.0,-0.7022887470665123,0.0,0.0,0.0,0.0,0.0,-1.0145415370149098,-1.569429592523468,0.0010141663980060072,-1.596635514113336,-7.77688551310048e-05,3.3333947222859887e-06,-1.6413209603598844,0.41857775038032385,-0.026071779069549498,-0.038116455651056265,0.030573413886867507,-0.0011884058579376244,-1.175940491843845,-1.5707963267948966,0.0,-1.5968038136467797,0.0,0.0
11.403,666.6666870117188,0.0,-1.0500188732836335,-1.5707963267948966,0.0,-1.5968038136467797,0.0,0.0,-0.325295610058621,0.0,0.0,0.0,0.0,0.0,-1.1739658832971325,-1.559401059964611,-0.0024501864852447854,-1.5974415198172485,0.00038257976785598623,-1.5250235233510483e-05,0.36164629049326397,0.02548973272974507,0.012087136315839419,0.04090880502113957,-0.03899985531295997,0.0022771124833829842,-1.2300111702347698,-1.5707963267948966,0.0,-1.5968038136467797,0.0,0.0
11.503,666.6666870117188,0.0,-1.1097773012709133,-1.5707963267948966,0.0,-1.5968038136467797,0.0,0.0,-0.5432591350682509,0.0,0.0,0.0,0.0,0.0,-1.0902264446660896,-1.5678768364498972,0.0017892684451333296,-1.596723531587363,0.00012825282516559783,1.8858474420044623e-06,-0.018754005363473214,-0.5374372597021367,-0.18740338353654065,0.054181479745444086,-0.05844659881023324,-0.0013366307983235745,-1.3780621662407873,-1.5707963267948966,0.0,-1.5968038136467797,0.0,0.0
11.603,666.6666870117188,0.0,-1.202968239078718,-1.5707963267948966,0.0,-1.5968038136467797,0.0,0.0,-0.7384684523212404,0.0,0.0,0.0,0.0,0.0,-1.2293270102474272,-1.5728893050955899,-0.0003138963817109154,-1.5965706661407926,-0.00029275572003813503,-1.1278559956023403e-06,-2.2552463038084554,-0.1712940053264354,-0.6695331456948341,0.039431998972906564,-0.17304072275114793,-0.007370817425147397,-1.4500921041902273,-1.5707963267948966,0.0,-1.5968038136467797,0.0,0.0
11.703,666.6666870117188,0.0,-1.2897030361327921,-1.5707963267948966,0.0,-1.5968038136467797,0.0,0.0,-1.091414427534435,0.0,0.0,0.0,0.0,0.0,-1.379141672631235,-1.565416341918773,0.002072438150637387,-1.5966573520342746,9.578715182411598e-06,1.8216298464489233e-07,-0.507716781411016,-0.2606999849668943,0.2184777962811009,0.07701901819925508,-0.0510878977277484,0.002029000536841973,-1.4250347766223954,-1.5707963267948966,0.0,-1.5968038136467797,0.0,0.0
11.803,733.3333129882812,0.0,-1.3107916968974545,-1.5707963267948966,0.0,-1.5968038136467797,0.0,0.0,0.750469777329517,0.0,0.0,0.0,0.0,0.0,-1.51747185228824,-1.570895529545502,8.636294212509698e-06,-1.596793572724032,-7.906883258187093e-06,3.127093113122876e-07,-3.0825935154323956,0.009191116118243678,-0.0983029350521411,-0.026789072380837917,0.01637167357004553,-0.0006598295640418996,-1.1327310777907265,-1.5707963267948966,0.0,-1.5968038136467797,0.0,0.0
11.903,733.3333129882812,0.0,-1.2274717952558536,-1.5707963267948966,0.0,-1.5968038136467797,0.0,0.0,0.8000271251603017,0.0,0.0,0.0,0.0,0.0,-1.5619951120244027,-1.5726667979865137,0.00043367338461814585,-1.596538575049657,-0.00019253942727807648,7.759955995219695e-06,-0.02119510667231568,-0.7617778553202358,0.06753312135725865,0.07791002035383313,-0.060129408691162275,0.0023951981904441286,-1.0665736673987944,-1.5707963267948966,0.0,-1.5968038136467797,0.0,0.0
12.003,733.3333129882812,0.0,-1.157361739172118,-1.5707963267948966,0.0,-1.5968038136467797,0.0,0.0,0.9125946134062843,0.0,0.0,0.0,0.0,0.0,-1.31886954347278,-1.5707109724819595,5.891516110055879e-05,-1.5967943716723592,-4.290794601833884e-06,1.8424726193959823e-07,3.1395470795565035,0.05894158058833809,0.02444746302525053,0.003001311288154196,-0.0012710634601966334,3.205845180764184e-05,-1.0518761267080639,-1.5707963267948966,0.0,-1.5968038136467797,0.0,0.0
12.103,733.3333129882812,0.0,-1.0835985037716531,-1.5707963267948966,0.0,-1.5968038136467797,0.0,0.0,0.9696592751829242,0.0,0.0,0.0,0.0,0.0,-1.1141482891577266,-1.5706643671628833,6.699765751500858e-05,-1.5967955700948497,-2.400101497670683e-06,1.1286399488920623e-07,3.1053702006552983,0.0053164742057603374,0.003770615823442673,0.0006212363547020433,-0.0002753839254490347,1.2327633749395877e-05,-0.9186821070672226,-1.5707963267948966,0.0,-1.5968038136467797,0.0,0.0
12.203,733.3333129882812,0.0,-0.9989999912234309,-1.5707963267948966,0.0,-1.5968038136467797,0.0,0.0,0.7511767211223532,0.0,0.0,0.0,0.0,0.0,-0.9768665294428587,-1.5659029014499306,0.0014005281992083868,-1.5968031601039563,8.73444748193973e-05,-3.086883120754977e-06,2.5042878184055803,0.6139067013209404,0.016436130390803855,-0.04724229727486318,0.040612707281003996,-0.0016671864359911154,-0.9405285963990616,-1.5707963267948966,0.0,-1.5968038136467797,0.0,0.0
12.303,733.3333129882812,0.0,-0.9253120277479736,-1.5707963267948966,0.0,-1.5968038136467797,0.0,0.0,0.6584498985745256,0.0,0.0,0.0,0.0,0.0,-0.9116360603878666,-1.5640494744892899,0.0018687738165337152,-1.596821535915478,0.00013212024416388445,-4.789259555376182e-06,0.3623967359989347,0.0515840945731006,0.36220185918616815,0.09463808417467741,-0.055448549374265736,0.0022824757361173216,-0.8207378121720039,-1.5707963267948966,0.0,-1.5968038136467797,0.0,0.0
12.403,733.3333129882812,0.0,-0.8537487965797492,-1.5707963267948966,0.0,-1.5968038136467797,0.0,0.0,0.9902862345935523,0.0,0.0,0.0,0.0,0.0,-0.824325722209191,-1.5742774778137936,-0.0032282823129481013,-1.5975254093915858,0.00031386982162045406,-2.4663892619967433e-05,0.26519340351613047,-0.17316064822398555,0.9985409988696048,0.11605190503211045,-0.016199291105814445,-0.0019231415739944374,-0.7386951312868997,-1.5707963267948966,0.0,-1.5968038136467797,0.0,0.0
12.503,733.3333129882812,0.0,-0.783940898192844,-1.5707963267948966,0.0,-1.5968038136467797,0.0,0.0,0.8381382335813462,0.0,0.0,0.0,0.0,0.0,-0.7479906703568956,-1.5685712557041354,0.0013090868466899698,-1.5966199346209589,-6.984469115300637e-05,3.1068085221564955e-06,1.8505005460768122,-0.09610823232018521,0.31830357677881976,0.09434611849542066,-0.05798057058660459,0.0023742733904612667,-0.6928774826172583,-1.5707963267948966,0.0,-1.5968038136467797,0.0,0.0
12.603,733.3333129882812,0.0,-0.7024188719949134,-1.5707963267948966,0.0,-1.5968038136467797,0.0,0.0,0.9066700903386791,0.0,0.0,0.0,0.0,0.0,-0.7023931580160221,-1.5774394489760448,0.0003511047602876468,-1.596720868426273,-4.430206021577514e-05,1.6829523874364348e-06,-0.6089258577131924,-0.30359257452284466,1.0238039447071783,0.38441645097149596,-0.258926186522847,0.013410385119796833,-0.4716121347385178,-1.5707963267948966,0.0,-1.5968038136467797,0.0,0.0
12.703,733.3333129882812,0.0,-0.6035804454924092,-1.5707963267948966,0.0,-1.5968038136467797,0.0,0.0,0.6025498607211363,0.0,0.0,0.0,0.0,0.0,-0.5975403779999129,-1.5694889810157766,0.0008176162020125213,-1.5966823857485213,-4.9084554790950044e-05,2.161044682851937e-06,2.1624352729772482,-0.1362294698667719,-0.0056258851506030575,0.009020565617559323,-0.00779700590319549,0.00030484108134670496,-0.4578972239509385,-1.5707963267948966,0.0,-1.5968038136467797,0.0,0.0
12.803,733.3333129882812,0.0,-0.5339372829100046,-1.5707963267948966,0.0,-1.5968038136467797,0.0,0.0,0.6046121976430547,0.0,0.0,0.0,0.0,0.0,-0.4046609027614104,-1.5713529274627231,0.0005597493876817941,-1.5972138195440466,0.0006001561603098726,1.1057753298222348e-06,0.8404734665837502,-0.5341293140226356,0.22846496661927748,-0.10535403686753259,0.15666111691418372,-0.00341162560961487,-0.3167715201515511,-1.5707963267948966,0.0,-1.5968038136467797,0.0,0.0
12.903,733.3333129882812,0.0,-0.4651131136114621,-1.5707963267948966,0.0,-1.5968038136467797,0.0,0.0,0.9407612443355212,0.0,0.0,0.0,0.0,0.0,-0.4038048962080317,-1.5628349398741592,0.0026254690382762104,-1.596241366272004,-0.0002925365424005702,7.874799128103498e-06,0.5107667999389428,0.41896820308564314,-0.9203670342846095,0.2674297763967677,-0.27596455854495594,0.013736255128384353,-0.24389916830878777,-1.5707963267948966,0.0,-1.5968038136467797,0.0,0.0
13.003,733.3333129882812,0.0,-0.37013034243491827,-1.5707963267948966,0.0,-1.5968038136467797,0.0,0.0,1.0053500477107176,0.0,0.0,0.0,0.0,0.0,-0.3498315092122637,-1.5644292412607352,-0.001769120877271337,-1.5972649522369762,0.0002688634882593517,-1.0650775076104556e-05,0.30152462993639817,-0.490695586777938,0.3777402723033172,0.10932184728612801,-0.06757815374681621,0.0029021649736773133,-0.2661041135267853,-1.5707963267948966,0.0,-1.5968038136467797,0.0,0.0
13.103,733.3333129882812,0.0,-0.3079444812195371,-1.5707963267948966,0.0,-1.5968038136467797,0.0,0.0,0.5474547747507923,0.0,0.0,0.0,0.0,0.0,-0.2238660203118469,-1.5654614824992499,0.0025136734888444273,-1.5963308484846308,-0.00022728825045207195,4.331878217893304e-06,0.36298878999877293,0.02809743557071801,-0.5756832823014145,0.18528633691749577,-0.1797134559546664,-0.001830839115385273,-0.17027294909702279,-1.5707963267948966,0.0,-1.5968038136467797,0.0,0.0
13.203,733.3333129882812,0.0,-0.23096996841942907,-1.5707963267948966,0.0,-1.5968038136467797,0.0,0.0,0.8778909885711961,0.0,0.0,0.0,0.0,0.0,-0.264876670438736,-1.575295071666313,-0.002973718182473128,-1.59700755771762,-0.00011046634206496119,-6.3299490011170484e-06,1.222389475607771,0.3982491426999629,-0.17301184409807738,-0.27855849409144995,0.2842334240582998,-0.00532393157696121,-0.18567451079137348,-1.5707963267948966,0.0,-1.5968038136467797,0.0,0.0
13.303,733.3333129882812,0.0,-0.14975031615848877,-1.5707963267948966,0.0,-1.5968038136467797,0.0,0.0,0.7384698567442753,0.0,0.0,0.0,0.0,0.0,-0.13480752493699452,-1.567601731909292,-0.0004895550672351656,-1.5969487018575292,8.912093687966471e-05,-4.054716196792147e-06,0.4018988385263484,-0.2043320999007656,-0.6037053296073374,-0.2245483055383684,0.1519990037546478,-0.007687761162745298,-0.022973283648027254,-1.5707963267948966,0.0,-1.5968038136467797,0.0,0.0
13.402,733.3333129882812,0.0,-0.07031331325397794,-1.5707963267948966,0.0,-1.5968038136467797,0.0,0.0,0.6711981816845379,0.0,0.0,0.0,0.0,0.0,0.008056966835992751,-1.5746806804028317,-0.0031251724657551244,-1.5973520376046217,0.00025667328448843434,-1.0955740668034452e-05,1.0095804007992284,-0.3245935637994234,0.39775156433979525,0.005566135154982258,0.0687089777187451,0.0028702723192519882,0.18682327205193,-1.5707963267948966,0.0,-1.5968038136467797,0.0,0.0
13.503,733.3333129882812,0.0,0.019608805592021425,-1.5707963267948966,0.0,-1.5968038136467797,0.0,0.0,0.8902612367780954,0.0,0.0,0.0,0.0,0.0,-0.013564783964588779,-1.5755434114379627,-0.0020333567817891244,-1.5969889155899895,2.5451464727094237e-05,-1.5428393765639568e-06,-2.399521724282953,-0.5188928367940744,-0.1663421568850557,-0.005554070307036089,-0.005822772337903425,0.00016614009525898107,0.25957121335124017,-1.5707963267948966,0.0,-1.5968038136467797,0.0,0.0
13.603,733.3333129882812,0.0,0.10158905134329424,-1.5707963267948966,0.0,-1.5968038136467797,0.0,0.0,0.7974506196869715,0.0,0.0,0.0,0.0,0.0,0.05366256696823135,-1.5833243691948473,0.003013616184702528,-1.5960098044152218,-0.00046577143274179983,1.8644065997009696e-05,-0.799136878828949,-0.03838263444082048,-0.3333782669711588,-0.10830099106127339,0.07041581014494448,-0.0032606436213074423,0.1917882707415799,-1.5707963267948966,0.0,-1.5968038136467797,0.0,0.0
13.703,733.3333129882812,0.0,0.1897914995881669,-1.5707963267948966,0.0,-1.5968038136467797,0.0,0.0,0.811041602328532,0.0,0.0,0.0,0.0,0.0,0.17954607628015493,-1.5726018168559157,-0.0007262593736497953,-1.5969151460277942,6.54165194002913e-05,-7.214377968117666e-07,3.1415937188542293,0.08237014106706492,0.0124013019394955,-0.05286442591191301,0.06692665715920956,0.03617437871562961,0.24005521275238634,-1.5707963267948966,0.0,-1.5968038136467797,0.0,0.0
13.803,733.3333129882812,0.0,0.2695418208842561,-1.5707963267948966,0.0,-1.5968038136467797,0.0,0.0,0.6660034094821905,0.0,0.0,0.0,0.0,0.0,0.3667143193371984,-1.57657631846675,-0.0007049618221403361,-1.597126201544183,0.00022698313450467277,-1.290412506416042e-05,0.6000128567559424,-0.12965950139181684,0.6992701355847134,0.10802231622033182,-0.03680168214920857,-0.000602113089569863,0.558699276339897,-1.5707963267948966,0.0,-1.5968038136467797,0.0,0.0
13.902,733.3333129882812,0.0,0.3693560426520081,-1.5707963267948966,0.0,-1.5968038136467797,0.0,0.0,0.9045587983186704,0.0,0.0,0.0,0.0,0.0,0.34520303510624684,-1.5719502744952278,-0.002831075477403336,-1.597125402595856,-4.739855389557864e-05,-1.4144404282323776e-05,-0.12421992828630275,0.2790927907851471,-0.2937189380708895,-0.09116909215063222,0.05191534603962522,-0.0028225884719489847,0.6181638466707817,-1.5707963267948966,0.0,-1.5968038136467797,0.0,0.0
14.004,733.3333129882812,0.0,0.44815138613078265,-1.5707963267948966,0.0,-1.5968038136467797,0.0,0.0,0.8766238661587824,0.0,0.0,0.0,0.0,0.0,0.47490610414902173,-1.5752444716056015,-0.0019388820523787017,-1.5969853203225177,2.848592864850614e-05,-1.6221516326187258e-06,0.6551071349650112,0.3564957369450507,-0.20730989682888087,-0.08367735368813031,0.056079955740399104,-0.0022523024330559143,0.7332261220192625,-1.5707963267948966,0.0,-1.5968038136467797,0.0,0.0
14.103,733.3333129882812,0.0,0.5345138382480038,-1.5707963267948966,0.0,-1.5968038136467797,0.0,0.0,0.825166555241435,0.0,0.0,0.0,0.0,0.0,0.5366303551813564,-1.5737469761246499,0.0006789235708124945,-1.5965537550678706,-9.649635215880738e-05,1.2363339109683324e-05,-0.9875056582606434,-0.8426649818447765,-0.5825224131387925,0.0366398243727698,-0.11487010233125257,-0.0010104204824815265,0.6620954577933208,-1.5707963267948966,0.0,-1.5968038136467797,0.0,0.0
14.203,733.3333129882812,0.0,0.6195810279590288,-1.5707963267948966,0.0,-1.5968038136467797,0.0,0.0,0.9991707725577685,0.0,0.0,0.0,0.0,0.0,0.6545717064278508,-1.57859233141194,-0.0007688877011637581,-1.5971528331550837,0.00024716550356230653,-1.3841399406986231e-05,0.22580272099082296,-0.46261202045083444,1.036179055081531,0.27640596085087976,-0.15706312108073117,0.006764629946180322,0.8133666688275292,-1.5707963267948966,0.0,-1.5968038136467797,0.0,0.0
14.303,733.3333129882812,0.0,0.7090725317449388,-1.5707963267948966,0.0,-1.5968038136467797,0.0,0.0,0.8509376926040748,0.0,0.0,0.0,0.0,0.0,0.7487275004514932,-1.5667473898315947,0.0001856376073451286,-1.5970617530458031,0.00022448347889191962,-8.62031691207037e-06,2.578301059840517,0.6936329559263155,0.006487012047296375,-0.08240966404211737,0.07477469744723965,-0.003259925035946906,0.7581831687255347,-1.5707963267948966,0.0,-1.5968038136467797,0.0,0.0
14.403,733.3333129882812,0.0,0.7944905053072919,-1.5707963267948966,0.0,-1.5968038136467797,0.0,0.0,0.6626764376915422,0.0,0.0,0.0,0.0,0.0,0.824846503360356,-1.5778177510088904,0.0023112331945523237,-1.5963991585665913,-9.447186046552287e-05,1.645630858241764e-05,0.36647283720535545,-0.25110136983176023,1.0938662535069283,0.2958394135098379,-0.16206750037461268,0.009768830660087524,0.8405958644935024,-1.5707963267948966,0.0,-1.5968038136467797,0.0,0.0
14.503,733.3333129882812,0.0,0.8731020633115364,-1.5707963267948966,0.0,-1.5968038136467797,0.0,0.0,0.8632697659030226,0.0,0.0,0.0,0.0,0.0,0.9650420942029069,-1.5761841679962358,-0.000298525533961346,-1.5969953071766056,0.0001448580506811622,-8.847266301931346e-06,0.6049950985232627,-0.07388884684489523,0.6735389394484769,0.1778626422208454,-0.09977835126318021,0.004281767722717026,1.0340679514142803,-1.5707963267948966,0.0,-1.5968038136467797,0.0,0.0
14.603,733.3333129882812,0.0,0.9425672825412232,-1.5707963267948966,0.0,-1.5968038136467797,0.0,0.0,0.9298213188684405,0.0,0.0,0.0,0.0,0.0,0.9803184522687921,-1.569923475747623,-0.0008663304637919794,-1.5970562935655683,0.00015533065858985734,-6.834479477153974e-06,-0.29375705456399126,-0.5889801127290439,-0.23445628012362876,-0.08047713287472297,0.05380125108199722,-0.002522777650672485,1.1059869822195787,-1.5707963267948966,0.0,-1.5968038136467797,0.0,0.0
14.703,733.3333129882812,0.0,1.0194555745379315,-1.5707963267948966,0.0,-1.5968038136467797,0.0,0.0,0.5060947550716293,0.0,0.0,0.0,0.0,0.0,1.0757417778132579,-1.5713665095842826,-0.0007885829997742226,-1.5970018319212762,0.00011522692944189907,-5.506309867844313e-06,-0.26785791283151156,-0.7301857739940345,-0.17683980526993004,-0.036097521551045605,0.021410930911531383,-0.002035175221470944,1.2013042953262985,-1.5707963267948966,0.0,-1.5968038136467797,0.0,0.0
14.802,733.3333129882812,0.0,1.0925755809367144,-1.5707963267948966,0.0,-1.5968038136467797,0.0,0.0,1.128765649448953,0.0,0.0,0.0,0.0,0.0,1.121284295877621,-1.5745465902419462,-0.001892002224852063,-1.5970275314257956,6.647097449718175e-05,-3.1281244576698174e-06,-0.7824898583290273,0.37793285213964356,-0.23544837420871054,-0.09347705413032213,0.06244484832785043,-0.0025209729949299013,1.1346700974543205,-1.5707963267948966,0.0,-1.5968038136467797,0.0,0.0
14.903,733.3333129882812,0.0,1.1570929397775356,-1.5707963267948966,0.0,-1.5968038136467797,0.0,0.0,0.5837168765312659,0.0,0.0,0.0,0.0,0.0,1.2018032403814582,-1.5727343091201473,-0.0010490692176898136,-1.5969395139517684,4.623410361377263e-05,-2.113641438475267e-06,2.3764113449754634,-0.20394639095113803,0.10963193078317571,0.04561848473445781,-0.030799647340875137,0.0012404161716775433,1.2879552281805722,-1.5707963267948966,0.0,-1.5968038136467797,0.0,0.0
15.003,733.3333129882812,0.0,1.2449603046824338,-1.5707963267948966,0.0,-1.5968038136467797,0.0,0.0,1.0950883254628556,0.0,0.0,0.0,0.0,0.0,1.191525968576788,-1.570394855260567,0.002592728541550724,-1.5964971628947062,4.840747973091322e-05,1.455872604842489e-05,-0.10368118055117771,-0.4564917766602097,0.07590193031288613,0.07567586122585203,-0.06395305887100035,0.002002116523808571,1.4429483675081543,-1.5707963267948966,0.0,-1.5968038136467797,0.0,0.0
15.103,733.3333129882812,0.0,1.3341651415443048,-1.5707963267948966,0.0,-1.5968038136467797,0.0,0.0,0.8062279348003487,0.0,0.0,0.0,0.0,0.0,1.3521231044240543,-1.5658048971218155,0.0017199721613316273,-1.596723797903472,4.1799852623705936e-05,-1.22067484600701e-06,2.43648986232267,0.5781325249769331,0.0485122672525595,-0.03267343083909808,0.030086221854951137,-0.00119471175006366,1.507387168126201,-1.5707963267948966,0.0,-1.5968038136467797,0.0,0.0
15.203,800.0,0.0,1.3376430283355578,-1.5707963267948966,0.0,-1.5968038136467797,0.0,0.0,-0.8037510738958655,0.0,0.0,0.0,0.0,0.0,1.430226162345026,-1.5666790797496342,5.622428177653877e-05,-1.5971062278360073,0.00025332772087831296,-9.886331297444832e-06,2.5596938196202426,0.8038589297577685,0.0880093763529293,-0.0679089807720421,0.06805313268842104,-0.0029282538094614068,1.2684244477735058,-1.5707963267948966,0.0,-1.5968038136467797,0.0,0.0
15.303,800.0,0.0,1.2637998326358515,-1.5707963267948966,0.0,-1.5968038136467797,0.0,0.0,-0.8280089313116631,0.0,0.0,0.0,0.0,0.0,1.4507996143981063,-1.5698438472310297,0.0005230891482547189,-1.5967347168639414,-2.3995001773851844e-05,1.0983869585748527e-06,-1.0806343376308696,0.253374727362036,0.3964545383098994,0.09020593497526984,-0.048433616615428894,0.002042287083930784,1.0347751062973916,-1.5707963267948966,0.0,-1.5968038136467797,0.0,0.0
15.403,800.0,0.0,1.1883256214139806,-1.5707963267948966,0.0,-1.5968038136467797,0.0,0.0,-0.7669515485107631,0.0,0.0,0.0,0.0,0.0,1.256002829622315,-1.5705124338226941,0.00012950247417087583,-1.5967842516602169,-1.0227278578632703e-05,1.5142091046331324e-07,-3.1415950504347743,-0.02281248809480744,-0.0351412469826254,0.0010298295042785236,-0.006966330068942897,-0.00561619270065139,1.0572290843926544,-1.5707963267948966,0.0,-1.5968038136467797,0.0,0.0
15.502,800.0,0.0,1.1184705675217739,-1.5707963267948966,0.0,-1.5968038136467797,0.0,0.0,-0.6513906690830188,0.0,0.0,0.0,0.0,0.0,1.097480163106166,-1.5661124922277196,0.0022983709587250816,-1.5967480326693917,0.00016876535051616197,1.884230993720522e-06,1.0284242628823566,0.34325849474681186,0.8349872881591598,0.06631225341216067,0.04680083671229052,0.003926293973840292,0.9964959643922126,-1.5707963267948966,0.0,-1.5968038136467797,0.0,0.0
15.602,800.0,0.0,1.0470234163083845,-1.5707963267948966,0.0,-1.5968038136467797,0.0,0.0,-0.9424445493928104,0.0,0.0,0.0,0.0,0.0,0.9391305354818447,-1.5703823384034439,0.00014595050913882295,-1.5967186047393465,-9.898155739186643e-05,-4.0603786548784765e-06,-2.909073124079411,0.06466146804333985,-0.16469855372879966,0.09022588371631021,-0.15389447537099807,-0.008869121217101684,0.8515249553124181,-1.5707963267948966,0.0,-1.5968038136467797,0.0,0.0
15.703,800.0,0.0,0.9644941348686649,-1.5707963267948966,0.0,-1.5968038136467797,0.0,0.0,-0.5966909445172867,0.0,0.0,0.0,0.0,0.0,0.9384533601956647,-1.5743218194459434,-0.0018299197526456803,-1.597030061428831,7.034157940595213e-05,-3.2702464411129555e-06,-2.0218520590380367,-0.07064652311912942,-0.12160791653390984,-0.028107724111023042,0.015210445869203114,-0.0006380960629448188,0.91011704488931,-1.5707963267948966,0.0,-1.5968038136467797,0.0,0.0
15.802,800.0,0.0,0.8848999829580295,-1.5707963267948966,0.0,-1.5968038136467797,0.0,0.0,-0.8687629960301618,0.0,0.0,0.0,0.0,0.0,0.8199854354226344,-1.5670302175393611,0.0018631086175078173,-1.5965879766878779,-6.0019595168162864e-05,2.8583146158323107e-06,-0.940159514348024,-0.31845417853846375,0.1580962777808706,0.06931704397463744,-0.046138874733837695,0.0018781462450282202,0.686212666267289,-1.5707963267948966,0.0,-1.5968038136467797,0.0,0.0
15.902,800.0,0.0,0.8014175490041202,-1.5707963267948966,0.0,-1.5968038136467797,0.0,0.0,-0.93625768778524,0.0,0.0,0.0,0.0,0.0,0.7439510544574088,-1.569765150820818,0.0005340739725469014,-1.596719270529619,-4.2902657163116164e-05,8.152888806892941e-07,-3.1415961156992105,-0.10382751293069917,-0.12692455978798156,-0.001246042619628986,-0.018858515710907412,-0.018442407193555537,0.6428937042801081,-1.5707963267948966,0.0,-1.5968038136467797,0.0,0.0
16.003,800.0,0.0,0.7341557955485163,-1.5707963267948966,0.0,-1.5968038136467797,0.0,0.0,-0.6680701410687111,0.0,0.0,0.0,0.0,0.0,0.6715401704713452,-1.5722331022029943,-0.0009518689093512628,-1.5969532292313824,6.23056119137457e-05,-2.732172218638001e-06,-2.8796047139854664,-0.24595136556052183,-0.10032466547129634,-0.007320335438179533,-0.0002665831728306167,8.904666534151258e-06,0.6751738767692651,-1.5707963267948966,0.0,-1.5968038136467797,0.0,0.0
16.103,800.0,0.0,0.6675060333690368,-1.5707963267948966,0.0,-1.5968038136467797,0.0,0.0,-0.7686200195333817,0.0,0.0,0.0,0.0,0.0,0.6032759614605893,-1.5754508665900826,0.0012899794460916269,-1.5964633407488622,-0.00019452985736208205,7.711218473042777e-06,0.13815347891867805,0.5987581084083516,-0.45359422410468986,-0.12382045412279087,0.07207153900653879,-0.0029560409305890763,0.5370366424477675,-1.5707963267948966,0.0,-1.5968038136467797,0.0,0.0
16.203,800.0,0.0,0.5849030722282906,-1.5707963267948966,0.0,-1.5968038136467797,0.0,0.0,-1.0363878424315656,0.0,0.0,0.0,0.0,0.0,0.5684796312898319,-1.570722956706865,0.00035609682194133804,-1.5967104820980216,-5.354717013710919e-05,2.2394195030333424e-06,0.23360088942625212,0.5720192386946563,-0.03399269426409608,-0.05518449279099518,0.04232295188235005,-0.001698889886344855,0.34675513084197945,-1.5707963267948966,0.0,-1.5968038136467797,0.0,0.0
16.303,800.0,0.0,0.4950573631820996,-1.5707963267948966,0.0,-1.5968038136467797,0.0,0.0,-0.8006977170517984,0.0,0.0,0.0,0.0,0.0,0.5320275472903452,-1.577799641513478,0.0019196187372223993,-1.5962926321229882,-0.0002937810305559574,1.1769737748883351e-05,0.8988321810780109,0.4190212998598766,-0.4888368334951172,-0.1431093553912065,0.08588145238530714,-0.0037643155229146294,0.399597803212598,-1.5707963267948966,0.0,-1.5968038136467797,0.0,0.0
16.403,800.0,0.0,0.41786581708963233,-1.5707963267948966,0.0,-1.5968038136467797,0.0,0.0,-0.8799981425142808,0.0,0.0,0.0,0.0,0.0,0.3931719592397813,-1.5707012519439807,5.570574233601987e-05,-1.5967959695690133,-2.9664768355086274e-06,1.3355927756571926e-07,-2.2774285714760523,0.17523098965541317,0.06121351083071708,0.0029872922417284505,0.001326377107978119,-3.732159624508263e-05,0.14364904032869896,-1.5707963267948966,0.0,-1.5968038136467797,0.0,0.0
16.503,800.0,0.0,0.3415552145543268,-1.5707963267948966,0.0,-1.5968038136467797,0.0,0.0,-0.5391418892064253,0.0,0.0,0.0,0.0,0.0,0.3544976004686779,-1.5630258885243178,-0.0011232747944912114,-1.5972720096138648,0.00036154706953745575,-8.901188040051668e-06,0.413297301149942,0.16468750161027584,-0.5770119999482823,-0.32376878280982585,0.258187958268677,-0.0101430609692979,0.21342546706738313,-1.5707963267948966,0.0,-1.5968038136467797,0.0,0.0
16.603,800.0,0.0,0.2597063914792228,-1.5707963267948966,0.0,-1.5968038136467797,0.0,0.0,-0.837833905742965,0.0,0.0,0.0,0.0,0.0,0.2746347256993817,-1.559465242146882,-0.003419967753670083,-1.5975359288778916,0.0003122152612728029,-2.0805627018829542e-05,0.3572889261862172,0.0020996332125637314,0.545458201562751,0.09994032139172747,-0.030544310529579986,0.003163835375014135,-0.0010589375671656853,-1.5707963267948966,0.0,-1.5968038136467797,0.0,0.0
16.703,800.0,0.0,0.16897874076242303,-1.5707963267948966,0.0,-1.5968038136467797,0.0,0.0,-0.8088841744990826,0.0,0.0,0.0,0.0,0.0,0.17463780381211164,-1.5646758499776765,4.291959450354501e-05,-1.5964454975695588,-0.000374713072176535,8.123028388483482e-06,0.5372918178171048,0.5620280569700877,-1.0332361289189391,-0.12921483671355768,0.06272952360362309,0.00810261456140374,0.06815676278394732,-1.5707963267948966,0.0,-1.5968038136467797,0.0,0.0
16.803,800.0,0.0,0.1003797364104182,-1.5707963267948966,0.0,-1.5968038136467797,0.0,0.0,-0.8391103262411006,0.0,0.0,0.0,0.0,0.0,0.13267225230923943,-1.5658573613952902,0.0006595527149227208,-1.5963151358341994,-0.00042246057267063215,1.2934670590472452e-05,-0.6957602890050708,0.0721548127248742,-1.0222308820302957,-0.1166146559375794,-0.001596778594523495,-0.0011122235862275206,-0.09829911680298647,-1.5707963267948966,0.0,-1.5968038136467797,0.0,0.0
16.903,800.0,0.0,0.02833624565847881,-1.5707963267948966,0.0,-1.5968038136467797,0.0,0.0,-0.7071289412028812,0.0,0.0,0.0,0.0,0.0,-0.07645745739389825,-1.5713710369581357,-0.0003096617540200874,-1.596843506994471,1.3334539945048806e-05,-6.113581639341603e-07,-2.9606843870568196,-0.02313109786853259,-0.008595243187014157,-0.0005583362738358033,-7.495494033285709e-05,5.731708589939151e-07,-0.10859841657637909,-1.5707963267948966,0.0,-1.5968038136467797,0.0,0.0
17.003,800.0,0.0,-0.04244697635100536,-1.5707963267948966,0.0,-1.5968038136467797,0.0,0.0,-0.8309623560253667,0.0,0.0,0.0,0.0,0.0,-0.08834833850304755,-1.5666411297041005,0.002029180508275014,-1.5965722640374465,-6.239355767227764e-05,2.999674408796997e-06,1.9195841431759582,0.15739318660833287,0.0892844562709672,0.012159847895679688,-0.004341277929809987,0.0001937085751523815,-0.09733168182841477,-1.5707963267948966,0.0,-1.5968038136467797,0.0,0.0
17.103,800.0,0.0,-0.11831324398750098,-1.5707963267948966,0.0,-1.5968038136467797,0.0,0.0,-0.546878329963137,0.0,0.0,0.0,0.0,0.0,-0.13346730576316895,-1.5716900836567271,0.0008255575065140151,-1.5965618777091952,-0.0001448601800396998,6.386443544817748e-06,-0.10164432837045786,0.5240474849524636,0.28947176205394476,0.08451002429245721,-0.05089043681648663,0.002196428585177941,-0.22081985374829116,-1.5707963267948966,0.0,-1.5968038136467797,0.0,0.0
17.202,800.0,0.0,-0.21022002799180228,-1.5707963267948966,0.0,-1.5968038136467797,0.0,0.0,-1.0755207409533338,0.0,0.0,0.0,0.0,0.0,-0.20255490592632847,-1.5702531750905748,0.00022430791246776224,-1.5969150128697398,0.00015550180375048628,2.809678621693966e-07,0.9201693611526984,1.0728043111309005,-0.045899231847622596,-0.17599371899161187,0.18403628239132622,-0.000989877146515156,-0.33361722416866635,-1.5707963267948966,0.0,-1.5968038136467797,0.0,0.0
17.303,800.0,0.0,-0.2912995535996963,-1.5707963267948966,0.0,-1.5968038136467797,0.0,0.0,-0.4972961603289236,0.0,0.0,0.0,0.0,0.0,-0.3164301095309763,-1.570037325884224,0.00031626721925946644,-1.596757353733207,-2.5401095644892803e-05,2.297855397440361e-07,-3.14159345253812,-0.15382155469140035,-0.14195191229194443,-0.0025315489173642833,-0.017627958436749663,-0.016164717865319252,-0.35556238326205175,-1.5707963267948966,0.0,-1.5968038136467797,0.0,0.0
17.403,800.0,0.0,-0.3551695901186722,-1.5707963267948966,0.0,-1.5968038136467797,0.0,0.0,-0.517533018722035,0.0,0.0,0.0,0.0,0.0,-0.39798136185235544,-1.5755155814045716,-0.0023038026110069475,-1.5970661472616017,7.082176601082624e-05,-3.4196781893545985e-06,-1.7879367668003439,-0.10171686622064889,-0.35403507596635836,-0.08978515552303733,0.05062378365115325,-0.0021024625611476156,-0.6223558140037997,-1.5707963267948966,0.0,-1.5968038136467797,0.0,0.0
17.503,800.0,0.0,-0.43637798397642236,-1.5707963267948966,0.0,-1.5968038136467797,0.0,0.0,-0.7925926274221736,0.0,0.0,0.0,0.0,0.0,-0.4415977153688053,-1.5757182479635266,-0.001750494224063132,-1.5968958381098912,-3.2676095820708434e-05,8.745886206027549e-07,-1.9443500765750956,-0.3521616087185149,-0.045385986610104685,0.016121219914280394,-0.01576065078922428,0.0006327452287595099,-0.6426145203226564,-1.5707963267948966,0.0,-1.5968038136467797,0.0,0.0
17.603,800.0,0.0,-0.5258999126878798,-1.5707963267948966,0.0,-1.5968038136467797,0.0,0.0,-0.6735679269288202,0.0,0.0,0.0,0.0,0.0,-0.5088369402550169,-1.575892285540763,0.0005014698848049836,-1.596658017824547,-9.20346552001091e-05,2.982503915799265e-06,1.043672924072905,1.0266119151815305,-0.7951681030144585,-0.3513604299940782,0.28492378199187557,-0.005479382162324277,-0.6198783648718866,-1.5707963267948966,0.0,-1.5968038136467797,0.0,0.0
17.703,800.0,0.0,-0.5915911976687163,-1.5707963267948966,0.0,-1.5968038136467797,0.0,0.0,-0.9756947581194526,0.0,0.0,0.0,0.0,0.0,-0.653478412221346,-1.5610552824757138,-0.002031342376103264,-1.597383063431321,0.00034329736155434186,-1.4741464834832015e-05,0.06346641611605881,0.24103079261719373,-0.37031790918721186,-0.07357881328211797,0.03601168870135019,-0.0007319357558716771,-0.750280546370969,-1.5707963267948966,0.0,-1.5968038136467797,0.0,0.0
17.803,800.0,0.0,-0.6895087212834223,-1.5707963267948966,0.0,-1.5968038136467797,0.0,0.0,-0.99008147682067,0.0,0.0,0.0,0.0,0.0,-0.6311838923138021,-1.568170849434242,-0.0009830338107960882,-1.59710423046519,0.0001131723585274403,-1.3016371517453524e-05,0.4650569687790953,0.11734441201053156,0.35890103746258306,0.028462142998436753,0.021120477824550017,0.0017754817751171534,-0.7790069708305312,-1.5707963267948966,0.0,-1.5968038136467797,0.0,0.0
17.903,800.0,0.0,-0.7563732027508046,-1.5707963267948966,0.0,-1.5968038136467797,0.0,0.0,-0.8981235344104564,0.0,0.0,0.0,0.0,0.0,-0.8415113004605541,-1.571111911384071,-0.0001545212097619535,-1.596821535915478,4.791392977575113e-06,-2.303580397814368e-07,-2.669602211491704,0.07461780396952035,0.03761557330666121,0.004482784630227292,-0.0013112554764506755,6.207792496935309e-05,-0.9413094727833051,-1.5707963267948966,0.0,-1.5968038136467797,0.0,0.0
18.003,800.0,0.0,-0.8260767934635584,-1.5707963267948966,0.0,-1.5968038136467797,0.0,0.0,-0.6510839839462677,0.0,0.0,0.0,0.0,0.0,-0.8649624978085466,-1.5747830789467452,-0.0018717133065943227,-1.5970044950823663,4.715417749409839e-05,-2.3451303190115537e-06,-1.4712308536489762,-0.08495403150282227,-0.40950376133517863,-0.10683805841784402,0.06100251357097714,-0.002535968880521109,-1.0134747799151358,-1.5707963267948966,0.0,-1.5968038136467797,0.0,0.0
18.102,800.0,0.0,-0.9136608895068115,-1.5707963267948966,0.0,-1.5968038136467797,0.0,0.0,-0.9985941250343899,0.0,0.0,0.0,0.0,0.0,-0.9490236462992709,-1.575845680221687,3.4248708373952644e-05,-1.5967962358851222,-3.4244961678205184e-06,1.5385440865367753e-07,-0.5376216170285975,-0.06391516292092637,0.679197823869759,0.2799266598119645,-0.18681640618753037,0.01019325739465669,-1.2084751707011632,-1.5707963267948966,0.0,-1.5968038136467797,0.0,0.0
18.203,800.0,0.0,-0.9901726961966091,-1.5707963267948966,0.0,-1.5968038136467797,0.0,0.0,-0.9383479505997029,0.0,0.0,0.0,0.0,0.0,-1.1178537449194355,-1.5708296163085227,-0.0008003706084897256,-1.5965956998550392,-0.00036170116357513854,-1.4116741669747467e-06,0.07631808252272464,0.6330142829310136,0.014115278087259571,-0.05206784114035668,0.05132376641535615,-0.0008701968587476106,-1.1735389034077444,-1.5707963267948966,0.0,-1.5968038136467797,0.0,0.0
18.303,800.0,0.0,-1.0682110711167656,-1.5707963267948966,0.0,-1.5968038136467797,0.0,0.0,-0.4484062483543268,0.0,0.0,0.0,0.0,0.0,-1.0824662595657077,-1.572809277104833,-0.000972399046545629,-1.5969120833925405,2.8102625825262153e-05,-1.3580047568252153e-06,-1.9281621850471033,-0.1377335982833134,-0.4370546954442664,-0.1103316430700804,0.06214293324520872,-0.0025898437971355716,-1.2648736229622033,-1.5707963267948966,0.0,-1.5968038136467797,0.0,0.0
18.403,800.0,0.0,-1.126283512095295,-1.5707963267948966,0.0,-1.5968038136467797,0.0,0.0,-0.43713914581249685,0.0,0.0,0.0,0.0,0.0,-1.1882653272961494,-1.563999273902742,-0.0011257301561954534,-1.5971404494560149,0.00020321529952656314,-9.161081532325476e-06,0.020951429513168033,0.12565616273980407,-0.5482090805212347,-0.2093076338310902,0.13774655622649234,-0.007144311413246954,-1.324400890149646,-1.5707963267948966,0.0,-1.5968038136467797,0.0,0.0
18.503,800.0,0.0,-1.2109791938511112,-1.5707963267948966,0.0,-1.5968038136467797,0.0,0.0,-1.023232983826819,0.0,0.0,0.0,0.0,0.0,-1.1966926342495963,-1.5623603645679072,-0.0017692317989710363,-1.5973174165104507,0.0003066652101543885,-1.3389306924726037e-05,0.14735501673528126,0.18498759682221613,-0.46826041867532436,-0.11211432149188741,0.061662136961097735,-0.002070637396009681,-1.3838409640880498,-1.5707963267948966,0.0,-1.5968038136467797,0.0,0.0
18.603,866.6666870117188,0.0,-1.2941993855076852,-1.5707963267948966,0.0,-1.5968038136467797,0.0,0.0,-0.7906262861272287,0.0,0.0,0.0,0.0,0.0,-1.3191652875118332,-1.572226710616378,-0.0006437315484790624,-1.5968672091281728,1.1638831978672261e-05,-6.0331738455898e-07,-2.9457914576088786,-0.2874502563390065,-0.1925699659855648,-0.030763630167726416,0.01320037614249267,-0.0005636480968723317,-1.182389821980856,-1.5707963267948966,0.0,-1.5968038136467797,0.0,0.0
18.703,866.6666870117188,0.0,-1.2435553914780968,-1.5707963267948966,0.0,-1.5968038136467797,0.0,0.0,0.7543369402692054,0.0,0.0,0.0,0.0,0.0,-1.5472218916674607,-1.5705900649684699,0.00010030983011658237,-1.596792507459596,-3.03095596576766e-06,1.4777998102621006e-07,-2.69500610512997,0.10437053979934473,0.029920953983960306,-2.3571330538942746e-05,0.0018445527045160674,-6.532506263836912e-05,-1.1838579956386475,-1.5707963267948966,0.0,-1.5968038136467797,0.0,0.0
18.803,866.6666870117188,0.0,-1.1739981549564362,-1.5707963267948966,0.0,-1.5968038136467797,0.0,0.0,0.6412514214731672,0.0,0.0,0.0,0.0,0.0,-1.415418587210022,-1.5713413427119813,-0.00024331230737867945,-1.5968280606601486,4.440742181085769e-06,-2.3821409717649093e-07,2.4911863974229354,-0.13783480672711484,-0.0334214753385985,0.001874099748602386,-0.003448086209488061,0.00013120496946759098,-0.9636786311941012,-1.5707963267948966,0.0,-1.5968038136467797,0.0,0.0
18.903,866.6666870117188,0.0,-1.08511385032579,-1.5707963267948966,0.0,-1.5968038136467797,0.0,0.0,0.8671875935613204,0.0,0.0,0.0,0.0,0.0,-1.2106573188995902,-1.5709067148220803,-4.8569172815285555e-05,-1.5968110164291722,3.740739181881265e-06,-4.455753060317395e-08,3.1415953167508834,0.013774076177052681,0.017332429739237633,-3.764941586833974e-05,0.0028149529498353483,0.00241671830055738,-1.0344683876265957,-1.5707963267948966,0.0,-1.5968038136467797,0.0,0.0
19.003,866.6666870117188,0.0,-1.0043954178038925,-1.5707963267948966,0.0,-1.5968038136467797,0.0,0.0,0.7423863887178859,0.0,0.0,0.0,0.0,0.0,-0.950436985889776,-1.570793796791861,2.9150433280172258e-06,-1.5968032932620109,-2.9190193666510673e-07,1.2614291308881465e-08,3.114160762781432,-0.0063946658962005755,-0.0007975810512775977,0.00029928521106526416,-0.0002805584942604372,1.1281729611861817e-05,-0.7195852564384558,-1.5707963267948966,0.0,-1.5968038136467797,0.0,0.0
19.103,866.6666870117188,0.0,-0.9136145339507955,-1.5707963267948966,0.0,-1.5968038136467797,0.0,0.0,0.9476639858913029,0.0,0.0,0.0,0.0,0.0,-0.8664388877378593,-1.5657472396842154,0.001388628888570209,-1.5968303243470752,0.00010332052365103685,-3.983047941680382e-06,2.1360802313556606,0.4168802182119937,0.3724569268852499,0.06995092208715753,-0.03343409414485736,0.0013279172681319716,-0.6385503745084253,-1.5707963267948966,0.0,-1.5968038136467797,0.0,0.0
19.203,866.6666870117188,0.0,-0.8328971441667798,-1.5707963267948966,0.0,-1.5968038136467797,0.0,0.0,0.817485667802473,0.0,0.0,0.0,0.0,0.0,-0.7784533716438214,-1.569656094374179,0.0005216632257482118,-1.5967497637241004,-1.1261556581097921e-05,5.802531857472839e-07,0.8378762187306504,-0.37946883029834677,-0.23451573519496477,-0.035112609678528646,0.013628093337424306,-0.0006062456055787581,-0.7507107748836597,-1.5707963267948966,0.0,-1.5968038136467797,0.0,0.0
19.303,866.6666870117188,0.0,-0.7612596457333956,-1.5707963267948966,0.0,-1.5968038136467797,0.0,0.0,0.7877568888534332,0.0,0.0,0.0,0.0,0.0,-0.6626934156462109,-1.5748347442718929,-0.0014945072269549726,-1.597211289541011,0.0002305613345986883,-8.873867029006021e-06,0.5230783939212974,0.08406316250629874,0.4697290854374758,-0.17726249886919604,0.1693269113215188,-0.013402532955770303,-0.5260215820593115,-1.5707963267948966,0.0,-1.5968038136467797,0.0,0.0
19.403,866.6666870117188,0.0,-0.697264211173704,-1.5707963267948966,0.0,-1.5968038136467797,0.0,0.0,0.6586204041571498,0.0,0.0,0.0,0.0,0.0,-0.5764400195251606,-1.5698932488692507,0.0006887509343203609,-1.5966838504871208,-5.302270181470792e-05,2.277440896300796e-06,3.042241032279406,0.34895972342942627,0.3283645999029756,0.06520272224538481,-0.03183126440100936,0.001373610506549871,-0.5192802279715272,-1.5707963267948966,0.0,-1.5968038136467797,0.0,0.0
19.503,866.6666870117188,0.0,-0.6308828586376105,-1.5707963267948966,0.0,-1.5968038136467797,0.0,0.0,0.831422554715489,0.0,0.0,0.0,0.0,0.0,-0.5118930507639373,-1.5669508553388767,0.0020816203347630057,-1.5965309850405502,-9.026611727943771e-05,4.1313682785479146e-06,1.7469348718155384,0.13957393414272065,0.35016819935307697,0.08751337092228045,-0.0478423906922421,0.002017223071025153,-0.4997090121412527,-1.5707963267948966,0.0,-1.5968038136467797,0.0,0.0
19.603,866.6666870117188,0.0,-0.551616912582964,-1.5707963267948966,0.0,-1.5968038136467797,0.0,0.0,0.699733598166509,0.0,0.0,0.0,0.0,0.0,-0.5458489871632065,-1.568491627187542,0.0012752463656060366,-1.596455617581701,-0.00019694097392174888,8.022350671042916e-06,-0.07582278449424033,-0.956513587128037,0.9755480649661876,0.2661903578702016,-0.15077727860457396,0.006146986713336702,-0.4885066193197529,-1.5707963267948966,0.0,-1.5968038136467797,0.0,0.0
19.703,866.6666870117188,0.0,-0.47706894724444115,-1.5707963267948966,0.0,-1.5968038136467797,0.0,0.0,0.8350780044240327,0.0,0.0,0.0,0.0,0.0,-0.35985115347098245,-1.5765390342114889,0.0002296460355204268,-1.596754690572117,-2.4711998242807335e-05,6.30807482012834e-07,0.9771050820975025,-0.18487196569663628,0.7568241759556066,0.3187225918868301,-0.20618481113686327,0.011548204057369853,-0.39264984954645843,-1.5707963267948966,0.0,-1.5968038136467797,0.0,0.0
19.802,866.6666870117188,0.0,-0.40245060169310776,-1.5707963267948966,0.0,-1.5968038136467797,0.0,0.0,0.8356499468067855,0.0,0.0,0.0,0.0,0.0,-0.27743146096288523,-1.5684980187741582,-0.0010790946034787618,-1.5972806648874076,0.0003725272450010753,-7.967825987172563e-06,0.1957355657048011,-0.6818883489400388,0.13852002143083542,-0.009912841096033558,0.030024267989498567,-0.00023203995466533958,-0.16561384480745356,-1.5707963267948966,0.0,-1.5968038136467797,0.0,0.0
19.903,866.6666870117188,0.0,-0.3171249858671441,-1.5707963267948966,0.0,-1.5968038136467797,0.0,0.0,1.0624945943722985,0.0,0.0,0.0,0.0,0.0,-0.3230252615229894,-1.5760961505222089,-0.0023318604695071535,-1.597028197216068,3.757133261585886e-05,-2.085851328524688e-06,-1.846527908678741,-0.2930229209199973,-0.24650923122986618,-0.045222676578633984,0.02082975634086504,-0.0008910023496337856,-0.16285702567951593,-1.5707963267948966,0.0,-1.5968038136467797,0.0,0.0
20.003,866.6666870117188,0.0,-0.2389367003816636,-1.5707963267948966,0.0,-1.5968038136467797,0.0,0.0,0.9717158597214054,0.0,0.0,0.0,0.0,0.0,-0.21781901345119936,-1.5689345108768222,-0.0007181507763386146,-1.5969983698118593,0.00010994482802434778,-4.447351726241125e-06,-0.05410195941977,-0.8367944426958602,0.5792071770558074,0.15176872354414,-0.08454119159958955,0.0032709495865922635,-0.03393449885643368,-1.5707963267948966,0.0,-1.5968038136467797,0.0,0.0
20.103,866.6666870117188,0.0,-0.15814925397031665,-1.5707963267948966,0.0,-1.5968038136467797,0.0,0.0,0.8859195870655516,0.0,0.0,0.0,0.0,0.0,-0.1272961623062101,-1.5670410033417759,-0.000584193383396141,-1.5969625502951976,8.953649501472588e-05,-3.6280403922862207e-06,0.05199074262679889,-0.7059733120484429,0.612635175058482,0.15979730534813147,-0.08884023267876358,0.0034170518003359064,-0.07758390941652456,-1.5707963267948966,0.0,-1.5968038136467797,0.0,0.0
20.203,866.6666870117188,0.0,-0.0706843468734224,-1.5707963267948966,0.0,-1.5968038136467797,0.0,0.0,0.6155969374678982,0.0,0.0,0.0,0.0,0.0,-0.023521812728771636,-1.570894197964957,0.0004683871952861108,-1.5968042253683925,7.699162301013549e-05,2.6921730921963715e-06,0.5545827240895805,-0.6375540404832172,0.41909653416067133,0.10108869309852646,-0.029810761532669074,0.004271714549676301,0.21430762809546572,-1.5707963267948966,0.0,-1.5968038136467797,0.0,0.0
20.303,866.6666870117188,0.0,0.005591034054061642,-1.5707963267948966,0.0,-1.5968038136467797,0.0,0.0,0.6097848907943689,0.0,0.0,0.0,0.0,0.0,0.012638532376270016,-1.5762878981206945,-0.002338038795176677,-1.597014215620345,2.6100579765341066e-05,-1.6226198425977413e-06,-1.3392287442161632,-0.17041041841101753,-0.10633343932554444,-0.01591697522432003,0.006172663851464,-0.0002710079961263948,0.29623934727989853,-1.5707963267948966,0.0,-1.5968038136467797,0.0,0.0
20.402,866.6666870117188,0.0,0.07316861084672191,-1.5707963267948966,0.0,-1.5968038136467797,0.0,0.0,0.5762901538063865,0.0,0.0,0.0,0.0,0.0,0.1115883887884888,-1.580085965309311,0.002428362088171046,-1.5960775818649644,-0.00043504348867260615,1.76287764680303e-05,-0.6935508639857138,-0.33088504884814024,0.1082642394382303,0.0993352844815751,-0.10433511143446826,-0.0004092129066934392,0.14771445941973735,-1.5707963267948966,0.0,-1.5968038136467797,0.0,0.0
20.503,866.6666870117188,0.0,0.14866129991501245,-1.5707963267948966,0.0,-1.5968038136467797,0.0,0.0,0.5668723408236664,0.0,0.0,0.0,0.0,0.0,0.1700312342060607,-1.5720809025466964,-0.0006571832427643772,-1.5969223365627374,6.628620794377031e-05,-1.5667226571127427e-06,3.1415953167508834,0.06074707481054651,0.025605268147973273,-0.04455622467703086,0.056021108202686756,0.02681124527750743,0.381754276385188,-1.5707963267948966,0.0,-1.5968038136467797,0.0,0.0
20.602,866.6666870117188,0.0,0.22423295725000966,-1.5707963267948966,0.0,-1.5968038136467797,0.0,0.0,0.8820059150070066,0.0,0.0,0.0,0.0,0.0,0.21116425658503893,-1.5751676394081526,-6.973738611189213e-05,-1.5968184732802244,0.0001317104889372044,9.585148974214375e-06,-0.6133632167214824,-0.04754032164559986,-0.7165285512918902,-0.11736967042899528,0.02132425125983311,-0.004362279711793109,0.41611951310844175,-1.5707963267948966,0.0,-1.5968038136467797,0.0,0.0
20.703,866.6666870117188,0.0,0.3116906031330146,-1.5707963267948966,0.0,-1.5968038136467797,0.0,0.0,0.8959703231468816,0.0,0.0,0.0,0.0,0.0,0.3789539746806072,-1.5693602171770713,0.0006921347613655777,-1.5967263279065076,-1.9890724147547855e-05,9.709956839629604e-07,2.6326468566252195,0.053978434518271556,-0.017032474576710647,-0.00923698698742569,0.006233378722831302,-0.00025564234986332943,0.4726927060651596,-1.5707963267948966,0.0,-1.5968038136467797,0.0,0.0
20.803,866.6666870117188,0.0,0.39687793077134137,-1.5707963267948966,0.0,-1.5968038136467797,0.0,0.0,0.9445489750605582,0.0,0.0,0.0,0.0,0.0,0.477526088739928,-1.566303840352042,0.0022852819380862624,-1.5966003603869467,-8.137544675684794e-07,3.0574312272987308e-06,-1.14679737912058,-0.3516921599973612,-0.09747880320805927,0.18270540092607274,-0.20422648891878714,0.002489707119628316,0.50584138228513,-1.5707963267948966,0.0,-1.5968038136467797,0.0,0.0
20.903,866.6666870117188,0.0,0.4760449802213962,-1.5707963267948966,0.0,-1.5968038136467797,0.0,0.0,0.5649885889133447,0.0,0.0,0.0,0.0,0.0,0.5601812213331451,-1.5723793097468397,-0.00031571738962669655,-1.5967632126876052,-5.044864056297871e-05,1.955743813786365e-06,1.5883189946612364,-0.2135260976425325,-0.26317179793265133,-0.056734323548555995,0.02887839923800534,-0.0012268373010472042,0.5721771425572691,-1.5707963267948966,0.0,-1.5968038136467797,0.0,0.0
21.002,866.6666870117188,0.0,0.530867875310962,-1.5707963267948966,0.0,-1.5968038136467797,0.0,0.0,0.6010332029170138,0.0,0.0,0.0,0.0,0.0,0.5981682848059263,-1.5668335430928586,0.0021239738287338102,-1.5965292539858418,-8.952438530395861e-05,4.112210401180345e-06,1.5938884634489192,0.002816742261192745,0.3537934273869473,0.09965477226622213,-0.05714528259426885,0.002387757464000069,0.5896637354740648,-1.5707963267948966,0.0,-1.5968038136467797,0.0,0.0
21.103,866.6666870117188,0.0,0.6036886799769909,-1.5707963267948966,0.0,-1.5968038136467797,0.0,0.0,0.8018489367328178,0.0,0.0,0.0,0.0,0.0,0.6236664543467809,-1.5683763123123415,-0.0012416983381007944,-1.597140183139906,0.00019020053010758949,-7.692513439934813e-06,0.6610826026608765,-0.591657255414846,0.1670745261848275,0.05999376640670397,-0.03728467138002966,0.001920873335767179,0.8883001475828509,-1.5707963267948966,0.0,-1.5968038136467797,0.0,0.0
21.203,866.6666870117188,0.0,0.6922996946331909,-1.5707963267948966,0.0,-1.5968038136467797,0.0,0.0,0.9570761730999005,0.0,0.0,0.0,0.0,0.0,0.7058560663814522,-1.5720152556258258,-0.00022746867701518156,-1.5967682726936763,-4.131115264834275e-05,1.6049123113571952e-06,1.2762535065512775,-0.5406590188308601,-0.4042852306001411,-0.06998855588231172,0.0309043719895533,-0.0013480940943555494,0.8756521586028466,-1.5707963267948966,0.0,-1.5968038136467797,0.0,0.0
21.303,866.6666870117188,0.0,0.7868515325116274,-1.5707963267948966,0.0,-1.5968038136467797,0.0,0.0,0.9090488375957763,0.0,0.0,0.0,0.0,0.0,0.8076111239966085,-1.5809032894478563,0.0021185947114656357,-1.5962291157309898,-0.00032486114777076667,1.3150615585448275e-05,0.2550385871873334,-0.0033157021361759037,-0.20907131157385928,-0.08189677250568174,0.05207066242663649,-0.0028123467450224884,1.0499902657110405,-1.5707963267948966,0.0,-1.5968038136467797,0.0,0.0
21.403,866.6666870117188,0.0,0.8623229233668294,-1.5707963267948966,0.0,-1.5968038136467797,0.0,0.0,0.7666490080982142,0.0,0.0,0.0,0.0,0.0,0.8187159065309936,-1.5720128587808448,-7.313085317770219e-06,-1.5967064873563865,-7.687458143647146e-05,3.0947049068812255e-06,0.004213810041467143,-0.5210920086432346,-0.06961155214049737,0.023156878516241316,-0.022282057145880108,0.0008854081508986679,0.9676547506824099,-1.5707963267948966,0.0,-1.5968038136467797,0.0,0.0
21.503,866.6666870117188,0.0,0.9478634500448674,-1.5707963267948966,0.0,-1.5968038136467797,0.0,0.0,1.173378434891284,0.0,0.0,0.0,0.0,0.0,1.0101577075445305,-1.5711746288277424,-0.0001733075160965426,-1.5968304575051298,1.3961530379177386e-05,-2.0186036067522297e-07,3.141592653589793,0.03696689384414516,0.03834467607290845,-0.0047624477536046365,0.011834201551011843,0.008043325417487202,1.2171881747060889,-1.5707963267948966,0.0,-1.5968038136467797,0.0,0.0
21.603,866.6666870117188,0.0,1.0350790106419165,-1.5707963267948966,0.0,-1.5968038136467797,0.0,0.0,0.9692277051479082,0.0,0.0,0.0,0.0,0.0,1.1315892645576282,-1.5693562224354363,0.0009799072622770784,-1.5966448351771512,-6.652966189412835e-05,2.9293682421677164e-06,2.8421737185482936,0.2436457005572721,0.16404759393460022,0.025604450474294837,-0.01030773899171917,0.0004371720019686492,1.149894708737024,-1.5707963267948966,0.0,-1.5968038136467797,0.0,0.0
21.703,866.6666870117188,0.0,1.1154211447415265,-1.5707963267948966,0.0,-1.5968038136467797,0.0,0.0,0.45426717647950743,0.0,0.0,0.0,0.0,0.0,1.1600299607869113,-1.565347632362649,0.0012578168345167412,-1.596340968496773,-0.00028965205805974315,1.5097625448128931e-05,-0.4609612933386624,0.13918918226660987,-0.6456920615632541,-0.058460638662605,0.005985155984627755,0.0036646566019427713,1.2558000411040826,-1.5707963267948966,0.0,-1.5968038136467797,0.0,0.0
21.803,866.6666870117188,0.0,1.1750674601943016,-1.5707963267948966,0.0,-1.5968038136467797,0.0,0.0,0.5991353796214371,0.0,0.0,0.0,0.0,0.0,1.2158177261438368,-1.5743821400446338,-0.0017076849498374091,-1.596991978225243,4.624583134037475e-05,-2.2693051923367047e-06,-2.030337156587138,-0.15572333467058275,-0.46098855745032213,-0.11747177768966459,0.06477174787960434,-0.0027250244496666376,1.3491335583997461,-1.5707963267948966,0.0,-1.5968038136467797,0.0,0.0
21.903,866.6666870117188,0.0,1.260903726594527,-1.5707963267948966,0.0,-1.5968038136467797,0.0,0.0,0.7584698566119956,0.0,0.0,0.0,0.0,0.0,1.3006314173795903,-1.5657018327876295,0.0016024023116945232,-1.596768938483949,6.746086207917921e-05,-2.3445057850607e-06,1.8628094103190496,0.1754258498234229,0.43876804013156884,0.10940433037851481,-0.059748227115387874,0.00251305581232207,1.4741588454304257,-1.5707963267948966,0.0,-1.5968038136467797,0.0,0.0
22.003,933.3333129882812,0.0,1.3450380121384837,-1.5707963267948966,0.0,-1.5968038136467797,0.0,0.0,0.3481776096081914,0.0,0.0,0.0,0.0,0.0,1.3780602960706085,-1.5709044511351538,-0.00033018347130817517,-1.5968881149427299,4.6506222631161646e-05,-1.9523272905220764e-06,-0.334151715530745,0.4922074300392624,0.34251863530647425,0.056349688185742895,-0.02387316481974255,0.001042867550349603,1.270692580538264,-1.5707963267948966,0.0,-1.5968038136467797,0.0,0.0
22.102,933.3333129882812,0.0,1.3004650855195292,-1.5707963267948966,0.0,-1.5968038136467797,0.0,0.0,-0.8683126293419419,0.0,0.0,0.0,0.0,0.0,1.4259524545857214,-1.5774945764106094,0.001588019031176331,-1.5963540179861144,-0.00025854359274348675,1.0996205591656182e-05,0.9458518214409866,0.08446882019696664,0.13560210401535489,0.00740879763930275,0.002559013806403026,-0.0009275013754885255,1.0916722161053547,-1.5707963267948966,0.0,-1.5968038136467797,0.0,0.0
22.204,933.3333129882812,0.0,1.2177395131865065,-1.5707963267948966,0.0,-1.5968038136467797,0.0,0.0,-0.9331613373330518,0.0,0.0,0.0,0.0,0.0,1.2428548033205937,-1.5707566456946545,1.8542653264825833e-05,-1.5968006301009208,-2.021681036526834e-06,2.0491780152197e-08,-3.1415953167508834,-0.05489843183921784,-0.040336383511962254,-0.006110409860240145,0.0018627902865337687,-0.0011168517388816716,1.013974778308886,-1.5707963267948966,0.0,-1.5968038136467797,0.0,0.0
22.303,933.3333129882812,0.0,1.1250683300246296,-1.5707963267948966,0.0,-1.5968038136467797,0.0,0.0,-1.0786780756654528,0.0,0.0,0.0,0.0,0.0,1.1069222675929873,-1.563079284904174,-0.0025701522696028223,-1.597324607045394,0.00018243989598888512,-1.5985464334944176e-05,0.30142499442211557,0.06827358833121996,-0.06611967357583431,-0.027658573670802773,0.03303102471387386,0.0014727124783543066,1.074590353538996,-1.5707963267948966,0.0,-1.5968038136467797,0.0,0.0
22.403,933.3333129882812,0.0,1.0512185682957194,-1.5707963267948966,0.0,-1.5968038136467797,0.0,0.0,-0.7106061042944781,0.0,0.0,0.0,0.0,0.0,0.9893433725708526,-1.5745258175854435,-0.00019622700488048522,-1.5968560238515945,2.866021705117483e-05,-1.1145504254989225e-06,-0.7057039333041814,0.7398415971583349,-0.769624260260909,-0.21345700525700176,0.118714192272457,-0.004882344618266495,0.9580223818002186,-1.5707963267948966,0.0,-1.5968038136467797,0.0,0.0
22.502,933.3333129882812,0.0,0.9882110470872245,-1.5707963267948966,0.0,-1.5968038136467797,0.0,0.0,-0.6287053719170725,0.0,0.0,0.0,0.0,0.0,0.921013716376308,-1.5726051458072785,-0.0011519040362838883,-1.5969985029699136,8.839672741184617e-05,-3.073825814961018e-06,1.1483461404525157,-0.5327215337809061,0.5756792209807522,0.054448815345806804,0.04374546689504827,0.004597757247615756,0.7982307378943606,-1.5707963267948966,0.0,-1.5968038136467797,0.0,0.0
22.603,933.3333129882812,0.0,0.9114214015275666,-1.5707963267948966,0.0,-1.5968038136467797,0.0,0.0,-0.9526541447744103,0.0,0.0,0.0,0.0,0.0,0.8686676872541466,-1.5741096986651186,-0.00013972345204261435,-1.5970973062463556,0.0003937026916148516,5.132718179266794e-06,0.1476310866717816,-0.20359518658238385,0.193188102319329,0.05273408914368885,-0.02302587803833924,0.001698513948907774,0.7185613247568491,-1.5707963267948966,0.0,-1.5968038136467797,0.0,0.0
22.703,933.3333129882812,0.0,0.8297188742141604,-1.5707963267948966,0.0,-1.5968038136467797,0.0,0.0,-0.7042519804847077,0.0,0.0,0.0,0.0,0.0,0.8577163693775772,-1.5767468939345697,0.001507984798635645,-1.5963905032930485,-0.00022893395201802085,9.278015418964232e-06,0.15509596049678734,0.2240879781439482,-0.036945434591424006,-0.027950618412654386,0.01885882363890845,-0.001309135740663108,0.6998818273425906,-1.5707963267948966,0.0,-1.5968038136467797,0.0,0.0
22.803,933.3333129882812,0.0,0.749843724176948,-1.5707963267948966,0.0,-1.5968038136467797,0.0,0.0,-0.5885846639494691,0.0,0.0,0.0,0.0,0.0,0.7904580363105443,-1.5714591875902173,0.0007228305537463183,-1.5966474983382413,-4.16228761090666e-05,6.270514906400822e-06,-0.955203311871718,0.3824210442352405,-0.3982590962645371,-0.016044348185534175,-0.05431189973745231,-0.0030834521227290266,0.4766657626584265,-1.5707963267948966,0.0,-1.5968038136467797,0.0,0.0
22.903,933.3333129882812,0.0,0.6650998344145602,-1.5707963267948966,0.0,-1.5968038136467797,0.0,0.0,-0.7648821673717181,0.0,0.0,0.0,0.0,0.0,0.6986396987756645,-1.5714614512771439,-0.00033141173732752785,-1.5967979669398307,-3.8163147997503725e-05,-1.8600693841178964e-07,-0.3381384011035664,-0.10950557211182986,-0.7398186273939329,-0.15887025897267487,0.06376344180138671,-0.004588524088922397,0.5294795196947096,-1.5707963267948966,0.0,-1.5968038136467797,0.0,0.0
23.003,933.3333129882812,0.0,0.5906233499441473,-1.5707963267948966,0.0,-1.5968038136467797,0.0,0.0,-0.8383236703837714,0.0,0.0,0.0,0.0,0.0,0.5841408161332337,-1.5649815808708176,0.0010153673562212136,-1.5964002238310273,-0.0002495527745572813,1.3702454698746501e-05,0.09577740113377012,0.2930628350468349,-0.8974945418414912,-0.20392939665443197,0.10609360502462599,-0.0025211069332073807,0.46258947914159837,-1.5707963267948966,0.0,-1.5968038136467797,0.0,0.0
23.103,933.3333129882812,0.0,0.5161049671799427,-1.5707963267948966,0.0,-1.5968038136467797,0.0,0.0,-1.1202273172976662,0.0,0.0,0.0,0.0,0.0,0.4429005004845584,-1.5754466055323384,-0.0017881083836057614,-1.5969268639365906,-8.939049172675369e-06,-5.565473887818779e-08,-1.5384258700610924,-0.0136667643089874,-0.41532762858599115,-0.11781242928259936,0.0660695728578272,-0.002784082647582397,0.34264869877332826,-1.5707963267948966,0.0,-1.5968038136467797,0.0,0.0
23.203,933.3333129882812,0.0,0.4235648249387314,-1.5707963267948966,0.0,-1.5968038136467797,0.0,0.0,-1.052937920278499,0.0,0.0,0.0,0.0,0.0,0.38512911287920115,-1.570291524610272,0.00014560254594634658,-1.5968042253683925,8.754065213382701e-06,-3.223076476294585e-07,-2.9087119994355963,-0.09899265216257959,0.19452029872037072,0.06389027068711253,-0.03760158338855989,0.0015703467207044586,0.3222778582000236,-1.5707963267948966,0.0,-1.5968038136467797,0.0,0.0
23.303,933.3333129882812,0.0,0.34750567013431244,-1.5707963267948966,0.0,-1.5968038136467797,0.0,0.0,-0.7777774629337637,0.0,0.0,0.0,0.0,0.0,0.31350402786227893,-1.5630353427461876,-0.0007957663826734934,-1.597055361459187,0.00014647852503756642,-6.891458612468431e-06,0.1004873846139002,0.3481779857809471,-0.7272596923253373,-0.2864127886468525,0.17551183663711883,-0.009733749754509535,0.11873279626328981,-1.5707963267948966,0.0,-1.5968038136467797,0.0,0.0
23.403,933.3333129882812,0.0,0.27449014046596343,-1.5707963267948966,0.0,-1.5968038136467797,0.0,0.0,-0.5883816672343091,0.0,0.0,0.0,0.0,0.0,0.21559048025102107,-1.5755504688148516,-0.002520943086382503,-1.5971276662827825,0.00010246721979004564,-4.748781424855125e-06,-1.6836929185674812,-0.22220317581671506,-0.26953024483802684,-0.05796442933368519,0.02877378069965186,-0.0012089444475475595,0.17284140444008733,-1.5707963267948966,0.0,-1.5968038136467797,0.0,0.0
23.502,933.3333129882812,0.0,0.2044359041420174,-1.5707963267948966,0.0,-1.5968038136467797,0.0,0.0,-1.2103110508537132,0.0,0.0,0.0,0.0,0.0,0.20344688179918005,-1.5706494534607787,-0.0013040307417336973,-1.596826862237658,-0.0001783868489409848,-7.327323879117419e-06,0.39142539161788015,0.23191187937341023,-0.19145135510394745,-0.1331530361097828,0.10982735687291709,-0.0023237890628244767,0.1315010567196484,-1.5707963267948966,0.0,-1.5968038136467797,0.0,0.0
23.603,933.3333129882812,0.0,0.13136218387173315,-1.5707963267948966,0.0,-1.5968038136467797,0.0,0.0,-0.8174629903516456,0.0,0.0,0.0,0.0,0.0,0.10792286379837417,-1.5720119266744632,-0.0006087000570228619,-1.5968763970339335,2.0409332670309395e-05,-9.72517461636823e-07,-2.2770914152820483,0.08466409648389671,0.059494523570854996,0.009959220670595669,-0.0041795881613853,0.0001841635060698777,0.05302208328477841,-1.5707963267948966,0.0,-1.5968038136467797,0.0,0.0
23.702,933.3333129882812,0.0,0.07394642478015268,-1.5707963267948966,0.0,-1.5968038136467797,0.0,0.0,-0.6102920427515776,0.0,0.0,0.0,0.0,0.0,0.11501058407875424,-1.5718545338540395,-0.0007350519014176787,-1.597007291401511,0.00011292003766805736,-4.626320450848138e-06,0.09703655201953798,0.8531091006917402,-0.6597751903027294,-0.17846791215759317,0.09839476417547839,-0.003912461140631393,-0.13562103622311228,-1.5707963267948966,0.0,-1.5968038136467797,0.0,0.0
23.803,933.3333129882812,0.0,0.008550535461751885,-1.5707963267948966,0.0,-1.5968038136467797,0.0,0.0,-0.7364518909254676,0.0,0.0,0.0,0.0,0.0,-0.035544840723448504,-1.5697354565746635,3.2427826431672804e-05,-1.5965171366028819,-0.00036293732935211933,-5.637343135429672e-06,-2.1188438533065046,0.1881466052177545,-0.365860509891719,0.2251716849705287,-0.3162065371574641,-0.0006407410838507151,-0.1878080792737708,-1.5707963267948966,0.0,-1.5968038136467797,0.0,0.0
23.903,933.3333129882812,0.0,-0.07454800359084679,-1.5707963267948966,0.0,-1.5968038136467797,0.0,0.0,-0.614692799915705,0.0,0.0,0.0,0.0,0.0,-0.1211529071392914,-1.577229458724092,-0.0034771419731740713,-1.5973063643919267,0.00018340147204238744,-7.034732643898991e-06,0.22113468229786165,0.08748374325515332,0.018374814916732565,-0.08787915609800283,0.06802609744216755,-0.0004108279357436595,-0.36984440693020604,-1.5707963267948966,0.0,-1.5968038136467797,0.0,0.0
24.003,933.3333129882812,0.0,-0.1617332617775311,-1.5707963267948966,0.0,-1.5968038136467797,0.0,0.0,-0.7899950583142519,0.0,0.0,0.0,0.0,0.0,-0.14500326240041633,-1.5759853630208616,0.0003936754813385772,-1.596678124690777,-7.334039079467388e-05,3.459474386708496e-06,0.025988376354348783,-0.20373287201074095,0.9008585137724249,0.32038470401266217,-0.19195457603667473,0.009966136567051469,-0.4019998948156119,-1.5707963267948966,0.0,-1.5968038136467797,0.0,0.0
24.103,933.3333129882812,0.0,-0.25176007818509305,-1.5707963267948966,0.0,-1.5968038136467797,0.0,0.0,-0.7898419703768763,0.0,0.0,0.0,0.0,0.0,-0.24485845418342375,-1.5666552444578778,-0.001134151102771203,-1.5971400499818513,0.0001911026304138469,-8.494303282144495e-06,0.39503866871635873,-0.15260615454891543,-0.37672014844776236,-0.09875285947355318,0.053505132535915635,-0.002069187871758162,-0.4120999527259545,-1.5707963267948966,0.0,-1.5968038136467797,0.0,0.0
24.202,933.3333129882812,0.0,-0.33019778628739616,-1.5707963267948966,0.0,-1.5968038136467797,0.0,0.0,-0.821932637394474,0.0,0.0,0.0,0.0,0.0,-0.37381320824939995,-1.5722785090995801,-0.0006982143888286869,-1.5968799923014052,1.780155725234508e-05,-8.865985811832802e-07,-2.208962161959532,0.07934878481037003,0.041774548757253886,0.005325742214413273,-0.001657153938859245,7.739257634637197e-05,-0.6076697369933076,-1.5707963267948966,0.0,-1.5968038136467797,0.0,0.0
24.303,933.3333129882812,0.0,-0.4035404081015148,-1.5707963267948966,0.0,-1.5968038136467797,0.0,0.0,-0.5931477703744393,0.0,0.0,0.0,0.0,0.0,-0.4871808133502787,-1.5704818074701583,-4.0906363215809525e-05,-1.5968417759397626,2.664528918483353e-05,-1.0900574687610253e-06,-2.1273880730318058,0.05547134020753193,-0.21722151661588326,-0.06696022547251217,0.03863173154890536,-0.0016235433634787914,-0.6262980450927034,-1.5707963267948966,0.0,-1.5968038136467797,0.0,0.0
24.403,933.3333129882812,0.0,-0.47246459987542266,-1.5707963267948966,0.0,-1.5968038136467797,0.0,0.0,-0.4710848475098189,0.0,0.0,0.0,0.0,0.0,-0.48610369784739615,-1.5760012088293474,0.0011681647933557214,-1.596356814305259,-0.0003164742059130374,7.912001947591529e-06,-0.6714632051158418,0.45197791834960716,-0.9145589462632557,-0.17505049391253305,0.05006928438387433,-0.006160121507056758,-0.6213893608893649,-1.5707963267948966,0.0,-1.5968038136467797,0.0,0.0
24.503,933.3333129882812,0.0,-0.5481017894620734,-1.5707963267948966,0.0,-1.5968038136467797,0.0,0.0,-1.0621214711785023,0.0,0.0,0.0,0.0,0.0,-0.5535688919521009,-1.574825290050023,0.0002661800901358426,-1.5967281921192706,-4.24343323856681e-05,1.7973336598120528e-06,-0.06279200385950987,0.6634741213197677,-0.6477335742758815,-0.17429941590610346,0.09593227227353662,-0.0037859901171770514,-0.5997471829235989,-1.5707963267948966,0.0,-1.5968038136467797,0.0,0.0
24.603,933.3333129882812,0.0,-0.6334969096942249,-1.5707963267948966,0.0,-1.5968038136467797,0.0,0.0,-1.0491939850885643,0.0,0.0,0.0,0.0,0.0,-0.652497370254788,-1.568202541051214,0.0009378536990218143,-1.596757886365425,1.8930854831804697e-05,-7.380966494500048e-07,-0.3347856144492111,0.5589912543790704,0.45980727905930385,0.0813363685109234,-0.035784754086961815,0.0014392475445959667,-0.7103207392835656,-1.5707963267948966,0.0,-1.5968038136467797,0.0,0.0
24.703,933.3333129882812,0.0,-0.7016751653524338,-1.5707963267948966,0.0,-1.5968038136467797,0.0,0.0,-0.5000059059855149,0.0,0.0,0.0,0.0,0.0,-0.7640814230841271,-1.5621084295287857,-0.0005056874451182202,-1.5969143470794671,4.382425085277983e-05,-3.313804572944302e-06,0.5015808249699597,-0.436931990297041,1.289098331962893,0.2972517544149341,-0.1311040831908599,0.008198447789051861,-0.9019146886443721,-1.5707963267948966,0.0,-1.5968038136467797,0.0,0.0
24.803,933.3333129882812,0.0,-0.7756590285314058,-1.5707963267948966,0.0,-1.5968038136467797,0.0,0.0,-0.5296995831864227,0.0,0.0,0.0,0.0,0.0,-0.791052720181959,-1.5669877401199743,0.00024637131784636306,-1.596686513648211,-7.468408917780344e-05,4.514369628916886e-06,-0.552242238255078,-0.014478130664890966,-0.5971416362057008,-0.2423082277683207,0.1513442656006518,-0.008304720920262283,-0.9469143519662943,-1.5707963267948966,0.0,-1.5968038136467797,0.0,0.0
24.902,933.3333129882812,0.0,-0.8513278549856444,-1.5707963267948966,0.0,-1.5968038136467797,0.0,0.0,-0.7119925186187137,0.0,0.0,0.0,0.0,0.0,-0.8772850107513704,-1.5652923717700298,-0.0020733962644514346,-1.5971540315775743,7.179361500017407e-05,-1.2275448210579352e-05,-0.11448542535654743,-0.23578617954823025,-0.009378969883932444,0.03887293071988248,-0.03430900081959723,0.0016395870885262424,-1.0306413481173293,-1.5707963267948966,0.0,-1.5968038136467797,0.0,0.0
25.003,933.3333129882812,0.0,-0.9406515974227361,-1.5707963267948966,0.0,-1.5968038136467797,0.0,0.0,-1.0014388961406993,0.0,0.0,0.0,0.0,0.0,-0.9523613860934673,-1.569688851255587,0.0017653946623769905,-1.5965854466848424,4.751938810341158e-08,8.071700790165528e-06,-1.016040230918352,-0.12130717906781265,-0.48827064544736637,0.012837523564861278,-0.0852085631240066,-0.0022101943192109385,-1.1268369156097935,-1.5707963267948966,0.0,-1.5968038136467797,0.0,0.0
25.103,933.3333129882812,0.0,-1.033184272596257,-1.5707963267948966,0.0,-1.5968038136467797,0.0,0.0,-0.9084663618123829,0.0,0.0,0.0,0.0,0.0,-1.089628365264285,-1.5687531496065878,0.0018221500321802392,-1.5967413747666666,0.00015246164867137988,5.291516412898245e-06,0.2931102393142383,0.014421209757779725,0.7061098656333367,0.16188364239085634,-0.07040524904674664,0.004513172754681318,-1.1208171603564747,-1.5707963267948966,0.0,-1.5968038136467797,0.0,0.0
25.203,933.3333129882812,0.0,-1.106749981150216,-1.5707963267948966,0.0,-1.5968038136467797,0.0,0.0,-0.5204978712652863,0.0,0.0,0.0,0.0,0.0,-1.2310302349225875,-1.5750376771469567,0.00022599062586111664,-1.5967392442377946,-3.6328640598780044e-05,1.55445128881814e-06,-0.7064789131813944,0.6737945363340972,-0.7179137279538677,-0.19458654485248644,0.10737145629467326,-0.004280039528826051,-1.2752759837779126,-1.5707963267948966,0.0,-1.5968038136467797,0.0,0.0
25.303,933.3333129882812,0.0,-1.1772251864057104,-1.5707963267948966,0.0,-1.5968038136467797,0.0,0.0,-0.4750176707185624,0.0,0.0,0.0,0.0,0.0,-1.2183317502128717,-1.5660395216138516,-0.0002991680800910508,-1.5968855849396943,4.55707515380516e-05,-1.7978517766317931e-06,0.41742383596950616,0.16328320012272024,-0.8917870547303153,-0.3341912634729327,0.20332981922451426,-0.01086023776728863,-1.4507555731333337,-1.5707963267948966,0.0,-1.5968038136467797,0.0,0.0
25.403,933.3333129882812,0.0,-1.2543351031037702,-1.5707963267948966,0.0,-1.5968038136467797,0.0,0.0,-0.872356812559613,0.0,0.0,0.0,0.0,0.0,-1.248409624722281,-1.5685788457132421,0.0011898795691013873,-1.5966477646543502,-5.070635390094828e-05,2.343046676663931e-06,2.5505011201695074,0.22464779124983966,0.4280903620570052,0.10728332230734845,-0.05719836272374549,0.002529490429080301,-1.385083597881709,-1.5707963267948966,0.0,-1.5968038136467797,0.0,0.0
25.503,1000.0,0.0,-1.2877652041271004,-1.5707963267948966,0.0,-1.5968038136467797,0.0,0.0,0.9602362223588464,0.0,0.0,0.0,0.0,0.0,-1.3859909234807555,-1.569664217015504,0.0005930270679259878,-1.5966047546027455,-0.0001595472436243744,1.695362174195135e-06,-0.7999011394827745,0.3556764820147151,-0.5602525940503592,-0.08324253438352604,-0.0048100611207655105,-0.004272115584285765,-1.127538696518402,-1.5707963267948966,0.0,-1.5968038136467797,0.0,0.0
25.603,1000.0,0.0,-1.210334895134138,-1.5707963267948966,0.0,-1.5968038136467797,0.0,0.0,1.0033545093945078,0.0,0.0,0.0,0.0,0.0,-1.371090537181762,-1.5719288360484527,-0.00047636575543469,-1.5968592196449025,1.4431851430254447e-05,-1.0975550509066862e-06,-0.2530398348549585,-0.8360579454963989,0.30307022876453926,0.16044260592501447,-0.10292019059206597,0.004209046780201049,-0.9852199564467514,-1.5707963267948966,0.0,-1.5968038136467797,0.0,0.0
25.703,1000.0,0.0,-1.1296191037370091,-1.5707963267948966,0.0,-1.5968038136467797,0.0,0.0,1.0635366228769467,0.0,0.0,0.0,0.0,0.0,-1.1784048402020766,-1.57080884365202,6.984017134569064e-06,-1.5968016953653568,-5.175788925717218e-07,7.834399350052486e-08,3.1415950504347743,0.05971206638121164,0.044943735421583406,0.007318090476604381,-0.002529886522277585,0.0009514340650795233,-0.8979238641847305,-1.5707963267948966,0.0,-1.5968038136467797,0.0,0.0
25.802,1000.0,0.0,-1.0456799901396794,-1.5707963267948966,0.0,-1.5968038136467797,0.0,0.0,0.7749147314967625,0.0,0.0,0.0,0.0,0.0,-0.9286963369099414,-1.5709067148220803,-7.382890790527718e-05,-1.5968159432771887,4.82655888682083e-06,-2.1477534308052413e-07,3.043620017091849,0.04533343911284606,0.08481464830927024,0.02081180289004762,-0.010740883417669145,0.00046055164350710266,-0.8266533972977481,-1.5707963267948966,0.0,-1.5968038136467797,0.0,0.0
25.902,1000.0,0.0,-0.9712150817871761,-1.5707963267948966,0.0,-1.5968038136467797,0.0,0.0,0.9481922962658565,0.0,0.0,0.0,0.0,0.0,-0.9547453147432517,-1.5710061838887948,-0.00013311589808131103,-1.5968237996024044,7.26878632968241e-06,-3.0292738004606276e-07,-3.1021171493837665,-0.10339200286868715,-0.1398301884962351,-0.03198633319726303,0.01608518921726676,-0.0006840820800343157,-0.8999979396311559,-1.5707963267948966,0.0,-1.5968038136467797,0.0,0.0
26.002,1000.0,0.0,-0.8943100062202927,-1.5707963267948966,0.0,-1.5968038136467797,0.0,0.0,0.7424547385530147,0.0,0.0,0.0,0.0,0.0,-0.8797941079723887,-1.570993800189726,-9.945927329065112e-05,-1.5968219353896413,9.718367983638306e-06,-1.6405173817528798e-07,3.1415937188542293,0.1322696489314467,0.10113536499663009,0.01243561302507089,-0.00041607955157390333,0.005127625395703345,-0.7702803910177729,-1.5707963267948966,0.0,-1.5968038136467797,0.0,0.0
26.103,1000.0,0.0,-0.8160078563710398,-1.5707963267948966,0.0,-1.5968038136467797,0.0,0.0,0.6584153532031539,0.0,0.0,0.0,0.0,0.0,-0.8339086413386504,-1.5775525001643187,0.0001903482360696595,-1.5969317907846072,0.00013761407046411904,-3.8134855771399896e-06,-0.3914074818595493,-0.7481222305147455,1.2194003436002658,0.4955656761738523,-0.32416945539582825,0.013118499543432246,-0.5416940313573175,-1.5707963267948966,0.0,-1.5968038136467797,0.0,0.0
26.203,1000.0,0.0,-0.7322183572938128,-1.5707963267948966,0.0,-1.5968038136467797,0.0,0.0,0.6792602722489264,0.0,0.0,0.0,0.0,0.0,-0.6690407937883057,-1.5726056784394964,0.0003734754109721843,-1.5969692081979228,0.0002798048313752894,4.829924106360811e-06,-0.8949208629640387,-0.692877150808951,-0.14647788798550684,0.18261533614695763,-0.18730825875135437,0.0034712609124582547,-0.6072556199733151,-1.5707963267948966,0.0,-1.5968038136467797,0.0,0.0
26.303,1000.0,0.0,-0.656432391012082,-1.5707963267948966,0.0,-1.5968038136467797,0.0,0.0,1.002088244405778,0.0,0.0,0.0,0.0,0.0,-0.6646744080230663,-1.568440627652667,0.00048779446158141285,-1.596684383119339,-0.00012019593388119655,-2.162975683920803e-06,-0.49678623619094925,0.7360106399302558,-0.29391411448927873,-0.08434642297774228,0.02510216372854368,-0.003740305721286209,-0.6103191788357961,-1.5707963267948966,0.0,-1.5968038136467797,0.0,0.0
