7cmdehdrb/project_th/tune/rtde_tune/data/rtde_log_elbow.csv
Time,Stiffness,Damping,R_shoulder_pan_p,R_shoulder_lift_p,R_elbow_p,R_wrist_1_p,R_wrist_2_p,R_wrist_3_p,R_shoulder_pan_v,R_shoulder_lift_v,R_elbow_v,R_wrist_1_v,R_wrist_2_v,R_wrist_3_v,S_shoulder_pan_p,S_shoulder_lift_p,S_elbow_p,S_wrist_1_p,S_wrist_2_p,S_wrist_3_p,S_shoulder_pan_v,S_shoulder_lift_v,S_elbow_v,S_wrist_1_v,S_wrist_2_v,S_wrist_3_v,C_shoulder_pan_p,C_shoulder_lift_p,C_elbow_p,C_wrist_1_p,C_wrist_2_p,C_wrist_3_p
5.102,600.0,40.0,0.0,-1.5707963267948966,-1.262198533973784,-1.5707963267948966,0.0,0.0,0.0,0.0,0.0,0.0,0.0,0.0,3.4376535412747606e-06,-1.5723622655158631,-1.264420682353892,-1.5734223367877693,3.397888329338514e-05,-2.803365779373665e-08,-4.284614382498181e-05,0.01365718629173882,0.019367845269385064,0.022902877446680407,-0.00029267119588244404,3.2061795819949243e-07,0.0,-1.5707963267948966,-1.0092069047398877,-1.5707963267948966,0.0,0.0
5.202,600.0,40.0,0.0,-1.5707963267948966,-1.2416086028789612,-1.5707963267948966,0.0,0.0,0.0,0.0,0.4220614728166902,0.0,0.0,0.0,8.714564799777956e-05,-1.5766290490563337,-1.22414263455337,-1.5755102550823914,4.8085479270682526e-05,-1.0765753833685292e-06,-0.0013197026905332706,-0.1749099622307609,2.40789523538238,0.07087944152359206,-0.0007026045734752769,1.6665221411459653e-05,0.0,-1.5707963267948966,-1.1121673883469039,-1.5707963267948966,0.0,0.0
5.303,600.0,40.0,0.0,-1.5707963267948966,-1.187724186590338,-1.5707963267948966,0.0,0.0,0.0,0.0,0.7436571475883025,0.0,0.0,0.0,5.75697529319241e-06,-1.5729046182718578,-1.1107992975079246,-1.5723161928290048,3.260425028837109e-05,7.746352825418468e-08,-0.0021591862018831894,0.04785116664027175,0.9923440893290995,0.04331875358701191,-0.000626513457816157,7.843496236910846e-06,0.0,-1.5707963267948966,-0.9476177975661169,-1.5707963267948966,0.0,0.0
5.402,600.0,40.0,0.0,-1.5707963267948966,-1.1049468850917448,-1.5707963267948966,0.0,0.0,0.0,0.0,0.7556943304449049,0.0,0.0,0.0,0.00015402843393427502,-1.5732692050250896,-1.0731476591744389,-1.5734170104655891,4.067487674807216e-05,-5.164726560163385e-07,-0.004432028524920665,0.058965777903554985,1.6191039384400618,0.06749211283766064,-0.0008075279839564762,1.9907153530310292e-05,0.0,-1.5707963267948966,-0.8426620189992622,-1.5707963267948966,0.0,0.0
5.502,600.0,40.0,0.0,-1.5707963267948966,-1.0210795732072429,-1.5707963267948966,0.0,0.0,0.0,0.0,0.5442814626813133,0.0,0.0,0.0,-9.480863233469283e-05,-1.5713404106055997,-0.9954182427544052,-1.5713310895417845,2.6827958888998022e-05,3.4868760360336864e-07,-0.0021087099365504807,0.024061747833839187,0.4381498205740206,0.024743562845980706,-0.0005061696229171466,2.276077029966479e-06,0.0,-1.5707963267948966,-0.8017390725277087,-1.5707963267948966,0.0,0.0
5.602,600.0,40.0,0.0,-1.5707963267948966,-0.9338371304071771,-1.5707963267948966,0.0,0.0,0.0,0.0,1.0874671904080744,0.0,0.0,0.0,6.795278860163945e-05,-1.5760004098810205,-0.9194671521522718,-1.5720698504281725,3.219241649892006e-05,1.8827764410690736e-08,-0.006487374590905707,0.10504043300441894,0.9975347234517183,0.04658812088140964,-0.0006778655234389872,1.1138094422530435e-05,0.0,-1.5707963267948966,-0.8767791516112381,-1.5707963267948966,0.0,0.0
5.703,600.0,40.0,0.0,-1.5707963267948966,-0.8613887773292532,-1.5707963267948966,0.0,0.0,0.0,0.0,0.9418687515525471,0.0,0.0,0.0,-1.1484773498026103e-05,-1.576726653910285,-0.8654860752788562,-1.5715092550187109,2.8027911348024913e-05,2.472112973428172e-07,-0.00505555828004093,0.1110964113889887,0.5728518094304423,0.03139257519044606,-0.0005779543303716825,4.899706314657187e-06,0.0,-1.5707963267948966,-0.7820173861941547,-1.5707963267948966,0.0,0.0
5.804,600.0,40.0,0.0,-1.5707963267948966,-0.7816634897261618,-1.5707963267948966,0.0,0.0,0.0,0.0,1.1077408927612873,0.0,0.0,0.0,-7.951653834172398e-05,-1.5732955703198814,-0.8463131796430488,-1.5714594539063262,2.5449077326062098e-05,2.0606664699504293e-07,0.0013357963498511606,0.038230318271224764,0.1521985577440788,0.010823864812463032,-0.00039219552839100925,-2.7591234365024996e-06,0.0,-1.5707963267948966,-0.6203040090519955,-1.5707963267948966,0.0,0.0
5.903,600.0,40.0,0.0,-1.5707963267948966,-0.6929117498571227,-1.5707963267948966,0.0,0.0,0.0,0.0,0.6225414954773497,0.0,0.0,0.0,-0.00012297839594064002,-1.575327828547721,-0.7433186868565695,-1.5711593156514745,2.286903233302256e-05,3.309033707551942e-07,-0.0034513347978841723,0.08765993632839728,0.377557113399347,0.02183430486523213,-0.00047971213177707767,1.534716371541526e-06,0.0,-1.5707963267948966,-0.5643847354878722,-1.5707963267948966,0.0,0.0
6.002,600.0,40.0,0.0,-1.5707963267948966,-0.6194323168007845,-1.5707963267948966,0.0,0.0,0.0,0.0,1.1514371672658172,0.0,0.0,0.0,0.0004907648679774288,-1.5763193234215573,-0.6537027169641579,-1.573582126453174,3.895394055623558e-05,-7.770417637338288e-07,-0.005420756728085656,0.0999775057784477,2.644470226600735,0.06219315879889193,-0.0005743700510403154,2.3802378131256338e-05,0.0,-1.5707963267948966,-0.5520160853116932,-1.5707963267948966,0.0,0.0
6.103,600.0,40.0,0.0,-1.5707963267948966,-0.5553911239648546,-1.5707963267948966,0.0,0.0,0.0,0.0,0.534557930773323,0.0,0.0,0.0,9.060284851199436e-05,-1.5758793692094764,-0.5371411494784335,-1.5724220534823354,2.3031306520965267e-05,-4.604795935218046e-07,0.002893136233403564,-0.2853428636789132,2.4426494876079143,0.03968945591010077,-0.0002023324284657254,2.018770667679242e-05,0.0,-1.5707963267948966,-0.45821431174436894,-1.5707963267948966,0.0,0.0
6.202,600.0,40.0,0.0,-1.5707963267948966,-0.4654782017864214,-1.5707963267948966,0.0,0.0,0.0,0.0,0.8904236310358323,0.0,0.0,0.0,-0.000680955336459562,-1.5680161197749083,-0.517324035174936,-1.5700374590422785,6.5868912593490014e-06,6.604924645432551e-07,0.009472542545545899,-0.04115440673029372,-0.20114364693042502,-0.011238667756702386,-0.00010591889372484988,-1.0069029447238645e-05,0.0,-1.5707963267948966,-0.2979320219882472,-1.5707963267948966,0.0,0.0
6.302,600.0,40.0,0.0,-1.5707963267948966,-0.381372404887542,-1.5707963267948966,0.0,0.0,0.0,0.0,0.9607113816151299,0.0,0.0,0.0,-5.541259387124138e-05,-1.5730151394570961,-0.4179808361114962,-1.5709727612171143,1.979738997409061e-05,4.0088063479547283e-07,0.0011537601867428625,0.37776637128199997,0.17070972442802881,0.00358984752266974,-0.00028432463056370257,-4.690709672600216e-06,0.0,-1.5707963267948966,-0.09033499690438884,-1.5707963267948966,0.0,0.0
6.402,600.0,40.0,0.0,-1.5707963267948966,-0.2904009976728936,-1.5707963267948966,0.0,0.0,0.0,0.0,0.8712695331785288,0.0,0.0,0.0,-0.00015949724433535412,-1.5693706035053228,-0.341342783106177,-1.5712671736756225,1.2941118605089888e-05,1.60546280650975e-08,0.0028357705991962265,-0.013641020071684199,1.1388514385341653,0.012985159436900642,-0.0001803076603790626,4.131010930329594e-06,0.0,-1.5707963267948966,-0.24369606161756135,-1.5707963267948966,0.0,0.0
6.502,600.0,40.0,0.0,-1.5707963267948966,-0.2168586552852112,-1.5707963267948966,0.0,0.0,0.0,0.0,0.5465923332548615,0.0,0.0,0.0,-0.00041974130054489036,-1.569822808258418,-0.2534740965602095,-1.5707463925244576,7.966293478892999e-06,2.7294048017766786e-07,-0.03044164358896283,0.06013807644827264,0.7406019962285797,0.03849478681222645,-0.000601712315034725,1.2190576611844535e-05,0.0,-1.5707963267948966,0.009476008339981024,-1.5707963267948966,0.0,0.0
6.602,600.0,40.0,0.0,-1.5707963267948966,-0.1312855974873539,-1.5707963267948966,0.0,0.0,0.0,0.0,0.9110789644736418,0.0,0.0,0.0,0.0011928459768546535,-1.5770555543049098,-0.16934894897953923,-1.5723506807651213,2.4611713176642906e-05,-5.097362166864422e-07,-0.022057573471932445,0.11691648363524786,2.0438042295874506,0.03617132856394363,-0.00038785414018968536,1.6511543899063305e-05,0.0,-1.5707963267948966,0.07629488223732844,-1.5707963267948966,0.0,0.0
6.702,600.0,40.0,0.0,-1.5707963267948966,-0.055674827906526225,-1.5707963267948966,0.0,0.0,0.0,0.0,0.6927222822764738,0.0,0.0,0.0,0.0010009152210254239,-1.574539399707003,-0.08437943785288086,-1.5719631908265148,1.8742365964613788e-05,-3.9536326211761173e-07,-0.034960106255418774,0.10423546759780727,2.1516594574165153,0.04064797752069073,-0.0004581545709609968,2.0083898416253753e-05,0.0,-1.5707963267948966,0.11011925202643102,-1.5707963267948966,0.0,0.0
6.802,600.0,40.0,0.0,-1.5707963267948966,0.027625702596661875,-1.5707963267948966,0.0,0.0,0.0,0.0,0.7441736718994688,0.0,0.0,0.0,0.0011937808140165956,-1.574771627354058,-0.02023460641625958,-1.5720827667594595,1.542815146983269e-05,-6.303103819415414e-07,-0.01085305243383192,-0.11601190768148882,2.4645100454158295,0.029971562367050217,-7.460791178248693e-05,2.1402081069884085e-05,0.0,-1.5707963267948966,0.18800340800152374,-1.5707963267948966,0.0,0.0
6.902,600.0,40.0,0.0,-1.5707963267948966,0.10862737959800098,-1.5707963267948966,0.0,0.0,0.0,0.0,1.0830309376717284,0.0,0.0,0.0,0.0012142445022208725,-1.5734273967938404,0.0943299065022848,-1.5717558637356521,1.3129014177726429e-05,-4.1931733926615375e-07,-0.037541167082517916,0.08596329465455664,2.275410960634208,0.03583419317588561,-0.0003465523217714206,2.1478041059319366e-05,0.0,-1.5707963267948966,0.29316903909434944,-1.5707963267948966,0.0,0.0
7.002,600.0,40.0,0.0,-1.5707963267948966,0.1874902944986293,-1.5707963267948966,0.0,0.0,0.0,0.0,0.6808751419323386,0.0,0.0,0.0,-0.00016222965021451866,-1.5702899267136181,0.1456177535324385,-1.5705778144274556,-4.015997631627543e-06,8.140681155538118e-08,-0.0006531539762625877,0.005103521187094877,0.9804892940527207,0.003225147637106429,4.668761634566811e-05,3.7002323517520567e-06,0.0,-1.5707963267948966,0.43833796164205524,-1.5707963267948966,0.0,0.0
7.102,600.0,40.0,0.0,-1.5707963267948966,0.2723667494790767,-1.5707963267948966,0.0,0.0,0.0,0.0,0.8728572411845449,0.0,0.0,0.0,-0.0012300922612642831,-1.5676564598696932,0.2198257552668445,-1.5692020254083208,-1.97743226005435e-05,6.891251492729951e-07,-0.008715635233191202,-0.0006509432794797804,-0.12471109009271902,-0.001308527166742133,-4.5849039193341526e-05,-2.2048397769346648e-06,0.0,-1.5707963267948966,0.42617932395746555,-1.5707963267948966,0.0,0.0
7.203,600.0,40.0,0.0,-1.5707963267948966,0.35196296112049186,-1.5707963267948966,0.0,0.0,0.0,0.0,1.0211658372739274,0.0,0.0,0.0,-0.0003321161486373403,-1.5663539077805355,0.329861396304141,-1.5694365167423021,-1.2081187928382666e-05,6.232918038753073e-07,0.004876916346950857,0.36114751371060577,-0.05854273476439589,-0.020774741258408884,0.00017303586846386803,-1.0210034431773342e-05,0.0,-1.5707963267948966,0.6104360793663107,-1.5707963267948966,0.0,0.0
7.302,600.0,40.0,0.0,-1.5707963267948966,0.43109877068878866,-1.5707963267948966,0.0,0.0,0.0,0.0,0.7579145324248258,0.0,0.0,0.0,0.00011407582422390504,-1.5705830075915812,0.41489629635793923,-1.5705142980354572,-1.0265649700753482e-05,-6.451887397801038e-08,-0.0023675411064790607,0.008629369619818649,1.3710560492456456,0.004540400455935475,0.00014105636546857063,6.92896163493731e-06,0.0,-1.5707963267948966,0.4992840000264369,-1.5707963267948966,0.0,0.0
7.402,600.0,40.0,0.0,-1.5707963267948966,0.5142324470493166,-1.5707963267948966,0.0,0.0,0.0,0.0,0.588891442112044,0.0,0.0,0.0,-0.00019682132347751018,-1.5634538585114937,0.5028414655614624,-1.5690671362991082,-1.7432743413577834e-05,6.85135522771577e-07,0.002502074954163347,0.44193653603849065,-0.25595652888081327,-0.02752533655370395,0.00024076071817411232,-1.161695119423389e-05,0.0,-1.5707963267948966,0.643815405377523,-1.5707963267948966,0.0,0.0
7.503,600.0,40.0,0.0,-1.5707963267948966,0.5914105728053964,-1.5707963267948966,0.0,0.0,0.0,0.0,0.7295304857896816,0.0,0.0,0.0,6.187394542516727e-05,-1.5714665112832151,0.5564059241718488,-1.570086194890227,-1.6297265005233313e-05,5.1472953578933674e-08,-0.012257945850551677,0.046362176630051634,0.8695954659989029,0.015133516924105353,1.7309011021531818e-05,1.0068604794629524e-05,0.0,-1.5707963267948966,0.6994057122600196,-1.5707963267948966,0.0,0.0
7.602,600.0,40.0,0.0,-1.5707963267948966,0.6615452908027023,-1.5707963267948966,0.0,0.0,0.0,0.0,0.5982854862482062,0.0,0.0,0.0,-0.0001862063411304117,-1.570098045957078,0.5979791337895034,-1.569381256149683,-2.3458070202147482e-05,3.2539247453757984e-07,-0.009187327355474121,0.02543985255476573,0.37410176175351006,0.004654476857199289,0.00011133088601319477,5.4325020950416195e-06,0.0,-1.5707963267948966,0.8149829904868565,-1.5707963267948966,0.0,0.0
7.703,600.0,40.0,0.0,-1.5707963267948966,0.7279664080186503,-1.5707963267948966,0.0,0.0,0.0,0.0,0.6851217167953999,0.0,0.0,0.0,9.99030738719648e-05,-1.5705389322755405,0.6670625311515677,-1.570275146169568,-1.8631411755624034e-05,-1.2136107104875695e-07,-0.005115344686067258,0.015783595586490996,1.1734279247569366,0.009042267259551566,0.0001641575811872489,9.766344585230939e-06,0.0,-1.5707963267948966,0.8362719171705948,-1.5707963267948966,0.0,0.0
7.802,600.0,40.0,0.0,-1.5707963267948966,0.797199002906435,-1.5707963267948966,0.0,0.0,0.0,0.0,0.47518258490185183,0.0,0.0,0.0,-2.5239815022145595e-05,-1.5655456383896964,0.7856748658347076,-1.5695370510734525,-2.426593826579345e-05,1.8464469119253457e-07,0.002261669009878102,0.12440179722161994,1.1016365586194525,-0.010901169304886386,0.0004028784389009217,2.7984251370681453e-06,0.0,-1.5707963267948966,1.0237043910038528,-1.5707963267948966,0.0,0.0
7.903,600.0,40.0,0.0,-1.5707963267948966,0.8807577356463812,-1.5707963267948966,0.0,0.0,0.0,0.0,0.9865401377358923,0.0,0.0,0.0,8.331340811563797e-06,-1.5764013487831319,0.8598638759015899,-1.5708811484756156,-2.3799310066951207e-05,-6.194990109696239e-07,0.004624507972557492,-0.504998226570263,2.78159505954837,0.022434144450069648,0.0004459830275229127,2.399416262778693e-05,0.0,-1.5707963267948966,1.1129536096812624,-1.5707963267948966,0.0,0.0
8.002,600.0,40.0,0.0,-1.5707963267948966,0.9647857216998489,-1.5707963267948966,0.0,0.0,0.0,0.0,0.5720732169725795,0.0,0.0,0.0,-4.318747105850415e-05,-1.5715990035474465,0.9456375035522625,-1.569315209754649,-2.9884500682422866e-05,1.7277557774869908e-07,-0.005460210003218958,0.040952817919342334,1.0334652939307405,0.007057071561452193,0.00024160070948058218,9.927738990495423e-06,0.0,-1.5707963267948966,1.164142438865589,-1.5707963267948966,0.0,0.0
8.102,600.0,40.0,0.0,-1.5707963267948966,1.044490435835484,-1.5707963267948966,0.0,0.0,0.0,0.0,1.0646349645059638,0.0,0.0,0.0,-2.643093511326891e-05,-1.5775980402189589,1.0296826730764463,-1.570648255038288,-2.6660570583269874e-05,-5.470670415064083e-07,0.005080858310396683,-0.3988794463509574,2.5761236593332684,0.020425754803500017,0.0004222958806041973,2.1559249267364018e-05,0.0,-1.5707963267948966,1.241570499035831,-1.5707963267948966,0.0,0.0
8.202,600.0,40.0,0.0,-1.5707963267948966,1.1366244971778243,-1.5707963267948966,0.0,0.0,0.0,0.0,1.161705861927219,0.0,0.0,0.0,-0.00012742082301730526,-1.5712558552409899,1.046015773462875,-1.5685494177831967,-3.765407282422541e-05,4.4543515733684103e-07,-0.0003261411685808348,0.014210660866176441,-0.03447155351463294,-0.026711643052738467,0.000519359129773366,-3.7321991436147096e-06,0.0,-1.5707963267948966,1.1873320327294086,-1.5707963267948966,0.0,0.0
8.302,600.0,40.0,0.0,-1.5707963267948966,1.2106972578602302,-1.5707963267948966,0.0,0.0,0.0,0.0,0.7492198423403521,0.0,0.0,0.0,2.6351401133692752e-05,-1.5682142589600103,1.184182701345058,-1.5685701904396994,-3.609539456568622e-05,4.548035793152521e-07,0.0005139870995305531,0.3260979169201819,0.45529641680492766,-0.02886074955399976,0.0005240257084090657,-5.090879738115087e-06,0.0,-1.5707963267948966,1.3343621473767648,-1.5707963267948966,0.0,0.0
8.402,600.0,40.0,0.0,-1.5707963267948966,1.2906849481135672,-1.5707963267948966,0.0,0.0,0.0,0.0,1.1331583618379364,0.0,0.0,0.0,-0.0002288983543447587,-1.5629048478527738,1.2261261569332609,-1.5679625902369978,-4.4311646392855674e-05,6.257604781340706e-07,0.0037518558821428016,-0.11694606969048295,0.2231835852825141,-0.03930984310265599,0.0006511650578605973,-7.903996534768873e-06,0.0,-1.5707963267948966,1.3948161952052447,-1.5707963267948966,0.0,0.0
8.502,600.0,46.66666793823242,0.0,-1.5707963267948966,1.338966126197473,-1.5707963267948966,0.0,0.0,0.0,0.0,-0.4870649609862784,0.0,0.0,0.0,-7.393618856442343e-05,-1.5672475314843115,1.3517300218471586,-1.5688357076003803,-3.889265241603695e-05,2.3836665908686245e-07,-0.0005093431148518556,-0.035401367080909685,1.20437984873611,-0.0024749967956461806,0.0004179002994153593,8.181796042741377e-06,0.0,-1.5707963267948966,1.0607506903542454,-1.5707963267948966,0.0,0.0
8.602,600.0,46.66666793823242,0.0,-1.5707963267948966,1.2539447255462575,-1.5707963267948966,0.0,0.0,0.0,0.0,-0.7600946576640599,0.0,0.0,0.0,-3.564975720945079e-05,-1.5671371434571277,1.4544916877753375,-1.5696664807024305,-3.652829640730936e-05,-1.1947003196192823e-07,-0.00017357615661983203,-0.029835202277454356,1.8337314196409102,0.016756911264995802,0.00036742289625747764,1.3915731900058327e-05,0.0,-1.5707963267948966,1.0206964620805945,-1.5707963267948966,0.0,0.0
8.703,600.0,46.66666793823242,0.0,-1.5707963267948966,1.1687368678733545,-1.5707963267948966,0.0,0.0,0.0,0.0,-0.792435287955713,0.0,0.0,0.0,-0.00016453509532492644,-1.5662403239600435,1.320282616747176,-1.5658119544987044,-4.7572157571313004e-05,1.2804274301800773e-06,0.0024792620145795106,-0.0590336801889736,-3.014801418303884,-0.06417480032126308,0.0005999196227111004,-1.6564734178143992e-05,0.0,-1.5707963267948966,0.9268935241768197,-1.5707963267948966,0.0,0.0
8.802,600.0,46.66666793823242,0.0,-1.5707963267948966,1.0947819661120723,-1.5707963267948966,0.0,0.0,0.0,0.0,-0.6468246359790196,0.0,0.0,0.0,-0.00017417237701036002,-1.5676934778088454,1.1646024752205228,-1.5673186378854167,-4.1875026294673614e-05,7.19945734661389e-07,0.0013263915421031678,-0.057581146357363146,-3.0770727824926616,-0.07532420744866387,0.0007407488295112515,-1.8580900445276005e-05,0.0,-1.5707963267948966,0.965575588771231,-1.5707963267948966,0.0,0.0
8.902,600.0,46.66666793823242,0.0,-1.5707963267948966,1.009854209981758,-1.5707963267948966,0.0,0.0,0.0,0.0,-1.1859349612398404,0.0,0.0,0.0,0.0001277564733159478,-1.57083161367934,1.084218885879089,-1.5707426640989315,-2.9722273226585465e-05,-5.673415368141686e-07,0.0006797554185416565,-0.009811102100608727,-0.3181523425184169,-0.013065051148711117,0.0004070430415796888,2.5490349394415755e-06,0.0,-1.5707963267948966,0.879838959552745,-1.5707963267948966,0.0,0.0
9.002,600.0,46.66666793823242,0.0,-1.5707963267948966,0.9265021270434941,-1.5707963267948966,0.0,0.0,0.0,0.0,-0.8827256797175705,0.0,0.0,0.0,-0.00019075616264874047,-1.5686938942723336,0.9648623974083538,-1.5681570009965735,-3.692689688363502e-05,4.1754151926437663e-07,0.007630449103848952,-0.0613555821524944,-2.4441336672834155,-0.07620077027670664,0.000618911095178984,-2.1108684721764394e-05,0.0,-1.5707963267948966,0.782230186330485,-1.5707963267948966,0.0,0.0
9.102,600.0,46.66666793823242,0.0,-1.5707963267948966,0.8426839593619855,-1.5707963267948966,0.0,0.0,0.0,0.0,-1.1645506890459556,0.0,0.0,0.0,-9.492243923393716e-05,-1.569280588660478,0.8678394441551319,-1.569057815235293,-3.248579049690243e-05,1.069873294675824e-07,0.005156716269423258,-0.04382957701241354,-1.7281485340119558,-0.049750483195445824,0.0005158967602819378,-1.202165021030249e-05,0.0,-1.5707963267948966,0.683943131265333,-1.5707963267948966,0.0,0.0
9.203,600.0,46.66666793823242,0.0,-1.5707963267948966,0.7534413754599587,-1.5707963267948966,0.0,0.0,0.0,0.0,-0.9443642764175505,0.0,0.0,0.0,0.00018833841419378097,-1.5706473229319067,0.7963052062208951,-1.5705706238925123,-2.540690058510456e-05,-4.2202627750113007e-07,0.002702274968218151,-0.02083011836432572,-0.4259913583543456,-0.02085606754019718,0.0003937046421722906,-1.3015215151825936e-06,0.0,-1.5707963267948966,0.5689568839596156,-1.5707963267948966,0.0,0.0
9.302,600.0,46.66666793823242,0.0,-1.5707963267948966,0.6828751345209518,-1.5707963267948966,0.0,0.0,0.0,0.0,-0.6547542338267252,0.0,0.0,0.0,-2.1722968086910006e-05,-1.567949141273493,0.720745733457058,-1.5696592901674873,-2.7960023821824254e-05,-6.061631459535076e-08,0.0027689993770179206,-0.051412503775115435,-1.1375399648553557,-0.0292089287382032,0.00041435493370490064,-4.3710950895286585e-06,0.0,-1.5707963267948966,0.5232127121029784,-1.5707963267948966,0.0,0.0
9.402,600.0,46.66666793823242,0.0,-1.5707963267948966,0.6005050969573684,-1.5707963267948966,0.0,0.0,0.0,0.0,-0.6710374410431826,0.0,0.0,0.0,-6.337385501353323e-05,-1.5681170535802225,0.6433281066216452,-1.5695330563318175,-2.666927291401085e-05,2.2554018830493362e-08,0.009195954540989756,-0.06673653658570233,-1.249987015035935,-0.04418400630280025,0.00046269559871620465,-1.0557369788574013e-05,0.0,-1.5707963267948966,0.35882370344914954,-1.5707963267948966,0.0,0.0
9.502,600.0,46.66666793823242,0.0,-1.5707963267948966,0.5228839041867106,-1.5707963267948966,0.0,0.0,0.0,0.0,-0.9069719559940063,0.0,0.0,0.0,0.00036810624154694866,-1.5695552937269197,0.5723960759889025,-1.570923492736948,-1.878154372350883e-05,-4.4981645094641704e-07,-0.0011655314107758778,-0.026690079770287232,-0.18204207407756126,-0.006517512003710237,0.0002875901563002427,3.0309132973236817e-06,0.0,-1.5707963267948966,0.3619636892709921,-1.5707963267948966,0.0,0.0
9.602,600.0,46.66666793823242,0.0,-1.5707963267948966,0.4288393105432151,-1.5707963267948966,0.0,0.0,0.0,0.0,-1.1759065298422184,0.0,0.0,0.0,8.210247361186324e-05,-1.5688195954757853,0.4655862054667213,-1.5700783385650112,-2.036941938871339e-05,-1.030665153562861e-07,0.01247304188165681,-0.06573876247735813,-1.1257560096639732,-0.03803090992341588,0.0004173060946008516,-9.379593745347347e-06,0.0,-1.5707963267948966,0.2006490851844986,-1.5707963267948966,0.0,0.0
9.702,600.0,46.66666793823242,0.0,-1.5707963267948966,0.3298479670880443,-1.5707963267948966,0.0,0.0,0.0,0.0,-0.6303504250962785,0.0,0.0,0.0,-0.0005908369170148717,-1.5672913404842432,0.41118315071858264,-1.5687021500717129,-2.5321758752891212e-05,4.781868390361634e-07,0.009341592001914261,-0.062409636344812544,-2.168119923482077,-0.04067134259806697,0.0003248371884235574,-1.3269675782878632e-05,0.0,-1.5707963267948966,0.15721992516838235,-1.5707963267948966,0.0,0.0
9.802,600.0,46.66666793823242,0.0,-1.5707963267948966,0.2616126426329144,-1.5707963267948966,0.0,0.0,0.0,0.0,-0.6132068827158085,0.0,0.0,0.0,-0.00041436075286792703,-1.5675138475933195,0.2645423771429038,-1.5694405114839372,-2.005876873458101e-05,2.3950516682774e-07,0.02620401334005034,-0.09644299166920817,-2.214951478093066,-0.049889479398401944,0.00042359212355029996,-1.7044062334561874e-05,0.0,-1.5707963267948966,0.1115823441334341,-1.5707963267948966,0.0,0.0
9.902,600.0,46.66666793823242,0.0,-1.5707963267948966,0.1844401381672256,-1.5707963267948966,0.0,0.0,0.0,0.0,-0.5533630903378856,0.0,0.0,0.0,0.0006065608806794855,-1.5723956881875436,0.1814113210181328,-1.5709131064086965,-7.325396687731052e-06,-2.575210918665067e-07,0.013157040477832737,-0.019908685433104322,-0.9862049038052215,-0.019520161438980783,0.00025311756456890353,-5.275164239701104e-06,0.0,-1.5707963267948966,-0.03268008906854347,-1.5707963267948966,0.0,0.0
10.002,600.0,46.66666793823242,0.0,-1.5707963267948966,0.12570202032848599,-1.5707963267948966,0.0,0.0,0.0,0.0,-0.7172519689423967,0.0,0.0,0.0,-0.0005713018892073137,-1.5675395470978386,0.12346773508116668,-1.569737986577699,-1.0722254878922082e-05,3.7026545478843433e-07,0.0028160481228187784,0.1696344232036389,-2.036680673145652,-0.021415137873815868,-5.057081250907351e-06,-1.2498569631466246e-05,0.0,-1.5707963267948966,-0.1362381789781515,-1.5707963267948966,0.0,0.0
10.103,600.0,46.66666793823242,0.0,-1.5707963267948966,0.042406333331600266,-1.5707963267948966,0.0,0.0,0.0,0.0,-0.7484091867557316,0.0,0.0,0.0,0.00015834926000926253,-1.5707289488193177,0.09260838923938713,-1.5706983224667816,-5.966903021651914e-06,-9.183946833963418e-08,0.01609991670615436,-0.03223987653601158,-0.731873485755845,-0.016146993279908015,0.00020334532043451934,-5.44477130451614e-06,0.0,-1.5707963267948966,-0.19667646127706795,-1.5707963267948966,0.0,0.0
10.202,600.0,46.66666793823242,0.0,-1.5707963267948966,-0.021092139190797,-1.5707963267948966,0.0,0.0,0.0,0.0,-0.629850668318634,0.0,0.0,0.0,-0.0006707606179673463,-1.5611909705332534,0.021920691153091577,-1.5695735363803867,-4.125718011445579e-06,6.573126495515147e-07,0.001768299822626671,0.549456671623396,-2.832309103554531,-0.026115350881696718,-0.00014001801872519745,-1.9266200355847376e-05,0.0,-1.5707963267948966,-0.10078347753554572,-1.5707963267948966,0.0,0.0
10.304,600.0,46.66666793823242,0.0,-1.5707963267948966,-0.08838400055467588,-1.5707963267948966,0.0,0.0,0.0,0.0,-0.7495690196779472,0.0,0.0,0.0,-0.000378397415104524,-1.5675390144656207,-0.04249393514671154,-1.5704702227194165,-4.06027274570503e-06,1.1735877735303272e-07,-0.003323540256188873,-0.037835242484700715,-1.0662259037642412,-0.0028081036324068007,-4.850697441494871e-05,-2.6645244484558886e-06,0.0,-1.5707963267948966,-0.3381737907843356,-1.5707963267948966,0.0,0.0
10.404,600.0,46.66666793823242,0.0,-1.5707963267948966,-0.16702248411661813,-1.5707963267948966,0.0,0.0,0.0,0.0,-0.8944545340540233,0.0,0.0,0.0,-0.0009381188447963588,-1.5670924023508144,-0.12572280834608332,-1.5699278699634218,-3.738083325222429e-06,4.514238829817785e-07,0.00720377480696138,0.09980418392575399,-2.058991038861682,-0.01879348880722824,-9.113949562740553e-05,-1.3511648528681417e-05,0.0,-1.5707963267948966,-0.37202073263654795,-1.5707963267948966,0.0,0.0
10.502,600.0,46.66666793823242,0.0,-1.5707963267948966,-0.24600562609154508,-1.5707963267948966,0.0,0.0,0.0,0.0,-0.8421712546103916,0.0,0.0,0.0,-0.0007610809201069756,-1.568604412059707,-0.18774406841898902,-1.5702156245192047,-2.022915881613882e-06,3.039877099273441e-07,0.0033104941478137124,-0.02976373593348316,-1.7482600607739618,-0.009255338872109319,-8.372425646721616e-05,-7.213809055531284e-06,0.0,-1.5707963267948966,-0.4714505013508985,-1.5707963267948966,0.0,0.0
10.602,600.0,46.66666793823242,0.0,-1.5707963267948966,-0.32691338595682495,-1.5707963267948966,0.0,0.0,0.0,0.0,-0.8776596683485207,0.0,0.0,0.0,-0.0005130918586846229,-1.5698238735228542,-0.27979709702493216,-1.5704889980051016,2.236438299489169e-06,2.2598801648258427e-07,0.017885178186159287,-0.04309524363133781,-1.7171495455518742,-0.021401899050365734,3.4070537142881895e-05,-1.0737950770814218e-05,0.0,-1.5707963267948966,-0.4687798526637013,-1.5707963267948966,0.0,0.0
10.702,600.0,46.66666793823242,0.0,-1.5707963267948966,-0.4169081059720128,-1.5707963267948966,0.0,0.0,0.0,0.0,-0.8244232502180209,0.0,0.0,0.0,9.444129360498884e-05,-1.5716132514592784,-0.36726269749515933,-1.5713767627544795,1.0506035586806396e-05,-6.31386775984023e-08,0.001276326454278605,-0.0019040345635075822,-1.172157197442805,-0.0009681244649365916,-0.00013028576114712878,-3.298806360906982e-06,0.0,-1.5707963267948966,-0.647427665512979,-1.5707963267948966,0.0,0.0
10.802,600.0,46.66666793823242,0.0,-1.5707963267948966,-0.4994396598869564,-1.5707963267948966,0.0,0.0,0.0,0.0,-0.4866003972050076,0.0,0.0,0.0,-0.0002896003032690277,-1.5708493237005892,-0.48701859355037924,-1.570850655281134,9.85773836040249e-06,1.8958435726691423e-07,0.020487248857545628,-0.050034330394567034,-1.9329440239423952,-0.03479673796729923,4.810700448475441e-05,-1.6124320658549948e-05,0.0,-1.5707963267948966,-0.7035852383401788,-1.5707963267948966,0.0,0.0
10.902,600.0,46.66666793823242,0.0,-1.5707963267948966,-0.5671606037436945,-1.5707963267948966,0.0,0.0,0.0,0.0,-0.9896995502121897,0.0,0.0,0.0,0.0005415342370746416,-1.5737407176960883,-0.524211302649017,-1.5729119419648556,2.2473825013908535e-05,-5.418870162137532e-07,-0.0033994840397427654,0.028792308394579327,0.025471011539519656,0.02076466493875322,-0.0002449828622973306,4.903606921577566e-06,0.0,-1.5707963267948966,-0.62926455778908,-1.5707963267948966,0.0,0.0
11.002,600.0,46.66666793823242,0.0,-1.5707963267948966,-0.6488237727915731,-1.5707963267948966,0.0,0.0,0.0,0.0,-1.0331549538099905,0.0,0.0,0.0,-0.0001316211615338198,-1.5706316102814752,-0.602437531770405,-1.5713112489916634,1.6594017937612656e-05,1.0367740588169361e-07,0.00786126610776396,-0.026595824673644443,-1.292978957145302,-0.013363115050745228,-0.00013191631338363462,-8.928427777870689e-06,0.0,-1.5707963267948966,-0.7342611988393999,-1.5707963267948966,0.0,0.0
11.103,600.0,46.66666793823242,0.0,-1.5707963267948966,-0.7348956805444793,-1.5707963267948966,0.0,0.0,0.0,0.0,-0.9047666830336579,0.0,0.0,0.0,-0.00014922344699363138,-1.5713197711071516,-0.6799989693046821,-1.571245069438575,1.8689830950922772e-05,1.7455739800041066e-07,0.007546362913321602,-0.01872369526131675,-1.4976185189939173,-0.01683181163035698,-0.00015435606256544956,-1.0903252386448745e-05,0.0,-1.5707963267948966,-1.0196892886994637,-1.5707963267948966,0.0,0.0
11.202,600.0,46.66666793823242,0.0,-1.5707963267948966,-0.8197357909972656,-1.5707963267948966,0.0,0.0,0.0,0.0,-0.7044953406849431,0.0,0.0,0.0,1.6753770877678128e-06,-1.5720333651212384,-0.7526889525729861,-1.5718575964892931,2.3157966781000483e-05,-1.400010597806941e-08,0.003663693026567894,-0.002268335755130357,-1.0980002784670584,-0.003793118754430867,-0.00023208385846236294,-6.312856225642278e-06,0.0,-1.5707963267948966,-0.880783199622352,-1.5707963267948966,0.0,0.0
11.302,600.0,46.66666793823242,0.0,-1.5707963267948966,-0.8953909514817617,-1.5707963267948966,0.0,0.0,0.0,0.0,-0.8829415010345257,0.0,0.0,0.0,0.000148411722515382,-1.5772317224110186,-0.8510388258393399,-1.57246919143363,2.8699461860481837e-05,-1.6682899671639673e-07,0.0005660808321102811,0.0675926222016759,-1.0541508650657128,0.005083755538379445,-0.00031894461941885056,-4.396925244823385e-06,0.0,-1.5707963267948966,-0.9987418438539747,-1.5707963267948966,0.0,0.0
11.402,600.0,46.66666793823242,0.0,-1.5707963267948966,-0.9822586208096027,-1.5707963267948966,0.0,0.0,0.0,0.0,-0.599596225886367,0.0,0.0,0.0,-0.00022650456523700852,-1.5732369807758997,-0.9135023371007668,-1.5706510513574328,2.2726576621392587e-05,5.323643655888776e-07,0.006447594142271299,0.004256374845827175,-2.3401159214271003,-0.032799749979146496,-0.0001827690363020749,-1.8948960474866296e-05,0.0,-1.5707963267948966,-1.1215584191654542,-1.5707963267948966,0.0,0.0
11.502,600.0,46.66666793823242,0.0,-1.5707963267948966,-1.0755571386738083,-1.5707963267948966,0.0,0.0,0.0,0.0,-1.1279078183613742,0.0,0.0,0.0,-0.00011153146833650762,-1.5740214148749825,-1.0333232808656119,-1.571143869317152,2.6444184681039605e-05,3.95293830654084e-07,0.005395987769501967,0.011262720470594465,-2.426706207426046,-0.03306788244724164,-0.00020896053642604243,-1.908985777237571e-05,0.0,-1.5707963267948966,-1.2127978868233902,-1.5707963267948966,0.0,0.0
11.603,600.0,46.66666793823242,0.0,-1.5707963267948966,-1.177963778101379,-1.5707963267948966,0.0,0.0,0.0,0.0,-1.0484328954396147,0.0,0.0,0.0,-1.0200907448423248e-06,-1.5762918928623295,-1.1238487868493128,-1.5718267038206482,3.0839383885712526e-05,1.69167729054621e-07,0.0032490934604508495,0.04509945960513658,-1.9874540046083007,-0.0210185037219352,-0.0002889478743149652,-1.5603349116724258e-05,0.0,-1.5707963267948966,-1.36965611319123,-1.5707963267948966,0.0,0.0
11.703,600.0,46.66666793823242,0.0,-1.5707963267948966,-1.2477907597209494,-1.5707963267948966,0.0,0.0,0.0,0.0,-0.6984069328042168,0.0,0.0,0.0,5.194996392451971e-07,-1.57385163835549,-1.2461057240632534,-1.5719498750210643,3.249078270484793e-05,1.453497528133233e-07,0.0025375678174724575,0.014695465415787447,-2.100041669694436,-0.021640362239441713,-0.00029922747456506905,-1.5410427810936236e-05,0.0,-1.5707963267948966,-1.4865491095594743,-1.5707963267948966,0.0,0.0
11.803,600.0,53.33333206176758,0.0,-1.5707963267948966,-1.3129050941842797,-1.5707963267948966,0.0,0.0,0.0,0.0,0.02635475413539534,0.0,0.0,0.0,0.00011739757477862503,-1.5738152862066104,-1.3060944928817244,-1.5738460457172008,3.9420696760409764e-05,-5.403599684791015e-07,-0.0012797163930704642,0.03616434608846058,-0.22053700237022061,0.0348925035756228,-0.0004929549213606731,5.548213835534988e-06,0.0,-1.5707963267948966,-1.1239675986432665,-1.5707963267948966,0.0,0.0
11.902,600.0,53.33333206176758,0.0,-1.5707963267948966,-1.252840527953487,-1.5707963267948966,0.0,0.0,0.0,0.0,0.8016361629195632,0.0,0.0,0.0,0.0001031435593273815,-1.575094003004012,-1.3772225987497242,-1.5737732082613871,4.016924349594145e-05,-4.98785474829803e-07,-0.0008269987083871278,0.05151062877771724,-0.21839413973335878,0.032132838266136415,-0.0005107556435306145,3.623225969523966e-06,0.0,-1.5707963267948966,-1.005843012263095,-1.5707963267948966,0.0,0.0
12.002,600.0,53.33333206176758,0.0,-1.5707963267948966,-1.162421428349889,-1.5707963267948966,0.0,0.0,0.0,0.0,0.816762211798293,0.0,0.0,0.0,9.134316633333018e-05,-1.5739310005559743,-1.2877895214451736,-1.5740140911819849,3.880140290084266e-05,-5.023099073508499e-07,-0.0019954893098537473,0.045669625749765734,1.1339158020859215,0.05377471933963731,-0.0004473837553291657,1.1385230050054636e-05,0.0,-1.5707963267948966,-0.9774685046059646,-1.5707963267948966,0.0,0.0
12.102,600.0,53.33333206176758,0.0,-1.5707963267948966,-1.093585389723624,-1.5707963267948966,0.0,0.0,0.0,0.0,0.5329950810259171,0.0,0.0,0.0,3.149780674023869e-05,-1.572640699007831,-1.1444322257564807,-1.5728208618555748,3.6738562435574696e-05,-7.0230877778912e-08,-0.002519003712139464,0.03570206709630406,1.258304999226634,0.044734681437201385,-0.00042044155066549955,8.429153139808131e-06,0.0,-1.5707963267948966,-0.9587717498888529,-1.5707963267948966,0.0,0.0
12.202,600.0,53.33333206176758,0.0,-1.5707963267948966,-1.004645865095985,-1.5707963267948966,0.0,0.0,0.0,0.0,1.1892832602430745,0.0,0.0,0.0,-2.6474942533656196e-05,-1.5720293703796033,-1.0921348659032406,-1.5721602647471806,3.529995317839136e-05,1.4177077833784533e-07,-0.0013649154416353576,0.023850240828421854,0.7404068530997041,0.02910586440401713,-0.0004005654678897284,3.0372079087258617e-06,0.0,-1.5707963267948966,-0.7934653713203661,-1.5707963267948966,0.0,0.0
12.302,600.0,53.33333206176758,0.0,-1.5707963267948966,-0.9184108117252103,-1.5707963267948966,0.0,0.0,0.0,0.0,0.7989370077485803,0.0,0.0,0.0,0.00017212573836281994,-1.573181054393008,-0.9878792331825543,-1.5737899861762548,3.513060821973219e-05,-4.1870102788002496e-07,-0.005275729401528076,0.05054028522860086,2.2061839523103615,0.06529728943121785,-0.0004261864299627817,1.4316282933823007e-05,0.0,-1.5707963267948966,-0.6511200706838232,-1.5707963267948966,0.0,0.0
12.403,600.0,53.33333206176758,0.0,-1.5707963267948966,-0.8392656955042908,-1.5707963267948966,0.0,0.0,0.0,0.0,1.0789807646473493,0.0,0.0,0.0,-0.0002304837674311965,-1.5708028515395673,-0.8894428737598002,-1.5708537179163877,3.080321729986397e-05,5.417743131065179e-07,-2.7844944996583237e-05,0.009423740118570197,0.1654841363161026,0.010639623999299987,-0.00034943108447709316,-2.751756018508857e-06,0.0,-1.5707963267948966,-0.7253804163887109,-1.5707963267948966,0.0,0.0
12.502,600.0,53.33333206176758,0.0,-1.5707963267948966,-0.7523978791765753,-1.5707963267948966,0.0,0.0,0.0,0.0,0.49953016881402507,0.0,0.0,0.0,9.137032784566857e-05,-1.5725504178468772,-0.8289203408798502,-1.5727737239042805,3.099049316414749e-05,-1.2626444196050377e-07,-0.0016436567315670197,0.029020593314864156,1.3590722238144526,0.03367062238095382,-0.00036477182862352034,5.294966969326184e-06,0.0,-1.5707963267948966,-0.5445080905732169,-1.5707963267948966,0.0,0.0
12.602,600.0,53.33333206176758,0.0,-1.5707963267948966,-0.6924389770945565,-1.5707963267948966,0.0,0.0,0.0,0.0,0.48179149564033,0.0,0.0,0.0,0.00010867854238957945,-1.5725706578711618,-0.7232625538452373,-1.5726683958831678,2.9151481196838068e-05,-1.3030118947232012e-07,-0.005660441226192787,0.04165417803717151,1.5786474588465047,0.04322192687544152,-0.00035269534235129796,8.709526469276346e-06,0.0,-1.5707963267948966,-0.461975572354309,-1.5707963267948966,0.0,0.0
12.702,600.0,53.33333206176758,0.0,-1.5707963267948966,-0.6029000277873227,-1.5707963267948966,0.0,0.0,0.0,0.0,1.115271782285098,0.0,0.0,0.0,-0.00018310445090836022,-1.571231354158961,-0.6537543822893055,-1.5713075205661373,2.6394461720989846e-05,3.145156405214035e-07,0.002664142350508229,0.0812229927498917,0.4401180630671573,0.008258255521172856,-0.0002534458433858911,-1.42166886900849e-06,0.0,-1.5707963267948966,-0.5367612435130936,-1.5707963267948966,0.0,0.0
12.803,600.0,53.33333206176758,0.0,-1.5707963267948966,-0.5225474587414984,-1.5707963267948966,0.0,0.0,0.0,0.0,0.8847237601642132,0.0,0.0,0.0,0.00023624665687549894,-1.5736283322980869,-0.5905565709363163,-1.5727955618252192,2.5952258158579368e-05,-2.397373511023216e-07,-0.007771111863080973,0.05401137449200448,1.5720437514494896,0.04233475301493046,-0.00031555789904676575,9.338536543086581e-06,0.0,-1.5707963267948966,-0.32627655517879744,-1.5707963267948966,0.0,0.0
12.902,600.0,53.33333206176758,0.0,-1.5707963267948966,-0.44101389996319273,-1.5707963267948966,0.0,0.0,0.0,0.0,0.6867403620553049,0.0,0.0,0.0,-7.550825658704924e-05,-1.5721229804919197,-0.5209736977118078,-1.571705396832995,2.214939042054039e-05,8.235329542467788e-08,-0.006846923704458372,0.03874438742420492,0.8361627408852935,0.02900711938422404,-0.0002932003496063603,4.8569784396315915e-06,0.0,-1.5707963267948966,-0.36271419154558626,-1.5707963267948966,0.0,0.0
13.002,600.0,53.33333206176758,0.0,-1.5707963267948966,-0.3601847645658083,-1.5707963267948966,0.0,0.0,0.0,0.0,0.5877584523129628,0.0,0.0,0.0,0.0001662685719756314,-1.5732887792591017,-0.42286017999219855,-1.5721790400328657,2.0591159164747645e-05,-1.2754163801798897e-07,0.0021355494768742728,0.02662329684476429,1.4808962641932009,0.01581146931236896,-0.000173404507565198,2.8090046253653455e-06,0.0,-1.5707963267948966,-0.14256070516534203,-1.5707963267948966,0.0,0.0
13.102,600.0,53.33333206176758,0.0,-1.5707963267948966,-0.27666125278032716,-1.5707963267948966,0.0,0.0,0.0,0.0,0.8762570797336886,0.0,0.0,0.0,0.0008492931247850902,-1.5747212936094555,-0.32910089736535525,-1.5731775922835909,2.1234924392851822e-05,-5.191892771110193e-07,-0.016016170692844375,0.07034426265778383,2.459174402171856,0.04522163628133317,-0.00022592669634105265,1.3748575223026064e-05,0.0,-1.5707963267948966,-0.12253222963972638,-1.5707963267948966,0.0,0.0
13.203,600.0,53.33333206176758,0.0,-1.5707963267948966,-0.19770349149148814,-1.5707963267948966,0.0,0.0,0.0,0.0,0.8191575143854429,0.0,0.0,0.0,-0.0006249812949478046,-1.5704820737862673,-0.24494615540707143,-1.5707214919682653,1.1629586133228226e-05,2.8981397667731936e-07,-0.012316565563155144,0.03347432660266897,0.6445961041956592,0.020163277391532092,-0.00024321302400503317,3.591415120664901e-06,0.0,-1.5707963267948966,-0.1267391933400963,-1.5707963267948966,0.0,0.0
13.302,600.0,53.33333206176758,0.0,-1.5707963267948966,-0.11620505032350703,-1.5707963267948966,0.0,0.0,0.0,0.0,0.9663167428177033,0.0,0.0,0.0,-5.739769649524162e-05,-1.5715914135383398,-0.16056890633971146,-1.5713072542500284,1.1465284178281199e-05,1.4183242574697721e-08,-0.015642067299904697,0.0418455178391153,1.3500929767250869,0.023348765514565332,-0.00018825623070701679,5.971329872714697e-06,0.0,-1.5707963267948966,0.11655286053481156,-1.5707963267948966,0.0,0.0
13.402,600.0,53.33333206176758,0.0,-1.5707963267948966,-0.03730047523112834,-1.5707963267948966,0.0,0.0,0.0,0.0,1.101071168819537,0.0,0.0,0.0,0.0006900154156894981,-1.5727074111931374,-0.08396828739246466,-1.5717908843039867,1.1242011386009713e-05,-2.265126732572798e-07,-0.019617129630984092,0.048660014436410055,1.7813170804367884,0.025037767245028802,-0.00013470347303557709,8.15327879139133e-06,0.0,-1.5707963267948966,0.14042917601185884,-1.5707963267948966,0.0,0.0
13.502,600.0,53.33333206176758,0.0,-1.5707963267948966,0.054185799273068824,-1.5707963267948966,0.0,0.0,0.0,0.0,0.7668649810466408,0.0,0.0,0.0,-0.0011746281604856676,-1.5692418396666172,-0.008811755062745695,-1.5700969806926417,2.7560611502158256e-07,3.5591571420699774e-07,0.00036418776670769557,0.0020703487135087053,0.37698696389947467,0.0012689426841117652,-6.63004632677205e-05,-8.604002835698208e-07,0.0,-1.5707963267948966,0.277830919982447,-1.5707963267948966,0.0,0.0
13.602,600.0,53.33333206176758,0.0,-1.5707963267948966,0.1322269954600609,-1.5707963267948966,0.0,0.0,0.0,0.0,0.978738533220765,0.0,0.0,0.0,0.00118565947306348,-1.5729823825756881,0.09537028702688106,-1.5718615912309284,5.966371697932847e-06,-3.885901228463172e-07,0.0010656479156242072,0.017869542517728078,2.227448494666317,0.009671100970460022,0.00010670024639830912,6.619835869719498e-06,0.0,-1.5707963267948966,0.29834409889717595,-1.5707963267948966,0.0,0.0
13.703,600.0,53.33333206176758,0.0,-1.5707963267948966,0.19640190768386867,-1.5707963267948966,0.0,0.0,0.0,0.0,0.69669588067618,0.0,0.0,0.0,-0.0008715753827083494,-1.5691207989950733,0.12982177944836515,-1.5699740758083347,-4.5978819329363845e-06,2.83854553840263e-07,0.010246253260051966,-0.016847560691193975,0.4498584748855812,-0.008071023853269977,7.126776096925883e-05,-2.2744668041639524e-06,0.0,-1.5707963267948966,0.277737948131266,-1.5707963267948966,0.0,0.0
13.803,600.0,53.33333206176758,0.0,-1.5707963267948966,0.2620941936272001,-1.5707963267948966,0.0,0.0,0.0,0.0,0.6406589481792705,0.0,0.0,0.0,-0.0007042368649588327,-1.5689164013814096,0.2096710221618315,-1.5697944455928088,-6.500568425561244e-06,3.048564445263256e-07,-0.01921129717036964,0.023896184518414923,0.3663990343536466,0.012513302427495545,-9.391472436967929e-05,3.7667930925280467e-06,0.0,-1.5707963267948966,0.539085661271712,-1.5707963267948966,0.0,0.0
13.902,600.0,53.33333206176758,0.0,-1.5707963267948966,0.33818113345022066,-1.5707963267948966,0.0,0.0,0.0,0.0,1.0965262601201915,0.0,0.0,0.0,-0.0002809374875708393,-1.5692088164691003,0.2723461382166221,-1.5701209491424526,-8.181188017414682e-06,1.258725446840282e-07,0.00212450867158359,-0.01208111715565692,0.7264329805439493,-0.0039009473901803282,0.00010796254151765012,3.624959248071181e-07,0.0,-1.5707963267948966,0.494789763564245,-1.5707963267948966,0.0,0.0
14.003,600.0,53.33333206176758,0.0,-1.5707963267948966,0.4113146497695349,-1.5707963267948966,0.0,0.0,0.0,0.0,0.7611368520403945,0.0,0.0,0.0,-0.00010911794608933267,-1.5690611441866555,0.3395894244234961,-1.5699273373312037,-7.1663790163877105e-06,2.1350111540065203e-07,0.0020901477817749257,0.15354992890496907,0.5249181388918377,-0.007737260588912544,0.0001232513927088766,-2.939377357500244e-07,0.0,-1.5707963267948966,0.5756069597394864,-1.5707963267948966,0.0,0.0
14.103,600.0,53.33333206176758,0.0,-1.5707963267948966,0.49724824229745856,-1.5707963267948966,0.0,0.0,0.0,0.0,0.920456806255672,0.0,0.0,0.0,0.00010101200641266262,-1.5697690124043986,0.4569212446754986,-1.5702353319112714,-1.1335144408231059e-05,-9.621832459570053e-10,-0.015991306547057663,0.028770784643425522,1.4511510185039422,0.02211919028105955,4.830173513575019e-05,9.608841135691174e-06,0.0,-1.5707963267948966,0.764211565158015,-1.5707963267948966,0.0,0.0
14.202,600.0,53.33333206176758,0.0,-1.5707963267948966,0.5855911584320276,-1.5707963267948966,0.0,0.0,0.0,0.0,0.6560404337035722,0.0,0.0,0.0,-0.00034088647255970956,-1.5683937560174817,0.5239566711592919,-1.5690867105331203,-1.6803054708325274e-05,3.2611447286567654e-07,-0.005030941204863161,-0.0025893366522014255,0.5045313411416585,-0.0007070149138820703,0.00013231276418311603,1.9951742816204454e-06,0.0,-1.5707963267948966,0.8440955254031338,-1.5707963267948966,0.0,0.0
14.302,600.0,53.33333206176758,0.0,-1.5707963267948966,0.6563655207417631,-1.5707963267948966,0.0,0.0,0.0,0.0,0.8370647430786982,0.0,0.0,0.0,9.914488406809394e-06,-1.5695399805506518,0.6391681824199142,-1.5698694135774944,-1.8263804824272186e-05,2.8848981933831148e-09,-0.004925026976221519,0.006530198949442292,1.4534048517344762,0.00804076264508665,0.00018325921138650136,5.986409103999809e-06,0.0,-1.5707963267948966,0.7984041457205986,-1.5707963267948966,0.0,0.0
14.402,600.0,53.33333206176758,0.0,-1.5707963267948966,0.7345934776563536,-1.5707963267948966,0.0,0.0,0.0,0.0,0.7143148578525258,0.0,0.0,0.0,0.000281644857226101,-1.570624419746532,0.7153987717784513,-1.5708020525912403,-1.9701526171454636e-05,-3.602809119080194e-07,-0.007937046564641625,0.022824513931604826,2.1265473130756676,0.02409830804217893,0.00019740445887855138,1.2558138842921739e-05,0.0,-1.5707963267948966,0.9974003090534154,-1.5707963267948966,0.0,0.0
14.502,600.0,53.33333206176758,0.0,-1.5707963267948966,0.8219819927914923,-1.5707963267948966,0.0,0.0,0.0,0.0,0.9699595817739334,0.0,0.0,0.0,6.11508372095695e-05,-1.572540297834735,0.7719241661783014,-1.5702744803792956,-2.475783634262437e-05,-2.667440633418761e-07,0.001685243136315638,-0.18970861577611323,2.0446370000603187,0.004898380801158515,0.0003996756560953368,9.246653096724609e-06,0.0,-1.5707963267948966,1.055770606597541,-1.5707963267948966,0.0,0.0
14.602,600.0,53.33333206176758,0.0,-1.5707963267948966,0.9099760572271496,-1.5707963267948966,0.0,0.0,0.0,0.0,0.6988835157487354,0.0,0.0,0.0,0.00017756634695425982,-1.5714974039518599,0.873183076882376,-1.5704356016252454,-2.4541999034673826e-05,-3.1975989071150563e-07,-0.005203425098081076,0.02920102663990623,2.0899043470050493,0.020272843583848232,0.0002445925557537821,1.1735861036194989e-05,0.0,-1.5707963267948966,1.120717345223232,-1.5707963267948966,0.0,0.0
14.703,600.0,53.33333206176758,0.0,-1.5707963267948966,0.9828198521055085,-1.5707963267948966,0.0,0.0,0.0,0.0,0.6734760277389275,0.0,0.0,0.0,7.567065674849322e-05,-1.5704659616616723,0.9709441252317131,-1.5699387889238912,-2.773357832596836e-05,-1.9776638062071133e-07,-0.003426781440916078,0.015183442872165932,1.887382264539156,0.0140170729817656,0.00028125877689033705,1.0129543459953664e-05,0.0,-1.5707963267948966,1.0432541252407195,-1.5707963267948966,0.0,0.0
14.803,600.0,53.33333206176758,0.0,-1.5707963267948966,1.0421673676979466,-1.5707963267948966,0.0,0.0,0.0,0.0,0.5055765677477307,0.0,0.0,0.0,0.0001066844550103757,-1.56898204830228,1.0079781099293823,-1.570167021829311,-2.9707203138538348e-05,-3.1595687515778575e-07,-0.002770716387712911,-0.005195537563946318,1.7668728936325255,0.013158546828324312,0.00030553486211847475,1.0015969205320558e-05,0.0,-1.5707963267948966,1.31012973990325,-1.5707963267948966,0.0,0.0
14.902,600.0,53.33333206176758,0.0,-1.5707963267948966,1.1068270985279463,-1.5707963267948966,0.0,0.0,0.0,0.0,0.9327402610379593,0.0,0.0,0.0,6.0935812633885224e-05,-1.5693397108366778,1.0758239363328868,-1.569783127158176,-3.137248952027347e-05,-2.1798376243835439e-07,-0.0019099672489769517,-0.0034392517447352387,1.5253432243641327,0.006907169921891659,0.00032557076056708323,7.840044664567574e-06,0.0,-1.5707963267948966,1.3993377254188313,-1.5707963267948966,0.0,0.0
15.002,600.0,53.33333206176758,0.0,-1.5707963267948966,1.1862148188741395,-1.5707963267948966,0.0,0.0,0.0,0.0,0.4481541737483546,0.0,0.0,0.0,-8.496991495706681e-05,-1.568631975776989,1.11804043251185,-1.5683189211908504,-3.35777917926634e-05,2.464693140552826e-07,0.0003002972903017918,-0.02028171315863496,0.3008088388144121,-0.022166987780842667,0.00037510370381299,-8.874664268563455e-07,0.0,-1.5707963267948966,1.3713677590098148,-1.5707963267948966,0.0,0.0
15.102,600.0,53.33333206176758,0.0,-1.5707963267948966,1.258291879223427,-1.5707963267948966,0.0,0.0,0.0,0.0,0.8886456980952349,0.0,0.0,0.0,5.603282237291468e-05,-1.569841583544103,1.2138085042594264,-1.5697983071763895,-3.379719496343216e-05,-2.6578840448722985e-07,-0.0023104870413133164,0.005460040954907576,1.7331704568795183,0.01379349228587504,0.0003541220450807806,1.108812053139347e-05,0.0,-1.5707963267948966,1.469607790438184,-1.5707963267948966,0.0,0.0
15.203,600.0,60.0,0.0,-1.5707963267948966,1.294441641284445,-1.5707963267948966,0.0,0.0,0.0,0.0,-0.5439532330566886,0.0,0.0,0.0,-6.64195773086635e-05,-1.5689164013814096,1.2571916647329262,-1.5681597973157182,-3.567788993684737e-05,2.6581918354707903e-07,-0.00010420251696102702,-0.01583308044849603,0.3711807400908839,-0.02148625259729939,0.0004039456864036831,1.2133594301794662e-07,0.0,-1.5707963267948966,1.2057956230204991,-1.5707963267948966,0.0,0.0
15.303,600.0,60.0,0.0,-1.5707963267948966,1.2244631936453816,-1.5707963267948966,0.0,0.0,0.0,0.0,-0.768266048358193,0.0,0.0,0.0,3.529588951706006e-05,-1.5637027309153615,1.358231597016369,-1.5670864102383617,-3.0203829285328232e-05,5.091881621117376e-07,-0.0003531667270657285,0.34615594743379086,-0.46827872790781866,-0.03715595331440556,0.0002949355329948244,-5.042768527740854e-06,0.0,-1.5707963267948966,1.17041720911301,-1.5707963267948966,0.0,0.0
15.402,600.0,60.0,0.0,-1.5707963267948966,1.1598919255405589,-1.5707963267948966,0.0,0.0,0.0,0.0,-0.9937727031487334,0.0,0.0,0.0,-0.0001301212478817925,-1.5636590550734841,1.2403880503609077,-1.5670864102383617,-3.345057074736446e-05,4.771476846401006e-07,0.0028820216970416868,-0.08364033574897821,-1.3187756670443547,-0.05751044775279995,0.00030117673163246593,-1.0392393265845991e-05,0.0,-1.5707963267948966,1.010445314478638,-1.5707963267948966,0.0,0.0
15.503,600.0,60.0,0.0,-1.5707963267948966,1.0703207589854342,-1.5707963267948966,0.0,0.0,0.0,0.0,-0.9565355982952638,0.0,0.0,0.0,-2.7948101039478227e-05,-1.5665086374398691,1.159569100760273,-1.5685506162056873,-3.5605394218697015e-05,4.177823229456102e-08,0.0017797380214862638,-0.05177898386943476,-0.7549818011134898,-0.035924761458894325,0.0003297882883710291,-4.798188435236375e-06,0.0,-1.5707963267948966,0.8422607548172073,-1.5707963267948966,0.0,0.0
15.604,600.0,60.0,0.0,-1.5707963267948966,0.9810972072428799,-1.5707963267948966,0.0,0.0,0.0,0.0,-0.6788967504283681,0.0,0.0,0.0,3.297048979768496e-05,-1.5682592663824326,1.0720066943844215,-1.5691807201196,-3.5666170337567904e-05,-1.3452763536202582e-07,0.00018993419774393622,-0.029850155510856232,-0.5696432329491149,-0.022758423844084226,0.00035357501124700665,-6.015916618820528e-07,0.0,-1.5707963267948966,0.7185619338928633,-1.5707963267948966,0.0,0.0
15.702,600.0,60.0,0.0,-1.5707963267948966,0.9041079753272445,-1.5707963267948966,0.0,0.0,0.0,0.0,-0.9175737909377509,0.0,0.0,0.0,-4.8714221142844896e-05,-1.568272049555665,1.002765438148743,-1.5684849692848168,-3.398906886051204e-05,8.16685605535157e-08,0.0022102185061231823,-0.036984678766799846,-1.2616338174311785,-0.03939226793839395,0.00032372159960559885,-6.368687376630643e-06,0.0,-1.5707963267948966,0.7419164450230459,-1.5707963267948966,0.0,0.0
15.802,600.0,60.0,0.0,-1.5707963267948966,0.8334957240087046,-1.5707963267948966,0.0,0.0,0.0,0.0,-0.6438550544863755,0.0,0.0,0.0,-0.00019588814428939097,-1.566941933749225,0.9089504621656034,-1.5673968016634106,-3.102061911742707e-05,4.3857455410486114e-07,-0.00044496594185562487,0.007141793893778989,-2.3342588312416894,-0.04707926188187989,0.0001833193048102686,-1.026103744514246e-05,0.0,-1.5707963267948966,0.7203608691409605,-1.5707963267948966,0.0,0.0
15.902,600.0,60.0,0.0,-1.5707963267948966,0.7651753481007555,-1.5707963267948966,0.0,0.0,0.0,0.0,-1.0802233440071212,0.0,0.0,0.0,0.00017478972843981076,-1.5696305280277143,0.8297943903496142,-1.5700903227899166,-3.2494754933799276e-05,-3.3828551952116285e-07,-0.00045204536004339585,-0.01702122272110506,-0.29661582483613685,-0.013008088629707844,0.0003183281132309567,1.735923736762899e-06,0.0,-1.5707963267948966,0.6577668450837775,-1.5707963267948966,0.0,0.0
16.002,600.0,60.0,0.0,-1.5707963267948966,0.6786644689924017,-1.5707963267948966,0.0,0.0,0.0,0.0,-0.7323910900529284,0.0,0.0,0.0,6.348374860691551e-05,-1.569316807651303,0.7764470792366103,-1.5694887146996677,-3.0122332557329057e-05,-1.275417094495358e-07,0.0006755051538820256,-0.021532017356156723,-0.6151015285440044,-0.020513518444985737,0.0002946439571669811,-8.223031411153637e-07,0.0,-1.5707963267948966,0.4910299626367486,-1.5707963267948966,0.0,0.0
16.104,600.0,60.0,0.0,-1.5707963267948966,0.592140427310432,-1.5707963267948966,0.0,0.0,0.0,0.0,-0.976762807671212,0.0,0.0,0.0,-5.1245569250320826e-05,-1.5679075959604876,0.6654318110370849,-1.5690670031410536,-2.795283520492919e-05,3.627944372413592e-08,0.005826952252458089,-0.049744844784075426,-1.2724977836239932,-0.03762967973806022,0.0002673329996194677,-5.949279938373409e-06,0.0,-1.5707963267948966,0.3009017952814342,-1.5707963267948966,0.0,0.0
16.203,600.0,60.0,0.0,-1.5707963267948966,0.5155584011574632,-1.5707963267948966,0.0,0.0,0.0,0.0,-0.9141730252340632,0.0,0.0,0.0,-0.00012654260078503055,-1.5673520605570972,0.5682282288829285,-1.5689925677885859,-2.5558334956446035e-05,1.0219135191808908e-07,0.003885978032170291,-0.04814789688116622,-1.5361583215509444,-0.030770822783264234,0.00023914653436544892,-5.183649570604947e-06,0.0,-1.5707963267948966,0.39162771810359925,-1.5707963267948966,0.0,0.0
16.302,600.0,60.0,0.0,-1.5707963267948966,0.4252158785356146,-1.5707963267948966,0.0,0.0,0.0,0.0,-0.7246171631994307,0.0,0.0,0.0,0.00017618730284487067,-1.5690299852019016,0.5437591047872804,-1.5700221458660106,-2.3990168048698264e-05,-1.720584208921104e-07,-0.0010056068318149245,-0.021999427094600846,-0.5499625723619701,-0.0116258830568215,0.00023282625687830037,4.516229071449496e-07,0.0,-1.5707963267948966,0.18836160570468258,-1.5707963267948966,0.0,0.0
16.402,600.0,60.0,0.0,-1.5707963267948966,0.3505341560388624,-1.5707963267948966,0.0,0.0,0.0,0.0,-0.7640277821950507,0.0,0.0,0.0,-0.000614082295182939,-1.566406105737901,0.4309862168473301,-1.5681330325467628,-2.138662290217983e-05,4.352117791111498e-07,0.011451720643908724,-0.06673815112711319,-2.367594950186756,-0.04508361379665061,0.00018097735176646044,-1.0292818324499206e-05,0.0,-1.5707963267948966,0.20186337564120965,-1.5707963267948966,0.0,0.0
16.502,600.0,60.0,0.0,-1.5707963267948966,0.2674769874107037,-1.5707963267948966,0.0,0.0,0.0,0.0,-0.8004384011208748,0.0,0.0,0.0,-0.00041540053002008887,-1.5677732394834931,0.3533751113587231,-1.568977520928427,-1.8690062579618654e-05,2.408296823165869e-07,0.0034635624523579192,-0.03717010968007502,-1.854125640952628,-0.023906025730880607,0.00013256425605558738,-5.179943511470804e-06,0.0,-1.5707963267948966,0.14781899147942623,-1.5707963267948966,0.0,0.0
16.602,600.0,60.0,0.0,-1.5707963267948966,0.19356010386313294,-1.5707963267948966,0.0,0.0,0.0,0.0,-0.8974486135248855,0.0,0.0,0.0,-0.000593275698980882,-1.567892149626165,0.2659558998257338,-1.5690538204936577,-1.6427186353486896e-05,2.690983836309884e-07,0.013394360380175122,-0.051665999260188146,-1.9661610995867356,-0.03211581067991672,0.00013518215608575862,-8.668161444669735e-06,0.0,-1.5707963267948966,0.05847764171382214,-1.5707963267948966,0.0,0.0
16.702,600.0,60.0,0.0,-1.5707963267948966,0.12255923793810286,-1.5707963267948966,0.0,0.0,0.0,0.0,-0.5481277910460508,0.0,0.0,0.0,0.0007949347300000754,-1.572340827069088,0.19441470438314906,-1.5710883424084239,-1.3524089427847185e-05,-3.715036968423765e-07,-0.00826115430960157,-0.1569625867495807,-0.15204366163717709,0.002423599867202253,0.00011977544246127919,3.0182412774196962e-06,0.0,-1.5707963267948966,0.021664144286989637,-1.5707963267948966,0.0,0.0
16.802,600.0,60.0,0.0,-1.5707963267948966,0.054202545110971556,-1.5707963267948966,0.0,0.0,0.0,0.0,-0.6845220501656537,0.0,0.0,0.0,0.0008697068137003467,-1.5722944880661207,0.10389512393287355,-1.5711381435208083,-9.202645676337321e-06,-3.2770945993821087e-07,-0.010646271499052177,-0.10871899916149655,-0.3599343439655338,-0.0007773153446533817,-9.736852766302113e-05,-2.1838702685498363e-06,0.0,-1.5707963267948966,0.00028550470706899256,-1.5707963267948966,0.0,0.0
16.904,600.0,60.0,0.0,-1.5707963267948966,-0.017792622176939332,-1.5707963267948966,0.0,0.0,0.0,0.0,-0.8656413162128843,0.0,0.0,0.0,-0.0009212986028324328,-1.5689997583235291,0.023381713810676656,-1.5696949765260944,-7.727627537498556e-06,2.630108125989025e-07,-0.005559127192215337,-0.008063620057380096,-1.926990527325523,-0.006785855652157444,-6.707853250282406e-05,-3.916369608704617e-06,0.0,-1.5707963267948966,-0.0664171737470211,-1.5707963267948966,0.0,0.0
17.003,600.0,60.0,0.0,-1.5707963267948966,-0.07964187302230741,-1.5707963267948966,0.0,0.0,0.0,0.0,-0.8636281491339435,0.0,0.0,0.0,0.0010586876764959606,-1.572441228242184,-0.012338006090524883,-1.5714567907452361,-2.316128730026582e-06,-3.134807085234428e-07,0.011820612147371333,-0.014259799309180305,-0.24088967836893316,-0.008010779716431292,0.00011513163658368014,-7.505515174515988e-07,0.0,-1.5707963267948966,-0.19397057611284407,-1.5707963267948966,0.0,0.0
17.102,600.0,60.0,0.0,-1.5707963267948966,-0.15544744617995931,-1.5707963267948966,0.0,0.0,0.0,0.0,-0.5769414861692371,0.0,0.0,0.0,-0.0009755345676288583,-1.570459037442838,-0.1030389592543051,-1.5698726093708026,-2.184541788584833e-06,3.043421691364374e-07,-0.01257512209459631,0.016579196236800754,-2.0130704185015547,-0.00019834236816846022,-0.00016087264740419045,-2.9482502985224242e-06,0.0,-1.5707963267948966,-0.40582131931709453,-1.5707963267948966,0.0,0.0
17.202,600.0,60.0,0.0,-1.5707963267948966,-0.22688449777703923,-1.5707963267948966,0.0,0.0,0.0,0.0,-0.6795045590519851,0.0,0.0,0.0,0.000738889168048887,-1.573261615015983,-0.17854271369471075,-1.5716980731399974,2.8930241251147563e-06,-2.777526806251322e-07,0.01701740587030838,-0.013865774222930075,-0.4432025695312007,-0.011332939498101987,6.794544556561378e-05,-2.8841716928833576e-06,0.0,-1.5707963267948966,-0.4231438810364644,-1.5707963267948966,0.0,0.0
17.302,600.0,60.0,0.0,-1.5707963267948966,-0.30927918501409124,-1.5707963267948966,0.0,0.0,0.0,0.0,-0.6706001070562577,0.0,0.0,0.0,-0.0006058684327886324,-1.5703569052150335,-0.23488508234864514,-1.5703019109385234,4.550669299674035e-06,2.4894521083711525e-07,0.004242313147212097,0.03163026023714103,-1.67034622044844,-0.006228526256071664,1.5222089299214583e-05,-1.895490383354215e-06,0.0,-1.5707963267948966,-0.40015440691384674,-1.5707963267948966,0.0,0.0
17.403,600.0,60.0,0.0,-1.5707963267948966,-0.3846908807716911,-1.5707963267948966,0.0,0.0,0.0,0.0,-0.6628437351495837,0.0,0.0,0.0,-0.000522680181378337,-1.570628148172058,-0.3368042905554912,-1.5705531801873724,6.4992888801995526e-06,1.918977393428491e-07,0.01905220450415643,-0.03468554475000461,-1.7473283538665976,-0.023401000922633714,-5.733442935197465e-05,-9.005130401414265e-06,0.0,-1.5707963267948966,-0.4885448233414255,-1.5707963267948966,0.0,0.0
17.503,600.0,60.0,0.0,-1.5707963267948966,-0.45701113924417314,-1.5707963267948966,0.0,0.0,0.0,0.0,-0.5561724137042428,0.0,0.0,0.0,0.0005912633088710421,-1.5735690769638326,-0.39703883585306277,-1.5726159316096933,1.0526155789972984e-05,-3.970787303991482e-07,0.007480797655789263,-0.00046750671365813586,-0.10673653372366315,-0.0008918516223427361,-5.076165220434458e-05,-1.2418618872624799e-06,0.0,-1.5707963267948966,-0.5675640186465141,-1.5707963267948966,0.0,0.0
17.603,600.0,60.0,0.0,-1.5707963267948966,-0.5325585500428875,-1.5707963267948966,0.0,0.0,0.0,0.0,-0.8430202431980508,0.0,0.0,0.0,-0.00019328553175314807,-1.5714582554838359,-0.45176323427623316,-1.5711390756271897,1.3029636323954212e-05,1.0718098832790205e-07,0.004044948723524981,-0.003633823750392649,-1.2574569155774982,-0.004619529109675805,-0.00015338216549079075,-3.787988642074429e-06,0.0,-1.5707963267948966,-0.8147021074582638,-1.5707963267948966,0.0,0.0
17.702,600.0,60.0,0.0,-1.5707963267948966,-0.6246476223515849,-1.5707963267948966,0.0,0.0,0.0,0.0,-0.7579752108362573,0.0,0.0,0.0,0.00019563847293719604,-1.5727817133875506,-0.5190350495962845,-1.5722496138017528,1.5090424640249873e-05,-1.863979070781563e-07,0.007282323494956507,-0.0045732769715330435,-0.531126633183085,-0.004551194580728703,-0.0001317302789678878,-3.6039388169302943e-06,0.0,-1.5707963267948966,-0.7721457144407926,-1.5707963267948966,0.0,0.0
17.802,600.0,60.0,0.0,-1.5707963267948966,-0.7003314723293208,-1.5707963267948966,0.0,0.0,0.0,0.0,-0.6742566814364097,0.0,0.0,0.0,-0.0003508363635840372,-1.5702718172182055,-0.60846679532029,-1.5708486579103167,1.7227713412937876e-05,2.7031230721165113e-07,0.012813212857238597,-0.03753275315794895,-1.958714901178874,-0.027473363300555373,-0.00018191023837096378,-1.0812100399126408e-05,0.0,-1.5707963267948966,-0.7532489993607723,-1.5707963267948966,0.0,0.0
17.902,600.0,60.0,0.0,-1.5707963267948966,-0.7625686959730302,-1.5707963267948966,0.0,0.0,0.0,0.0,-0.43206786345713893,0.0,0.0,0.0,-0.00021318771948931152,-1.571009113365994,-0.7164855412402854,-1.5711820856787946,2.0714143843108704e-05,2.3553763648481088e-07,0.005722559458618885,-0.017120032239330805,-2.039257015184195,-0.015666337435932647,-0.00022610840702114296,-7.810733983342592e-06,0.0,-1.5707963267948966,-0.8636699740911281,-1.5707963267948966,0.0,0.0
18.002,600.0,60.0,0.0,-1.5707963267948966,-0.8314238041918589,-1.5707963267948966,0.0,0.0,0.0,0.0,-0.9912069518618161,0.0,0.0,0.0,0.00023235180003590338,-1.5731336501256046,-0.7855095501100409,-1.5732855834657937,2.219881876514363e-05,-3.478375999433361e-07,0.0007127615811903382,0.012279317718299564,-0.42915898873391306,0.013362061229579504,-0.00023192597709231937,-1.4797233824500953e-07,0.0,-1.5707963267948966,-0.9160089386040948,-1.5707963267948966,0.0,0.0
18.102,600.0,60.0,0.0,-1.5707963267948966,-0.9169905180579008,-1.5707963267948966,0.0,0.0,0.0,0.0,-1.0928024257179731,0.0,0.0,0.0,-7.872708272757012e-05,-1.5718132548571433,-0.8347762992217982,-1.5718251059239943,2.5946670624248833e-05,1.2882599310383517e-07,0.0020532880978497104,-1.67712575743232e-05,-1.3724913599151438,-0.0017961061892544058,-0.0002671419912822514,-4.4093483654708295e-06,0.0,-1.5707963267948966,-1.1555138046872402,-1.5707963267948966,0.0,0.0
18.203,600.0,60.0,0.0,-1.5707963267948966,-0.9996410325400937,-1.5707963267948966,0.0,0.0,0.0,0.0,-0.6892819829681895,0.0,0.0,0.0,-4.508101532904893e-05,-1.571984895589399,-0.9306288597549575,-1.5720607956804662,2.7965296422401613e-05,1.0365706376452151e-07,0.002447901212149226,-0.001460416294295869,-1.489675374726647,-0.0041872369472895216,-0.00029186886658919264,-5.513939899951491e-06,0.0,-1.5707963267948966,-1.1727204443212662,-1.5707963267948966,0.0,0.0
18.303,600.0,60.0,0.0,-1.5707963267948966,-1.0598205321409147,-1.5707963267948966,0.0,0.0,0.0,0.0,-0.9317470469787679,0.0,0.0,0.0,-2.4604678978878428e-05,-1.5720822341272414,-1.0128750639627928,-1.5722393606315561,3.0060292639784137e-05,8.344827754301478e-08,0.0021894645749719792,-0.0005081383855589337,-1.463482519615445,-0.003640886328767863,-0.00031592427875239555,-6.123405286631182e-06,0.0,-1.5707963267948966,-1.109535853219075,-1.5707963267948966,0.0,0.0
18.403,600.0,60.0,0.0,-1.5707963267948966,-1.1385481204656216,-1.5707963267948966,0.0,0.0,0.0,0.0,-0.7829452829405271,0.0,0.0,0.0,9.35611614518884e-05,-1.572813005530359,-1.0524471077583346,-1.5733179408730382,3.0231490628010376e-05,-2.1324494600000952e-07,-7.71215138809291e-05,0.01449318480713102,-0.5713889350436618,0.017239148360868404,-0.00031081999502737917,-2.864689484545784e-07,0.0,-1.5707963267948966,-1.4183978178766508,-1.5707963267948966,0.0,0.0
18.502,600.0,60.0,0.0,-1.5707963267948966,-1.2101753529909232,-1.5707963267948966,0.0,0.0,0.0,0.0,-0.9892217456427934,0.0,0.0,0.0,6.29506409405239e-05,-1.575394141258864,-1.1467355937832904,-1.5741127613003723,2.9232144874264326e-05,-4.3130758473975145e-07,-0.0005954649396318599,-0.18921861078029548,0.0292955147631444,0.033435933390485194,-0.00028511460632650685,4.850067675580053e-06,0.0,-1.5707963267948966,-1.2607724903469522,-1.5707963267948966,0.0,0.0
18.603,600.0,60.0,0.0,-1.5707963267948966,-1.2937016538723327,-1.5707963267948966,0.0,0.0,0.0,0.0,-1.2304845029572578,0.0,0.0,0.0,-7.397056307562487e-06,-1.5732701371314712,-1.2177549095207605,-1.5723998160872332,3.496643630194777e-05,1.3097803512597587e-07,0.0012047577710604409,0.01327427990303967,-1.4827413021964078,-0.002772621952293674,-0.0003676057285080954,-6.929534611185023e-06,0.0,-1.5707963267948966,-1.4725736369580613,-1.5707963267948966,0.0,0.0
18.702,600.0,66.66666412353516,0.0,-1.5707963267948966,-1.3446287146664435,-1.5707963267948966,0.0,0.0,0.0,0.0,0.6147853907752054,0.0,0.0,0.0,5.4290174038584986e-05,-1.5732056886330912,-1.2879445174206163,-1.5734243341585867,3.478038969521696e-05,-1.4566308332511426e-07,-0.00011245743046210243,0.018776598540252255,-0.7193072269942516,0.01688235239412234,-0.0003567731127147379,-1.3836643653334447e-06,0.0,-1.5707963267948966,-1.2116907412945443,-1.5707963267948966,0.0,0.0
18.802,600.0,66.66666412353516,0.0,-1.5707963267948966,-1.2735884876179204,-1.5707963267948966,0.0,0.0,0.0,0.0,0.7703236837954796,0.0,0.0,0.0,0.0001066500601808676,-1.5773740683712834,-1.3201057828507947,-1.5767370402385363,2.609410635284031e-05,-1.035221660819995e-06,0.0014855686024349063,-0.1636852375787813,2.2282541008960663,0.06885753633449028,-0.0001501834788558278,1.4134225826604208e-05,0.0,-1.5707963267948966,-1.0042476198964887,-1.5707963267948966,0.0,0.0
18.902,600.0,66.66666412353516,0.0,-1.5707963267948966,-1.2110985381486756,-1.5707963267948966,0.0,0.0,0.0,0.0,0.6229731267131454,0.0,0.0,0.0,0.00011511543070229093,-1.5750194344934898,-1.2492594394261252,-1.5748845453842772,3.253184397077003e-05,-4.885260951045049e-07,-0.0018122482223967833,0.04648172759586098,1.3190129546974807,0.05212270225881231,-0.0002527323619839872,8.928596419815938e-06,0.0,-1.5707963267948966,-0.9756242651963877,-1.5707963267948966,0.0,0.0
19.002,600.0,66.66666412353516,0.0,-1.5707963267948966,-1.1339283179974693,-1.5707963267948966,0.0,0.0,0.0,0.0,0.6174504291171116,0.0,0.0,0.0,3.5638049801155326e-05,-1.5736533660123335,-1.2123767888574,-1.5735833248756645,3.6070394921176075e-05,-1.2533622869352084e-07,-0.000673843473999722,0.029376608018337313,0.5752016496182737,0.031439226282603684,-0.0003098162056599674,2.9775543762977445e-06,0.0,-1.5707963267948966,-1.0291632757359928,-1.5707963267948966,0.0,0.0
19.102,600.0,66.66666412353516,0.0,-1.5707963267948966,-1.0587384766086263,-1.5707963267948966,0.0,0.0,0.0,0.0,0.9623916140061732,0.0,0.0,0.0,2.011691972823188e-05,-1.5730174031440227,-1.130522801699106,-1.5733124813928034,3.607265431687628e-05,-4.581836883643297e-08,-0.0010172376807309114,0.026048588762119792,0.7634891360576934,0.03230091910102864,-0.0002958075947165209,3.3026836017747064e-06,0.0,-1.5707963267948966,-0.7917730227386206,-1.5707963267948966,0.0,0.0
19.202,600.0,66.66666412353516,0.0,-1.5707963267948966,-0.9566479289112868,-1.5707963267948966,0.0,0.0,0.0,0.0,0.6936766447174949,0.0,0.0,0.0,6.143955628349688e-05,-1.573044700545196,-1.0676226651769605,-1.573671741823855,3.404383888793527e-05,-1.527494578661373e-07,-0.0016153538830524724,0.0286030949603184,1.1548884619864044,0.03875152386368849,-0.0002739620340945683,5.051822873144652e-06,0.0,-1.5707963267948966,-0.8471524872481615,-1.5707963267948966,0.0,0.0
19.302,600.0,66.66666412353516,0.0,-1.5707963267948966,-0.8914208749302137,-1.5707963267948966,0.0,0.0,0.0,0.0,0.6365943295917911,0.0,0.0,0.0,0.00013341703976792817,-1.5732628134384734,-0.9596051842584828,-1.5740492449083738,3.1655204534583844e-05,-2.7186526078728983e-07,-0.0037784164927528135,0.03816889495739561,1.8490268858876169,0.051528342960155474,-0.00022414715402549611,9.014670862304819e-06,0.0,-1.5707963267948966,-0.6864842385506971,-1.5707963267948966,0.0,0.0
19.402,600.0,66.66666412353516,0.0,-1.5707963267948966,-0.81416570256863,-1.5707963267948966,0.0,0.0,0.0,0.0,0.7893019123703189,0.0,0.0,0.0,6.980453811539182e-06,-1.5724633324792316,-0.8921008416857538,-1.5728996914238411,3.3024491793116573e-05,7.128016652568259e-09,-0.0007705953491830414,0.021201154960822605,0.9900228781229863,0.027232078825199593,-0.00028035631898188246,1.8871523852494752e-06,0.0,-1.5707963267948966,-0.7204726691452353,-1.5707963267948966,0.0,0.0
19.502,600.0,66.66666412353516,0.0,-1.5707963267948966,-0.7294458364845511,-1.5707963267948966,0.0,0.0,0.0,0.0,1.0692807583833945,0.0,0.0,0.0,-0.00011122194738022535,-1.5718663849208905,-0.8326797256536334,-1.572101142570981,3.335404050427015e-05,1.941256099203789e-07,-0.00024779880079882127,0.014971075540880828,0.38350561658917526,0.017985323446119274,-0.00028197437139613324,3.3198297128044505e-07,0.0,-1.5707963267948966,-0.589345204335533,-1.5707963267948966,0.0,0.0
19.602,600.0,66.66666412353516,0.0,-1.5707963267948966,-0.6456074629018493,-1.5707963267948966,0.0,0.0,0.0,0.0,0.66745516305041,0.0,0.0,0.0,0.00020526439262554731,-1.573630729143068,-0.7436632999016258,-1.5736982402767015,2.738042380614127e-05,-2.557015081370328e-07,-0.0036701563936978403,0.03786882328157093,1.7773601556891485,0.04050181158873741,-0.00021211286481253797,6.294445300023167e-06,0.0,-1.5707963267948966,-0.3818949253574379,-1.5707963267948966,0.0,0.0
19.702,600.0,66.66666412353516,0.0,-1.5707963267948966,-0.5663594577555742,-1.5707963267948966,0.0,0.0,0.0,0.0,0.8738764636504761,0.0,0.0,0.0,7.009803605504479e-05,-1.5728654698038336,-0.6728337343918238,-1.5728399034573688,2.7301115359768997e-05,-6.193275831940483e-08,-0.0019221232529741047,0.026982811108357378,1.2205485655042536,0.027381808815705493,-0.00022137609459974827,3.636289878767588e-06,0.0,-1.5707963267948966,-0.5038323603477557,-1.5707963267948966,0.0,0.0
19.803,600.0,66.66666412353516,0.0,-1.5707963267948966,-0.49395435355584993,-1.5707963267948966,0.0,0.0,0.0,0.0,0.8776958619267987,0.0,0.0,0.0,-0.0002899699664130132,-1.5707660999165243,-0.5680304891719901,-1.5713887469793848,2.9204833006456674e-05,3.0622567616349387e-07,0.002897367902748943,0.10799833112576429,0.30047178248894896,0.006454429935834936,-0.0002405910196769173,-2.0963779892245815e-06,0.0,-1.5707963267948966,-0.37512608528533603,-1.5707963267948966,0.0,0.0
19.902,600.0,66.66666412353516,0.0,-1.5707963267948966,-0.4111603015220471,-1.5707963267948966,0.0,0.0,0.0,0.0,0.9614303009835705,0.0,0.0,0.0,-0.0001877193235172804,-1.5714856860430637,-0.49833373252136703,-1.571741083191602,2.4002009557817667e-05,1.3496066927264223e-07,-0.003366946400990937,0.02094900353986254,0.7119435865801825,0.0206446250332125,-0.00019771298830146883,1.7434229697709756e-06,0.0,-1.5707963267948966,-0.2974332452896879,-1.5707963267948966,0.0,0.0
20.003,600.0,66.66666412353516,0.0,-1.5707963267948966,-0.3451579213651206,-1.5707963267948966,0.0,0.0,0.0,0.0,0.4893727478112836,0.0,0.0,0.0,0.0004372406290812122,-1.5734035615020843,-0.38152226065685235,-1.5730086147124254,1.8577141558544555e-05,-2.718680863018093e-07,-0.002311107838727576,0.028310338655113034,2.093531172935574,0.024442267780530273,-0.00010463817396503278,4.271496274171552e-06,0.0,-1.5707963267948966,-0.18533322125680485,-1.5707963267948966,0.0,0.0
20.104,600.0,66.66666412353516,0.0,-1.5707963267948966,-0.2655473548140517,-1.5707963267948966,0.0,0.0,0.0,0.0,0.8661928139197709,0.0,0.0,0.0,-0.0001895126172627821,-1.5717097910487938,-0.3067412964586726,-1.5716031314471361,1.70709617407444e-05,5.870079829847178e-08,0.00886449293441037,-0.0005265430003119967,1.0504828932963468,0.0020897540292465684,-0.00010126034488394088,-7.995686703238773e-07,0.0,-1.5707963267948966,-0.1516954677464249,-1.5707963267948966,0.0,0.0
20.202,600.0,66.66666412353516,0.0,-1.5707963267948966,-0.18360500648299904,-1.5707963267948966,0.0,0.0,0.0,0.0,0.658913998127564,0.0,0.0,0.0,0.0003959000920977828,-1.57292685566696,-0.25440886610282737,-1.5722653264521842,1.452372471746309e-05,-1.7154536777535702e-07,-0.006773891713049453,0.031205933371112743,1.5815428475836388,0.02114870109032105,-8.458843468592991e-05,4.670441145795036e-06,0.0,-1.5707963267948966,-0.12867272220011378,-1.5707963267948966,0.0,0.0
20.303,600.0,66.66666412353516,0.0,-1.5707963267948966,-0.11663163137034527,-1.5707963267948966,0.0,0.0,0.0,0.0,0.6023601236703482,0.0,0.0,0.0,0.0004741692001933157,-1.5728504229436746,-0.1438997649579852,-1.5720729130634261,1.1246473286151478e-05,-1.7460955890328034e-07,0.005192313682611101,0.012577599042469544,1.8495664423244669,0.00878923158588581,-3.3029620260706086e-07,2.7312672920552875e-06,0.0,-1.5707963267948966,0.003805268218043209,-1.5707963267948966,0.0,0.0
20.402,600.0,66.66666412353516,0.0,-1.5707963267948966,-0.05153971503915944,-1.5707963267948966,0.0,0.0,0.0,0.0,0.5928159247355924,0.0,0.0,0.0,4.42494317378735e-05,-1.5717770358663183,-0.08686331826732732,-1.5713838201313681,8.199945370162286e-06,-2.768097842068546e-08,0.01619081996489393,-0.008090338533105507,1.2475611415989818,-0.003017885564825061,2.9548208325289998e-05,-6.316464375936221e-07,0.0,-1.5707963267948966,0.09540859009931457,-1.5707963267948966,0.0,0.0
20.502,600.0,66.66666412353516,0.0,-1.5707963267948966,0.021451933655789734,-1.5707963267948966,0.0,0.0,0.0,0.0,0.6675009960264813,0.0,0.0,0.0,0.0004969669904477086,-1.5721850321453184,-0.014253946596565936,-1.5715305603074314,6.302664563023383e-06,-1.0920289794537878e-07,-0.01845578125565478,0.03709812526804802,1.4235689254101005,0.018900766345482597,-4.570694514757004e-05,5.2036397366089334e-06,0.0,-1.5707963267948966,0.21862420695488535,-1.5707963267948966,0.0,0.0
20.602,600.0,66.66666412353516,0.0,-1.5707963267948966,0.09475525088855129,-1.5707963267948966,0.0,0.0,0.0,0.0,0.6364497805009373,0.0,0.0,0.0,-0.0004455480532140106,-1.570504976971642,0.0004990763882808492,-1.5706828761324592,3.5159303256265484e-06,1.09907117755151e-07,0.011944360712789448,-0.010222917311000147,0.5736545527620195,-0.0046015142813176394,1.7956998393759212e-05,-1.398980812848772e-06,0.0,-1.5707963267948966,0.14202190928995656,-1.5707963267948966,0.0,0.0
20.702,600.0,66.66666412353516,0.0,-1.5707963267948966,0.15967692872813027,-1.5707963267948966,0.0,0.0,0.0,0.0,0.6808276670682882,0.0,0.0,0.0,0.0006532094371124371,-1.5720277724829492,0.0982661751067196,-1.5714338875598615,1.2236937654079143e-06,-1.7970067573063624e-07,0.003487465363438681,0.005911857677109828,1.6044217981924005,0.003507064564585983,8.354318784561619e-05,2.0193917983137306e-06,0.0,-1.5707963267948966,0.29608878096212987,-1.5707963267948966,0.0,0.0
20.803,600.0,66.66666412353516,0.0,-1.5707963267948966,0.2246450778938375,-1.5707963267948966,0.0,0.0,0.0,0.0,0.9506537750567056,0.0,0.0,0.0,0.0006134844493278785,-1.571701934723578,0.16441870543250278,-1.5713059226694832,-1.5874597748651879e-06,-1.78856418341705e-07,-0.003467206353728339,0.012122939187744172,1.564033362364695,0.00703520399204047,8.133991943572257e-05,3.487624130686895e-06,0.0,-1.5707963267948966,0.2844769360804371,-1.5707963267948966,0.0,0.0
20.902,600.0,66.66666412353516,0.0,-1.5707963267948966,0.29742353876128763,-1.5707963267948966,0.0,0.0,0.0,0.0,0.6775785494353979,0.0,0.0,0.0,-0.0004520407437241235,-1.569412681450546,0.21483405927765448,-1.5700519732702194,-3.837231836108261e-06,1.562452384000632e-07,-0.0025305515323271297,-0.00018808979939353217,0.4928251502541062,0.0003179574422989611,3.266833016390432e-05,4.4402344773981905e-07,0.0,-1.5707963267948966,0.3562501821412376,-1.5707963267948966,0.0,0.0
21.003,600.0,66.66666412353516,0.0,-1.5707963267948966,0.35747627116767217,-1.5707963267948966,0.0,0.0,0.0,0.0,0.6633570532623925,0.0,0.0,0.0,-0.00017552118747944434,-1.5697489055381684,0.2621573499391697,-1.5702266766377286,-5.933569315708946e-06,6.836657790111674e-08,0.001100207112105839,-0.005531778296325634,0.7404155083732469,-0.0025658620835342727,7.837192685453737e-05,6.484157075295966e-07,0.0,-1.5707963267948966,0.4182142804781215,-1.5707963267948966,0.0,0.0
21.103,600.0,66.66666412353516,0.0,-1.5707963267948966,0.43010931584034123,-1.5707963267948966,0.0,0.0,0.0,0.0,0.9171486673328157,0.0,0.0,0.0,0.000302101555932888,-1.5705965897131406,0.3328253947288583,-1.570765034652088,-9.081291542085446e-06,-1.3361958166492864e-07,-0.0022335640779250344,0.0028199193291494258,1.3473938629602915,0.00319567653472307,0.00012768512355029288,2.769669145614884e-06,0.0,-1.5707963267948966,0.5479936009571272,-1.5707963267948966,0.0,0.0
21.202,600.0,66.66666412353516,0.0,-1.5707963267948966,0.5212397026518909,-1.5707963267948966,0.0,0.0,0.0,0.0,1.2447720813129863,0.0,0.0,0.0,0.00010623529852342737,-1.5699248073281682,0.41807744228003885,-1.5702876630266915,-1.119078690309804e-05,-4.384336990313327e-08,-0.006740685943356178,0.008809901252955648,1.2212605616216863,0.007660657256869937,0.00012646033602503975,4.117821555542368e-06,0.0,-1.5707963267948966,0.6815236106380842,-1.5707963267948966,0.0,0.0
21.302,600.0,66.66666412353516,0.0,-1.5707963267948966,0.6088594094783173,-1.5707963267948966,0.0,0.0,0.0,0.0,0.8424884504996846,0.0,0.0,0.0,0.00014614719034725774,-1.5699446478782892,0.49669159410371055,-1.5702815377561843,-1.45630995639327e-05,-9.474516873879837e-08,-0.00042486902346846564,-0.004187707941892464,1.3999998166048448,-0.0011546627746884797,0.00016662332960985367,2.24089512005427e-06,0.0,-1.5707963267948966,0.7204201964699454,-1.5707963267948966,0.0,0.0
21.403,600.0,66.66666412353516,0.0,-1.5707963267948966,0.6865909646657864,-1.5707963267948966,0.0,0.0,0.0,0.0,0.7304228072369245,0.0,0.0,0.0,0.0003154337785750626,-1.5704519800659493,0.5978078259523841,-1.5707043145792343,-1.8678401903428496e-05,-2.5306341412284393e-07,-0.00595612596829994,0.012556542384803804,2.0188538722828255,0.01367948610467903,0.00021373743533956412,5.765878267211617e-06,0.0,-1.5707963267948966,0.982172285265638,-1.5707963267948966,0.0,0.0
21.503,600.0,66.66666412353516,0.0,-1.5707963267948966,0.7660365740894279,-1.5707963267948966,0.0,0.0,0.0,0.0,0.814894103772444,0.0,0.0,0.0,-0.00015668133834315404,-1.5686354378864062,0.6853044522493107,-1.568893764512144,-1.8091192681902656e-05,1.8014893249756793e-07,-0.0041284786150707214,-0.0010452426791245197,0.8174269365633953,0.0007622652985839502,0.00019967411125995307,2.9227005358595567e-06,0.0,-1.5707963267948966,0.9141490917155969,-1.5707963267948966,0.0,0.0
21.603,600.0,66.66666412353516,0.0,-1.5707963267948966,0.8391690815709868,-1.5707963267948966,0.0,0.0,0.0,0.0,0.7417374199092762,0.0,0.0,0.0,-0.00012154992145481693,-1.568690299004862,0.7929794506516041,-1.5687630033026212,-2.12014296643286e-05,1.6264240962982732e-07,-0.002123334696079624,-0.005443275003459036,1.006617301191379,-0.0033665266410300592,0.0002287611813928594,2.7605739096189397e-06,0.0,-1.5707963267948966,1.090887317556504,-1.5707963267948966,0.0,0.0
21.702,600.0,66.66666412353516,0.0,-1.5707963267948966,0.9299353299291919,-1.5707963267948966,0.0,0.0,0.0,0.0,0.9575885514962414,0.0,0.0,0.0,-8.84364618923436e-05,-1.5687859064879959,0.8619018599257731,-1.5687382359044832,-2.43987244952856e-05,1.1861864729199014e-07,-0.001055552285449894,-0.008580244180531046,0.9485487380978825,-0.0070397911829884014,0.00024880821427351565,2.0292327161639674e-06,0.0,-1.5707963267948966,0.9942007222317617,-1.5707963267948966,0.0,0.0
21.803,600.0,66.66666412353516,0.0,-1.5707963267948966,1.00749122001524,-1.5707963267948966,0.0,0.0,0.0,0.0,0.5903834518371576,0.0,0.0,0.0,-7.688824346586729e-05,-1.5688148017858232,0.9660125501041317,-1.5685701904396994,-2.6773843111049132e-05,1.1795584190570757e-07,-0.0016942720066265495,-0.005728288375854458,1.091289511994222,-0.004161498431621476,0.0002878581954016551,3.0445283406353612e-06,0.0,-1.5707963267948966,1.298426461852559,-1.5707963267948966,0.0,0.0
21.903,600.0,66.66666412353516,0.0,-1.5707963267948966,1.0711215044656583,-1.5707963267948966,0.0,0.0,0.0,0.0,0.4583884251314213,0.0,0.0,0.0,-0.00015878319402086382,-1.5683044069629095,1.0199403637557458,-1.567719576787528,-2.6465073932113142e-05,3.0750811053441395e-07,0.00013325250212062393,-0.016303821218897358,0.44313772155865727,-0.01930818005799428,0.00026800870522563594,-4.3115103853643406e-07,0.0,-1.5707963267948966,1.330110456795388,-1.5707963267948966,0.0,0.0
22.002,600.0,66.66666412353516,0.0,-1.5707963267948966,1.1470503001679635,-1.5707963267948966,0.0,0.0,0.0,0.0,0.694489707793431,0.0,0.0,0.0,-9.485185343661251e-05,-1.5686482210596386,1.0727707553011654,-1.568020247674598,-2.960381343511681e-05,1.9400152538668064e-07,0.0004468971562667108,-0.015757629765862723,0.5191126474525468,-0.019517552373350348,0.0002777841839056243,-3.555087448741391e-07,0.0,-1.5707963267948966,1.2919688442811095,-1.5707963267948966,0.0,0.0
22.103,600.0,66.66666412353516,0.0,-1.5707963267948966,1.2293694542967961,-1.5707963267948966,0.0,0.0,0.0,0.0,0.8002125961631815,0.0,0.0,0.0,6.221099362330777e-05,-1.569721874453104,1.1568829033267647,-1.5695093541981158,-3.564192247040405e-05,-2.2793501821794226e-07,-0.002681423249120671,0.005267046039958197,1.833672430622765,0.011858254264903922,0.0003893671550858448,8.301877743038888e-06,0.0,-1.5707963267948966,1.377472169215718,-1.5707963267948966,0.0,0.0
22.202,600.0,66.66666412353516,0.0,-1.5707963267948966,1.3132465943540688,-1.5707963267948966,0.0,0.0,0.0,0.0,0.7504102118509728,0.0,0.0,0.0,-1.8490024786924196e-05,-1.5692064196241193,1.2232109276460057,-1.5685942920475646,-3.4313259634200303e-05,-6.262027207616004e-09,-0.0007699637586842858,-0.005503472326919185,1.278663134705581,-0.004781283376533142,0.0003475794528095194,4.245330866816993e-06,0.0,-1.5707963267948966,1.5527661473949115,-1.5707963267948966,0.0,0.0
22.302,600.0,73.33333587646484,0.0,-1.5707963267948966,1.294019276298087,-1.5707963267948966,0.0,0.0,0.0,0.0,-0.9634229106809293,0.0,0.0,0.0,1.6440026507378464e-05,-1.5696214732800082,1.320220565093777,-1.5692177380587522,-3.7877744871222696e-05,-1.9603343542071484e-07,-0.0012882689372547664,0.0020401882841263957,1.9268363302984075,0.008981552388184263,0.00040437675959770713,8.085630005293884e-06,0.0,-1.5707963267948966,1.2211323229024864,-1.5707963267948966,0.0,0.0
22.402,600.0,73.33333587646484,0.0,-1.5707963267948966,1.2046302651945577,-1.5707963267948966,0.0,0.0,0.0,0.0,-0.7454304285949082,0.0,0.0,0.0,-0.0001403768075114604,-1.5641185835195774,1.3359232286711569,-1.566018748957349,-2.655945653019386e-05,5.587139393448654e-07,0.0016090807602914122,-0.05917664616642961,-0.7638770920494907,-0.04797814532880889,0.00017890103213655657,-6.623456084008018e-06,0.0,-1.5707963267948966,1.1223135604948475,-1.5707963267948966,0.0,0.0
22.502,600.0,73.33333587646484,0.0,-1.5707963267948966,1.1354464676267169,-1.5707963267948966,0.0,0.0,0.0,0.0,-0.8889436505152977,0.0,0.0,0.0,-0.00011194331228511198,-1.5660194147476214,1.2506606616336704,-1.5664480505250697,-2.93323385080488e-05,4.329739081170626e-07,0.0017611771670823352,-0.046949998700470175,-1.284888406911696,-0.05017608546596491,0.00017744416078535038,-7.057649661976845e-06,0.0,-1.5707963267948966,1.0410806246277262,-1.5707963267948966,0.0,0.0
22.603,600.0,73.33333587646484,0.0,-1.5707963267948966,1.0674248127492918,-1.5707963267948966,0.0,0.0,0.0,0.0,-0.5473480345927989,0.0,0.0,0.0,-9.693018864253671e-05,-1.5671898740467114,1.1563345584583173,-1.5669489911261136,-3.143213390946359e-05,2.961534788382686e-07,0.0019443714411607623,-0.03896163895131734,-1.4769762242266586,-0.047738302705512034,0.00019015529342964949,-6.5612703826128365e-06,0.0,-1.5707963267948966,0.962053648603362,-1.5707963267948966,0.0,0.0
22.702,600.0,73.33333587646484,0.0,-1.5707963267948966,0.9909530575044254,-1.5707963267948966,0.0,0.0,0.0,0.0,-0.9700352561046465,0.0,0.0,0.0,-7.081831189869464e-05,-1.5678785675046059,1.0882451859731253,-1.5674890801951817,-3.319447271477409e-05,1.678431500710658e-07,0.001524009018108706,-0.031931297308860865,-1.3355892682704609,-0.04019871888955118,0.0002232339517964816,-4.651134690810041e-06,0.0,-1.5707963267948966,0.713726207060117,-1.5707963267948966,0.0,0.0
22.802,600.0,73.33333587646484,0.0,-1.5707963267948966,0.9103737749019176,-1.5707963267948966,0.0,0.0,0.0,0.0,-0.7714190399447256,0.0,0.0,0.0,-2.4160193670630425e-05,-1.5685378330324549,1.0327539636035803,-1.5681123930483147,-3.48111272295269e-05,3.25110010390862e-08,0.00115401648999035,-0.02492728767168255,-0.913927510768798,-0.03176461879473013,0.00024543994292387496,-2.3983063752775824e-06,0.0,-1.5707963267948966,0.7154114908232745,-1.5707963267948966,0.0,0.0
22.902,600.0,73.33333587646484,0.0,-1.5707963267948966,0.8370310274773285,-1.5707963267948966,0.0,0.0,0.0,0.0,-0.6848021571859961,0.0,0.0,0.0,4.7830829933356754e-05,-1.5691574174600618,0.9433905279615353,-1.5688034833511904,-3.6199619351511345e-05,-1.0899378606042624e-07,0.0009543210851450211,-0.020024503812198346,-0.6529367918346511,-0.025303105474573963,0.0002555259828574464,-1.2622855951347487e-06,0.0,-1.5707963267948966,0.651888386070994,-1.5707963267948966,0.0,0.0
23.002,600.0,73.33333587646484,0.0,-1.5707963267948966,0.7534540682251212,-1.5707963267948966,0.0,0.0,0.0,0.0,-1.0823878572116743,0.0,0.0,0.0,2.6244760501206173e-06,-1.5689875077825148,0.8534545126851235,-1.5685624672725382,-3.33183412394747e-05,-2.74475460782438e-08,0.0017980763823049813,-0.023993995351231888,-1.0234074665998927,-0.02996080569295982,0.00022532730629468625,-2.865380306972104e-06,0.0,-1.5707963267948966,0.47777076791443346,-1.5707963267948966,0.0,0.0
23.102,600.0,73.33333587646484,0.0,-1.5707963267948966,0.6548808307874197,-1.5707963267948966,0.0,0.0,0.0,0.0,-0.9158903529369746,0.0,0.0,0.0,0.00014439435441397048,-1.5696754022920822,0.763717568700195,-1.5694363835842475,-3.4320427932788716e-05,-2.0680636034675572e-07,0.0010593456645387243,-0.01757551704981572,-0.5326704343774903,-0.02054291516611209,0.00024235261686403486,-4.1802852367704935e-07,0.0,-1.5707963267948966,0.38791202310448836,-1.5707963267948966,0.0,0.0
23.202,600.0,73.33333587646484,0.0,-1.5707963267948966,0.570003963551045,-1.5707963267948966,0.0,0.0,0.0,0.0,-0.6054585990979777,0.0,0.0,0.0,-1.512892173587192e-05,-1.568976988296209,0.6586209097072617,-1.5687630033026212,-2.8933256487855385e-05,4.487554236154492e-10,0.0026901911348462416,-0.026351860392441768,-1.2853652459048746,-0.028705778545692368,0.00019036936710858224,-2.9028678367321583e-06,0.0,-1.5707963267948966,0.29572984658076074,-1.5707963267948966,0.0,0.0
23.302,600.0,73.33333587646484,0.0,-1.5707963267948966,0.4918589557844495,-1.5707963267948966,0.0,0.0,0.0,0.0,-0.45026528786289843,0.0,0.0,0.0,0.00017358948542899868,-1.5696780654531723,0.5706520383700369,-1.5695937764046712,-2.8699252581923277e-05,-1.5009839505777784e-07,0.0012728480902161768,-0.018604670685941623,-0.7746378607500649,-0.018646746550570272,0.00020326926494904278,-9.901682286081476e-07,0.0,-1.5707963267948966,0.21301998155481933,-1.5707963267948966,0.0,0.0
23.403,600.0,73.33333587646484,0.0,-1.5707963267948966,0.42019233856925364,-1.5707963267948966,0.0,0.0,0.0,0.0,-0.6091069055881463,0.0,0.0,0.0,-7.100522406528902e-05,-1.5688555481505013,0.4916772279557412,-1.568958213010524,-2.396154565011127e-05,4.755100449972648e-08,0.004339257412377485,-0.029694350184113587,-1.44085683562635,-0.027131321870426727,0.0001480441724752888,-3.557184615461882e-06,0.0,-1.5707963267948966,0.3697520565598198,-1.5707963267948966,0.0,0.0
23.502,600.0,73.33333587646484,0.0,-1.5707963267948966,0.35164560803132083,-1.5707963267948966,0.0,0.0,0.0,0.0,-1.043006085530545,0.0,0.0,0.0,0.00015988392609299508,-1.5696038964168135,0.4381964924721242,-1.5697402502646256,-2.3276270121507887e-05,-1.0222885348017967e-07,0.0024806502913274444,-0.02064005396687273,-0.7614414314955315,-0.017295427404545045,0.00016302757449888694,-1.2436615812745784e-06,0.0,-1.5707963267948966,0.17096235995712555,-1.5707963267948966,0.0,0.0
23.602,600.0,73.33333587646484,0.0,-1.5707963267948966,0.274031222725748,-1.5707963267948966,0.0,0.0,0.0,0.0,-0.6396251353697334,0.0,0.0,0.0,-0.00014394819690908466,-1.568796559132356,0.3636746871375228,-1.5692409075602358,-1.8456007877919902e-05,6.925020200919493e-08,-0.0025894661692153764,-0.013543137458353479,-1.3005793525802791,-0.011234100851551819,0.00011223055624997608,-7.27550749853496e-07,0.0,-1.5707963267948966,0.06013064731701012,-1.5707963267948966,0.0,0.0
23.703,600.0,73.33333587646484,0.0,-1.5707963267948966,0.20040498425364284,-1.5707963267948966,0.0,0.0,0.0,0.0,-0.9780478262942713,0.0,0.0,0.0,0.00026873639318755407,-1.5699003062461394,0.2864737084567881,-1.570104970175912,-1.778198665937355e-05,-1.0949802134956427e-07,0.003921877651724019,-0.02072867481333432,-0.7442135755618634,-0.014439681276652946,0.00012538947186369355,-1.1631783558093125e-06,0.0,-1.5707963267948966,0.007623558781036155,-1.5707963267948966,0.0,0.0
23.804,600.0,73.33333587646484,0.0,-1.5707963267948966,0.12740008937586733,-1.5707963267948966,0.0,0.0,0.0,0.0,-0.6612702975670833,0.0,0.0,0.0,5.271596853009891e-05,-1.5695381163378888,0.19525448229863512,-1.5699429168235808,-1.3788226398466202e-05,-7.475709210755737e-09,0.0018042133561567977,-0.018041389228849247,-1.1382453030700632,-0.011721580005523214,7.451508963035743e-05,-1.6240079639106293e-06,0.0,-1.5707963267948966,-0.1584455358957343,-1.5707963267948966,0.0,0.0
23.902,600.0,73.33333587646484,0.0,-1.5707963267948966,0.046537883345057374,-1.5707963267948966,0.0,0.0,0.0,0.0,-1.0425492122260498,0.0,0.0,0.0,0.0005132936113423992,-1.5705525143970998,0.14222964670412608,-1.570571822315003,-1.2535768387292946e-05,-1.382303292766293e-07,0.004946800918876169,-0.01753687416627975,-0.6743197117010609,-0.01036433740666716,9.454433992902789e-05,-1.1066511758285462e-06,0.0,-1.5707963267948966,-0.1029284433921453,-1.5707963267948966,0.0,0.0
24.002,600.0,73.33333587646484,0.0,-1.5707963267948966,-0.029711040516954057,-1.5707963267948966,0.0,0.0,0.0,0.0,-0.6981638967079952,0.0,0.0,0.0,-0.0005275888241922194,-1.5689883067308419,0.07032653599177799,-1.569800837179425,-8.072656766493717e-06,1.2161743093352438e-07,0.006573786886197673,-0.023717255463269825,-1.486247620087606,-0.012969983579876394,1.2950606238383136e-05,-3.4475797960129547e-06,0.0,-1.5707963267948966,-0.14600145425483552,-1.5707963267948966,0.0,0.0
24.102,600.0,73.33333587646484,0.0,-1.5707963267948966,-0.107053543285339,-1.5707963267948966,0.0,0.0,0.0,0.0,-0.5274497619533505,0.0,0.0,0.0,-0.00019398706599073798,-1.5698579619848072,-0.012481450604739276,-1.570283535127002,-5.475966000725846e-06,3.8805739430682885e-08,0.002500060158365999,-0.014133588360051167,-1.300965377780286,-0.00757151522146064,-4.555635093820881e-06,-2.031405505082046e-06,0.0,-1.5707963267948966,-0.311343406693298,-1.5707963267948966,0.0,0.0
24.202,600.0,73.33333587646484,0.0,-1.5707963267948966,-0.17912628742587344,-1.5707963267948966,0.0,0.0,0.0,0.0,-0.9576815569465592,0.0,0.0,0.0,-0.0003852730325492077,-1.5698604919878427,-0.09114911012007822,-1.570285399339765,-1.650502400843607e-06,9.870504003253866e-08,-0.012908697585290946,0.007075171174040374,-1.5092147213284492,0.00302732418223533,-8.08170725141925e-05,-4.812666181149748e-07,0.0,-1.5707963267948966,-0.25107899579492865,-1.5707963267948966,0.0,0.0
24.303,600.0,73.33333587646484,0.0,-1.5707963267948966,-0.24793841744877376,-1.5707963267948966,0.0,0.0,0.0,0.0,-0.46305707365672466,0.0,0.0,0.0,0.000345506855493395,-1.571481558143374,-0.14479754985096455,-1.571127224560339,4.171839646882537e-08,-8.831951219552247e-08,-0.005758282747780126,0.006636440351585039,-0.7577367081031223,0.003107251004079707,-3.5663073827633454e-05,4.0691053675874387e-07,0.0,-1.5707963267948966,-0.31629806393379745,-1.5707963267948966,0.0,0.0
24.402,600.0,73.33333587646484,0.0,-1.5707963267948966,-0.31951924479935734,-1.5707963267948966,0.0,0.0,0.0,0.0,-0.8050279830199422,0.0,0.0,0.0,-0.00043996285955240317,-1.570441327421589,-0.24315016950219243,-1.5705534465034814,3.87191543954972e-06,1.0865641486470462e-07,0.015611722867937307,-0.027014835620465583,-1.5330346999083906,-0.01627707829618538,-6.780153506322722e-05,-4.640754575896908e-06,0.0,-1.5707963267948966,-0.43630528324645873,-1.5707963267948966,0.0,0.0
24.502,600.0,73.33333587646484,0.0,-1.5707963267948966,-0.4074127831945731,-1.5707963267948966,0.0,0.0,0.0,0.0,-1.1053346119562653,0.0,0.0,0.0,-0.00035874333827460425,-1.5708280184118686,-0.3144597365089675,-1.5707507867402561,7.018695912412691e-06,1.0027860557785976e-07,0.012325237481454714,-0.02122735796923546,-1.5037797421758157,-0.014351517120706413,-9.910575100947354e-05,-4.842166902036678e-06,0.0,-1.5707963267948966,-0.6768882195543456,-1.5707963267948966,0.0,0.0
24.603,600.0,73.33333587646484,0.0,-1.5707963267948966,-0.5064883527854107,-1.5707963267948966,0.0,0.0,0.0,0.0,-0.8172938889236704,0.0,0.0,0.0,-0.0003780989147977722,-1.5708650363510206,-0.376133087874968,-1.5707349409317704,1.0156912219019954e-05,1.502561952815842e-07,0.0014700390443283817,-0.002491107619869534,-1.6981324448398363,-0.003199982845399782,-0.0001383784939244721,-2.2138572954076476e-06,0.0,-1.5707963267948966,-0.7516302001080954,-1.5707963267948966,0.0,0.0
24.702,600.0,73.33333587646484,0.0,-1.5707963267948966,-0.5863288665897848,-1.5707963267948966,0.0,0.0,0.0,0.0,-1.086876409898404,0.0,0.0,0.0,-0.00030347614626945803,-1.5711864798945931,-0.4765593279747157,-1.570942534338742,1.3523358984722884e-05,1.518576429406882e-07,0.0035960945079611174,-0.005590004776549394,-1.820826939420877,-0.006306534509619018,-0.0001629687489374551,-3.538082359458785e-06,0.0,-1.5707963267948966,-0.6354950483930272,-1.5707963267948966,0.0,0.0
24.802,600.0,73.33333587646484,0.0,-1.5707963267948966,-0.6751698287069079,-1.5707963267948966,0.0,0.0,0.0,0.0,-0.6388934895601266,0.0,0.0,0.0,0.0002803879505216853,-1.573161213842887,-0.5361482564450247,-1.5726341742631602,1.1741765536109364e-05,-2.1994857443939095e-07,0.0026659545484062444,0.00578710730539103,-0.5085877682455263,0.003476499069442169,-0.00012589596661202648,-1.0006884128477943e-06,0.0,-1.5707963267948966,-0.917613073551,-1.5707963267948966,0.0,0.0
24.902,600.0,73.33333587646484,0.0,-1.5707963267948966,-0.7527234064713326,-1.5707963267948966,0.0,0.0,0.0,0.0,-1.0121058807633854,0.0,0.0,0.0,-0.00012217233620628648,-1.5719244418326541,-0.6502980652475734,-1.5716145830398234,1.8980289271899933e-05,9.147709610251883e-08,0.0054676013155412284,-0.008189233355709917,-1.6756132872943443,-0.010365368341292265,-0.0002184213251725351,-5.146960804275326e-06,0.0,-1.5707963267948966,-0.8980790314698813,-1.5707963267948966,0.0,0.0
25.002,600.0,73.33333587646484,0.0,-1.5707963267948966,-0.833812592788636,-1.5707963267948966,0.0,0.0,0.0,0.0,-0.8124812245047931,0.0,0.0,0.0,-0.00014924103451987322,-1.5718003385258565,-0.7530618617046244,-1.5715326908363034,2.3435809465374634e-05,1.686037849291639e-07,0.0031398983941967715,-0.00413275527727436,-1.993232132067391,-0.007952463770639661,-0.00024454215009862867,-4.70116902890931e-06,0.0,-1.5707963267948966,-1.0039555614854534,-1.5707963267948966,0.0,0.0
25.102,600.0,73.33333587646484,0.0,-1.5707963267948966,-0.9066104276968616,-1.5707963267948966,0.0,0.0,0.0,0.0,-0.8779244775910938,0.0,0.0,0.0,-0.00012043273968161658,-1.5719047344405876,-0.8376069065654161,-1.5717071278877037,2.6675433424589098e-05,1.8587183754620107e-07,0.003018987239666621,-0.0038630860299915934,-1.9630550548073762,-0.008398623356120096,-0.0002754116883832501,-5.482384553798631e-06,0.0,-1.5707963267948966,-1.1776418389614083,-1.5707963267948966,0.0,0.0
25.202,600.0,73.33333587646484,0.0,-1.5707963267948966,-1.003112394888884,-1.5707963267948966,0.0,0.0,0.0,0.0,-0.6941606754725279,0.0,0.0,0.0,-6.893702363072507e-05,-1.5721337662943344,-0.908175149393254,-1.5720802367564237,2.8614171704629895e-05,1.3781505801066027e-07,0.002158286344717987,-6.157218199836644e-05,-1.7137032819432572,-0.004032636544895544,-0.00028517481353279134,-4.946656333806001e-06,0.0,-1.5707963267948966,-1.0705260972009123,-1.5707963267948966,0.0,0.0
25.302,600.0,73.33333587646484,0.0,-1.5707963267948966,-1.0823479655788972,-1.5707963267948966,0.0,0.0,0.0,0.0,-1.0673059554834632,0.0,0.0,0.0,-3.634077062785397e-05,-1.5722685222454924,-0.9840999412796229,-1.572354808664811,2.985174147660061e-05,1.1060129746417304e-07,0.002777288465910792,-0.0019435003222084948,-1.7033551700535907,-0.006600819011559278,-0.0003224948290136161,-5.233630065191576e-06,0.0,-1.5707963267948966,-1.1583680038326802,-1.5707963267948966,0.0,0.0
25.402,600.0,73.33333587646484,0.0,-1.5707963267948966,-1.159350670673593,-1.5707963267948966,0.0,0.0,0.0,0.0,-0.6272642479657564,0.0,0.0,0.0,0.00012447882974131772,-1.5732260618154303,-1.038767581082061,-1.5739112931639079,2.6341912484484173e-05,-2.325159391904183e-07,-0.0003565606970096283,0.016047806133762076,-0.44638787664250357,0.019805558681080207,-0.00023996573598054788,4.802361307465951e-07,0.0,-1.5707963267948966,-1.3535643616639332,-1.5707963267948966,0.0,0.0
25.502,600.0,73.33333587646484,0.0,-1.5707963267948966,-1.236112026807394,-1.5707963267948966,0.0,0.0,0.0,0.0,-0.6634230034822012,0.0,0.0,0.0,-5.282819466508536e-05,-1.5720470804008524,-1.1391278746553155,-1.57225573907226,3.569229561626682e-05,1.969051066499553e-07,0.0019528588367266014,-0.001981729687567392,-1.9249935559821272,-0.007863601575204283,-0.00036715869325236195,-6.524614125573865e-06,0.0,-1.5707963267948966,-1.4536019234525281,-1.5707963267948966,0.0,0.0
25.602,600.0,80.0,0.0,-1.5707963267948966,-1.3037020796164462,-1.5707963267948966,0.0,0.0,0.0,0.0,-0.9191050755521227,0.0,0.0,0.0,-2.5321281272684784e-05,-1.5721826353003374,-1.1995605924275026,-1.5725974226401171,3.641885388033485e-05,1.3759241381600096e-07,0.0012482094288694154,0.0016314905846711836,-1.634130824890834,-0.0020340003357068393,-0.0003605294962308082,-5.349888876091671e-06,0.0,-1.5707963267948966,-1.1061976777239064,-1.5707963267948966,0.0,0.0
25.703,600.0,80.0,0.0,-1.5707963267948966,-1.283473247990738,-1.5707963267948966,0.0,0.0,0.0,0.0,0.7125816527502933,0.0,0.0,0.0,8.444024921182281e-05,-1.5730412384357788,-1.3041939279697892,-1.5743553752756785,3.082033140956073e-05,-2.5699873677498714e-07,-0.0001737714561834142,0.014216635293575006,-0.5844329649048154,0.021344595313847792,-0.0002908150454234699,1.8894604496435898e-07,0.0,-1.5707963267948966,-1.0731993869830445,-1.5707963267948966,0.0,0.0
25.803,600.0,80.0,0.0,-1.5707963267948966,-1.2088073125804328,-1.5707963267948966,0.0,0.0,0.0,0.0,0.5261212360560295,0.0,0.0,0.0,0.00016260246675969724,-1.5781157587348704,-1.2944981573891379,-1.5759821672275534,2.2599030483187147e-05,-5.562606943002194e-07,-0.0017469845210445168,0.05991445414049005,0.9431750116503207,0.04875282976158852,-0.0001172111746333584,6.430654656229267e-06,0.0,-1.5707963267948966,-0.9590721874477441,-1.5707963267948966,0.0,0.0
25.902,600.0,80.0,0.0,-1.5707963267948966,-1.1290940143321668,-1.5707963267948966,0.0,0.0,0.0,0.0,0.8813988345512671,0.0,0.0,0.0,0.0001023765351237764,-1.5759209145224815,-1.2420882124008144,-1.575098530377865,2.8520154836068993e-05,-3.3374079053241863e-07,-0.001289054231679717,0.04312014418753005,0.8660944078508576,0.041097864491399974,-0.00016783756787029075,4.71928279929357e-06,0.0,-1.5707963267948966,-1.0448673687151115,-1.5707963267948966,0.0,0.0
26.002,600.0,80.0,0.0,-1.5707963267948966,-1.0481214053014174,-1.5707963267948966,0.0,0.0,0.0,0.0,0.6710739497851437,0.0,0.0,0.0,0.00013440268082383442,-1.575098796693974,-1.1418711968942061,-1.5754159791798026,2.700987884764689e-05,-4.0608142285774253e-07,-0.0022619514505952724,0.04232629331728026,1.7532191330397984,0.052320691641102895,-0.00011045401291648204,6.46194332460726e-06,0.0,-1.5707963267948966,-0.98336582884647,-1.5707963267948966,0.0,0.0
26.102,600.0,80.0,0.0,-1.5707963267948966,-0.9784660272706311,-1.5707963267948966,0.0,0.0,0.0,0.0,0.7030904105249289,0.0,0.0,0.0,8.431292657499059e-05,-1.5740123601272762,-1.0492941247647627,-1.5744551106585019,3.1416716378372644e-05,-2.0537723732598205e-07,-0.0019147640598309967,0.03297172568713297,1.4303033940166385,0.04163692574673484,-0.00016268307354586485,4.2226947493286654e-06,0.0,-1.5707963267948966,-0.8301171890753203,-1.5707963267948966,0.0,0.0
26.202,600.0,80.0,0.0,-1.5707963267948966,-0.8964017052017716,-1.5707963267948966,0.0,0.0,0.0,0.0,0.92040869328893,0.0,0.0,0.0,-9.643662446455996e-05,-1.5725323083514648,-0.984446618274524,-1.572627516360435,3.9644795491846835e-05,1.9561202104171763e-07,-0.00023767747203024884,0.016667729698289075,0.17979203585158055,0.01881107607339577,-0.0002619252741755207,6.07996436603136e-08,0.0,-1.5707963267948966,-0.6904155303669769,-1.5707963267948966,0.0,0.0
26.302,600.0,80.0,0.0,-1.5707963267948966,-0.8117920298083083,-1.5707963267948966,0.0,0.0,0.0,0.0,0.9978589344679192,0.0,0.0,0.0,0.00012398077928123122,-1.573604896480494,-0.9011659757202746,-1.574327811558396,2.9253074761951176e-05,-1.9990343789169288e-07,-0.0026984165055294385,0.03180341772286122,1.6498341542584862,0.04153521379903983,-0.00014530511844618624,4.729983435494209e-06,0.0,-1.5707963267948966,-0.6134871509500059,-1.5707963267948966,0.0,0.0
