7cmdehdrb/project_th/tune/rtde_tune/data/rtde_log_shoulder_lift_zz.csv
Time,Stiffness,Damping,R_shoulder_pan_p,R_shoulder_lift_p,R_elbow_p,R_wrist_1_p,R_wrist_2_p,R_wrist_3_p,R_shoulder_pan_v,R_shoulder_lift_v,R_elbow_v,R_wrist_1_v,R_wrist_2_v,R_wrist_3_v,S_shoulder_pan_p,S_shoulder_lift_p,S_elbow_p,S_wrist_1_p,S_wrist_2_p,S_wrist_3_p,S_shoulder_pan_v,S_shoulder_lift_v,S_elbow_v,S_wrist_1_v,S_wrist_2_v,S_wrist_3_v,C_shoulder_pan_p,C_shoulder_lift_p,C_elbow_p,C_wrist_1_p,C_wrist_2_p,C_wrist_3_p
8.202,600.0,0.0,-1.5832661026634547,0.3445232963748881,0.0,-1.5968038136467797,0.0,0.0,0.0,0.009950925638932262,0.0,0.0,0.0,0.0,-1.583244474362145,0.3456110646747606,0.00036097974990631596,-1.5967625468973328,-2.1503971282274377e-05,-4.043751930562639e-07,0.007408279051098295,-0.14338339466737565,0.08142504345284464,0.027270931848790324,-0.013478743055433203,0.0009027723383137561,-1.5832661026634547,0.4162661163897199,0.0,-1.5968038136467797,0.0,0.0
8.302,600.0,0.0,-1.5832661026634547,0.3628021617508126,0.0,-1.5968038136467797,0.0,0.0,0.0,0.4090073197414412,0.0,0.0,0.0,0.0,-1.58268614263961,0.43390943561785555,-0.0048558159967984835,-1.5979880004729325,0.0006164920788616892,-3.1522465037197004e-05,0.02884460830108036,1.2953951100442764,0.11901259947260037,0.0652025641201951,-0.05501835315086627,0.002087301788434229,-1.5832661026634547,0.4977252330625887,0.0,-1.5968038136467797,0.0,0.0
8.402,600.0,0.0,-1.5832661026634547,0.41606059384844224,0.0,-1.5968038136467797,0.0,0.0,0.0,0.6705024509650575,0.0,0.0,0.0,0.0,-1.5832255659184054,0.5795664374868591,0.0010598152937514598,-1.5965485619037447,-0.0001312050913774309,6.72264497752833e-06,-0.0654123712798229,0.5047067435889538,1.505993494831944,0.366121832573683,-0.18989926482064928,0.009722541591390584,-1.5832661026634547,0.5075343224588464,0.0,-1.5968038136467797,0.0,0.0
8.502,600.0,0.0,-1.5832661026634547,0.49175506819041964,0.0,-1.5968038136467797,0.0,0.0,0.0,0.7261057347626046,0.0,0.0,0.0,0.0,-1.5822421936858937,0.6443342488814772,0.0040378315295414744,-1.595820453661717,-0.0005124671926647759,2.599019853259903e-05,-0.11260875399301744,0.49412493931363305,0.44618903837761553,0.09875052920759936,-0.046531961471922595,0.002459156968869689,-1.5832661026634547,0.607067139659003,0.0,-1.5968038136467797,0.0,0.0
8.602,600.0,0.0,-1.5832661026634547,0.562108953863249,0.0,-1.5968038136467797,0.0,0.0,0.0,1.0137524561976812,0.0,0.0,0.0,0.0,-1.5832251664442418,0.6422581150746787,0.002070109445129519,-1.5962996894998769,-0.0002617592654828145,1.3362116966758324e-05,0.16736727416765443,-0.5298947214418416,0.9124578453212377,0.218734841260564,-0.11221353256487127,0.005720047660786074,-1.5832661026634547,0.8461794921803898,0.0,-1.5968038136467797,0.0,0.0
8.702,600.0,0.0,-1.5832661026634547,0.6487634796185258,0.0,-1.5968038136467797,0.0,0.0,0.0,0.9195503482338487,0.0,0.0,0.0,0.0,-1.5820581692545692,0.7237906586894,0.004128180049745388,-1.5957510783153206,-0.000511766357376935,3.255134751332959e-05,0.13048221010919117,1.6442203438386538,-1.1656688049209907,0.14001364700582794,-0.11206700044826806,0.02423861293913947,-1.5832661026634547,0.8251877720846643,0.0,-1.5968038136467797,0.0,0.0
8.802,600.0,0.0,-1.5832661026634547,0.7394216060704722,0.0,-1.5968038136467797,0.0,0.0,0.0,1.1431211127133718,0.0,0.0,0.0,0.0,-1.5861555757497106,0.8532670927234092,-0.0014566583503338474,-1.597177733711276,0.00020822538758192004,-9.474862221598289e-06,0.11091281972134134,2.195385499880363,-1.422117635774062,-0.342515273065598,0.17650556190836827,-0.009031417999001395,-1.5832661026634547,0.9621127289285031,0.0,-1.5968038136467797,0.0,0.0
8.902,600.0,0.0,-1.5832661026634547,0.8313826919111832,0.0,-1.5968038136467797,0.0,0.0,0.0,0.9651398741831394,0.0,0.0,0.0,0.0,-1.581100363368522,0.9759259009458426,-0.0025095146403101053,-1.597397843975371,0.00029816640382753125,-1.6217540033574585e-05,-0.07165813318157442,2.437466177178293,-0.11033627863485282,-0.02413309350332349,0.011431880093787634,-0.0005546064179009038,-1.5832661026634547,1.1160291990583935,0.0,-1.5968038136467797,0.0,0.0
9.002,600.0,0.0,-1.5832661026634547,0.9318888540562936,0.0,-1.5968038136467797,0.0,0.0,0.0,0.9212752994532266,0.0,0.0,0.0,0.0,-1.5820444539749552,1.0578468000265249,0.003997743673054676,-1.5958117983881743,-0.0005323475991762035,2.5643982714495128e-05,-0.25096816184298587,-0.10466669995731835,0.5127080113470152,0.10964670300484725,-0.049600255942830136,0.002732402758272648,-1.5832661026634547,1.1799894963435333,0.0,-1.5968038136467797,0.0,0.0
9.103,600.0,0.0,-1.5832661026634547,1.0166199526265367,0.0,-1.5968038136467797,0.0,0.0,0.0,0.7759778327850033,0.0,0.0,0.0,0.0,-1.586338002284381,1.1329405524947345,0.0018147792657296595,-1.5964120748978783,-0.00017091140257451094,1.1559125293489523e-05,-0.11236195386137275,0.4445956358079075,1.2294168919342174,0.2995570865230476,-0.15723905616024453,0.007904348980179797,-1.5832661026634547,1.2121415997599008,0.0,-1.5968038136467797,0.0,0.0
9.202,600.0,0.0,-1.5832661026634547,1.092380808889033,0.0,-1.5968038136467797,0.0,0.0,0.0,0.5880298791368737,0.0,0.0,0.0,0.0,-1.5851168097665251,1.201189648066304,-0.001845876092719863,-1.5973002391214197,0.0002934653978530329,-1.1953447750348656e-05,0.36970717977022943,1.7281133802855668,-1.5592725624420147,-0.3740408419435745,0.19326130595979257,-0.009962264580497844,-1.5832661026634547,1.2193636772735288,0.0,-1.5968038136467797,0.0,0.0
9.302,600.0,0.0,-1.5832661026634547,1.16704848745363,0.0,-1.5968038136467797,0.0,0.0,0.0,0.8889295978778485,0.0,0.0,0.0,0.0,-1.5834529998754983,1.2312402251745402,0.003979376443985861,-1.5958257799838973,-0.0005225986805866765,2.557301290117468e-05,0.025158069305489326,-0.6675914349440574,0.7692596735076771,0.17007252984771373,-0.0823343881294306,0.00397900401755217,-1.5832661026634547,1.4217424837610269,0.0,-1.5968038136467797,0.0,0.0
9.402,600.0,0.0,-1.5832661026634547,1.2624452323267117,0.0,-1.5968038136467797,0.0,0.0,0.0,0.950106626642974,0.0,0.0,0.0,0.0,-1.5792027279337861,1.2546279727095615,-0.002159227813775222,-1.5972138195440466,0.00013800743288098865,-1.3652121173581715e-05,-0.12434490544283312,0.9661106875903012,-0.7851283851790233,-0.19530142051284777,0.10668259638921064,-0.004928633686963435,-1.5832661026634547,1.547504576981423,0.0,-1.5968038136467797,0.0,0.0
9.502,666.6666870117188,0.0,-1.5832661026634547,1.3367953446662453,0.0,-1.5968038136467797,0.0,0.0,0.0,-0.049454492578923565,0.0,0.0,0.0,0.0,-1.5831444726632125,1.3564621927881204,-0.0024724857780363454,-1.5974183503157646,0.00033630354032885336,-1.5978790787122852e-05,0.4332240045322964,1.8891026666033472,0.027306765929614105,0.030819885284565137,-0.032066361188019914,0.0004485795445671587,-1.5832661026634547,1.2836731634067242,0.0,-1.5968038136467797,0.0,0.0
9.602,666.6666870117188,0.0,-1.5832661026634547,1.2761966104707136,0.0,-1.5968038136467797,0.0,0.0,0.0,-0.9541055223660057,0.0,0.0,0.0,0.0,-1.5810387111892867,1.5495738623841642,0.0019777114092058424,-1.5960280470686887,-0.0006460079140289835,1.429448647035726e-05,0.1568313261973534,2.047850370231608,-0.12996986784973036,-0.01725334737872719,-0.0006294548334156222,-0.0008188022709726098,-1.5832661026634547,1.140848114562897,0.0,-1.5968038136467797,0.0,0.0
9.702,666.6666870117188,0.0,-1.5832661026634547,1.1931396884650196,0.0,-1.5968038136467797,0.0,0.0,0.0,-0.791736320625055,0.0,0.0,0.0,0.0,-1.5825989241139098,1.600171126776525,0.0010836341358065997,-1.5964285864966368,-0.0002820666977815803,7.638735961791754e-06,-0.6262342742698354,0.40702612270453703,-0.48232334068002863,-0.20706949660623078,0.17549855412118207,-0.00354674098349031,-1.5832661026634547,0.9480771259365732,0.0,-1.5968038136467797,0.0,0.0
9.802,666.6666870117188,0.0,-1.5832661026634547,1.1211752152337224,0.0,-1.5968038136467797,0.0,0.0,0.0,-0.6772607275624976,0.0,0.0,0.0,0.0,-1.5832703070247187,1.5271248791333958,0.001161742257894832,-1.596491836572526,-0.00019096981370689479,7.69270087631372e-06,-0.5565292285303194,-1.1618192055652812,-0.2668088936781294,-0.14092454796717593,0.12993795985091985,-0.0020848422655407838,-1.5832661026634547,0.9800298440421646,0.0,-1.5968038136467797,0.0,0.0
9.902,666.6666870117188,0.0,-1.5832661026634547,1.0473485616563298,0.0,-1.5968038136467797,0.0,0.0,0.0,-0.5376679124124747,0.0,0.0,0.0,0.0,-1.5829504613778003,1.4043828471268973,0.0010849173425271515,-1.5964919697305806,-0.00019657368395598087,7.180716121522195e-06,-0.23300595588348522,-1.923490601020941,-0.251358448100737,-0.0857835479257331,0.06186193646069173,-0.001698636573952107,-1.5832661026634547,0.9310454769251533,0.0,-1.5968038136467797,0.0,0.0
10.002,666.6666870117188,0.0,-1.5832661026634547,0.983287082205508,0.0,-1.5968038136467797,0.0,0.0,0.0,-0.5948714660417932,0.0,0.0,0.0,0.0,-1.5831066557757334,1.2045036857267986,0.0008917463572596101,-1.596574261408264,-0.00012471171817221438,5.740033381144564e-06,-0.016521332820334977,-2.484358851336299,-0.15982786512164013,-0.04158661696926756,0.022650703139179724,-0.0010700191148450575,-1.5832661026634547,0.702203977594295,0.0,-1.5968038136467797,0.0,0.0
10.102,666.6666870117188,0.0,-1.5832661026634547,0.9147211101103716,0.0,-1.5968038136467797,0.0,0.0,0.0,-0.5596642898120829,0.0,0.0,0.0,0.0,-1.5832376833013653,1.0284928392804262,0.0007779037628141536,-1.5966095482927076,-0.00010021091247245593,4.997404352426579e-06,0.00944392916828706,-2.6176306228188073,-0.12327209260958674,-0.03138209939662688,0.01643655795299449,-0.0008304944324107633,-1.5832661026634547,0.7744277952994467,0.0,-1.5968038136467797,0.0,0.0
10.202,666.6666870117188,0.0,-1.5832661026634547,0.8570102039845588,0.0,-1.5968038136467797,0.0,0.0,0.0,-0.43735558317776846,0.0,0.0,0.0,0.0,-1.5838921551392522,0.853563768868844,-0.007348113976854471,-1.5978405945065968,0.0005279757822788309,-4.394831443322435e-06,-0.2087475211195761,-1.7146954426073662,-0.8533457225545937,-0.13419419893794926,0.06746886843477129,-0.0012415764932794367,-1.5832661026634547,0.6934922461132365,0.0,-1.5968038136467797,0.0,0.0
10.302,666.6666870117188,0.0,-1.5832661026634547,0.7913842703804548,0.0,-1.5968038136467797,0.0,0.0,0.0,-0.8503384976475584,0.0,0.0,0.0,0.0,-1.5843791141445733,0.7413715832045854,-0.002881248496072858,-1.5975219472821687,0.00036831472362788955,-1.853842705704128e-05,0.30990882696969924,-0.28512991066024773,-0.9154188809792424,-0.22764083477519567,0.11582571943177865,-0.006023392632067757,-1.5832661026634547,0.6187155262023856,0.0,-1.5968038136467797,0.0,0.0
10.402,666.6666870117188,0.0,-1.5832661026634547,0.7237036204248959,0.0,-1.5968038136467797,0.0,0.0,0.0,-0.8970843560788112,0.0,0.0,0.0,0.0,-1.5826540515484744,0.6875128120042316,0.0037817493452302906,-1.5958675916130116,-0.0004763222905130904,2.428975335302552e-05,-0.171494840962141,-1.32638192143373,-0.010097980726064505,-0.011586636800851058,0.009962406060930755,-0.00043773837883036016,-1.5832661026634547,0.5385724946013,0.0,-1.5968038136467797,0.0,0.0
10.502,666.6666870117188,0.0,-1.5832661026634547,0.6588650162938912,0.0,-1.5968038136467797,0.0,0.0,0.0,-0.7604763027493945,0.0,0.0,0.0,0.0,-1.5841014796009325,0.5647840292241563,0.0021768235323583224,-1.5962698620956681,-0.00026854336927431744,1.4000221514628004e-05,-0.07223560637444448,-1.9422503072136226,-0.32199418541745156,-0.08276378124331385,0.043411543945055156,-0.002195730285614771,-1.5832661026634547,0.4372633724210666,0.0,-1.5968038136467797,0.0,0.0
10.602,666.6666870117188,0.0,-1.5832661026634547,0.5785035475722937,0.0,-1.5968038136467797,0.0,0.0,0.0,-0.919046220139079,0.0,0.0,0.0,0.0,-1.5825979920075282,0.5639747611479085,0.0024983936020900976,-1.59618477409884,-0.00031507640394294297,1.6106183522113035e-05,0.1488760479023664,-0.061621428047122354,1.4675036265453558,0.3617191945281049,-0.18300081206998978,0.009402611680390702,-1.5832661026634547,0.29180397810360187,0.0,-1.5968038136467797,0.0,0.0
10.702,666.6666870117188,0.0,-1.5832661026634547,0.5027084100207606,0.0,-1.5968038136467797,0.0,0.0,0.0,-0.8570648749023828,0.0,0.0,0.0,0.0,-1.581968820199997,0.54050468864569,0.002839486021006077,-1.596098887153685,-0.00035936501343971153,1.8277954493027766e-05,0.028794411875721567,-0.6890916004774579,-0.4425973994629938,-0.11127736486268117,0.05721073393924675,-0.0029407912124564703,-1.5832661026634547,0.36545712588384616,0.0,-1.5968038136467797,0.0,0.0
10.802,666.6666870117188,0.0,-1.5832661026634547,0.4387796790231908,0.0,-1.5968038136467797,0.0,0.0,0.0,-0.4639214934936122,0.0,0.0,0.0,0.0,-1.5835237068024397,0.4148619415798772,0.0022976365088307085,-1.5962380373206415,-0.0002855162586124923,1.4759529841280298e-05,-0.0867290616588737,-1.5939016460963151,-0.44948906115287357,-0.11405408480611706,0.05912162692278426,-0.003028385805630809,-1.5832661026634547,0.3057800363226118,0.0,-1.5968038136467797,0.0,0.0
10.902,666.6666870117188,0.0,-1.5832661026634547,0.37815736568909486,0.0,-1.5968038136467797,0.0,0.0,0.0,-0.6831252632136444,0.0,0.0,0.0,0.0,-1.5845638043661703,0.30843576599174916,-0.003745890297271294,-1.5977156922514721,0.00045625914927891696,-2.352982430210487e-05,-0.03130845050891858,-0.4390106873963887,-0.2448481344341997,-0.04379112346298631,0.015048347784087857,-0.0008264896779141242,-1.5832661026634547,0.29807912757297517,0.0,-1.5968038136467797,0.0,0.0
11.002,666.6666870117188,0.0,-1.5832661026634547,0.3123280259630974,0.0,-1.5968038136467797,0.0,0.0,0.0,-0.8436557711137399,0.0,0.0,0.0,0.0,-1.5837737776287981,0.24468283535428983,-0.0037355226943713996,-1.5977210185736521,0.00046181345911440653,-2.3857014057855634e-05,0.1509917462961094,0.30471915824297546,-0.0853199997708696,-0.0165883529336425,0.006526138669077222,-0.0003469416530362496,-1.5832661026634547,0.08797082769242554,0.0,-1.5968038136467797,0.0,0.0
11.102,666.6666870117188,0.0,-1.5832661026634547,0.22756232392085973,0.0,-1.5968038136467797,0.0,0.0,0.0,-0.7543692521462021,0.0,0.0,0.0,0.0,-1.5836046668995782,0.27954219921909795,0.001328372008089589,-1.5964789202412393,-0.0001626933627363557,8.432155677574293e-06,0.09735732977283802,-0.5526500347969964,1.2810719639115578,0.32035044910314103,-0.16392775168554666,0.008433141981006998,-1.5832661026634547,0.02680197778877036,0.0,-1.5968038136467797,0.0,0.0
11.202,666.6666870117188,0.0,-1.5832661026634547,0.15316010327267993,0.0,-1.5968038136467797,0.0,0.0,0.0,-0.6290178073268706,0.0,0.0,0.0,0.0,-1.582368826995727,0.20245776712556782,0.002982998414619348,-1.5960678613269854,-0.00037223277584636416,1.9190953538975736e-05,0.029687394756360355,-1.2956047008220657,-0.3343663663146054,-0.0858783148486479,0.044886215303226895,-0.0023075643260466842,-1.5832661026634547,-0.12098295550395444,0.0,-1.5968038136467797,0.0,0.0
11.302,666.6666870117188,0.0,-1.5832661026634547,0.08063089118528666,0.0,-1.5968038136467797,0.0,0.0,0.0,-0.8014642297688422,0.0,0.0,0.0,0.0,-1.5826207620348485,0.08066850596618039,0.0022969683778892615,-1.5962377710045326,-0.0002859706734772033,1.4762534918834793e-05,0.03737861854867141,-1.8946657438044139,-0.32071666704254054,-0.08242034165361291,0.04309834371729423,-0.0022093077258363214,-1.5832661026634547,0.001163066067179988,0.0,-1.5968038136467797,0.0,0.0
11.402,666.6666870117188,0.0,-1.5832661026634547,0.01639490849721348,0.0,-1.5968038136467797,0.0,0.0,0.0,-0.7423146846658609,0.0,0.0,0.0,0.0,-1.5828380759797989,-0.07333460141015771,0.003068576131401737,-1.5960465560382648,-0.00038252833815817733,1.9776035433794643e-05,-0.04495995989828687,-1.351110570577606,0.1137157385120009,0.027387374406264837,-0.013552050725626838,0.0007031334346155774,-1.5832661026634547,-0.2739394244947783,0.0,-1.5968038136467797,0.0,0.0
11.502,666.6666870117188,0.0,-1.5832661026634547,-0.04532799920132291,0.0,-1.5968038136467797,0.0,0.0,0.0,-0.6768581800631588,0.0,0.0,0.0,0.0,-1.5826247567764835,-0.18002216625927703,0.002567638651249735,-1.596185839363276,-0.0003047029818800221,1.592774408939442e-05,-0.020343698233006552,-0.6149663065396556,-1.027230900397892,-0.26568240982653946,0.14017465173848007,-0.007121585598562062,-1.5832661026634547,-0.29454892858488724,0.0,-1.5968038136467797,0.0,0.0
11.602,666.6666870117188,0.0,-1.5832661026634547,-0.12426170348674503,0.0,-1.5968038136467797,0.0,0.0,0.0,-0.6109197444017631,0.0,0.0,0.0,0.0,-1.58362836903328,-0.19561577339001798,-0.0027482886182047007,-1.5975010414676116,0.00036070215307345237,-1.8562355926790627e-05,-0.020215360916194556,1.2934556629804264,-1.4978080029054763,-0.3582339488990318,0.1753846207607971,-0.00921345754307592,-1.5832661026634547,-0.24189486113936415,0.0,-1.5968038136467797,0.0,0.0
11.704,666.6666870117188,0.0,-1.5832661026634547,-0.20275969204649336,0.0,-1.5968038136467797,0.0,0.0,0.0,-0.7060445214502731,0.0,0.0,0.0,0.0,-1.5836677838174131,-0.23007829296289067,0.0034068641688690523,-1.5959633322542,-0.0004249726630870591,2.1936080709937914e-05,0.02685788388609744,-0.9149976354738191,-0.3460268174104356,-0.08882519414098304,0.04642131128981901,-0.0023832891270187556,-1.5832661026634547,-0.3479181955324573,0.0,-1.5968038136467797,0.0,0.0
11.802,666.6666870117188,0.0,-1.5832661026634547,-0.2738488544390201,0.0,-1.5968038136467797,0.0,0.0,0.0,-0.6612650354207419,0.0,0.0,0.0,0.0,-1.5836387553615312,-0.34025438245817524,0.002480577730590713,-1.5961915651596197,-0.0003095312942367074,1.595181721912103e-05,0.023009116768228553,-1.7705690949094466,-0.2820908443823038,-0.07327215860497376,0.03866807953659574,-0.0019761438112106807,-1.5832661026634547,-0.46989788442940367,0.0,-1.5968038136467797,0.0,0.0
11.902,666.6666870117188,0.0,-1.5832661026634547,-0.3500655739307028,0.0,-1.5968038136467797,0.0,0.0,0.0,-0.6183470373889184,0.0,0.0,0.0,0.0,-1.5841997502451564,-0.3879162441180236,-0.0013113324584509355,-1.5969866519030629,9.327379557718437e-05,-6.150486033700617e-07,0.08545677805998038,-0.23201602561678916,-0.3416773760076318,-0.07544797786032531,0.03854653952234725,-0.0016956922725164835,-1.5832661026634547,-0.4006518977658299,0.0,-1.5968038136467797,0.0,0.0
12.002,666.6666870117188,0.0,-1.5832661026634547,-0.4190655461090209,0.0,-1.5968038136467797,0.0,0.0,0.0,-0.6882024305953678,0.0,0.0,0.0,0.0,-1.5827533874571345,-0.4658391724807652,0.0022391933866940544,-1.596252152074419,-0.00027853833443013186,1.4435248651127413e-05,-0.0454996120424886,-1.1801449496583343,0.6443686702385665,0.15429356670510327,-0.0760323003706239,0.003934203614292693,-1.5832661026634547,-0.6834716686812607,0.0,-1.5968038136467797,0.0,0.0
12.102,666.6666870117188,0.0,-1.5832661026634547,-0.5032865098523605,0.0,-1.5968038136467797,0.0,0.0,0.0,-0.7110142756204727,0.0,0.0,0.0,0.0,-1.58349947203652,-0.5308995987001557,0.0015282664348122798,-1.5964208633294754,-0.0001962286791089537,1.004506502045265e-05,-0.1648677976160742,-1.5962313794179164,1.5368293049875899,0.3800379478232967,-0.19278674729829726,0.009904392841653663,-1.5832661026634547,-0.610381697959649,0.0,-1.5968038136467797,0.0,0.0
12.202,666.6666870117188,0.0,-1.5832661026634547,-0.5754532703234219,0.0,-1.5968038136467797,0.0,0.0,0.0,-0.7038754706626432,0.0,0.0,0.0,0.0,-1.583548607358632,-0.5995450725104701,0.003159481730810236,-1.5960232533787266,-0.0003961187820959879,2.033165578396164e-05,0.050155391872057156,-1.2881015107668765,-0.25967911209728284,-0.06864156645365246,0.0367917285846344,-0.0018664826917658389,-1.5832661026634547,-0.8224399556810874,0.0,-1.5968038136467797,0.0,0.0
12.302,666.6666870117188,0.0,-1.5832661026634547,-0.6646201272316183,0.0,-1.5968038136467797,0.0,0.0,0.0,-0.7918596978179614,0.0,0.0,0.0,0.0,-1.583821847686474,-0.683132378064242,0.0031813906520396663,-1.596015397053511,-0.0004014024845961037,2.0472949288450862e-05,0.15643271756119578,-1.3145183377257539,-0.14798492091211224,-0.040564961796085916,0.022457894437447192,-0.0010969585237097276,-1.5832661026634547,-0.9140345070663947,0.0,-1.5968038136467797,0.0,0.0
12.402,666.6666870117188,0.0,-1.5832661026634547,-0.7158673217234419,0.0,-1.5968038136467797,0.0,0.0,0.0,-0.5714523201159736,0.0,0.0,0.0,0.0,-1.5808849136363348,-0.7710550435565541,-0.0027501242227919837,-1.597498511464576,0.00036247540484126805,-1.771433888919144e-05,-0.2365346110383266,-0.2477343685550867,-0.841178072429158,-0.20842494573254022,0.1058532131243543,-0.005498746256281595,-1.5832661026634547,-0.9973354622230303,0.0,-1.5968038136467797,0.0,0.0
12.502,666.6666870117188,0.0,-1.5832661026634547,-0.7909222233999671,0.0,-1.5968038136467797,0.0,0.0,0.0,-0.6495228235894142,0.0,0.0,0.0,0.0,-1.5855783355834359,-0.769879524251393,0.002473812417169206,-1.5961762519833518,-0.00032808034776813007,1.5954401707727734e-05,-0.264486017996335,-0.06642849623255342,0.3475278415798315,0.08744086636160305,-0.04540763727752919,0.0022298949493450696,-1.5832661026634547,-1.0550668947548323,0.0,-1.5968038136467797,0.0,0.0
12.602,666.6666870117188,0.0,-1.5832661026634547,-0.873989440399189,0.0,-1.5968038136467797,0.0,0.0,0.0,-0.8267098558839195,0.0,0.0,0.0,0.0,-1.5840925580112808,-0.8232945462351123,0.0025925758779218296,-1.5961574766976667,-0.0003323720942826308,1.666706936145006e-05,0.33055631490108356,-1.0407848590287687,-0.4196542999614748,-0.10884424263413593,0.057991564448479575,-0.0028264037622997133,-1.5832661026634547,-1.0519770257372192,0.0,-1.5968038136467797,0.0,0.0
12.702,666.6666870117188,0.0,-1.5832661026634547,-0.9437114879624886,0.0,-1.5968038136467797,0.0,0.0,0.0,-0.6817622761426382,0.0,0.0,0.0,0.0,-1.5845656685789333,-0.9814315204463907,0.0015057107087360696,-1.5964166022717314,-0.00020633282671741744,9.696237284028059e-06,0.14655427077452168,-1.998473233092667,-0.4286630748494267,-0.10960840341942053,0.05779116157645111,-0.002840320599515654,-1.5832661026634547,-1.1006852887638758,0.0,-1.5968038136467797,0.0,0.0
12.802,666.6666870117188,0.0,-1.5832661026634547,-1.0170730348104797,0.0,-1.5968038136467797,0.0,0.0,0.0,-0.5164199763906012,0.0,0.0,0.0,0.0,-1.5831894800856348,-1.069215768141046,-0.003587449637391368,-1.5976986480204955,0.00046245522502113575,-2.3132436828686607e-05,-0.24680444263670148,0.005496695830301694,-0.5801894840238832,-0.13759944154340067,0.06719468767816923,-0.003600623182185878,-1.5832661026634547,-1.1139171331441913,0.0,-1.5968038136467797,0.0,0.0
12.902,666.6666870117188,0.0,-1.5832661026634547,-1.090586999237006,0.0,-1.5968038136467797,0.0,0.0,0.0,-0.8442141816809059,0.0,0.0,0.0,0.0,-1.5834042640275496,-1.1675283571521384,-0.003024887805956828,-1.5975572341666122,0.00039046479877536425,-1.9503721360661725e-05,-0.231734063436377,-0.6591007447566668,-0.9969592143401522,-0.24512040936614668,0.12473951101497721,-0.006458617132470705,-1.5832661026634547,-1.3175122840033484,0.0,-1.5968038136467797,0.0,0.0
13.002,666.6666870117188,0.0,-1.5832661026634547,-1.166873029131839,0.0,-1.5968038136467797,0.0,0.0,0.0,-0.6584635247546873,0.0,0.0,0.0,0.0,-1.5841064064489492,-1.1866775506542442,0.0032760410616567634,-1.5959620006736548,-0.00045266063087824496,2.116445440987512e-05,-0.07064206232430353,-0.5087502543615349,-0.3096257329458238,-0.0777965197571253,0.04037625186571858,-0.0020804752275091366,-1.5832661026634547,-1.2254656475259027,0.0,-1.5968038136467797,0.0,0.0
13.102,666.6666870117188,0.0,-1.5832661026634547,-1.235700365205041,0.0,-1.5968038136467797,0.0,0.0,0.0,-0.9067381658456345,0.0,0.0,0.0,0.0,-1.5829717666665208,-1.240062878391809,-0.0041509277106735985,-1.5974095618841675,0.000292155696060601,-5.3536411593734575e-06,0.4973893755988249,-0.538060372818188,-0.14493616738570317,-0.02461685671533638,0.020528717188550604,0.00032902747344193823,-1.5832661026634547,-1.362777954395777,0.0,-1.5968038136467797,0.0,0.0
13.202,666.6666870117188,0.0,-1.5832661026634547,-1.3163629731012758,0.0,-1.5968038136467797,0.0,0.0,0.0,-0.8464392720617377,0.0,0.0,0.0,0.0,-1.5814669474925716,-1.313966663905944,0.001906466518522556,-1.5963979601441007,-0.00016936005922467472,1.2084895003432142e-05,-0.4055458046126165,-1.3434682303554604,0.34116614894687747,0.10310032847267463,-0.06580165052978683,0.0022052344417549915,-1.5832661026634547,-1.457808417330035,0.0,-1.5968038136467797,0.0,0.0
13.302,733.3333129882812,0.0,-1.5832661026634547,-1.3564526744895833,0.0,-1.5968038136467797,0.0,0.0,0.0,0.4759555847455036,0.0,0.0,0.0,0.0,-1.5834459424986094,-1.4708216589474854,0.0011270277970410539,-1.5964935676272347,-0.00018757059351255493,7.408459957173442e-06,0.09663994907657635,-2.1077441973572175,-0.41386854920376404,-0.11636867139901856,0.07184269856749531,-0.0027174747520803183,-1.5832661026634547,-1.1085048418718344,0.0,-1.5968038136467797,0.0,0.0
13.402,733.3333129882812,0.0,-1.5832661026634547,-1.2856485384107588,0.0,-1.5968038136467797,0.0,0.0,0.0,0.6022646653627768,0.0,0.0,0.0,0.0,-1.5827901390801775,-1.608708688599101,-0.00032046101528123756,-1.5969537618636003,0.0001273409476901773,-2.476381246456971e-06,-0.893138209509367,-1.913741300902379,0.7851633391683306,0.330369094676451,-0.268167621821531,0.005799091010147736,-1.5832661026634547,-1.0876076132119417,0.0,-1.5968038136467797,0.0,0.0
13.502,733.3333129882812,0.0,-1.5832661026634547,-1.193427100023281,0.0,-1.5968038136467797,0.0,0.0,0.0,0.8119632148609895,0.0,0.0,0.0,0.0,-1.5830934731283375,-1.613036858002698,-0.0007590755520039162,-1.5970317924835398,0.00014763245856384705,-5.14532213284348e-06,-0.5252861877544867,0.361966002982128,0.49779221200321305,0.19880252859516362,-0.15585755798952275,0.0035833867562830458,-1.5832661026634547,-0.9516326225799201,0.0,-1.5968038136467797,0.0,0.0
13.602,733.3333129882812,0.0,-1.5832661026634547,-1.1152131257228426,0.0,-1.5968038136467797,0.0,0.0,0.0,0.7466627207533972,0.0,0.0,0.0,0.0,-1.5835271689118569,-1.5255936946646547,-0.0007520068618820598,-1.5969752003103754,8.283720796252985e-05,-4.8143709505729355e-06,-0.40800952822656245,1.4038074711733857,0.3452712786091801,0.14709349431623547,-0.12017568514442205,0.002544280335805948,-1.5832661026634547,-0.9188656781758113,0.0,-1.5968038136467797,0.0,0.0
13.702,733.3333129882812,0.0,-1.5832661026634547,-1.037155284878244,0.0,-1.5968038136467797,0.0,0.0,0.0,0.9284394881376427,0.0,0.0,0.0,0.0,-1.5832258322345145,-1.3460163428864482,-0.0005682788502697347,-1.5969558923924725,8.48920877152498e-05,-3.697089109712298e-06,0.04550177586087429,2.371249606150672,0.2636501183091864,0.06566375704196957,-0.033826902083265636,0.0016765622454518478,-1.5832661026634547,-0.942737749746893,0.0,-1.5968038136467797,0.0,0.0
13.802,733.3333129882812,0.0,-1.5832661026634547,-0.9619237793267832,0.0,-1.5968038136467797,0.0,0.0,0.0,0.719707672673313,0.0,0.0,0.0,0.0,-1.5831860179762178,-1.1595030543652391,-0.00018780835020972648,-1.5968541596388315,2.717045848881445e-05,-1.2048265668149491e-06,0.006167652219217337,2.9377473795362943,0.08323611782977462,0.021110332845272497,-0.01075053633632338,0.0005384060956003899,-1.5832661026634547,-0.7659320072810256,0.0,-1.5968038136467797,0.0,0.0
13.902,733.3333129882812,0.0,-1.5832661026634547,-0.8796890379662887,0.0,-1.5968038136467797,0.0,0.0,0.0,0.8799272363793438,0.0,0.0,0.0,0.0,-1.5834422140730833,-0.8980310356430877,-2.215411239500736e-05,-1.5968084864261365,1.1392417397055534e-06,-2.0478387927690428e-07,-0.003421576573445789,3.14031034152492,-0.0458017684741041,-0.007263386443041172,0.003628126302150426,-6.978994550755112e-05,-1.5832661026634547,-0.8225125537971705,0.0,-1.5968038136467797,0.0,0.0
14.002,733.3333129882812,0.0,-1.5832661026634547,-0.805157653495205,0.0,-1.5968038136467797,0.0,0.0,0.0,0.8089090008665054,0.0,0.0,0.0,0.0,-1.5841552754549522,-0.6973096495482516,0.001491408181295853,-1.5964263228097102,-0.00018984086357047897,9.502945169143555e-06,0.06991179026389018,2.4668914440625787,0.20551166388183212,0.04600917046637243,-0.020533789678189366,0.0010893456930809653,-1.5832661026634547,-0.6474977210851247,0.0,-1.5968038136467797,0.0,0.0
14.102,733.3333129882812,0.0,-1.5832661026634547,-0.7148019675440098,0.0,-1.5968038136467797,0.0,0.0,0.0,0.9579805278737964,0.0,0.0,0.0,0.0,-1.5824961260958328,-0.4982447496514447,0.0027157332943987585,-1.5961255187645857,-0.0003338836137514203,1.745119446785259e-05,-0.057190918356260875,1.9595949427610906,-0.664596111087018,-0.16778612282809666,0.08343914225100113,-0.004328004256400274,-1.5832661026634547,-0.432006919048494,0.0,-1.5968038136467797,0.0,0.0
14.202,733.3333129882812,0.0,-1.5832661026634547,-0.637078800826731,0.0,-1.5968038136467797,0.0,0.0,0.0,1.1095868800060766,0.0,0.0,0.0,0.0,-1.583394277173462,-0.4482228612125954,0.0033446515294629055,-1.595964131202527,-0.00041591164108769414,2.154285848938423e-05,-0.09341374579778391,0.23914505818357906,-0.11735832702722722,-0.03339513501094194,0.018038838419867656,-0.0009406749202830357,-1.5832661026634547,-0.5599208558624029,0.0,-1.5968038136467797,0.0,0.0
14.302,733.3333129882812,0.0,-1.5832661026634547,-0.5510320532146755,0.0,-1.5968038136467797,0.0,0.0,0.0,0.9514418971009732,0.0,0.0,0.0,0.0,-1.5832046601038483,-0.46551053840224943,-0.003053368545309814,-1.5975684194431907,0.00037777430953062817,-1.9574388431212992e-05,-0.02649562115703561,0.3180545046378701,0.6048415672864196,0.15137031464506417,-0.07473001459757517,0.0038766756937064282,-1.5832661026634547,-0.5036729880549304,0.0,-1.5968038136467797,0.0,0.0
14.402,733.3333129882812,0.0,-1.5832661026634547,-0.47787325395292957,0.0,-1.5968038136467797,0.0,0.0,0.0,0.9642198250227715,0.0,0.0,0.0,0.0,-1.5839468830996533,-0.3869344697821659,-0.0013152018442613065,-1.5971312615502542,0.00016049703506001593,-8.428346503033868e-06,-0.050283419180273514,1.7415603464196494,0.6321159321163026,0.15964983280276832,-0.07942243785926753,0.00410968122306802,-1.5832661026634547,-0.2649488746714644,0.0,-1.5968038136467797,0.0,0.0
14.502,733.3333129882812,0.0,-1.5832661026634547,-0.3839745495481175,0.0,-1.5968038136467797,0.0,0.0,0.0,0.8191527339193962,0.0,0.0,0.0,0.0,-1.583650606428382,-0.2700225800997984,0.0031157000386825787,-1.5960208565337457,-0.0003877471846234456,2.0093366747155677e-05,-0.04512531723484557,0.7227843166924863,0.8741641188489339,0.2176240034803783,-0.10692766546614678,0.0055498565828191486,-1.5832661026634547,-0.12423788273734898,0.0,-1.5968038136467797,0.0,0.0
14.602,733.3333129882812,0.0,-1.5832661026634547,-0.2959459982427086,0.0,-1.5968038136467797,0.0,0.0,0.0,0.7717334261118812,0.0,0.0,0.0,0.0,-1.5841094690842028,-0.20712207739300303,0.0035432273793568167,-1.5959172595673414,-0.00043738103670753114,2.2674065989669556e-05,-0.01876121046257864,0.6484614827808275,-0.005495309634148362,-0.01045165268001623,0.008686516791592817,-0.0004415956711846092,-1.5832661026634547,-0.023692333659942277,0.0,-1.5968038136467797,0.0,0.0
14.702,733.3333129882812,0.0,-1.5832661026634547,-0.2245862811153847,0.0,-1.5968038136467797,0.0,0.0,0.0,0.8057510488246071,0.0,0.0,0.0,0.0,-1.5836544680119626,-0.1331210448871882,-0.0019744711431881373,-1.5972981085925475,0.00024403376981143804,-1.2708919980704208e-05,0.0288071347117105,1.340029024123732,-0.12684592995679697,-0.031445160138407514,0.015395566773882645,-0.0008019788430982,-1.5832661026634547,-0.05305125976526237,0.0,-1.5968038136467797,0.0,0.0
14.802,733.3333129882812,0.0,-1.5832661026634547,-0.14683712272795724,0.0,-1.5968038136467797,0.0,0.0,0.0,0.46724954443938704,0.0,0.0,0.0,0.0,-1.5828924044660364,-0.09521814562723188,-0.0025203732635359828,-1.5974369924433953,0.0003135159579917247,-1.6270977180081147e-05,0.024756612335322094,0.6093054247475559,-0.14304908472678665,-0.03622400921925676,0.0180426063766912,-0.0009344997805239958,-1.5832661026634547,-0.049792734649097045,0.0,-1.5968038136467797,0.0,0.0
14.902,733.3333129882812,0.0,-1.5832661026634547,-0.0746009904519882,0.0,-1.5968038136467797,0.0,0.0,0.0,0.7268921372782324,0.0,0.0,0.0,0.0,-1.5830107819764905,-0.001342365437194302,0.003216606016043785,-1.5959939586067358,-0.0004014899996065346,2.0873037064823773e-05,0.03877081513683475,0.9408933483863953,0.46768241285023626,0.1157682700536386,-0.05659778660841899,0.0029472093266538313,-1.5832661026634547,0.11700236961368693,0.0,-1.5968038136467797,0.0,0.0
15.002,733.3333129882812,0.0,-1.5832661026634547,0.007082395017181166,0.0,-1.5968038136467797,0.0,0.0,0.0,0.8060254058585024,0.0,0.0,0.0,0.0,-1.5831111831495865,0.11050598857531813,-0.0010787955180047782,-1.597073337796545,0.00013293635739637164,-6.922932177436997e-06,-0.016715714451586337,1.9905798899377811,0.5278688880901319,0.13312417410146907,-0.06607203212064633,0.003428228754535833,-1.5832661026634547,0.11028235143275109,0.0,-1.5968038136467797,0.0,0.0
15.102,733.3333129882812,0.0,-1.5832661026634547,0.0745013176782229,0.0,-1.5968038136467797,0.0,0.0,0.0,0.681352200702694,0.0,0.0,0.0,0.0,-1.58338002926163,0.23903232324568466,-0.0018004694562083372,-1.5972761375135545,0.000229645043987062,-1.242849585546935e-05,-0.00392591348510252,2.2154695960831408,0.26260256389440373,0.027902515065464827,-0.02154080162656478,0.00015920670880481164,-1.5832661026634547,0.24433118989244101,0.0,-1.5968038136467797,0.0,0.0
15.202,733.3333129882812,0.0,-1.5832661026634547,0.156544010926144,0.0,-1.5968038136467797,0.0,0.0,0.0,0.8165391254999033,0.0,0.0,0.0,0.0,-1.5832829570398965,0.3335833636646085,0.0027395017470533906,-1.596117396123261,-0.00033896738411403623,1.7602254982351587e-05,-0.01217037882525581,1.118647899556497,-0.48194993220568594,-0.12287554792327395,0.06154073842728216,-0.003190653459206098,-1.5832661026634547,0.23428897122633552,0.0,-1.5968038136467797,0.0,0.0
15.302,733.3333129882812,0.0,-1.5832661026634547,0.22189766297301122,0.0,-1.5968038136467797,0.0,0.0,0.0,0.5502446707610028,0.0,0.0,0.0,0.0,-1.5830455362287161,0.40505388546976523,0.0027445690352056466,-1.59611499927828,-0.0003410520748862826,1.7672495368463066e-05,-0.03110883202105493,-0.10411672390270336,0.870367516398917,0.21746730973974077,-0.10718092376343491,0.005566477932942876,-1.5832661026634547,0.30941761661001566,0.0,-1.5968038136467797,0.0,0.0
15.402,733.3333129882812,0.0,-1.5832661026634547,0.28664814851056464,0.0,-1.5968038136467797,0.0,0.0,0.0,0.6888771427779979,0.0,0.0,0.0,0.0,-1.582976560356483,0.3855370758686877,0.0021882534088395085,-1.596254282603291,-0.00027193161758306276,1.4083987797480707e-05,-0.058356055494359745,-0.40778016347767937,-0.7356903948091739,-0.18531196984298778,0.0919772699953088,-0.004766697888227105,-1.5832661026634547,0.4422588992842849,0.0,-1.5968038136467797,0.0,0.0
15.502,733.3333129882812,0.0,-1.5832661026634547,0.3659160901104632,0.0,-1.5968038136467797,0.0,0.0,0.0,1.0429131824896627,0.0,0.0,0.0,0.0,-1.5841799096950353,0.37845439894962196,0.0014064655660156098,-1.5965572171772875,-0.00012330044922846803,3.242727580556241e-06,0.13676983357432737,-0.04942864433889895,0.41857032681878525,0.10921734318047763,-0.054418164026135675,0.0029167489015373997,-1.5832661026634547,0.6316095780084211,0.0,-1.5968038136467797,0.0,0.0
15.602,733.3333129882812,0.0,-1.5832661026634547,0.44245902708082024,0.0,-1.5968038136467797,0.0,0.0,0.0,0.8835225201668139,0.0,0.0,0.0,0.0,-1.5834348903800857,0.48784204295943173,-0.001019558063860373,-1.597059356200822,0.0001264100035157903,-6.524148328393766e-06,0.1360619403894491,2.10619064233532,0.41218146994271243,0.10440012585457982,-0.052116514570467086,0.0026884746442999014,-1.5832661026634547,0.6275003785843309,0.0,-1.5968038136467797,0.0,0.0
15.702,733.3333129882812,0.0,-1.5832661026634547,0.5427810605261967,0.0,-1.5968038136467797,0.0,0.0,0.0,0.7065504636260059,0.0,0.0,0.0,0.0,-1.5828232954357488,0.5889232542397708,0.003175117399241443,-1.5960067417799682,-0.00039521749452199676,2.037421044542299e-05,-0.17246078613426954,0.6083365667429851,-0.4419121348250028,-0.11146550887131686,0.05551505350011206,-0.0028480409058593064,-1.5832661026634547,0.6523479855934183,0.0,-1.5968038136467797,0.0,0.0
15.802,733.3333129882812,0.0,-1.5832661026634547,0.6109857195486718,0.0,-1.5968038136467797,0.0,0.0,0.0,0.9123251202090679,0.0,0.0,0.0,0.0,-1.584373255190175,0.7069937022201067,-0.0014874342456067504,-1.5971815952948567,0.00019056856778704244,-9.57425937776183e-06,-0.05496074148634729,2.352399219322873,-0.581619934424392,-0.14558962389342453,0.07206538876889639,-0.0037133396548032055,-1.5832661026634547,0.8420098090885335,0.0,-1.5968038136467797,0.0,0.0
15.902,733.3333129882812,0.0,-1.5832661026634547,0.7097656979609193,0.0,-1.5968038136467797,0.0,0.0,0.0,1.0164330015682606,0.0,0.0,0.0,0.0,-1.5849216000586224,0.8038620589720494,-0.0025046398071584992,-1.597443783504175,0.0003247555901040249,-1.615895930773793e-05,-0.049283543671381665,1.1131774337823381,-0.03035637874159366,-0.008046239810375427,0.004230320599928334,-0.00019950350250261988,-1.5832661026634547,0.8013070644983918,0.0,-1.5968038136467797,0.0,0.0
16.002,733.3333129882812,0.0,-1.5832661026634547,0.811789842811933,0.0,-1.5968038136467797,0.0,0.0,0.0,0.9329674585425767,0.0,0.0,0.0,0.0,-1.582370158576272,0.9482641793354076,0.00013116382083295025,-1.5970732046384903,0.00013067973311319808,-1.58785483894024e-05,0.19583485167919062,2.1405249140569484,1.0498414043687738,0.13726729542119737,-0.05870792981457567,-8.568400590817042e-06,-1.5832661026634547,0.9768219007495935,0.0,-1.5968038136467797,0.0,0.0
16.101,733.3333129882812,0.0,-1.5832661026634547,0.8905910395096758,0.0,-1.5968038136467797,0.0,0.0,0.0,0.49456467992322756,0.0,0.0,0.0,0.0,-1.5827708311622743,1.0788584752369774,0.0033321299910016792,-1.5959536117162212,-0.00043235292225050865,2.1467526335624634e-05,-0.2514724813296628,1.7295488241131196,-0.07274908047736857,-0.022826165923718517,0.01402673110190634,-0.0005065596368770792,-1.5832661026634547,1.0858782344780535,0.0,-1.5968038136467797,0.0,0.0
16.202,733.3333129882812,0.0,-1.5832661026634547,0.9810247639324048,0.0,-1.5968038136467797,0.0,0.0,0.0,0.9521133667286907,0.0,0.0,0.0,0.0,-1.5830866820675578,1.0991307903497969,0.0020278664827469255,-1.5962863736944266,-0.00026380876494793185,1.3062724686344304e-05,-0.07273955967647153,-0.34693076086343577,-0.763934749487091,-0.19569984605668042,0.10007937169014323,-0.004948871110504785,-1.5832661026634547,1.2694441754508454,0.0,-1.5968038136467797,0.0,0.0
16.302,733.3333129882812,0.0,-1.5832661026634547,1.0530263848822683,0.0,-1.5968038136467797,0.0,0.0,0.0,0.5168967820651166,0.0,0.0,0.0,0.0,-1.5823977222935544,1.0517264563673592,-0.00302566516811486,-1.5975547041635767,0.00036931890310678916,-1.93740153864587e-05,0.009824706068411447,-0.127215085695774,0.6873061507036414,0.17296949983674512,-0.08667445853414868,0.004380945246112932,-1.5832661026634547,1.162961526448626,0.0,-1.5968038136467797,0.0,0.0
16.402,733.3333129882812,0.0,-1.5832661026634547,1.116368928745022,0.0,-1.5968038136467797,0.0,0.0,0.0,0.9816183071563734,0.0,0.0,0.0,0.0,-1.5825484572112527,1.1394037781442476,0.002332442775921283,-1.596181578305532,-0.00033018623459788046,1.580122504159047e-05,-0.4173356187583973,0.6910331114911529,1.5769227957245693,0.3879874836771832,-0.18948427774378768,0.009986991407040851,-1.5832661026634547,1.3229774000996086,0.0,-1.5968038136467797,0.0,0.0
16.502,733.3333129882812,0.0,-1.5832661026634547,1.1991716783913595,0.0,-1.5968038136467797,0.0,0.0,0.0,0.6018070193146207,0.0,0.0,0.0,0.0,-1.584688440305186,1.241904986917817,-0.001968792680371654,-1.5973469775985505,0.0003033893789727122,-1.2765893528484332e-05,0.42006389413712897,1.2988168725708649,0.63995181757067,0.17603664581943257,-0.09791557827158907,0.004182074211859915,-1.5832661026634547,1.43892145232996,0.0,-1.5968038136467797,0.0,0.0
16.602,733.3333129882812,0.0,-1.5832661026634547,1.2725263333200767,0.0,-1.5968038136467797,0.0,0.0,0.0,0.9707917344490076,0.0,0.0,0.0,0.0,-1.5853126852647006,1.3619015661565528,0.003833284373140901,-1.5959164606190146,-0.00040675344881857523,2.455043113193627e-05,-0.03767517401961934,1.1045718281939105,0.30501899689220474,0.07162730709195675,-0.03493765663966725,0.0016920608547136733,-1.5832661026634547,1.4483956335447798,0.0,-1.5968038136467797,0.0,0.0
16.704,800.0,0.0,-1.5832661026634547,1.3233805108012282,0.0,-1.5968038136467797,0.0,0.0,0.0,-0.19579851679810245,0.0,0.0,0.0,0.0,-1.584202546564301,1.4318071479261516,-0.0022078666540003714,-1.5974640235284596,0.00041112081194312873,-1.4712312128441285e-05,-0.1282100426790276,0.8640566901427834,0.16458132470656572,0.032930567364723634,-0.01199389238817302,0.0010148596911384172,-1.5832661026634547,1.226718914176859,0.0,-1.5968038136467797,0.0,0.0
16.802,800.0,0.0,-1.5832661026634547,1.2712148488194561,0.0,-1.5968038136467797,0.0,0.0,0.0,-0.6073100150684186,0.0,0.0,0.0,0.0,-1.581897447482783,1.4962456594519815,0.0013823688995625717,-1.5962779847369928,-0.00039651090915981285,9.85195780215872e-06,-0.18072818690901385,0.8825731831489136,-0.4976636811911031,-0.15402979724388774,0.10140662459841147,-0.003343067416748094,-1.5832661026634547,1.0652205874213896,0.0,-1.5968038136467797,0.0,0.0
16.902,800.0,0.0,-1.5832661026634547,1.2021925562219016,0.0,-1.5968038136467797,0.0,0.0,0.0,-0.9396989816342484,0.0,0.0,0.0,0.0,-1.5831402116054685,1.4539550608156866,0.0005577137859384298,-1.5966372451680444,-0.00010183931096845618,3.743673145362462e-06,-0.3614196554844982,-0.8322300509035735,-0.5569521718009376,-0.19105993700273308,0.13008101321334914,-0.0038162749921239712,-1.5832661026634547,1.103936868223374,0.0,-1.5968038136467797,0.0,0.0
17.002,800.0,0.0,-1.5832661026634547,1.140894756503159,0.0,-1.5968038136467797,0.0,0.0,0.0,-0.5997012614507565,0.0,0.0,0.0,0.0,-1.5831801590218195,1.3394999871731876,0.000667098251319837,-1.5966203340951224,-0.00010049699423017927,4.352811661283818e-06,0.0005389861913827553,-1.8005042239844278,-0.48652344532470626,-0.12893865026375964,0.06811799314453208,-0.0031353985882221084,-1.5832661026634547,0.8755771342679796,0.0,-1.5968038136467797,0.0,0.0
17.102,800.0,0.0,-1.5832661026634547,1.0683104725592996,0.0,-1.5968038136467797,0.0,0.0,0.0,-0.5465307374002215,0.0,0.0,0.0,0.0,-1.5831043920888068,1.1841384928709626,0.0005008709336340409,-1.5966688036269618,-7.101836594603442e-05,3.2342279249241654e-06,-0.02974154847265144,-2.3402272415606657,-0.3098057626355132,-0.08125664012578916,0.0414052973109252,-0.001992888826676042,-1.5832661026634547,0.8802867911511332,0.0,-1.5968038136467797,0.0,0.0
17.202,800.0,0.0,-1.5832661026634547,0.9907798210611904,0.0,-1.5968038136467797,0.0,0.0,0.0,-0.8778685478583726,0.0,0.0,0.0,0.0,-1.5832834896721146,0.9658273938293439,0.00037891450788160895,-1.59670688683055,-4.740177637901436e-05,2.44420466807809e-06,0.02263340923685102,-2.5756493503431255,-0.23912634947692127,-0.06104156633164964,0.02977184401064569,-0.0015375448464382238,-1.5832661026634547,0.7440128673167015,0.0,-1.5968038136467797,0.0,0.0
17.302,800.0,0.0,-1.5832661026634547,0.9100234667293856,0.0,-1.5968038136467797,0.0,0.0,0.0,-0.7710545002323335,0.0,0.0,0.0,0.0,-1.5855599597719143,0.8279693926336101,-0.0017813452808160188,-1.5974372587595043,0.00035550404753561897,-2.0321429580221432e-05,-0.12271194660855901,-2.1810495705744115,2.23876000508032,0.5451081956164874,-0.21567703298644864,0.0164287609247249,-1.5832661026634547,0.6256966606056829,0.0,-1.5968038136467797,0.0,0.0
17.402,800.0,0.0,-1.5832661026634547,0.8331313998055743,0.0,-1.5968038136467797,0.0,0.0,0.0,-0.669491339042923,0.0,0.0,0.0,0.0,-1.5852873852343448,0.7371398868114767,-0.00230408765246737,-1.5974050345103143,0.00029927448299934954,-1.4908271021074454e-05,-0.28509622167245824,-0.5065683264804329,0.28759400045884354,0.07190936914090977,-0.03399101730484717,0.0018486162358102025,-1.5832661026634547,0.582522694001413,0.0,-1.5968038136467797,0.0,0.0
17.502,800.0,0.0,-1.5832661026634547,0.7551924867260382,0.0,-1.5968038136467797,0.0,0.0,0.0,-0.786645579849779,0.0,0.0,0.0,0.0,-1.5831523289884282,0.7182714570672926,0.002402610828861066,-1.596190366737129,-0.00029824832723997024,1.5436831450436342e-05,0.3687529358621404,-0.6153818262487353,-0.6642980367820109,-0.16870063570167304,0.08110419079813894,-0.004316918588288494,-1.5832661026634547,0.5001638428693987,0.0,-1.5968038136467797,0.0,0.0
17.602,800.0,0.0,-1.5832661026634547,0.6664043661419985,0.0,-1.5968038136467797,0.0,0.0,0.0,-1.0111966833459483,0.0,0.0,0.0,0.0,-1.5825487235273619,0.6358526134417928,-0.0025027402242872162,-1.597441120343085,0.00030775089042494864,-1.6169064617553533e-05,-0.10181028491826183,-1.0645907228549325,0.5191903118878362,0.13183677706338953,-0.06358873011149911,0.003330735472469941,-1.5832661026634547,0.5632070646126878,0.0,-1.5968038136467797,0.0,0.0
17.702,800.0,0.0,-1.5832661026634547,0.5917050645575692,0.0,-1.5968038136467797,0.0,0.0,0.0,-0.7280996966370598,0.0,0.0,0.0,0.0,-1.5831962711464145,0.5022831671284409,0.0015389067256421495,-1.5964116754237148,-0.00018981522999480117,9.884763740086286e-06,0.0708378629210732,-1.7775296658925321,-0.5927556762064493,-0.1515977153126433,0.07350539325981585,-0.0038301559390830336,-1.5832661026634547,0.3971087539418543,0.0,-1.5968038136467797,0.0,0.0
17.803,800.0,0.0,-1.5832661026634547,0.50443151557959,0.0,-1.5968038136467797,0.0,0.0,0.0,-0.9753074922299395,0.0,0.0,0.0,0.0,-1.5826908031715174,0.41362979681203843,0.0020062392220116902,-1.5962914337004976,-0.00024853642034903314,1.2898013317518149e-05,-0.050634511196919224,-0.7896979701354357,-0.8773243589564764,-0.22419971439643382,0.1086974109119101,-0.005663078899998996,-1.5832661026634547,0.36373795825062744,0.0,-1.5968038136467797,0.0,0.0
17.902,800.0,0.0,-1.5832661026634547,0.4213983004959019,0.0,-1.5968038136467797,0.0,0.0,0.0,-0.6709379369565699,0.0,0.0,0.0,0.0,-1.583311319705506,0.32311474373561605,0.0024016443926686117,-1.596190366737129,-0.0002972362154941519,1.5510286192660877e-05,-0.005124739610990893,-0.9640264311421779,-0.23324405912969512,-0.05927004821928574,0.028598796451871442,-0.0014914609763838692,-1.5832661026634547,0.3123407441888293,0.0,-1.5968038136467797,0.0,0.0
18.002,800.0,0.0,-1.5832661026634547,0.35225434964530855,0.0,-1.5968038136467797,0.0,0.0,0.0,-0.7402445246441528,0.0,0.0,0.0,0.0,-1.583428898267633,0.31148814807514347,0.0021793444327925155,-1.5962473583844567,-0.00026930182727983616,1.4072643070959058e-05,0.001451985985044412,-0.09003158114765372,-0.1187135597716981,-0.030377336571015823,0.014730953077610054,-0.0007691888672323433,-1.5832661026634547,0.17719952581692888,0.0,-1.5968038136467797,0.0,0.0
18.102,800.0,0.0,-1.5832661026634547,0.2832568309317507,0.0,-1.5968038136467797,0.0,0.0,0.0,-0.7003970934569052,0.0,0.0,0.0,0.0,-1.583279095456316,0.3147165318170784,0.0021892729001943044,-1.5962445620653123,-0.00027077849678904843,1.413562575793284e-05,0.05348379395768137,0.15194319388505384,-0.14157658967056821,-0.03615061416408986,0.017482447892095857,-0.0009169178458801313,-1.5832661026634547,0.14126626620459465,0.0,-1.5968038136467797,0.0,0.0
18.202,800.0,0.0,-1.5832661026634547,0.1981631214988715,0.0,-1.5968038136467797,0.0,0.0,0.0,-1.0241842401603742,0.0,0.0,0.0,0.0,-1.5828604465329554,0.23846668447490865,0.001724527233100396,-1.5963649369465838,-0.00021233322903921158,1.1063405343176519e-05,-0.03760559893614102,-1.1478803535778608,-0.8814065854334043,-0.22488769212978538,0.10882644106672443,-0.005681676814994267,-1.5832661026634547,0.11893218869126888,0.0,-1.5968038136467797,0.0,0.0
18.302,800.0,0.0,-1.5832661026634547,0.1362779071724285,0.0,-1.5968038136467797,0.0,0.0,0.0,-0.66162993326971,0.0,0.0,0.0,0.0,-1.5837052012307287,0.07488501889539619,0.0008160966527489411,-1.5965963656453117,-9.988091879038656e-05,5.2299788654854056e-06,-0.007826369334808216,-1.918499970296187,-0.5158019054539011,-0.1313717974594401,0.06346872557606661,-0.0033155572747767654,-1.5832661026634547,0.03069620014413728,0.0,-1.5968038136467797,0.0,0.0
18.402,800.0,0.0,-1.5832661026634547,0.05644826213439469,0.0,-1.5968038136467797,0.0,0.0,0.0,-0.8413376583548734,0.0,0.0,0.0,0.0,-1.5836016042643246,0.011847918911220352,0.002120871792219951,-1.5962636036671063,-0.0002607250311647086,1.3623693830738622e-05,-0.014171495753395463,-0.7378032802390154,-0.9323135754605415,-0.23813626940741386,0.1152883351356927,-0.006026644601430097,-1.5832661026634547,-0.20777982529886707,0.0,-1.5968038136467797,0.0,0.0
18.502,800.0,0.0,-1.5832661026634547,-0.020600769464442337,0.0,-1.5968038136467797,0.0,0.0,0.0,-0.6996008201206764,0.0,0.0,0.0,0.0,-1.5833185102404492,-0.05968186030878526,0.0018482469302684142,-1.5963331121715574,-0.00022714103212936168,1.1871580213253001e-05,0.0344349974674824,-1.1037573003745098,-0.8181188923936251,-0.20868343880584606,0.10092725560219722,-0.005274271945009639,-1.5832661026634547,-0.12377268079923216,0.0,-1.5968038136467797,0.0,0.0
18.602,800.0,0.0,-1.5832661026634547,-0.09243075586196348,0.0,-1.5968038136467797,0.0,0.0,0.0,-0.7937977171653555,0.0,0.0,0.0,0.0,-1.5832945417906386,-0.10831830160835891,0.0015390043835512633,-1.5964112759495512,-0.00018966945833552484,9.907027524605132e-06,0.01328679259897384,0.08005318259631758,-0.9307433756818309,-0.23737643625890065,0.11479947862809502,-0.006000197643300198,-1.5832661026634547,-0.17101325779985593,0.0,-1.5968038136467797,0.0,0.0
18.702,800.0,0.0,-1.5832661026634547,-0.17287590433930689,0.0,-1.5968038136467797,0.0,0.0,0.0,-0.9412313731438787,0.0,0.0,0.0,0.0,-1.5831391463410323,-0.18920446273700442,0.002045561549722253,-1.5962815800044643,-0.0002524476781257618,1.3198011083470533e-05,-0.013185410425523186,-0.8798049603538307,-0.006342292128591186,-0.0018955245414754506,0.0010153092296095307,-5.346106115349899e-05,-1.5832661026634547,-0.2890404705393863,0.0,-1.5968038136467797,0.0,0.0
18.802,800.0,0.0,-1.5832661026634547,-0.2426144588391903,0.0,-1.5968038136467797,0.0,0.0,0.0,-0.6604857899111591,0.0,0.0,0.0,0.0,-1.5831629816327886,-0.22680097363592555,0.0020452036874507736,-1.5962830447430638,-0.0002513447841858023,1.3137814036339355e-05,0.012910863484271236,-0.7471226129995843,-0.7115006363118751,-0.1818290045455981,0.08808550114821354,-0.00459868363236213,-1.5832661026634547,-0.5078811289471911,0.0,-1.5968038136467797,0.0,0.0
18.902,800.0,0.0,-1.5832661026634547,-0.3131579262689925,0.0,-1.5968038136467797,0.0,0.0,0.0,-0.5575674591487788,0.0,0.0,0.0,0.0,-1.583115577365385,-0.3018174444982524,0.001707241783187263,-1.596369464320437,-0.00020958372327316491,1.096072881231862e-05,-0.011550305457917494,-1.0121476880900648,-1.0775034588743453,-0.2748879590295346,0.1330176643026227,-0.006946128015509775,-1.5832661026634547,-0.46622131036962255,0.0,-1.5968038136467797,0.0,0.0
19.002,800.0,0.0,-1.5832661026634547,-0.388837211654522,0.0,-1.5968038136467797,0.0,0.0,0.0,-0.9588390320561616,0.0,0.0,0.0,0.0,-1.5834316945867775,-0.4026777465661693,0.002471846255270671,-1.5961741214544796,-0.00030438829194652647,1.5864234142362904e-05,-0.07203550310803865,-0.968679972251955,-0.8551260457433116,-0.2190645406035158,0.10633621899993222,-0.005561084511586815,-1.5832661026634547,-0.6189129467329108,0.0,-1.5968038136467797,0.0,0.0
19.102,800.0,0.0,-1.5832661026634547,-0.464412451633045,0.0,-1.5968038136467797,0.0,0.0,0.0,-0.8115110913508159,0.0,0.0,0.0,0.0,-1.5833719066203054,-0.5582594842905438,0.0010683470319897458,-1.5965312513566592,-0.00013191058362115748,6.855096970875979e-06,0.0829717158678002,-1.9225100251075737,-0.5078306315476169,-0.12979337517086376,0.06302627881165278,-0.0032603814663876374,-1.5832661026634547,-0.6868195508835493,0.0,-1.5968038136467797,0.0,0.0
19.202,800.0,0.0,-1.5832661026634547,-0.5381422342875624,0.0,-1.5968038136467797,0.0,0.0,0.0,-0.7650181107141261,0.0,0.0,0.0,0.0,-1.5825939972658931,-0.6731853382347416,-0.0013931060680785795,-1.5971617547447357,0.000175094698095402,-8.9115046602565e-06,-0.09410834814434701,-0.3122715501993039,-1.0622240381732062,-0.2746161501507784,0.1344174633834604,-0.007006778388444427,-1.5832661026634547,-0.6672761234573688,0.0,-1.5968038136467797,0.0,0.0
19.302,800.0,0.0,-1.5832661026634547,-0.6094460929756664,0.0,-1.5968038136467797,0.0,0.0,0.0,-0.8552591216795797,0.0,0.0,0.0,0.0,-1.5834462088147185,-0.6551655913509384,0.0027200832975621046,-1.5961095397980452,-0.00033686370791605007,1.7451117258287298e-05,0.11569211196884074,0.32829346021235684,-0.7197190182778052,-0.18583413250896827,0.09103812288164917,-0.0047005854343145385,-1.5832661026634547,-0.7829205276001314,0.0,-1.5968038136467797,0.0,0.0
19.402,800.0,0.0,-1.5832661026634547,-0.6907306667489586,0.0,-1.5968038136467797,0.0,0.0,0.0,-0.8186967268545707,0.0,0.0,0.0,0.0,-1.5837973466044455,-0.7474987845035579,0.0017872406456197216,-1.5963448300803538,-0.00022443401600619507,1.1462122649765449e-05,0.028730306675450918,-1.4303262972020132,-0.8457474576484887,-0.2170607781993402,0.10585958806621369,-0.005483553234351883,-1.5832661026634547,-0.829155964686328,0.0,-1.5968038136467797,0.0,0.0
19.502,800.0,0.0,-1.5832661026634547,-0.7732965373875444,0.0,-1.5968038136467797,0.0,0.0,0.0,-1.055920614528647,0.0,0.0,0.0,0.0,-1.5821864004610564,-0.8546073951210188,0.0014362737247244322,-1.5964454975695588,-0.0001693622373471483,9.211069646277102e-06,0.1841238671016762,-1.2904299125079328,-0.9243523216978586,-0.23791635888040058,0.1167537395255088,-0.005951032152566513,-1.5832661026634547,-0.8662298770966199,0.0,-1.5968038136467797,0.0,0.0
19.602,800.0,0.0,-1.5832661026634547,-0.8520483211525036,0.0,-1.5968038136467797,0.0,0.0,0.0,-0.5935294328304951,0.0,0.0,0.0,0.0,-1.5869483988062272,-0.91806972494928,0.0019004630928367314,-1.5962798489497558,-0.00027688097828348473,1.2286607024595095e-05,0.023261320204053658,-0.8564684786697934,-0.04579004640411855,-0.011913292233900691,0.00593343032223677,-0.00029301924034814703,-1.5832661026634547,-0.9177264394946276,0.0,-1.5968038136467797,0.0,0.0
19.702,800.0,0.0,-1.5832661026634547,-0.9185121090593142,0.0,-1.5968038136467797,0.0,0.0,0.0,-0.869819075848118,0.0,0.0,0.0,0.0,-1.5876470791182096,-0.9153321950857602,-0.00024605745689977896,-1.596812614325826,-2.4794953825224445e-05,-1.2067335668840771e-06,0.2746341930671637,-0.2606695583514401,1.1293414234395467,0.2851084722134726,-0.13714573043981365,0.007217758483278897,-1.5832661026634547,-1.132110155043193,0.0,-1.5968038136467797,0.0,0.0
19.802,800.0,0.0,-1.5832661026634547,-1.0049288482195102,0.0,-1.5968038136467797,0.0,0.0,0.0,-0.9927270673955326,0.0,0.0,0.0,0.0,-1.5832697743925008,-0.9928065472523917,0.0011687909222936476,-1.596504752903813,-0.00014649204890247698,7.4993945386145555e-06,0.46131486126288407,-1.247990576324757,-0.6579567173313959,-0.17408608005803128,0.08840167662625478,-0.0042326292797131605,-1.5832661026634547,-1.1803655641638529,0.0,-1.5968038136467797,0.0,0.0
19.902,800.0,0.0,-1.5832661026634547,-1.0900083619958618,0.0,-1.5968038136467797,0.0,0.0,0.0,-0.9464008883394595,0.0,0.0,0.0,0.0,-1.5842680603271169,-1.0675582832576078,-0.003224325282090137,-1.5976178210814116,0.00039213145257913735,-2.0811084515997473e-05,0.0721534145653019,-0.4718786226218196,-0.6909485561265428,-0.16158546821730835,0.07409177139758086,-0.003683358546668123,-1.5832661026634547,-1.2823699036740273,0.0,-1.5968038136467797,0.0,0.0
20.002,800.0,0.0,-1.5832661026634547,-1.1690778694021322,0.0,-1.5968038136467797,0.0,0.0,0.0,-0.594804345051486,0.0,0.0,0.0,0.0,-1.5831882816631444,-1.21038354593953,0.0006560376803804391,-1.5966361799036084,-8.244977849120392e-05,4.217789402144123e-06,-0.03360228317066887,-1.913339429893886,-0.5558628390465543,-0.1426733459864901,0.07069932028774023,-0.0035644044514351256,-1.5832661026634547,-1.3299903462386862,0.0,-1.5968038136467797,0.0,0.0
20.102,800.0,0.0,-1.5832661026634547,-1.2524053310003609,0.0,-1.5968038136467797,0.0,0.0,0.0,-0.7507193634309018,0.0,0.0,0.0,0.0,-1.5852580904623539,-1.3404635188555785,-0.00279492254545686,-1.597439256130322,0.00027161907326275,-1.7971519887526605e-05,-0.3057366189374402,-0.9279236872986821,-0.6451898559606923,-0.15507403935206462,0.07169896277003669,-0.004188685821355227,-1.5832661026634547,-1.4290172754515849,0.0,-1.5968038136467797,0.0,0.0
20.202,800.0,0.0,-1.5832661026634547,-1.3193647449857124,0.0,-1.5968038136467797,0.0,0.0,0.0,-0.4998258028401229,0.0,0.0,0.0,0.0,-1.5817496420422834,-1.334832264730606,0.0016229464929024503,-1.5964584139008455,-0.00013256867731911581,1.0295734001504412e-05,-0.3181905921695731,0.23012588032261905,-1.0760003707551045,-0.2661030561207175,0.12855284144559123,-0.006899558586690266,-1.5832661026634547,-1.5482944076692062,0.0,-1.5968038136467797,0.0,0.0
20.302,866.6666870117188,0.0,-1.5832661026634547,-1.3774127050368499,0.0,-1.5968038136467797,0.0,0.0,0.0,-0.27057532532757456,0.0,0.0,0.0,0.0,-1.5808866446910432,-1.4101284840206887,-0.0020838414995374022,-1.5977006453913132,0.0006082897247562728,-2.412623365288477e-05,-0.5494718516416094,-1.6819272427647587,1.7845963638450575,0.15194399283338086,-0.014879077889380801,-0.010266234250308667,-1.5832661026634547,-1.1224208529558324,0.0,-1.5968038136467797,0.0,0.0
20.402,866.6666870117188,0.0,-1.5832661026634547,-1.3224803603420838,0.0,-1.5968038136467797,0.0,0.0,0.0,0.820257991814679,0.0,0.0,0.0,0.0,-1.5823276811568852,-1.4567467194283623,-0.0010684591240239082,-1.5971903837264538,0.0002700159751221984,-7.420471632111091e-06,-0.1823794965876743,-0.5812165986772995,0.7290107207420643,0.2166226382657517,-0.13146088019790325,0.0048455097714393365,-1.5832661026634547,-1.137586676072312,0.0,-1.5968038136467797,0.0,0.0
20.502,866.6666870117188,0.0,-1.5832661026634547,-1.2476649495560785,0.0,-1.5968038136467797,0.0,0.0,0.0,0.510725146003601,0.0,0.0,0.0,0.0,-1.5828018569889737,-1.4047398438710224,-0.00027524930447645146,-1.596922469720792,8.705660505068817e-05,-1.969896403298525e-06,-0.1739722132766736,1.00417558194594,0.6309129822519138,0.18881351068898078,-0.11008406895724392,0.004172310241468817,-1.5832661026634547,-1.1017233543362277,0.0,-1.5968038136467797,0.0,0.0
20.602,866.6666870117188,0.0,-1.5832661026634547,-1.1838160886575366,0.0,-1.5968038136467797,0.0,0.0,0.0,0.6324393694544693,0.0,0.0,0.0,0.0,-1.5840733832514322,-1.2308635210383485,-0.0003919773260321639,-1.596873867030898,1.6435124715897587e-05,-2.4645592937077266e-06,-0.1275385182877857,2.3723875748844625,0.29979127825140645,0.08476163475882086,-0.04522977972860393,0.0019369539913688088,-1.5832661026634547,-0.9726263862373675,0.0,-1.5968038136467797,0.0,0.0
20.702,866.6666870117188,0.0,-1.5832661026634547,-1.0874800950524346,0.0,-1.5968038136467797,0.0,0.0,0.0,0.6827565815994353,0.0,0.0,0.0,0.0,-1.5840117310721968,-1.0601132166932095,-0.0009307831883796816,-1.5970328577479758,0.00010292190285640453,-5.996926367482875e-06,-0.3021693479467927,2.309407543529615,0.0959595114180611,0.03096833778998564,-0.018255397108977733,0.0006126645650176759,-1.5832661026634547,-0.9989087846171462,0.0,-1.5968038136467797,0.0,0.0
20.802,866.6666870117188,0.0,-1.5832661026634547,-1.0099337927698242,0.0,-1.5968038136467797,0.0,0.0,0.0,0.7794516540399784,0.0,0.0,0.0,0.0,-1.5826266209892466,-0.89670498115731,0.000678812779149958,-1.5966339162166818,-7.750315669851924e-05,4.365827568527964e-06,0.3915901081313015,1.6705785812535494,-1.1587353981810238,-0.30575842356886523,0.14856251061828,-0.007459751921245181,-1.5832661026634547,-0.7874044472197377,0.0,-1.5968038136467797,0.0,0.0
20.903,866.6666870117188,0.0,-1.5832661026634547,-0.935599423912608,0.0,-1.5968038136467797,0.0,0.0,0.0,0.7833259555401308,0.0,0.0,0.0,0.0,-1.5835901526716372,-0.8616161693198348,0.002604343720988617,-1.5964128738462053,-0.00019005282414551948,1.8893987010397666e-06,-0.02125352352694549,0.4322336082124096,0.20937517825423732,0.03461627759452734,-0.01677706806549634,0.00031894237627779566,-1.5832661026634547,-0.8769828185331404,0.0,-1.5968038136467797,0.0,0.0
21.002,866.6666870117188,0.0,-1.5832661026634547,-0.8561174276976811,0.0,-1.5968038136467797,0.0,0.0,0.0,1.1563881252036619,0.0,0.0,0.0,0.0,-1.5845482248737932,-0.8631269140272095,0.002085044733402954,-1.5962488231230565,-0.00027130053097831224,1.3471217130265672e-05,0.19532820192655986,0.1767094934688411,-0.7300686614850983,-0.19163449736316085,0.09244480456942902,-0.004703147686566439,-1.5832661026634547,-0.7009722627411608,0.0,-1.5968038136467797,0.0,0.0
21.102,866.6666870117188,0.0,-1.5832661026634547,-0.76813860660533,0.0,-1.5968038136467797,0.0,0.0,0.0,1.0032904638416895,0.0,0.0,0.0,0.0,-1.5840317047803725,-0.7353946507701206,-0.00038966929643314944,-1.5968994333773627,4.2540284227559026e-05,-2.4950111018303055e-06,0.07935742343915597,2.2133300124633712,0.42122529868851255,0.1085619142690739,-0.05129896156651559,0.002706134211129839,-1.5832661026634547,-0.6135948557336155,0.0,-1.5968038136467797,0.0,0.0
21.202,866.6666870117188,0.0,-1.5832661026634547,-0.6848116892887361,0.0,-1.5968038136467797,0.0,0.0,0.0,1.0610563491415699,0.0,0.0,0.0,0.0,-1.5832918786295485,-0.5546513337771637,0.001503021930324958,-1.596416202797568,-0.00018301618818424443,9.561808319442734e-06,0.0020681358711127154,2.507135003926984,-0.22093296449004496,-0.05740288933427437,0.02725403325943593,-0.0014273890656268458,-1.5832661026634547,-0.5348321035467986,0.0,-1.5968038136467797,0.0,0.0
21.302,866.6666870117188,0.0,-1.5832661026634547,-0.6002118397166516,0.0,-1.5968038136467797,0.0,0.0,0.0,0.9122484165355084,0.0,0.0,0.0,0.0,-1.5836728438234842,-0.411073994403403,0.002397430148303021,-1.5961811788313685,-0.0002956340276137385,1.544295640397794e-05,0.09768029631165898,1.4485432511645366,-0.40474472575672066,-0.10702518709631412,0.05145955850262577,-0.002683522308999385,-1.5832661026634547,-0.47391212885194917,0.0,-1.5968038136467797,0.0,0.0
21.402,866.6666870117188,0.0,-1.5832661026634547,-0.5098905225191857,0.0,-1.5968038136467797,0.0,0.0,0.0,0.668428351676022,0.0,0.0,0.0,0.0,-1.5829339497790418,-0.38650277136946404,0.0010165515396424443,-1.5965412382107471,-0.00012385433439524656,6.539519127379399e-06,0.06044054080788919,0.19965405770895964,-0.8828221221318088,-0.22869629544946452,0.10832624947973711,-0.005675886520217946,-1.5832661026634547,-0.3144471246596746,0.0,-1.5968038136467797,0.0,0.0
21.502,866.6666870117188,0.0,-1.5832661026634547,-0.43889510571232027,0.0,-1.5968038136467797,0.0,0.0,0.0,0.7904551983710756,0.0,0.0,0.0,0.0,-1.5838526071970647,-0.3235608232182043,0.0014301903261836077,-1.5964348449251984,-0.0001744264046075021,9.077209594278158e-06,-0.012447733528922651,0.71631922683021,1.3399045213427707,0.34799206384734593,-0.16510020835545405,0.00865552581485297,-1.5832661026634547,-0.3600809358852104,0.0,-1.5968038136467797,0.0,0.0
21.602,866.6666870117188,0.0,-1.5832661026634547,-0.35997119980840075,0.0,-1.5968038136467797,0.0,0.0,0.0,0.9655172414788261,0.0,0.0,0.0,0.0,-1.5836018705804336,-0.24638764128134724,0.0015492747186535319,-1.5964024875179539,-0.0001901666066627958,9.959391864520234e-06,0.04817161565962474,1.1336566765118568,-0.9912500627532949,-0.2567673116299311,0.12154479129369657,-0.0063798952349749935,-1.5832661026634547,-0.17313457707581542,0.0,-1.5968038136467797,0.0,0.0
21.702,866.6666870117188,0.0,-1.5832661026634547,-0.2817400468811444,0.0,-1.5968038136467797,0.0,0.0,0.0,0.7586141306055697,0.0,0.0,0.0,0.0,-1.5832158453804266,-0.168358585949166,-0.0009130018417469677,-1.5970401814409734,0.0001116835711801381,-5.852363139494959e-06,-0.023806065643840163,1.7187056305768074,0.7469375233038237,0.19314725608610991,-0.09129765625225579,0.0047962511740972285,-1.5832661026634547,-0.018638615250400836,0.0,-1.5968038136467797,0.0,0.0
21.801,866.6666870117188,0.0,-1.5832661026634547,-0.20431822119356013,0.0,-1.5968038136467797,0.0,0.0,0.0,0.7548243684511986,0.0,0.0,0.0,0.0,-1.5834483393435905,-0.06477525160091348,0.0017187811509593598,-1.5963580127277497,-0.0002112406242897429,1.1104046020150826e-05,-0.039453283455681186,1.7098383694112795,-0.7283736260302901,-0.18878198551957698,0.08935094375205671,-0.00469958882950036,-1.5832661026634547,-0.11814370640842937,0.0,-1.5968038136467797,0.0,0.0
21.902,866.6666870117188,0.0,-1.5832661026634547,-0.1273414812810838,0.0,-1.5968038136467797,0.0,0.0,0.0,0.794401133467907,0.0,0.0,0.0,0.0,-1.5834243708937799,-0.0327094459316522,0.0013232285181600484,-1.5964612102199902,-0.00016208124530269968,8.512042179770941e-06,0.03592218152158831,0.04192152612110184,-0.852480994148645,-0.22043199059948743,0.10416320438610364,-0.005474454794158979,-1.5832661026634547,0.06124378013548132,0.0,-1.5968038136467797,0.0,0.0
22.002,866.6666870117188,0.0,-1.5832661026634547,-0.04817558524015464,0.0,-1.5968038136467797,0.0,0.0,0.0,0.8262174590265356,0.0,0.0,0.0,0.0,-1.583177895334893,0.008662936372675307,0.0034300963482651156,-1.596322193211088,-0.00023893107904166352,2.570861848619954e-07,0.03115510860618426,0.6469844270612423,0.39694978640411327,0.07449536513840396,-0.036130744485644344,0.0010365994990378842,-1.5832661026634547,0.14585341393731793,0.0,-1.5968038136467797,0.0,0.0
22.102,866.6666870117188,0.0,-1.5832661026634547,0.02594226066466318,0.0,-1.5968038136467797,0.0,0.0,0.0,0.5228313911186273,0.0,0.0,0.0,0.0,-1.583042340435408,0.14025599466502517,0.0015537561893882682,-1.5964012890954635,-0.0001907399242580606,1.0025936350650898e-05,0.024474903987451353,2.4020618473306707,-0.8523953735195989,-0.22084146826184392,0.10449297863046111,-0.005489488650601667,-1.5832661026634547,0.15038555285765007,0.0,-1.5968038136467797,0.0,0.0
22.202,866.6666870117188,0.0,-1.5832661026634547,0.08458880520588245,0.0,-1.5968038136467797,0.0,0.0,0.0,0.5733624027177906,0.0,0.0,0.0,0.0,-1.5833777655747034,0.2936232640087284,0.0008977367142105933,-1.5965711987730105,-0.00010991135970962321,5.784522853357277e-06,-0.030338360792343592,1.5502019689272593,-0.819027762694642,-0.21203574276225373,0.10031983016944217,-0.005267297271756343,-1.5832661026634547,0.33578182514823673,0.0,-1.5968038136467797,0.0,0.0
22.302,866.6666870117188,0.0,-1.5832661026634547,0.16834025063678013,0.0,-1.5968038136467797,0.0,0.0,0.0,0.5626682849686145,0.0,0.0,0.0,0.0,-1.5834097235077844,0.31413506388257323,0.0008959344641555174,-1.596571864563283,-0.0001096528377030487,5.772516765953958e-06,-0.01056024099286961,0.13782453691216123,-0.8451124268865593,-0.2188290172946119,0.10355296598944722,-0.005436628544004147,-1.5832661026634547,0.3712543346190386,0.0,-1.5968038136467797,0.0,0.0
22.402,866.6666870117188,0.0,-1.5832661026634547,0.24393754214173755,0.0,-1.5968038136467797,0.0,0.0,0.0,0.8378885679279807,0.0,0.0,0.0,0.0,-1.5823950591324643,0.2974206654070724,0.001655390374860043,-1.596373192745963,-0.00020472928970144205,1.068982076600633e-05,0.011575237223028759,0.532045723364785,-0.7527147852355599,-0.19538712436567787,0.09260174798141875,-0.004865009104045761,-1.5832661026634547,0.5083461204334246,0.0,-1.5968038136467797,0.0,0.0
22.501,866.6666870117188,0.0,-1.5832661026634547,0.333872988203302,0.0,-1.5968038136467797,0.0,0.0,0.0,1.0470993078872564,0.0,0.0,0.0,0.0,-1.5839656583853383,0.4037174446557362,-0.0010549514487400934,-1.5970783978026162,0.0001305033377021291,-6.791110051595699e-06,0.027075576499265404,1.7293839744416437,0.8015090229909099,0.20769094524660078,-0.0983548001143704,0.005153776389251163,-1.5832661026634547,0.3962043927081588,0.0,-1.5968038136467797,0.0,0.0
22.602,866.6666870117188,0.0,-1.5832661026634547,0.40500286642664546,0.0,-1.5968038136467797,0.0,0.0,0.0,0.9072861263636919,0.0,0.0,0.0,0.0,-1.5824363381293605,0.5728418225763545,0.001642963503453191,-1.5963753232748352,-0.0002047896594541798,1.0587760895755456e-05,0.023315688221588707,2.361384192208582,-0.8390505396133209,-0.21309664627200042,0.09956588926484074,-0.005212872558018402,-1.5832661026634547,0.48430733568010614,0.0,-1.5968038136467797,0.0,0.0
22.702,866.6666870117188,0.0,-1.5832661026634547,0.48462724046143235,0.0,-1.5968038136467797,0.0,0.0,0.0,0.7029870599805759,0.0,0.0,0.0,0.0,-1.583192409562834,0.6424708350667487,0.0009065298271457085,-1.5965682692958114,-0.00011200169897112007,5.840338257657983e-06,-0.1157269078329583,0.8246330509989862,-0.835582105188629,-0.21713922493819982,0.1033211128494206,-0.005376391689246568,-1.5832661026634547,0.565296756067237,0.0,-1.5968038136467797,0.0,0.0
22.802,866.6666870117188,0.0,-1.5832661026634547,0.5598858327013985,0.0,-1.5968038136467797,0.0,0.0,0.0,1.1048645999805797,0.0,0.0,0.0,0.0,-1.582693865806771,0.5977815272366196,-0.002976578479901711,-1.5971823942431838,0.0001858236417608754,1.548278206287649e-06,-0.028277061625054653,-0.806201113357466,-0.10183065810060093,0.010908133055018024,-0.004435638876703134,0.0013271721551902649,-1.5832661026634547,0.7269478698330059,0.0,-1.5968038136467797,0.0,0.0
22.902,866.6666870117188,0.0,-1.5832661026634547,0.636562731950527,0.0,-1.5968038136467797,0.0,0.0,0.0,0.6758597002678463,0.0,0.0,0.0,0.0,-1.5833167791857405,0.547911771875041,-0.0008832452427731168,-1.5970328577479758,0.00010883565979129274,-5.691582855049168e-06,0.09464400970810283,-0.1528438583209618,0.9531400278171792,0.24744936038417778,-0.11751024372265943,0.006138576429808286,-1.5832661026634547,0.9231128145837231,0.0,-1.5968038136467797,0.0,0.0
23.002,866.6666870117188,0.0,-1.5832661026634547,0.7122977347127206,0.0,-1.5968038136467797,0.0,0.0,0.0,0.999796196145011,0.0,0.0,0.0,0.0,-1.5836756401426288,0.7056454769182541,-0.00019474279321584205,-1.596856157009649,2.585523621246397e-05,-1.2623824880596167e-06,0.03133240439456708,2.538743796589025,0.26820588811744406,0.06955012050428981,-0.03304635037370943,0.0017152551932954195,-1.5832661026634547,0.8754192790901063,0.0,-1.5968038136467797,0.0,0.0
23.102,866.6666870117188,0.0,-1.5832661026634547,0.7925407106011613,0.0,-1.5968038136467797,0.0,0.0,0.0,1.0274206748516848,0.0,0.0,0.0,0.0,-1.582555914062305,0.9056455458318423,0.006331067840864072,-1.5958092683851388,-0.0004845502294302487,6.699357150353996e-06,0.1919765637604247,1.8298196354737475,1.6504843650386292,0.35508479419952677,-0.173479878014902,0.006647136168283339,-1.5832661026634547,0.8991551297257973,0.0,-1.5968038136467797,0.0,0.0
23.202,866.6666870117188,0.0,-1.5832661026634547,0.8799867092369706,0.0,-1.5968038136467797,0.0,0.0,0.0,0.6820841495567898,0.0,0.0,0.0,0.0,-1.583860862996444,0.9991165745601982,-0.001624528394985498,-1.5972352579908218,0.0002112426236111179,-1.0500403352201218e-05,0.18526250162573957,0.6149710336505905,0.5833057819734394,0.15426720141031147,-0.07526960432393884,0.0037574880517293988,-1.5832661026634547,1.1251267495153434,0.0,-1.5968038136467797,0.0,0.0
23.302,866.6666870117188,0.0,-1.5832661026634547,0.9646964397566761,0.0,-1.5968038136467797,0.0,0.0,0.0,0.9087148780567925,0.0,0.0,0.0,0.0,-1.5839218493854066,1.1224463662192772,0.0013848240011924884,-1.5964525549464474,-0.0001633899880710574,8.926591002948942e-06,-0.24855016137600522,2.2032914930504264,-0.8286945048194115,-0.22193712602381616,0.1100662507450756,-0.005368985292613435,-1.5832661026634547,1.0987935500108374,0.0,-1.5968038136467797,0.0,0.0
23.402,866.6666870117188,0.0,-1.5832661026634547,1.0291061879698975,0.0,-1.5968038136467797,0.0,0.0,0.0,0.5035958293603967,0.0,0.0,0.0,0.0,-1.5848197341469268,1.198372556265218,0.0016990607551765134,-1.5963968948796647,-0.00017622974372381473,1.0911615401468557e-05,0.09253205638464274,1.1379664701039318,-0.6963431883886618,-0.1813758177518507,0.08756513611596886,-0.004509689839318198,-1.5832661026634547,1.1679676784631055,0.0,-1.5968038136467797,0.0,0.0
23.502,866.6666870117188,0.0,-1.5832661026634547,1.095756685501214,0.0,-1.5968038136467797,0.0,0.0,0.0,0.928720501976451,0.0,0.0,0.0,0.0,-1.5853467737266536,1.1839002731114552,0.0019155415520261912,-1.596355216408605,-0.00018806592131954947,1.2286096019182684e-05,0.029872380422390783,-0.22611144794019042,-0.5143816416445619,-0.13501316258504067,0.06581363059350298,-0.0033307596593821847,-1.5832661026634547,1.2590487799517804,0.0,-1.5968038136467797,0.0,0.0
23.602,866.6666870117188,0.0,-1.5832661026634547,1.176935219557985,0.0,-1.5968038136467797,0.0,0.0,0.0,1.0360280887429305,0.0,0.0,0.0,0.0,-1.5831764305962934,1.1367396849477869,-0.0007816799119789393,-1.5970071582434564,9.78175459854842e-05,-5.0379886460999156e-06,0.22495067588956574,-0.43767188302689225,0.9714911385196154,0.25976959299531827,-0.12900987317816245,0.0062695654644400545,-1.5832661026634547,1.2736995299253475,0.0,-1.5968038136467797,0.0,0.0
23.702,866.6666870117188,0.0,-1.5832661026634547,1.252264064411546,0.0,-1.5968038136467797,0.0,0.0,0.0,0.9156171646283591,0.0,0.0,0.0,0.0,-1.5830643115144012,1.2668580073835325,-0.000344110874043577,-1.5968881149427299,3.798851215179121e-05,-2.211352048196903e-06,0.14205411109877622,2.0591617474875563,0.4183616681473776,0.11481983516567731,-0.05913795126802861,0.00268803069742678,-1.5832661026634547,1.381766589742485,0.0,-1.5968038136467797,0.0,0.0
23.802,933.3333129882812,0.0,-1.5832661026634547,1.3305750165234187,0.0,-1.5968038136467797,0.0,0.0,0.0,0.7199173853296584,0.0,0.0,0.0,0.0,-1.5801473511724373,1.4097284772249588,0.003957304716228854,-1.5955809023216645,-0.0007261563842170148,2.2721809946650975e-05,-0.7716366113596,2.0162684754965765,-1.3907513239292721,0.4531105274717042,-0.33342600413369844,0.040192606102611605,-1.5832661026634547,1.1769716180949596,0.0,-1.5968038136467797,0.0,0.0
23.902,933.3333129882812,0.0,-1.5832661026634547,1.3024623525984618,0.0,-1.5968038136467797,0.0,0.0,0.0,-0.7682471937737202,0.0,0.0,0.0,0.0,-1.5819501780723664,1.4938111307414854,0.002907224199525488,-1.5963529527216784,-0.00023301993097735,3.1271507028233054e-06,0.38416744540957354,0.30978342537187015,0.5446770298360035,0.17461531674565728,-0.1170491090575338,0.0031630179614100216,-1.5832661026634547,1.0273361329559805,0.0,-1.5968038136467797,0.0,0.0
24.002,933.3333129882812,0.0,-1.5832661026634547,1.227852972467507,0.0,-1.5968038136467797,0.0,0.0,0.0,-0.8906527999538765,0.0,0.0,0.0,0.0,-1.583597742680744,1.5172848983797165,-8.093685299559382e-05,-1.5968713370278624,6.086176053344498e-05,-7.505741215677542e-07,-0.3897068204769384,0.027743659587036205,-0.47286092958989534,-0.18643610678386704,0.13165301062579565,-0.003385868108521085,-1.5832661026634547,1.0109048997503443,0.0,-1.5968038136467797,0.0,0.0
24.102,933.3333129882812,0.0,-1.5832661026634547,1.1316841932141157,0.0,-1.5968038136467797,0.0,0.0,0.0,-0.8921486460433665,0.0,0.0,0.0,0.0,-1.5833605881856725,1.4245799945179491,6.948854374660878e-05,-1.5967939721981956,-1.1007321197522926e-07,4.261581638964977e-07,-0.2375412359961061,-1.3249677828948978,-0.517766652548107,-0.16985443359919306,0.10360865102336508,-0.003493491285553636,-1.5832661026634547,1.0640241900652825,0.0,-1.5968038136467797,0.0,0.0
24.202,933.3333129882812,0.0,-1.5832661026634547,1.0695453509551172,0.0,-1.5968038136467797,0.0,0.0,0.0,-0.4825418464358504,0.0,0.0,0.0,0.0,-1.5833716403041962,1.2883650305567398,0.0001703775512580957,-1.5967632126876052,-1.727152171391993e-05,1.0987622123009147e-06,0.03388075619393408,-2.1003396774204157,-0.3970995892154302,-0.10610221036389832,0.051772180325087444,-0.0025632576992416895,-1.5832661026634547,0.9066545138268868,0.0,-1.5968038136467797,0.0,0.0
24.302,933.3333129882812,0.0,-1.5832661026634547,0.997684998691656,0.0,-1.5968038136467797,0.0,0.0,0.0,-0.920285120986035,0.0,0.0,0.0,0.0,-1.583290413890949,1.0785075371843322,0.00012936533372826718,-1.5967697374322758,-1.5892765108569945e-05,8.289410684053301e-07,-0.010506123686984057,-2.5151207587716953,-0.2578709089409031,-0.06878934276582743,0.03277954116378092,-0.0016611511512004532,-1.5832661026634547,0.9154379529163548,0.0,-1.5968038136467797,0.0,0.0
24.402,933.3333129882812,0.0,-1.5832661026634547,0.911437009025537,0.0,-1.5968038136467797,0.0,0.0,0.0,-1.0311758160705093,0.0,0.0,0.0,0.0,-1.5832731033438634,0.8556789179856121,0.0001146611458747425,-1.596773732173911,-1.4133691455139143e-05,7.663860182919584e-07,0.018325648385701578,-2.582259316168702,-0.23864827877173841,-0.06278572878619137,0.02924343331907654,-0.001530731809378042,-1.5832661026634547,0.7892148762498558,0.0,-1.5968038136467797,0.0,0.0
24.502,933.3333129882812,0.0,-1.5832661026634547,0.8373471183666394,0.0,-1.5968038136467797,0.0,0.0,0.0,-0.8670444703390636,0.0,0.0,0.0,0.0,-1.5840471511146947,0.7110019593977578,0.0003623807052776035,-1.5967127457849482,-3.9751365010260115e-05,2.333063022709432e-06,-0.07902082484450518,-1.8253483211615589,-0.6591626632520111,-0.1739986285057358,0.0811872647793926,-0.004219771985298097,-1.5832661026634547,0.5454739761710123,0.0,-1.5968038136467797,0.0,0.0
24.603,933.3333129882812,0.0,-1.5832661026634547,0.7747623302288602,0.0,-1.5968038136467797,0.0,0.0,0.0,-0.4662396136631194,0.0,0.0,0.0,0.0,-1.5816624235165835,0.6450132218013929,0.0012252793258020753,-1.5964729281287866,-0.00015794219492638376,7.916348541343018e-06,-0.22691212732192273,-0.0018357858590877978,-0.7199046406057836,-0.19108628565276803,0.0895041088042499,-0.0046519281288123,-1.5832661026634547,0.6606427720699044,0.0,-1.5968038136467797,0.0,0.0
24.702,933.3333129882812,0.0,-1.5832661026634547,0.7106074884067484,0.0,-1.5968038136467797,0.0,0.0,0.0,-0.8866555012197989,0.0,0.0,0.0,0.0,-1.5863788818071136,0.7006251519473458,-0.001273630263749225,-1.5971552300000649,0.00017193980147494508,-8.24499511968105e-06,0.14408467156142077,0.7991920062635137,1.0442489658166894,0.2762123157501174,-0.1289275898228574,0.006734717237592768,-1.5832661026634547,0.5206600338895784,0.0,-1.5968038136467797,0.0,0.0
24.802,933.3333129882812,0.0,-1.5832661026634547,0.6364690151160843,0.0,-1.5968038136467797,0.0,0.0,0.0,-0.7574586444311793,0.0,0.0,0.0,0.0,-1.5808272561987347,0.7167391407550882,0.00043793837598644133,-1.5966746625813601,-6.772199295632839e-05,2.843618638606506e-06,-0.15891886166256883,0.03254036641135119,-0.8428054635922781,-0.22312765889962244,0.1043502664855465,-0.005428016962948023,-1.5832661026634547,0.3629160095589066,0.0,-1.5968038136467797,0.0,0.0
24.902,933.3333129882812,0.0,-1.5832661026634547,0.5498953501225854,0.0,-1.5968038136467797,0.0,0.0,0.0,-0.7246872519529672,0.0,0.0,0.0,0.0,-1.582219823132737,0.6057782676208278,0.0002858351097351912,-1.5967239310615264,-3.9643519502188805e-05,1.8381765039375929e-06,0.13259415511027284,-1.5492542830533547,-0.6816447362793238,-0.17861175614597105,0.08256316198944683,-0.00436632802873922,-1.5832661026634547,0.38013715180026186,0.0,-1.5968038136467797,0.0,0.0
25.002,933.3333129882812,0.0,-1.5832661026634547,0.4732746618118897,0.0,-1.5968038136467797,0.0,0.0,0.0,-0.9945047361121714,0.0,0.0,0.0,0.0,-1.583057120979458,0.46507514485353507,0.0003035928546228929,-1.5967233984293085,-3.77133819613557e-05,1.9609322203805157e-06,-0.13028259786311133,-2.016499504721141,-0.5269034589054645,-0.13878315839129204,0.06451882663864167,-0.003379864552798098,-1.5832661026634547,0.2746739690387847,0.0,-1.5968038136467797,0.0,0.0
25.102,933.3333129882812,0.0,-1.5832661026634547,0.4121062957436914,0.0,-1.5968038136467797,0.0,0.0,0.0,-0.7165506667182646,0.0,0.0,0.0,0.0,-1.5842400971356712,0.32907396614883183,-0.0018175409949889906,-1.5972827954162796,0.00022272589660219741,-1.166416077975024e-05,0.10867687128200286,-1.427431441097097,1.022740943958073,0.2670089636550216,-0.12316941110480736,0.0064881360885299015,-1.5832661026634547,0.3499704642994995,0.0,-1.5968038136467797,0.0,0.0
25.202,933.3333129882812,0.0,-1.5832661026634547,0.341466221877436,0.0,-1.5968038136467797,0.0,0.0,0.0,-0.8926510977245536,0.0,0.0,0.0,0.0,-1.5818830664128964,0.2740702687063394,0.0019040552394164359,-1.5963019531868035,-0.00023331973165572782,1.2229163108015871e-05,-0.0864019256084711,0.274750589851557,-0.9729757176692801,-0.25480645940881935,0.1177340990570374,-0.006209277635114736,-1.5832661026634547,0.07626987243368444,0.0,-1.5968038136467797,0.0,0.0
25.302,933.3333129882812,0.0,-1.5832661026634547,0.2618058212966412,0.0,-1.5968038136467797,0.0,0.0,0.0,-0.6235571723838566,0.0,0.0,0.0,0.0,-1.5837036033340746,0.27704480326211933,0.0004792134392585008,-1.5966782578488317,-5.79153622485743e-05,3.09278584281752e-06,-0.16040725246154366,-0.13423705086436433,-0.8210695417233784,-0.21618686188763067,0.10027881748865496,-0.005285334466506476,-1.5832661026634547,0.050141089842512865,0.0,-1.5968038136467797,0.0,0.0
25.402,933.3333129882812,0.0,-1.5832661026634547,0.19191745163731344,0.0,-1.5968038136467797,0.0,0.0,0.0,-0.8250448242897874,0.0,0.0,0.0,0.0,-1.5844080094424007,0.19423885252741976,0.00040943829360551824,-1.5966971662925713,-4.882316790313698e-05,2.629071035170982e-06,-0.008091712245691229,-1.2785602035294497,-0.7087440648465613,-0.18612463344962546,0.08612238524017525,-0.004548783691734071,-1.5832661026634547,0.0010959935264265863,0.0,-1.5968038136467797,0.0,0.0
25.502,933.3333129882812,0.0,-1.5832661026634547,0.12066973448313689,0.0,-1.5968038136467797,0.0,0.0,0.0,-0.8204457865042538,0.0,0.0,0.0,0.0,-1.5822290110384978,0.07773065645441629,0.0005149252851494324,-1.596668270994744,-6.303520166916688e-05,3.3238481659034377e-06,0.006983722799515177,-0.9301030851767486,-0.9623865231219343,-0.252834804740536,0.1170028782454857,-0.006183449653878821,-1.5832661026634547,-0.17251006180120954,0.0,-1.5968038136467797,0.0,0.0
25.602,933.3333129882812,0.0,-1.5832661026634547,0.03802735957609826,0.0,-1.5968038136467797,0.0,0.0,0.0,-0.7365556017071471,0.0,0.0,0.0,0.0,-1.5826836126365742,0.020352986007308203,-0.0010626900903236728,-1.5970839904409053,0.00012988048407523578,-6.865397336435486e-06,-0.07618001426496084,-0.5625909826455032,1.0397353072431685,0.2741624806590834,-0.12716612514360856,0.006723412326824841,-1.5832661026634547,-0.20919691132694562,0.0,-1.5968038136467797,0.0,0.0
25.702,933.3333129882812,0.0,-1.5832661026634547,-0.021253760316223946,0.0,-1.5968038136467797,0.0,0.0,0.0,-0.6913522080184963,0.0,0.0,0.0,0.0,-1.5839159904310085,0.021703770440520815,0.0005107108132188077,-1.59666933625918,-6.233362273130233e-05,3.2995164857246264e-06,0.036149361646139674,-0.32156574937708504,-0.7917794968434416,-0.20818980525304304,0.09639017785584053,-0.005095472406878493,-1.5832661026634547,-0.12318633827919838,0.0,-1.5968038136467797,0.0,0.0
25.802,933.3333129882812,0.0,-1.5832661026634547,-0.09916247493126562,0.0,-1.5968038136467797,0.0,0.0,0.0,-0.6629781250543068,0.0,0.0,0.0,0.0,-1.5833933450670803,-0.06881443473672302,0.00039590740668817915,-1.5966994299794979,-4.8303474382799984e-05,2.5530876796830453e-06,0.06890342592902371,-1.369302224509774,-0.6966324076830445,-0.18289290411157114,0.08460136239546852,-0.004470275055185026,-1.5832661026634547,-0.2803397979640704,0.0,-1.5968038136467797,0.0,0.0
25.902,933.3333129882812,0.0,-1.5832661026634547,-0.18357122397464565,0.0,-1.5968038136467797,0.0,0.0,0.0,-1.0734730116934037,0.0,0.0,0.0,0.0,-1.5828312849190191,-0.22139172727732473,-0.0023583641238399456,-1.5974218124251818,0.0002855846581600207,-1.5037291252427822e-05,-0.045409900964455754,-1.6302521970792425,0.7415932247863072,0.193402520076594,-0.08907241039154805,0.004704116203353495,-1.5832661026634547,-0.4363706827156776,0.0,-1.5968038136467797,0.0,0.0
26.002,933.3333129882812,0.0,-1.5832661026634547,-0.26181292730369954,0.0,-1.5968038136467797,0.0,0.0,0.0,-0.6358596993852439,0.0,0.0,0.0,0.0,-1.583054191502259,-0.3235044307821219,-0.0027865151227460206,-1.5975365946681641,0.0003393742378865258,-1.7897201617269167e-05,-0.05869778067410895,-1.1315386644969168,0.21559793710207328,0.06005486098658607,-0.02881947887948194,0.001533961932497064,-1.5832661026634547,-0.5417732473223155,0.0,-1.5968038136467797,0.0,0.0
26.102,933.3333129882812,0.0,-1.5832661026634547,-0.33737932719994035,0.0,-1.5968038136467797,0.0,0.0,0.0,-0.8308847854235358,0.0,0.0,0.0,0.0,-1.5824387349743414,-0.4283243873377959,-0.000656299250133012,-1.5969805266325556,8.37447779569392e-05,-4.309400583196898e-06,-0.0015674484524243958,-0.8618228971994522,1.2992180777890852,0.3395190503916907,-0.15674565563403692,0.0082560714169898,-1.5832661026634547,-0.4386340716533574,0.0,-1.5968038136467797,0.0,0.0
26.202,933.3333129882812,0.0,-1.5832661026634547,-0.42074983050809145,0.0,-1.5968038136467797,0.0,0.0,0.0,-1.0722107249748642,0.0,0.0,0.0,0.0,-1.583679368568155,-0.4417309067128229,0.0005968871560792328,-1.5966455009674236,-7.408742991185167e-05,3.845545579234429e-06,0.014682879899042222,0.01364212174652576,-1.035553345383417,-0.2722491991529432,0.12619729210617295,-0.0066520494924350755,-1.5832661026634547,-0.5200287116401607,0.0,-1.5968038136467797,0.0,0.0
26.302,933.3333129882812,0.0,-1.5832661026634547,-0.48624333069351877,0.0,-1.5968038136467797,0.0,0.0,0.0,-0.5717665391452345,0.0,0.0,0.0,0.0,-1.583090144176975,-0.5546467398242833,0.0004276083213172481,-1.5966915736542822,-5.1652914725831436e-05,2.754060368462536e-06,-0.002777662712864759,-1.5325831609455676,-0.6491389243831164,-0.1704831393535335,0.07900871578392372,-0.004160617559882013,-1.5832661026634547,-0.5532734282871723,0.0,-1.5968038136467797,0.0,0.0
26.403,933.3333129882812,0.0,-1.5832661026634547,-0.5391534770417152,0.0,-1.5968038136467797,0.0,0.0,0.0,-0.6941607302414297,0.0,0.0,0.0,0.0,-1.5831254310614185,-0.5676024526057871,-0.001150297947288597,-1.597107958890716,0.0001417414987690274,-7.429353779865975e-06,0.09638366975592665,0.36448498718869304,0.8972847513266203,0.23623355732184995,-0.10962283442357741,0.005791616994190051,-1.5832661026634547,-0.7863950484180662,0.0,-1.5968038136467797,0.0,0.0
26.502,933.3333129882812,0.0,-1.5832661026634547,-0.6017432061547581,0.0,-1.5968038136467797,0.0,0.0,0.0,-0.7904588970049713,0.0,0.0,0.0,0.0,-1.5831492663531745,-0.5822938473382365,0.0002927314355980192,-1.59672699369678,-3.53508424092432e-05,1.882938876406586e-06,-0.019567170393409886,-0.4064849017920057,-0.8893041896460343,-0.2340311064555976,0.1086318305700669,-0.005720997972370366,-1.5832661026634547,-0.8580705402450599,0.0,-1.5968038136467797,0.0,0.0
26.603,933.3333129882812,0.0,-1.5832661026634547,-0.6836746188764984,0.0,-1.5968038136467797,0.0,0.0,0.0,-0.7369174028474466,0.0,0.0,0.0,0.0,-1.5830737657362708,-0.7190290598183928,0.0002642899674681388,-1.5967349831800504,-3.133272659414672e-05,1.693763504429519e-06,0.03865102698324083,-1.799289423053188,-0.5628999093319524,-0.148219478825121,0.06896952641951731,-0.003607560144662019,-1.5832661026634547,-0.7965645192988122,0.0,-1.5968038136467797,0.0,0.0
26.702,933.3333129882812,0.0,-1.5832661026634547,-0.7608931475741585,0.0,-1.5968038136467797,0.0,0.0,0.0,-0.9431017742059931,0.0,0.0,0.0,0.0,-1.582512371378482,-0.8591991508935062,-0.00157378425309783,-1.5972238063981343,0.00019921768081922173,-1.0069687760374315e-05,-0.07758538101695246,-1.1607737816793706,-1.0298905327995271,-0.2742062563695016,0.12860151903689085,-0.006756764258288881,-1.5832661026634547,-1.0162421117233968,0.0,-1.5968038136467797,0.0,0.0
26.801,933.3333129882812,0.0,-1.5832661026634547,-0.84045029271552,0.0,-1.5968038136467797,0.0,0.0,0.0,-1.0142805084988646,0.0,0.0,0.0,0.0,-1.5827661706303668,-0.9267434408825863,-0.002755391248025996,-1.5975389915131453,0.00034761771624461493,-1.7801217936623915e-05,-0.14602624915414303,-0.7070018248614315,-0.02007159599041151,-0.003234878317983901,0.0005384572002052923,-0.0001061777570789762,-1.5832661026634547,-1.053781968482839,0.0,-1.5968038136467797,0.0,0.0
26.902,933.3333129882812,0.0,-1.5832661026634547,-0.9026138074270857,0.0,-1.5968038136467797,0.0,0.0,0.0,-0.62114371920068,0.0,0.0,0.0,0.0,-1.5841279780537787,-0.9205178357813353,0.0004072639747189488,-1.5966869131223744,-5.9827883817536235e-05,2.6313080807338615e-06,0.14180911692324574,-0.16544105968547057,-0.8268829560669123,-0.2200797209662972,0.10386549626574641,-0.005324373703314055,-1.5832661026634547,-0.9608150057811712,0.0,-1.5968038136467797,0.0,0.0
27.002,933.3333129882812,0.0,-1.5832661026634547,-0.9656995380114157,0.0,-1.5968038136467797,0.0,0.0,0.0,-0.7380376985229193,0.0,0.0,0.0,0.0,-1.582843934934197,-0.9663180146811637,0.0002262758623772831,-1.5967490979338277,-2.298248366190039e-05,1.4507573187544183e-06,-0.18174861037019133,-0.6486008992638931,-0.8797286607885999,-0.23038632083247199,0.1068954162498216,-0.005655154435310059,-1.5832661026634547,-1.0930134006888712,0.0,-1.5968038136467797,0.0,0.0
27.102,933.3333129882812,0.0,-1.5832661026634547,-1.0356931958478217,0.0,-1.5968038136467797,0.0,0.0,0.0,-0.6907420028819575,0.0,0.0,0.0,0.0,-1.5810954365205054,-1.0737936754758648,0.0008243248842497152,-1.596623130414267,-6.519316838253919e-05,5.288169479834256e-06,0.652884460719231,-0.43865671999800354,-0.7723157840165975,-0.21684948965635603,0.10863538422564646,-0.004994560447807807,-1.5832661026634547,-1.135483374615788,0.0,-1.5968038136467797,0.0,0.0
27.202,933.3333129882812,0.0,-1.5832661026634547,-1.0947502081074276,0.0,-1.5968038136467797,0.0,0.0,0.0,-0.5794881012901645,0.0,0.0,0.0,0.0,-1.5849409079765255,-1.117549745081003,-0.0025999136149331085,-1.5974597624707154,0.00029278390559312893,-1.6744699515692506e-05,-0.7974216699288835,-0.340049685238889,0.37472384289463895,0.11814108000587195,-0.06560280810370958,0.002474726058273644,-1.5832661026634547,-1.2544313891350563,0.0,-1.5968038136467797,0.0,0.0
27.302,933.3333129882812,0.0,-1.5832661026634547,-1.160249275687578,0.0,-1.5968038136467797,0.0,0.0,0.0,-0.5454418981570702,0.0,0.0,0.0,0.0,-1.5845479585576843,-1.1811460319120952,-0.0016096482424690054,-1.5971970416291792,0.00016943429418987487,-1.0317552815107482e-05,-0.44232272768606573,-0.6233083257591926,1.0786433583999264,0.3001321961604502,-0.15031120876905327,0.006939331233094918,-1.5832661026634547,-1.250071700474056,0.0,-1.5968038136467797,0.0,0.0
27.402,933.3333129882812,0.0,-1.5832661026634547,-1.2142271221192562,0.0,-1.5968038136467797,0.0,0.0,0.0,-0.6536300821879897,0.0,0.0,0.0,0.0,-1.5829820198367177,-1.1913997347411183,0.0006839376737652467,-1.5966285898945016,-7.977982295937875e-05,4.415503288514746e-06,-0.02786255516554603,-0.46189606288128027,-0.9491024758675373,-0.2526051403860303,0.12061249349746549,-0.00610755944563592,-1.5832661026634547,-1.2725072877293546,0.0,-1.5968038136467797,0.0,0.0
27.502,933.3333129882812,0.0,-1.5832661026634547,-1.2814720558751578,0.0,-1.5968038136467797,0.0,0.0,0.0,-0.8103122613300909,0.0,0.0,0.0,0.0,-1.5824109049409503,-1.3369296372470978,0.0016926508333203964,-1.5963883727641766,-0.000182619135962886,1.0868767140476021e-05,0.4184242191434808,-1.647240501672858,-0.017347008465611217,-0.025998465157572058,0.02406243234946312,-0.00014925119367320148,-1.5832661026634547,-1.471916444034754,0.0,-1.5968038136467797,0.0,0.0
27.602,1000.0,0.0,-1.5832661026634547,-1.3224207806097548,0.0,-1.5968038136467797,0.0,0.0,0.0,0.24298631944441654,0.0,0.0,0.0,0.0,-1.5834008019181327,-1.440758298666017,0.00012925405442637094,-1.596756022152662,-3.091508176899193e-05,8.974742087999988e-07,0.0705851539007599,-1.6961623714234502,-0.5692997517475219,-0.1637415800805933,0.08831081289881264,-0.003721881275865849,-1.5832661026634547,-1.1023350635195965,0.0,-1.5968038136467797,0.0,0.0
27.702,1000.0,0.0,-1.5832661026634547,-1.2515014996128615,0.0,-1.5968038136467797,0.0,0.0,0.0,0.7802509236362726,0.0,0.0,0.0,0.0,-1.5833529981765657,-1.4992262693439982,0.0003058151247131717,-1.5967066205144411,-5.9063801704734995e-05,2.053111298104339e-06,-0.555587301742272,-0.926672534218563,0.7099841658081567,0.2694202729297634,-0.1843071425189441,0.004990862711052069,-1.5832661026634547,-1.1517355922751957,0.0,-1.5968038136467797,0.0,0.0
27.803,1000.0,0.0,-1.5832661026634547,-1.1805662560861716,0.0,-1.5968038136467797,0.0,0.0,0.0,0.9133202178577983,0.0,0.0,0.0,0.0,-1.583413318775256,-1.4466952836841307,0.00019476054328853716,-1.5967313879125788,-4.719213615459404e-05,1.3459891452156512e-06,-0.25742968972730423,1.0117536734067876,0.4520986927050422,0.1590923998971011,-0.09959293699466186,0.003097920837663048,-1.5832661026634547,-1.0973249752073602,0.0,-1.5968038136467797,0.0,0.0
27.902,1000.0,0.0,-1.5832661026634547,-1.0878283543819256,0.0,-1.5968038136467797,0.0,0.0,0.0,1.001574972330061,0.0,0.0,0.0,0.0,-1.5830878804900483,-1.3211321651349113,3.8976774269256146e-05,-1.5968052906328285,6.94527164764814e-06,2.1563925208167468e-07,0.08740527154915845,2.0703847077953137,0.38169606520749366,0.10008563011870493,-0.04658108014927775,0.002466142045095992,-1.5832661026634547,-0.9024736737423692,0.0,-1.5968038136467797,0.0,0.0
28.002,1000.0,0.0,-1.5832661026634547,-1.007273990063159,0.0,-1.5968038136467797,0.0,0.0,0.0,0.702888032806706,0.0,0.0,0.0,0.0,-1.5832358190886022,-1.1448854957740122,-6.9812452095834526e-06,-1.5968066222133734,1.8282601543738937e-06,-5.324607505560794e-08,-0.11588658930744378,2.7884945109844383,0.12079675927776375,0.0363978720265469,-0.018939390503667154,0.0007840663539870025,-1.5832661026634547,-0.8874350171853157,0.0,-1.5968038136467797,0.0,0.0
28.102,1000.0,0.0,-1.5832661026634547,-0.9271030387134509,0.0,-1.5968038136467797,0.0,0.0,0.0,0.8305341576514408,0.0,0.0,0.0,0.0,-1.5832675107055743,-0.8860442141556684,0.00016408643460466053,-1.5968681412345542,2.2309746560334727e-05,-4.026940563635061e-06,-0.011050321930390336,2.9564776577989305,0.31620310833756066,-0.05626386781961509,0.01927315948965974,-0.005174528759956415,-1.5832661026634547,-0.849828313249183,0.0,-1.5968038136467797,0.0,0.0
28.202,1000.0,0.0,-1.5832661026634547,-0.8445178459485181,0.0,-1.5968038136467797,0.0,0.0,0.0,1.0204933925264543,0.0,0.0,0.0,0.0,-1.5823596390899661,-0.738528991636062,0.00025196350100546033,-1.5967424400311026,-2.4662419542734838e-05,1.6282482675204217e-06,-0.1163550226984319,1.5470917962482102,-0.9298573419871614,-0.24802949673813793,0.11274911090484302,-0.005984746107491235,-1.5832661026634547,-0.75740361413054,0.0,-1.5968038136467797,0.0,0.0
28.302,1000.0,0.0,-1.5832661026634547,-0.7771316661247134,0.0,-1.5968038136467797,0.0,0.0,0.0,0.5077859698234454,0.0,0.0,0.0,0.0,-1.5839307709750583,-0.6450184149655185,0.00198993711312215,-1.596269063147341,-0.00024500517992536206,1.2739936891730669e-05,0.07178294389053666,1.287479130020125,-0.8672012175998944,-0.23125537687519207,0.1052041924443236,-0.005536270300070542,-1.5832661026634547,-0.5177362582259588,0.0,-1.5968038136467797,0.0,0.0
28.402,1000.0,0.0,-1.5832661026634547,-0.7084515413126917,0.0,-1.5968038136467797,0.0,0.0,0.0,0.6065737574088704,0.0,0.0,0.0,0.0,-1.582927425034371,-0.6486746688260883,0.0005042039486579712,-1.5966706678397249,-5.988561219040865e-05,3.246430591944386e-06,0.021595257029073094,-0.26334923104027785,-0.920504786291994,-0.24631438770661326,0.11220080764828773,-0.0059246751801531345,-1.5832661026634547,-0.5617938306291135,0.0,-1.5968038136467797,0.0,0.0
28.502,1000.0,0.0,-1.5832661026634547,-0.6505032156993096,0.0,-1.5968038136467797,0.0,0.0,0.0,0.8853757273748043,0.0,0.0,0.0,0.0,-1.5836432827353843,-0.6055625515725314,0.0027405235790771134,-1.5964626749585897,-0.0001661075209497494,-2.4577493592529713e-06,0.03343317244144884,0.5673037790895348,1.9115579082826775,0.49794068323398494,-0.22960215304949813,0.011590137401268292,-1.5832661026634547,-0.42765242985748214,0.0,-1.5968038136467797,0.0,0.0
28.602,1000.0,0.0,-1.5832661026634547,-0.5668570524670784,0.0,-1.5968038136467797,0.0,0.0,0.0,0.55228620756083,0.0,0.0,0.0,0.0,-1.5827061163477854,-0.5061283056893245,-0.0018322980023124996,-1.5973258054678845,0.0002458487309991582,-1.3170467586966997e-05,-0.11561786803107638,1.1151013679328385,-0.7344503604266057,-0.2267240748594495,0.11579084866625543,-0.005651579453635818,-1.5832661026634547,-0.4848042287558239,0.0,-1.5968038136467797,0.0,0.0
28.702,1000.0,0.0,-1.5832661026634547,-0.49590729817471413,0.0,-1.5968038136467797,0.0,0.0,0.0,0.6609225582210894,0.0,0.0,0.0,0.0,-1.583261385435067,-0.3765373224389284,0.0003101817076147496,-1.596720868426273,-3.7712955276915914e-05,1.999600243757312e-06,0.0232875024065205,1.857955000284053,-0.9274679538571423,-0.24838522848074526,0.11296741521282386,-0.005991176705256205,-1.5832661026634547,-0.3665292470113451,0.0,-1.5968038136467797,0.0,0.0
28.802,1000.0,0.0,-1.5832661026634547,-0.4320398537833281,0.0,-1.5968038136467797,0.0,0.0,0.0,0.7895496217779913,0.0,0.0,0.0,0.0,-1.5836378232551496,-0.30060640528205246,-0.002093523286441736,-1.5973918518629184,0.0002727827595762257,-1.4895946952171962e-05,-0.07206529722273392,1.5471872705732896,-1.3480464705854156,-0.40898987111333424,0.20389362707204084,-0.010346702286823791,-1.5832661026634547,-0.269298240060509,0.0,-1.5968038136467797,0.0,0.0
28.902,1000.0,0.0,-1.5832661026634547,-0.33983164960547363,0.0,-1.5968038136467797,0.0,0.0,0.0,0.8646884085779314,0.0,0.0,0.0,0.0,-1.5827726953750374,-0.24033289460878166,-0.00031829934250873114,-1.5968895796813294,3.949556565677759e-05,-2.0519198833977692e-06,0.08981361805718754,0.7778737346325657,1.0164921693553384,0.2716393186185583,-0.12326979563314655,0.006554841511903931,-1.5832661026634547,-0.12740148389401246,0.0,-1.5968038136467797,0.0,0.0
29.002,1000.0,0.0,-1.5832661026634547,-0.26335739337849073,0.0,-1.5968038136467797,0.0,0.0,0.0,0.875823928321148,0.0,0.0,0.0,0.0,-1.5825291492933498,-0.13331069524631547,0.00021615997891489457,-1.5967468342469011,-2.546278608756323e-05,1.3975589123510676e-06,-0.03590047259751496,1.8666141354103911,-0.9581134145738749,-0.2563540056735076,0.11640661312217378,-0.006191051106255855,-1.5832661026634547,0.023533395281689906,0.0,-1.5968038136467797,0.0,0.0
29.102,1000.0,0.0,-1.5832661026634547,-0.16319346114499478,0.0,-1.5968038136467797,0.0,0.0,0.0,1.138747673329515,0.0,0.0,0.0,0.0,-1.5834073266628033,-0.0812922931948826,-0.0002478599832838253,-1.5968700054473173,3.000030080755019e-05,-1.5951673975059101e-06,-0.08314095143269633,0.5055845547737576,-1.009060019122227,-0.26935645693214233,0.12213327499319841,-0.00649307750070876,-1.5832661026634547,0.0008846853872653271,0.0,-1.5968038136467797,0.0,0.0
29.202,1000.0,0.0,-1.5832661026634547,-0.0716114210538974,0.0,-1.5968038136467797,0.0,0.0,0.0,0.5725904221703064,0.0,0.0,0.0,0.0,-1.5831914774564524,0.05788283673578788,0.00022010392478337223,-1.596744970034138,-2.6708172312104695e-05,1.410954263972024e-06,0.06919048972739902,2.0693956097664583,0.5511036037310146,0.14708770194086454,-0.06669066363592571,0.0035458772766563105,-1.5832661026634547,0.04301252413412508,0.0,-1.5968038136467797,0.0,0.0
29.302,1000.0,0.0,-1.5832661026634547,0.007284196932598522,0.0,-1.5968038136467797,0.0,0.0,0.0,0.6781134759773683,0.0,0.0,0.0,0.0,-1.5826838789526834,0.15548874346806038,-0.000584151641466946,-1.5969588218696715,6.986514762414813e-05,-3.726226323394202e-06,0.01337403089032265,1.0537420698383857,-1.1563928816861901,-0.30972287174658447,0.14073108595873848,-0.0074845026746261055,-1.5832661026634547,0.2009384416032772,0.0,-1.5968038136467797,0.0,0.0
29.402,1000.0,0.0,-1.5832661026634547,0.07999678709978628,0.0,-1.5968038136467797,0.0,0.0,0.0,0.7054837937040588,0.0,0.0,0.0,0.0,-1.5833934782251349,0.20727634099914588,0.0001861372588877796,-1.596754157939899,-2.2488267266279965e-05,1.1961648726872882e-06,-0.016346011516229095,1.485493013392732,-1.0576714308687432,-0.28300680534972295,0.12852536095209297,-0.006830528618997572,-1.5832661026634547,0.2146019531028881,0.0,-1.5968038136467797,0.0,0.0
29.502,1000.0,0.0,-1.5832661026634547,0.16470040127149727,0.0,-1.5968038136467797,0.0,0.0,0.0,0.5682510385240189,0.0,0.0,0.0,0.0,-1.583177362702675,0.2654859184723621,6.638797827815133e-05,-1.596785849556871,-8.19701394646942e-06,4.311585944067219e-07,-0.021092618662834267,0.9232863914715544,-0.78096972597881,-0.20870116547185188,0.09472571049691941,-0.005030803885619453,-1.5832661026634547,0.22707630313728344,0.0,-1.5968038136467797,0.0,0.0
29.602,1000.0,0.0,-1.5832661026634547,0.23251497589423034,0.0,-1.5968038136467797,0.0,0.0,0.0,0.6245753432214415,0.0,0.0,0.0,0.0,-1.583297604425892,0.34056833586118196,-0.0002624050787962297,-1.596874133347007,3.1924322538079694e-05,-1.7003965426269463e-06,0.008927877208651557,1.6794615550695087,0.7648267087151858,0.20416262298689566,-0.09261532178059975,0.004909640458993856,-1.5832661026634547,0.43469482114993874,0.0,-1.5968038136467797,0.0,0.0
29.702,1000.0,0.0,-1.5832661026634547,0.30113479387991354,0.0,-1.5968038136467797,0.0,0.0,0.0,0.6457425976739738,0.0,0.0,0.0,0.0,-1.5831814906023647,0.41796179450970217,-4.3961253130903196e-05,-1.5968155438030252,5.126028376800146e-06,-2.8619579421946523e-07,-0.027640183295119015,0.5480427328216456,-0.8028194314052833,-0.21464457536609535,0.09751787677467777,-0.005170514772821231,-1.5832661026634547,0.5854219489602173,0.0,-1.5968038136467797,0.0,0.0
29.801,1000.0,0.0,-1.5832661026634547,0.38768830349917627,0.0,-1.5968038136467797,0.0,0.0,0.0,0.770273614006792,0.0,0.0,0.0,0.0,-1.5821885309899286,0.47672607514846826,0.00038422597331594024,-1.5966980983989527,-4.9616240175875696e-05,2.4850015420348196e-06,0.08704763398189602,1.0760038328645216,-1.0297621684349851,-0.2755940629030555,0.12522910821425307,-0.006652052613326978,-1.5832661026634547,0.5106930036242916,0.0,-1.5968038136467797,0.0,0.0
