7cmdehdrb/project_th/tune/rtde_tune/data/rtde_log_shoulder_pan_test.csv
Time,Stiffness,Damping,R_shoulder_pan_p,R_shoulder_lift_p,R_elbow_p,R_wrist_1_p,R_wrist_2_p,R_wrist_3_p,R_shoulder_pan_v,R_shoulder_lift_v,R_elbow_v,R_wrist_1_v,R_wrist_2_v,R_wrist_3_v,S_shoulder_pan_p,S_shoulder_lift_p,S_elbow_p,S_wrist_1_p,S_wrist_2_p,S_wrist_3_p,S_shoulder_pan_v,S_shoulder_lift_v,S_elbow_v,S_wrist_1_v,S_wrist_2_v,S_wrist_3_v,C_shoulder_pan_p,C_shoulder_lift_p,C_elbow_p,C_wrist_1_p,C_wrist_2_p,C_wrist_3_p
3.903,600.0,0.0,0.007197524607565748,-1.5707963267948966,0.0,-1.5968038136467797,0.0,0.0,0.302698515125611,0.0,0.0,0.0,0.0,0.0,0.02294149744367576,-1.5701473144372442,0.0010718365792481577,-1.5967629463714963,-1.119621493872132e-05,5.19856320769081e-07,0.44691634767131616,-0.3141459495535289,0.01926941025818761,-0.01565307052445539,0.0033174160259789916,-0.0001808291581650307,0.0757030547323771,-1.5707963267948966,0.0,-1.5968038136467797,0.0,0.0
4.002,600.0,0.0,0.05191103947528048,-1.5707963267948966,0.0,-1.5968038136467797,0.0,0.0,0.5769163624244678,0.0,0.0,0.0,0.0,0.0,0.19872359915835638,-1.5712838184324356,-0.0004975678921760903,-1.5968986344290357,4.970555132461496e-05,-2.0669445092337426e-06,1.749482718030417,-0.3344707955188502,-0.1516717345461907,-0.0157061111226346,0.0036948161210649433,-0.00019650996574630613,0.20212381611747393,-1.5707963267948966,0.0,-1.5968038136467797,0.0,0.0
4.102,600.0,0.0,0.10604965278889343,-1.5707963267948966,0.0,-1.5968038136467797,0.0,0.0,0.7150374713189851,0.0,0.0,0.0,0.0,0.0,0.1886901896857533,-1.5638251031674506,0.002643802457682749,-1.5966229972562125,1.763358987487722e-05,6.984887774009294e-08,-0.4531723793880213,-0.1499526141282741,0.24386665970396462,0.07467353061533026,-0.04878885733771025,0.001945009533517648,0.2728228213966529,-1.5707963267948966,0.0,-1.5968038136467797,0.0,0.0
4.202,600.0,0.0,0.18760254820011135,-1.5707963267948966,0.0,-1.5968038136467797,0.0,0.0,0.6419827183420345,0.0,0.0,0.0,0.0,0.0,0.28650789678728195,-1.5723687902605339,-0.0016850232434736786,-1.5971348568177257,0.0001784881478906514,-7.097377031066944e-06,3.141592653589793,0.27276268990062413,0.3924063004263836,0.0840901436570926,-0.04725083603510825,0.006444986116938163,0.2763625987263996,-1.5707963267948966,0.0,-1.5968038136467797,0.0,0.0
4.302,600.0,0.0,0.24724777631353925,-1.5707963267948966,0.0,-1.5968038136467797,0.0,0.0,0.6308164972888051,0.0,0.0,0.0,0.0,0.0,0.2835472938929545,-1.580149614859364,0.002831476772087124,-1.5960641329014593,-0.00045761413651322484,1.848151548009646e-05,-0.4950176642005412,0.9214446824197101,-1.2592573456324463,-0.3186112051742375,0.19240222012640343,-0.0076187291144580015,0.5171437394407852,-1.5707963267948966,0.0,-1.5968038136467797,0.0,0.0
4.402,600.0,0.0,0.31900382762470847,-1.5707963267948966,0.0,-1.5968038136467797,0.0,0.0,0.7206876103747859,0.0,0.0,0.0,0.0,0.0,0.33636067449691126,-1.5711392087852443,0.0016248469860338716,-1.5968162095932978,0.0003021327323426217,7.380489268272454e-06,-0.07399037153907609,-1.0558385102484962,0.3573476821777671,0.19622845024354754,-0.15940806771005955,0.00545319267777633,0.3784619623486689,-1.5707963267948966,0.0,-1.5968038136467797,0.0,0.0
4.503,600.0,0.0,0.38432369311948356,-1.5707963267948966,0.0,-1.5968038136467797,0.0,0.0,0.5635999137948663,0.0,0.0,0.0,0.0,0.0,0.43489227521814927,-1.5630796843783374,0.00048339182587650364,-1.5965304524083324,-0.00022229737538748942,1.237888363019087e-05,0.05243549885122053,0.3557174614059887,-1.0243546198415794,-0.3083620630085812,0.1889998653862591,-0.01028736060789356,0.5974282022878317,-1.5707963267948966,0.0,-1.5968038136467797,0.0,0.0
4.603,600.0,0.0,0.45316258889108846,-1.5707963267948966,0.0,-1.5968038136467797,0.0,0.0,0.6570332738438524,0.0,0.0,0.0,0.0,0.0,0.42600067941816083,-1.5725556110110028,-0.0029027657453685324,-1.597222607975644,2.4890974078821676e-05,-1.9260757081494103e-05,0.1612431355039355,0.49786534906464935,0.12635161396896463,0.0964890144217961,-0.07269373666096536,0.006275193992986099,0.7435303201645489,-1.5707963267948966,0.0,-1.5968038136467797,0.0,0.0
4.702,600.0,0.0,0.5337502170377468,-1.5707963267948966,0.0,-1.5968038136467797,0.0,0.0,0.8166320326093383,0.0,0.0,0.0,0.0,0.0,0.5574730195311298,-1.5742973183639148,-0.0017743712577485363,-1.5970861209697773,0.0001594423198888003,-3.0676366047746187e-06,3.141592653589793,0.13411873993293755,-0.17893255054402793,-0.12368855274742628,0.12131133193463749,0.046789231155602656,0.7785443033206968,-1.5707963267948966,0.0,-1.5968038136467797,0.0,0.0
4.803,600.0,0.0,0.6253948341958183,-1.5707963267948966,0.0,-1.5968038136467797,0.0,0.0,1.111680031077399,0.0,0.0,0.0,0.0,0.0,0.6985293107484807,-1.5624423899294815,-0.0020992299673225044,-1.5973829302732667,0.00037204506720214884,-1.546491846164294e-05,0.6610763442323148,-0.0013991222374063392,-0.522890707643474,-0.10483253999182462,0.054499948038736326,-0.0013490356934499472,0.8524852395682418,-1.5707963267948966,0.0,-1.5968038136467797,0.0,0.0
4.902,600.0,0.0,0.7101329861386738,-1.5707963267948966,0.0,-1.5968038136467797,0.0,0.0,0.7597320755804551,0.0,0.0,0.0,0.0,0.0,0.7284831485301196,-1.563414843201524,0.0016356974169185056,-1.5969236681432826,0.0002133847095360075,-7.909230022605918e-06,1.05751184094042,0.34868385323000767,0.025098218921179,-0.01963791685164892,0.01884935485287646,-0.000734488385373545,0.7755984662074645,-1.5707963267948966,0.0,-1.5968038136467797,0.0,0.0
5.002,600.0,0.0,0.7858630443876479,-1.5707963267948966,0.0,-1.5968038136467797,0.0,0.0,0.5277045936571267,0.0,0.0,0.0,0.0,0.0,0.8714479608531621,-1.5667210245368028,0.0016474761831069516,-1.596670135207507,-7.46354441039218e-06,7.723698865917108e-07,1.3779646885874748,0.1895144047536192,-0.010513531644063143,-0.01764992119336441,0.01482306620211047,-0.0005969564008683182,0.8831825885943659,-1.5707963267948966,0.0,-1.5968038136467797,0.0,0.0
5.102,600.0,0.0,0.8579766968977844,-1.5707963267948966,0.0,-1.5968038136467797,0.0,0.0,0.7477337000638042,0.0,0.0,0.0,0.0,0.0,0.8629466846004383,-1.579450002441,-0.0037062963219280562,-1.5971403162979605,4.748435404092765e-05,-2.9046350214536065e-06,-0.5226082794098711,-0.12884903489307847,-0.0405958128528388,-0.0010060677485377654,-0.001820344466177517,6.385977138088449e-05,0.9317594897354617,-1.5707963267948966,0.0,-1.5968038136467797,0.0,0.0
5.203,600.0,0.0,0.9363523652163519,-1.5707963267948966,0.0,-1.5968038136467797,0.0,0.0,1.0886130873574031,0.0,0.0,0.0,0.0,0.0,0.9209727036955209,-1.5864916666792785,0.0021454359422725415,-1.5960400312935943,-0.0006079437608851714,1.4852245322299854e-05,0.9323938031883802,0.33127120720620173,-0.4749442539316371,-0.24495186455865828,0.2308632097599211,-0.0039870860872821805,1.039544011903626,-1.5707963267948966,0.0,-1.5968038136467797,0.0,0.0
5.303,600.0,0.0,1.0157251659254185,-1.5707963267948966,0.0,-1.5968038136467797,0.0,0.0,0.8020393277188609,0.0,0.0,0.0,0.0,0.0,0.9976798657311277,-1.572157734744145,0.0005547942565822817,-1.5965526898034343,-0.00018281476061937467,7.3335194387746495e-06,0.2656867873975813,-0.9634563149318192,0.39211065625587116,0.1754592891398602,-0.1270251274086457,0.005053659217318297,1.1200771777019194,-1.5707963267948966,0.0,-1.5968038136467797,0.0,0.0
5.402,600.0,0.0,1.0984786785034903,-1.5707963267948966,0.0,-1.5968038136467797,0.0,0.0,0.7768502641778242,0.0,0.0,0.0,0.0,0.0,1.0850724290084595,-1.5593097135392213,0.0002859653744628273,-1.596638443590535,-0.000141951313730885,7.129525163816506e-06,0.41867532194476165,0.9266134120423631,-1.5513822819223824,-0.5666191469523026,0.3977717377850526,-0.021021813947946385,1.3766834589693095,-1.5707963267948966,0.0,-1.5968038136467797,0.0,0.0
5.502,600.0,0.0,1.1771967570987967,-1.5707963267948966,0.0,-1.5968038136467797,0.0,0.0,0.832506800354251,0.0,0.0,0.0,0.0,0.0,1.1558230983709676,-1.5755809620093328,0.00159119102768367,-1.596485711302019,-0.00013325139680474182,8.875855175312358e-06,3.141596382015319,1.6553958998790077,-2.0471535541323886,-0.658351464383973,0.4809240825537874,0.019158273216947245,1.405338372361403,-1.5707963267948966,0.0,-1.5968038136467797,0.0,0.0
5.603,600.0,0.0,1.2609818425425878,-1.5707963267948966,0.0,-1.5968038136467797,0.0,0.0,0.6624414328415734,0.0,0.0,0.0,0.0,0.0,1.2863824402832302,-1.5682962843215846,0.0009454808987570441,-1.596709816307749,-2.015238533250078e-05,1.933725372820395e-06,3.0636019810668227,1.329957082039107,-0.7632194244182956,-0.22046890867009863,0.11350064664208497,-0.006785411445209996,1.4029971229763523,-1.5707963267948966,0.0,-1.5968038136467797,0.0,0.0
5.702,666.6666870117188,0.0,1.3445417598597542,-1.5707963267948966,0.0,-1.5968038136467797,0.0,0.0,0.89153976934627,0.0,0.0,0.0,0.0,0.0,1.3947126428927106,-1.573848176246073,0.0006016734989416885,-1.596705555250005,7.787672908470543e-05,1.1548812736946023e-05,-1.788982590160418,-0.49683703598874246,-0.3959638508790523,0.15253280110564058,-0.24872704520665692,-0.00016601662497309094,1.1830146251294837,-1.5707963267948966,0.0,-1.5968038136467797,0.0,0.0
5.802,666.6666870117188,0.0,1.3070947579679206,-1.5707963267948966,0.0,-1.5968038136467797,0.0,0.0,-0.6530217619127371,0.0,0.0,0.0,0.0,0.0,1.5847993609645876,-1.5747242230866545,1.964708530059924e-05,-1.5967795911283091,9.779589479791104e-05,9.967673606313418e-06,-1.8066081892028893,-0.6257462500000783,-0.4170159395590469,0.15811874820256813,-0.2560634048643095,-3.4626571986504686e-05,1.1498627298852249,-1.5707963267948966,0.0,-1.5968038136467797,0.0,0.0
5.902,666.6666870117188,0.0,1.2196864378606467,-1.5707963267948966,0.0,-1.5968038136467797,0.0,0.0,-0.9938786131049282,0.0,0.0,0.0,0.0,0.0,1.4637455067730905,-1.57145306231971,-0.0003042261030954717,-1.5968353843531464,6.935361901534104e-06,-3.5419183287661134e-07,-3.0852409638720437,-0.15542191476945622,-0.05669928217427544,-0.002434466292657887,-0.0017530278681392602,6.966421582596078e-05,1.141250871925378,-1.5707963267948966,0.0,-1.5968038136467797,0.0,0.0
6.002,666.6666870117188,0.0,1.1535234098884235,-1.5707963267948966,0.0,-1.5968038136467797,0.0,0.0,-0.7444440687042945,0.0,0.0,0.0,0.0,0.0,1.2196398949403184,-1.5708680989862742,-2.7198991486852156e-05,-1.5968054237908829,-1.8623583683521664e-07,3.5779553358044863e-10,-2.8768129222147363,0.050719877993423874,0.02271826004589447,0.0022812552073091436,-0.0004731971398935786,2.5808079454544924e-05,0.9400029934209189,-1.5707963267948966,0.0,-1.5968038136467797,0.0,0.0
6.102,666.6666870117188,0.0,1.0734234578292305,-1.5707963267948966,0.0,-1.5968038136467797,0.0,0.0,-0.6840898531659668,0.0,0.0,0.0,0.0,0.0,1.0813790906297103,-1.575500135070249,-0.001203464811552694,-1.5967672074292403,-0.00010861864402155612,3.953347148967594e-06,-2.3824394101028576,-0.6098796688576043,0.1815039158002835,0.09734075991743069,-0.07115425478095302,0.002883845858358661,0.7899234625373361,-1.5707963267948966,0.0,-1.5968038136467797,0.0,0.0
6.203,666.6666870117188,0.0,0.9979622784283428,-1.5707963267948966,0.0,-1.5968038136467797,0.0,0.0,-0.8077341613325126,0.0,0.0,0.0,0.0,0.0,0.9426495033882208,-1.5732135449583071,-0.001370020830676256,-1.596988249799717,6.797613027232642e-05,-3.046486009481714e-06,-2.0901577467827703,0.06235132976169662,-0.02701978743561745,-0.011972805561885557,0.008416408798923433,-0.00033638582134348945,0.8666404982757054,-1.5707963267948966,0.0,-1.5968038136467797,0.0,0.0
6.302,666.6666870117188,0.0,0.9149607111720872,-1.5707963267948966,0.0,-1.5968038136467797,0.0,0.0,-0.6814635955332338,0.0,0.0,0.0,0.0,0.0,0.9342550864742366,-1.5712163072988021,-0.0006526324622219742,-1.5969472371189297,7.976012232924463e-05,-3.30706143492268e-06,1.8856241787455403,-0.37973271627286,0.21389596078367407,0.0856557161934093,-0.058819179207924524,0.0023477419081756774,0.8661133635425945,-1.5707963267948966,0.0,-1.5968038136467797,0.0,0.0
6.403,666.6666870117188,0.0,0.8433857352130065,-1.5707963267948966,0.0,-1.5968038136467797,0.0,0.0,-0.6075835410040901,0.0,0.0,0.0,0.0,0.0,0.8010035550160128,-1.5686034799533253,-0.0005861635764467168,-1.5969212712983014,-2.461487673698932e-05,-9.484141592248308e-06,1.6438724018422348,0.6384595818328713,0.4474388931667033,-0.13697733543513657,0.2262656616120628,0.0002386264994975601,0.5810874061874718,-1.5707963267948966,0.0,-1.5968038136467797,0.0,0.0
6.502,666.6666870117188,0.0,0.7709287738495298,-1.5707963267948966,0.0,-1.5968038136467797,0.0,0.0,-0.734498432768231,0.0,0.0,0.0,0.0,0.0,0.6927734206844924,-1.573394506754378,-0.0023181327063256357,-1.5968103506388995,-0.00030520382001178193,-6.235167656268196e-06,1.4473516197347807,0.2714866362643127,-0.22569050204038976,-0.31809505126546656,0.3344503890469974,-0.006297089130276294,0.5514978503336159,-1.5707963267948966,0.0,-1.5968038136467797,0.0,0.0
6.602,666.6666870117188,0.0,0.6819017890303742,-1.5707963267948966,0.0,-1.5968038136467797,0.0,0.0,-0.800860382536235,0.0,0.0,0.0,0.0,0.0,0.6590956847505957,-1.566803449372541,-0.0013069898674058576,-1.5970925125563935,1.4867684187612786e-05,-1.7635816761286774e-05,-0.49311197270350776,0.5281546785646111,-0.6266125763026811,-0.15498593865425342,0.06880103986867778,-0.005557015388694688,0.3984501106294438,-1.5707963267948966,0.0,-1.5968038136467797,0.0,0.0
6.704,666.6666870117188,0.0,0.6113986390752641,-1.5707963267948966,0.0,-1.5968038136467797,0.0,0.0,-0.7898158240813387,0.0,0.0,0.0,0.0,0.0,0.4774842105317865,-1.5745722897464653,-0.0015451768575484698,-1.5967395105539035,-0.0002462311540397239,-5.911450299125027e-06,-2.235770606756706,-0.5134213057554793,-0.1364443952891197,0.257194732340132,-0.3423899380467961,-0.0013353656667686243,0.3492879018518375,-1.5707963267948966,0.0,-1.5968038136467797,0.0,0.0
6.802,666.6666870117188,0.0,0.5264379648355337,-1.5707963267948966,0.0,-1.5968038136467797,0.0,0.0,-0.6739336549770876,0.0,0.0,0.0,0.0,0.0,0.5743230727746566,-1.5666995860900277,0.001756761885263363,-1.5968653449154098,0.00026718969866628084,5.1040820658228066e-06,1.8687499906046348,0.326738673478455,0.5754690309917176,-0.10703688003797525,0.2326889232004681,0.0031847775999767854,0.2990516572606091,-1.5707963267948966,0.0,-1.5968038136467797,0.0,0.0
6.903,666.6666870117188,0.0,0.4452776169922741,-1.5707963267948966,0.0,-1.5968038136467797,0.0,0.0,-0.6804950884331717,0.0,0.0,0.0,0.0,0.0,0.3704049945548574,-1.5718019364225104,-0.0005459318988580812,-1.596873867030898,2.426389830780514e-05,-1.101502516921792e-06,-2.8810292388525496,-0.052373775931768736,-0.02197001164812308,-0.0019557772607668674,0.00024673890039574693,-1.6833884690930495e-05,0.17770077448630395,-1.5707963267948966,0.0,-1.5968038136467797,0.0,0.0
7.003,666.6666870117188,0.0,0.3653122686417545,-1.5707963267948966,0.0,-1.5968038136467797,0.0,0.0,-0.9848977918438705,0.0,0.0,0.0,0.0,0.0,0.3700312864748921,-1.5733098182317133,0.001944102004159852,-1.5962809142141918,-0.0003195547862950676,1.30831577914334e-05,0.41035117919404185,0.8987459612377195,-0.5378376326825165,-0.1662665896891247,0.10870175519343828,-0.0049458219991161045,0.14523907095101624,-1.5707963267948966,0.0,-1.5968038136467797,0.0,0.0
7.102,666.6666870117188,0.0,0.27140796610818363,-1.5707963267948966,0.0,-1.5968038136467797,0.0,0.0,-0.6167310148964771,0.0,0.0,0.0,0.0,0.0,0.25063408492899225,-1.5762972191845097,-0.002283230211734736,-1.5969978371796412,1.7085566539569083e-05,-1.2855936136263227e-06,-2.045201323895306,-0.34075389161013325,-0.2394177991687168,-0.037584996888395734,0.016361690877146937,-0.0006942578131007915,0.08547709189963926,-1.5707963267948966,0.0,-1.5968038136467797,0.0,0.0
7.202,666.6666870117188,0.0,0.18746471511616658,-1.5707963267948966,0.0,-1.5968038136467797,0.0,0.0,-0.780012866335432,0.0,0.0,0.0,0.0,0.0,0.10824095342344892,-1.5650307161929295,0.0016003893364174516,-1.5964473617823218,-0.0001916084424670762,5.592239034440601e-06,-0.5679437366994807,-0.015635282480908803,-0.4554629975311121,0.27209640028539994,-0.2599690304714516,0.01666326890346319,0.12002421426213407,-1.5707963267948966,0.0,-1.5968038136467797,0.0,0.0
7.302,666.6666870117188,0.0,0.11292386263641774,-1.5707963267948966,0.0,-1.5968038136467797,0.0,0.0,-0.6423480909383024,0.0,0.0,0.0,0.0,0.0,0.07073328391401715,-1.5701965829174107,0.0007166222545108149,-1.596656952560111,-7.887838909357966e-05,3.2991827575377936e-06,-0.17252684917406033,0.7678203680965437,-0.040943779816392877,-0.06889873210760245,0.05574414777169692,-0.002185378287174389,-0.12401469019451083,-1.5707963267948966,0.0,-1.5968038136467797,0.0,0.0
7.402,666.6666870117188,0.0,0.02975672421801523,-1.5707963267948966,0.0,-1.5968038136467797,0.0,0.0,-0.9174340594308843,0.0,0.0,0.0,0.0,0.0,-0.0552463863192043,-1.5682313031909867,-0.0018224905995090925,-1.5972887875287323,0.0002946902503968673,-1.1961485672461964e-05,-0.29860673748805283,-0.7083488517407935,0.10962017126248733,0.05380571603801231,-0.041336895682802195,0.0021948764616051292,-0.06625676512812394,-1.5707963267948966,0.0,-1.5968038136467797,0.0,0.0
7.502,666.6666870117188,0.0,-0.04068039930112377,-1.5707963267948966,0.0,-1.5968038136467797,0.0,0.0,-0.5546455137356474,0.0,0.0,0.0,0.0,0.0,-0.15487776437972578,-1.5659697467932916,0.0011777061401244456,-1.5965833161559704,-0.00022270292878835292,-4.104680944691117e-06,2.0849531310644287,0.473075646952783,0.6094673449418327,-0.13322425070180718,0.25481637968387993,0.0016157732529018625,-0.23086725676341296,-1.5707963267948966,0.0,-1.5968038136467797,0.0,0.0
7.603,666.6666870117188,0.0,-0.11683066634989103,-1.5707963267948966,0.0,-1.5968038136467797,0.0,0.0,-0.4357164158777694,0.0,0.0,0.0,0.0,0.0,-0.10789655676023123,-1.5765418305306336,0.0014961246291834104,-1.596405949627371,-0.00023868834842302245,9.962037308046908e-06,-0.06492894096294627,0.00866787154307036,0.6455648956212028,0.2680198330257884,-0.19454122117968464,0.010146705130742645,-0.2090599262895989,-1.5707963267948966,0.0,-1.5968038136467797,0.0,0.0
7.702,666.6666870117188,0.0,-0.18541610204930947,-1.5707963267948966,0.0,-1.5968038136467797,0.0,0.0,-0.9799556205004913,0.0,0.0,0.0,0.0,0.0,-0.20370853737628034,-1.5641904888690095,0.001190214544832249,-1.5961421635213988,-0.0005782861852106415,1.6472999055420614e-05,-1.0323175380799434,0.24311486597299206,-1.2959463843899228,0.09011525434015265,-0.22724205969146993,0.013471853166409923,-0.29059825511913506,-1.5707963267948966,0.0,-1.5968038136467797,0.0,0.0
7.803,666.6666870117188,0.0,-0.26684400471838643,-1.5707963267948966,0.0,-1.5968038136467797,0.0,0.0,-0.6808581107399885,0.0,0.0,0.0,0.0,0.0,-0.32812305119210544,-1.5661965149601118,0.0007068436549389241,-1.5968058232650464,-1.818967754609732e-05,-6.981434169835358e-06,1.833189466359079,0.46373480916641185,0.7888785820470456,-0.043582044511469076,0.17759780749519383,0.0035801199626841703,-0.4986885838298528,-1.5707963267948966,0.0,-1.5968038136467797,0.0,0.0
7.902,666.6666870117188,0.0,-0.35714932234654384,-1.5707963267948966,0.0,-1.5968038136467797,0.0,0.0,-1.0251439119068357,0.0,0.0,0.0,0.0,0.0,-0.35631514133362974,-1.562985009001585,-0.0018963505375322956,-1.5974025045072786,0.0004332755034098758,-1.0134417821720556e-05,0.8222879379220897,-0.7388545630793242,0.8480497604108621,0.10121364528792161,0.0182612498215921,0.004476023217920663,-0.554993781777285,-1.5707963267948966,0.0,-1.5968038136467797,0.0,0.0
8.004,666.6666870117188,0.0,-0.445532888295439,-1.5707963267948966,0.0,-1.5968038136467797,0.0,0.0,-0.7499775530387663,0.0,0.0,0.0,0.0,0.0,-0.5026354700511447,-1.5714278954474088,-0.0003486894825387767,-1.5968496322649783,1.6355905670074602e-05,-7.390484351274447e-07,-3.054101153877965,-0.09464469214313216,-0.04373017452472633,-0.004516729011004144,0.0010014387506420577,-5.100746307827477e-05,-0.5527950585394333,-1.5707963267948966,0.0,-1.5968038136467797,0.0,0.0
8.102,666.6666870117188,0.0,-0.5171786135798939,-1.5707963267948966,0.0,-1.5968038136467797,0.0,0.0,-0.9020300971040945,0.0,0.0,0.0,0.0,0.0,-0.6190358830014057,-1.57522343263299,-0.000874149793434953,-1.596728857909543,-0.00011439669904994696,3.9177195062031075e-06,-2.7760716634475457,-1.0703947495556239,0.3450441775472236,0.18083474664213064,-0.13568885648786422,0.005101685062358943,-0.5750558485113467,-1.5707963267948966,0.0,-1.5968038136467797,0.0,0.0
8.202,666.6666870117188,0.0,-0.5991276768466136,-1.5707963267948966,0.0,-1.5968038136467797,0.0,0.0,-0.7768436149131762,0.0,0.0,0.0,0.0,0.0,-0.594653245062158,-1.5735604216902899,-0.0006205926057285844,-1.596758685313752,-7.818019518560409e-05,2.9129259064847864e-06,-0.8065439953478137,0.1619733742748352,0.043245741361251706,0.0006458945866417762,0.002079520364624154,-3.970519369021391e-05,-0.6475187578155163,-1.5707963267948966,0.0,-1.5968038136467797,0.0,0.0
8.302,666.6666870117188,0.0,-0.6803093725567493,-1.5707963267948966,0.0,-1.5968038136467797,0.0,0.0,-0.981136895210929,0.0,0.0,0.0,0.0,0.0,-0.7315668227563223,-1.5752647116298861,-0.0016511684583018593,-1.5969067570703606,-1.946261539446498e-05,3.4021001238242796e-07,-2.374406250990743,-0.3906320026396319,-0.3457230505985984,-0.06632608104388307,0.03442435106490589,-0.0015074236882790194,-0.9614542191130093,-1.5707963267948966,0.0,-1.5968038136467797,0.0,0.0
8.402,666.6666870117188,0.0,-0.7666549453291509,-1.5707963267948966,0.0,-1.5968038136467797,0.0,0.0,-0.7615265468935197,0.0,0.0,0.0,0.0,0.0,-0.8819771676969539,-1.5707603741201805,-0.0013717270482867506,-1.5964821160345473,-0.0006199338374628451,-2.758542078953291e-06,0.20729529937715588,0.5155787991335797,-0.2411511508537085,-0.14247284324592074,0.12488600984206678,-0.003216181834819379,-0.8203545126440229,-1.5707963267948966,0.0,-1.5968038136467797,0.0,0.0
8.502,666.6666870117188,0.0,-0.8351682881269031,-1.5707963267948966,0.0,-1.5968038136467797,0.0,0.0,-0.8977050571195333,0.0,0.0,0.0,0.0,0.0,-0.9359407342862022,-1.567049525457264,0.001880677028286771,-1.5968859844138579,0.0003084557568648302,1.057199020709694e-06,1.4630606748987767,0.1394078777263758,0.5380070430173591,-0.0525342147426892,0.15208086266865412,0.0021644434743300065,-0.9515275686610932,-1.5707963267948966,0.0,-1.5968038136467797,0.0,0.0
8.603,666.6666870117188,0.0,-0.9151157967778119,-1.5707963267948966,0.0,-1.5968038136467797,0.0,0.0,-0.8660593365414011,0.0,0.0,0.0,0.0,0.0,-0.9735939039373148,-1.5562310993190898,-0.0025203264501574463,-1.597458031416007,0.0003909818915524492,-1.5621156080678006e-05,-0.25303695531202985,-0.12500382975316757,0.7257708521179285,0.17510888371943303,-0.09991304063531098,0.0036996259356352483,-1.1480933889587837,-1.5707963267948966,0.0,-1.5968038136467797,0.0,0.0
8.703,666.6666870117188,0.0,-0.9993912644639611,-1.5707963267948966,0.0,-1.5968038136467797,0.0,0.0,-0.828761085456231,0.0,0.0,0.0,0.0,0.0,-1.0936762369631512,-1.5692963013109094,0.0009701906254131673,-1.5966573520342746,-6.172105423123853e-05,2.6851231477442363e-06,-2.7905472755526715,0.09516256046185488,-0.06634282566923694,-0.02401816561871896,0.015984060876357505,-0.0006212946113508887,-1.1225453360749669,-1.5707963267948966,0.0,-1.5968038136467797,0.0,0.0
8.802,666.6666870117188,0.0,-1.066119625531167,-1.5707963267948966,0.0,-1.5968038136467797,0.0,0.0,-0.7849852603607763,0.0,0.0,0.0,0.0,0.0,-1.1125872107057493,-1.5753126485295075,-0.004282100097704635,-1.5973693481517073,0.00010965308152272859,-1.5671599324698735e-05,0.4170754944989238,-0.17566598372996398,-0.3245512528276048,-0.13065425863798868,0.11123663514275976,-0.0022287225342870545,-1.3477643832611774,-1.5707963267948966,0.0,-1.5968038136467797,0.0,0.0
8.902,666.6666870117188,0.0,-1.1464797042965458,-1.5707963267948966,0.0,-1.5968038136467797,0.0,0.0,-0.49323538302315506,0.0,0.0,0.0,0.0,0.0,-1.1312064351509292,-1.570302576728796,-0.0013056832539960375,-1.5969789287359015,-1.967129659481111e-05,-9.05140636073975e-06,-0.27619595395417024,0.39449954504318585,-0.4182589699978414,-0.11247859199473981,0.056197347049011956,-0.003788578376861472,-1.2266461034609701,-1.5707963267948966,0.0,-1.5968038136467797,0.0,0.0
9.002,666.6666870117188,0.0,-1.1949279722183785,-1.5707963267948966,0.0,-1.5968038136467797,0.0,0.0,-0.3882599876067094,0.0,0.0,0.0,0.0,0.0,-1.2219051797635399,-1.566474815294025,-0.002558605229638132,-1.5969447071158942,-0.0002559476771211178,-1.4014132443280367e-05,-0.8790028828125261,-1.0214103620984423,0.5908163623006536,0.26304707876985156,-0.22893651257978964,0.004041255147958447,-1.3294198489271163,-1.5707963267948966,0.0,-1.5968038136467797,0.0,0.0
9.103,666.6666870117188,0.0,-1.2795847796850381,-1.5707963267948966,0.0,-1.5968038136467797,0.0,0.0,-1.0522240249024961,0.0,0.0,0.0,0.0,0.0,-1.2458866790635945,-1.5650570814877214,-0.0002335022550680844,-1.5969199397177563,-6.95189155513989e-05,-1.4955005158215043e-05,0.598829015072375,0.1530261017633073,0.0941827335625443,-0.06507566449425282,0.09149793428860815,-0.0003203917379828616,-1.3301970554186713,-1.5707963267948966,0.0,-1.5968038136467797,0.0,0.0
9.202,666.6666870117188,0.0,-1.347976069244794,-1.5707963267948966,0.0,-1.5968038136467797,0.0,0.0,-0.7433085642474268,0.0,0.0,0.0,0.0,0.0,-1.4003380380632848,-1.5702823367045113,0.00020057668295092495,-1.5967757295447285,-1.6176578327355103e-05,5.0748844051785996e-08,-3.1415950504347743,-0.14608738534591717,-0.10315434070853279,-0.0039035928662162936,-0.008562287608821726,-0.009510889984648439,-1.4650735778414619,-1.5707963267948966,0.0,-1.5968038136467797,0.0,0.0
9.302,733.3333129882812,0.0,-1.3254448811211539,-1.5707963267948966,0.0,-1.5968038136467797,0.0,0.0,0.6748784980981032,0.0,0.0,0.0,0.0,0.0,-1.4730718969105479,-1.579450268757109,-0.002522695727260046,-1.5968200711768783,-0.00014945515696274198,5.233193221598462e-06,-1.1940105647157775,-0.3246811152202598,-0.5738498956279767,-0.12977052191975952,0.07315423882533209,-0.003036527952529941,-1.077266931403015,-1.5707963267948966,0.0,-1.5968038136467797,0.0,0.0
9.402,733.3333129882812,0.0,-1.2473821788086834,-1.5707963267948966,0.0,-1.5968038136467797,0.0,0.0,1.046077524198125,0.0,0.0,0.0,0.0,0.0,-1.4094180857999101,-1.5725135330657798,0.00031360630131044206,-1.5965851803687334,-0.00016091330027214875,6.4114868736872026e-06,-0.046192266952504585,-0.6944263116150501,-0.3451573951830656,-0.042434163824996075,0.013688188191600325,-0.0006811473363301432,-1.141079797302185,-1.5707963267948966,0.0,-1.5968038136467797,0.0,0.0
9.502,733.3333129882812,0.0,-1.161717638358419,-1.5707963267948966,0.0,-1.5968038136467797,0.0,0.0,1.0839290417616443,0.0,0.0,0.0,0.0,0.0,-1.171104716180006,-1.5709515890864483,-6.343372899958857e-05,-1.5968134132741532,5.760743831119522e-06,-3.392024227932296e-08,3.141592653589793,0.07676010068465053,0.04859333137942799,0.0036376398209663533,0.0016569677256423995,0.0031869252937543123,-0.9963552458210169,-1.5707963267948966,0.0,-1.5968038136467797,0.0,0.0
9.602,733.3333129882812,0.0,-1.0650833309141055,-1.5707963267948966,0.0,-1.5968038136467797,0.0,0.0,1.0907336803368537,0.0,0.0,0.0,0.0,0.0,-1.0217908612391873,-1.5717160494773554,-0.0005389770562720825,-1.5968793265111327,2.8669819482900686e-05,-1.280953420343647e-06,1.9566601392398233,-0.2813006844868773,-0.05741365016955397,0.006125698069372881,-0.008653700613238696,0.0003224280549306202,-0.9565966808850512,-1.5707963267948966,0.0,-1.5968038136467797,0.0,0.0
9.702,733.3333129882812,0.0,-0.9634468374306069,-1.5707963267948966,0.0,-1.5968038136467797,0.0,0.0,0.9162827191704861,0.0,0.0,0.0,0.0,0.0,-0.9582180102256878,-1.5655550926115662,-0.0009673125128933077,-1.597059089884713,0.00014986752105999672,-6.023135967154411e-06,-0.1637935616561203,-0.8302088447942578,0.8682750707304416,0.22031715842223457,-0.12656293580146244,0.00487597279729902,-0.6798261611397194,-1.5707963267948966,0.0,-1.5968038136467797,0.0,0.0
9.803,733.3333129882812,0.0,-0.8785732752641193,-1.5707963267948966,0.0,-1.5968038136467797,0.0,0.0,0.9108535656204463,0.0,0.0,0.0,0.0,0.0,-0.816827059527855,-1.5680832314343784,0.0015274474607622154,-1.5965982298580748,-7.408547935441264e-05,3.337918847241889e-06,0.8259306762401273,-0.31153928076807297,-0.18365318666851832,-0.02595347229931193,0.009938572849769149,-0.00044406491435595893,-0.6393295142305809,-1.5707963267948966,0.0,-1.5968038136467797,0.0,0.0
9.903,733.3333129882812,0.0,-0.812322852277374,-1.5707963267948966,0.0,-1.5968038136467797,0.0,0.0,0.6218919285837632,0.0,0.0,0.0,0.0,0.0,-0.7752671657156506,-1.5672679046666507,0.0018493908671878196,-1.5965739950921551,-7.383785608752868e-05,3.4069000062983332e-06,1.9057178623282427,0.020923857473507307,0.19429967246881447,0.05151858913266306,-0.030386553605101018,0.001253931194061045,-0.6704529431900021,-1.5707963267948966,0.0,-1.5968038136467797,0.0,0.0
10.002,733.3333129882812,0.0,-0.7342233358312296,-1.5707963267948966,0.0,-1.5968038136467797,0.0,0.0,0.9022476855472007,0.0,0.0,0.0,0.0,0.0,-0.7529735113354611,-1.5645548093061323,0.001916809804473044,-1.596768938483949,9.13429631502636e-05,-3.150409830389487e-06,0.20165460767507035,0.01673495058897566,0.45762907960372806,0.12340772241047743,-0.07322794180850004,0.0030073039207555246,-0.5142688681272962,-1.5707963267948966,0.0,-1.5968038136467797,0.0,0.0
10.103,733.3333129882812,0.0,-0.6558568321001079,-1.5707963267948966,0.0,-1.5968038136467797,0.0,0.0,0.5251480590300539,0.0,0.0,0.0,0.0,0.0,-0.5748597663133348,-1.5695571579396828,0.0005325075448862034,-1.596755223204335,-6.767548943196835e-06,4.073383958506337e-07,1.3986517244610468,-0.3374262718280792,-0.13380412906203673,-0.010267321360988015,9.791239184095669e-05,-4.072865117846922e-05,-0.4680895935573746,-1.5707963267948966,0.0,-1.5968038136467797,0.0,0.0
10.202,733.3333129882812,0.0,-0.5916621887954125,-1.5707963267948966,0.0,-1.5968038136467797,0.0,0.0,0.8185645136948969,0.0,0.0,0.0,0.0,0.0,-0.5118359925375824,-1.5740248769843996,-0.001217606613059935,-1.5968837207269313,-1.0523164935233147e-05,1.1301438210581839e-07,-1.7505362645576525,-0.22740141659319754,-0.3081248086449688,-0.06564121588005557,0.03485516522490205,-0.0014405459656645428,-0.4510390958854682,-1.5707963267948966,0.0,-1.5968038136467797,0.0,0.0
10.302,733.3333129882812,0.0,-0.5321708264132115,-1.5707963267948966,0.0,-1.5968038136467797,0.0,0.0,0.657018835111196,0.0,0.0,0.0,0.0,0.0,-0.5236511400032325,-1.5722948875402842,-0.0003596100684726341,-1.5967846511343804,-3.826223225174475e-05,1.423650411865164e-06,1.1612343753898997,-0.3947797428793758,-0.5098785691363742,-0.10953687257701669,0.05861973340941281,-0.0024756703881484566,-0.33144787001383375,-1.5707963267948966,0.0,-1.5968038136467797,0.0,0.0
10.402,733.3333129882812,0.0,-0.4519847526580145,-1.5707963267948966,0.0,-1.5968038136467797,0.0,0.0,0.9161896237385323,0.0,0.0,0.0,0.0,0.0,-0.4897040919041015,-1.574322218920107,-0.0018273517787586254,-1.5965379092593845,-0.0005227172094603879,-7.977928503221003e-07,-0.8428482739068012,0.09210364531141146,-0.5641045902510498,0.06420568466752959,-0.15399644115123448,0.0026293522080258172,-0.3230413994021692,-1.5707963267948966,0.0,-1.5968038136467797,0.0,0.0
10.504,733.3333129882812,0.0,-0.3958009500022479,-1.5707963267948966,0.0,-1.5968038136467797,0.0,0.0,0.7775816456942637,0.0,0.0,0.0,0.0,0.0,-0.3218468460301429,-1.5684680582118948,0.000984088737277693,-1.5967167405265834,-1.029416542823053e-05,6.434923278478963e-07,2.6205923242670845,0.2553484459801641,0.5240184232070682,0.1273657207449316,-0.07281256357985333,0.0031042710724615307,-0.34507076304601036,-1.5707963267948966,0.0,-1.5968038136467797,0.0,0.0
10.602,733.3333129882812,0.0,-0.3234641812682115,-1.5707963267948966,0.0,-1.5968038136467797,0.0,0.0,0.9749061144256272,0.0,0.0,0.0,0.0,0.0,-0.3459132003004301,-1.568125442537656,0.0005900627407673235,-1.5968521622680139,7.706736153002822e-05,-2.9153221967760862e-06,-0.19139033542547101,-0.36919225757346263,-0.1299011416488495,-0.007273385260547928,-0.0020882319442583177,3.324728405743563e-05,-0.0500879893004777,-1.5707963267948966,0.0,-1.5968038136467797,0.0,0.0
10.703,733.3333129882812,0.0,-0.2304210776029949,-1.5707963267948966,0.0,-1.5968038136467797,0.0,0.0,0.6624996673016317,0.0,0.0,0.0,0.0,0.0,-0.2407169390827279,-1.566137659100021,0.001428890474706243,-1.5967773274413826,6.812877358291395e-05,-2.2984152302834556e-06,2.631960027380088,0.7947678299026196,-0.011001363458819512,-0.07825029743973959,0.06606450869056685,-0.0028182694176303374,-0.0015209776078537462,-1.5707963267948966,0.0,-1.5968038136467797,0.0,0.0
10.803,733.3333129882812,0.0,-0.14500617684506079,-1.5707963267948966,0.0,-1.5968038136467797,0.0,0.0,0.8352589379485074,0.0,0.0,0.0,0.0,0.0,-0.17350269797649262,-1.5806162006823459,0.0027734505490937707,-1.596068260801149,-0.00043294748466721347,1.7425254085744252e-05,-0.44243927427327034,0.09997828808201792,-0.188159022206337,-0.07676613440899524,0.05392729350296363,-0.0027691265533629447,-0.017793166402575278,-1.5707963267948966,0.0,-1.5968038136467797,0.0,0.0
10.902,733.3333129882812,0.0,-0.07125270353305968,-1.5707963267948966,0.0,-1.5968038136467797,0.0,0.0,0.8053012742433643,0.0,0.0,0.0,0.0,0.0,-0.017939229953314886,-1.5741556381939226,-0.001342322915042131,-1.5969866519030629,9.688031939067903e-05,-5.392997338398826e-07,3.141593985170338,-0.004275702009230315,0.04054190048552151,-0.09573687947330888,0.12660911667924007,0.06340421049865945,0.056890220110470346,-1.5707963267948966,0.0,-1.5968038136467797,0.0,0.0
11.002,733.3333129882812,0.0,0.004607291027824888,-1.5707963267948966,0.0,-1.5968038136467797,0.0,0.0,0.8717840894897017,0.0,0.0,0.0,0.0,0.0,0.05991930608710104,-1.5715032629062582,0.0005985047533634145,-1.5966004935450013,-0.000122084138500752,6.8478976868699185e-06,2.71357153372113,-0.18811902485571538,-0.032238522068925926,-0.026478570684275296,0.0360688259903,0.0020807052632497787,0.06224775042827528,-1.5707963267948966,0.0,-1.5968038136467797,0.0,0.0
11.102,733.3333129882812,0.0,0.07274816324400663,-1.5707963267948966,0.0,-1.5968038136467797,0.0,0.0,1.1057368110878218,0.0,0.0,0.0,0.0,0.0,0.09402039724934715,-1.5703367983488035,-0.00018707082818738663,-1.596962150821034,0.00014535513398985185,-3.0076402009216734e-06,0.9130239667899613,-0.24407192284498247,0.6796002940894972,0.0901250747466723,0.011455101610136364,0.004669209027424742,0.2168056812633753,-1.5707963267948966,0.0,-1.5968038136467797,0.0,0.0
11.202,733.3333129882812,0.0,0.148390336636781,-1.5707963267948966,0.0,-1.5968038136467797,0.0,0.0,0.7994966161178011,0.0,0.0,0.0,0.0,0.0,0.1715507007660054,-1.5698290666869799,0.0006507180551141546,-1.5967014273503153,-4.3772166905496585e-05,1.905419304870158e-06,1.14832084042216,-0.31082492109517285,-0.0862037781009908,0.0005315491059792489,-0.005830901741160622,0.00020299231830199217,0.4043469908818278,-1.5707963267948966,0.0,-1.5968038136467797,0.0,0.0
11.302,733.3333129882812,0.0,0.2203591754374921,-1.5707963267948966,0.0,-1.5968038136467797,0.0,0.0,0.8027004800816011,0.0,0.0,0.0,0.0,0.0,0.3075864839201229,-1.5658633535077429,0.0019359105731760941,-1.5966606809856372,2.8355281428747254e-06,3.8371350701728096e-07,2.094245432739933,0.38188338530066707,0.053528281231453305,-0.015754611863393067,0.016416427159926472,-0.0006461864550532353,0.4375362965586506,-1.5707963267948966,0.0,-1.5968038136467797,0.0,0.0
11.402,733.3333129882812,0.0,0.3045192948324934,-1.5707963267948966,0.0,-1.5968038136467797,0.0,0.0,0.7619940672471871,0.0,0.0,0.0,0.0,0.0,0.2808865296478563,-1.574731546779652,-0.0005275674005696808,-1.5970672125260377,0.00020349245748400296,-8.478947213931188e-06,-1.347811712935325,-0.014597505820456467,-0.011884320994370373,-0.0246554309392505,-0.03818020923083924,-0.012460314884478674,0.5660488425499476,-1.5707963267948966,0.0,-1.5968038136467797,0.0,0.0
11.503,733.3333129882812,0.0,0.3826211439055243,-1.5707963267948966,0.0,-1.5968038136467797,0.0,0.0,0.5014630630967085,0.0,0.0,0.0,0.0,0.0,0.41777753705178233,-1.5708843442689238,-9.202253736201917e-05,-1.5968222017057505,9.413260163561816e-06,-3.993987635457777e-07,2.7831594003726825,-0.05751094709550433,-0.002793556114952243,0.00354921975188382,-0.0030916124748309225,0.00011710409715727872,0.5506110254679042,-1.5707963267948966,0.0,-1.5968038136467797,0.0,0.0
11.602,733.3333129882812,0.0,0.4732729317675028,-1.5707963267948966,0.0,-1.5968038136467797,0.0,0.0,1.2036045598267298,0.0,0.0,0.0,0.0,0.0,0.4420937957008598,-1.576101743160498,-0.0018403136230524203,-1.597062019361912,0.000162180382384538,6.503953455450216e-07,1.6883368057183068,0.1467110810284569,0.38590658946993617,-0.11878890226341213,0.20430784849008904,0.0014645379522016868,0.7635937933324004,-1.5707963267948966,0.0,-1.5968038136467797,0.0,0.0
11.703,733.3333129882812,0.0,0.5702805257928839,-1.5707963267948966,0.0,-1.5968038136467797,0.0,0.0,0.9698985335185194,0.0,0.0,0.0,0.0,0.0,0.586562228775361,-1.577111880161965,-5.328874972206798e-05,-1.5969191407694294,9.857094066898413e-05,-6.536474429126924e-06,-0.014600734903278187,-0.19134324740844705,0.7511631610054524,0.27433312270593024,-0.17802126675327323,0.009730700643120854,0.6217768006627522,-1.5707963267948966,0.0,-1.5968038136467797,0.0,0.0
11.802,733.3333129882812,0.0,0.6431276826170688,-1.5707963267948966,0.0,-1.5968038136467797,0.0,0.0,0.7762043891389749,0.0,0.0,0.0,0.0,0.0,0.6722174789155795,-1.5659586946747677,0.0018738518977704675,-1.5966700020494524,6.698334631571508e-06,1.9833811872161242e-07,2.2473851849027593,0.4146025496897035,0.3748948844156493,0.07288261303890083,-0.03695442276010302,0.0016254347540088305,0.8573520181055296,-1.5707963267948966,0.0,-1.5968038136467797,0.0,0.0
11.902,733.3333129882812,0.0,0.7278464708574994,-1.5707963267948966,0.0,-1.5968038136467797,0.0,0.0,0.9076684747880424,0.0,0.0,0.0,0.0,0.0,0.7718255626389412,-1.572845229779549,-0.000530529614624453,-1.5967883795599065,-4.6057923576754215e-05,1.6876388048667539e-06,2.235210810295571,-0.27559953902804696,0.2022931671254441,0.07671929606332348,-0.05070136070146942,0.0020559575007235947,0.7946615435936812,-1.5707963267948966,0.0,-1.5968038136467797,0.0,0.0
12.003,733.3333129882812,0.0,0.7880136700683668,-1.5707963267948966,0.0,-1.5968038136467797,0.0,0.0,0.6872072643872049,0.0,0.0,0.0,0.0,0.0,0.9419791857418479,-1.5702057708231716,0.0002055370643008774,-1.5967955700948497,6.502686101072517e-06,-2.4566342334384256e-07,2.9860579206586584,0.22184081946089615,0.4684714076126859,0.11196769782912173,-0.06359593729119914,0.002629703308364841,1.0013449655529576,-1.5707963267948966,0.0,-1.5968038136467797,0.0,0.0
12.102,733.3333129882812,0.0,0.8636919146530516,-1.5707963267948966,0.0,-1.5968038136467797,0.0,0.0,0.6929256143285163,0.0,0.0,0.0,0.0,0.0,0.8642360540422003,-1.5754320913043975,-0.0015958086473276502,-1.5968771959822605,-3.940534831156145e-05,1.1506640567607481e-06,-2.3118941370394217,-0.49015959231904593,0.02200736040181684,0.04514074692441122,-0.03599052073187326,0.0014487358362023496,1.0730694800220453,-1.5707963267948966,0.0,-1.5968038136467797,0.0,0.0
12.202,733.3333129882812,0.0,0.9334428137497702,-1.5707963267948966,0.0,-1.5968038136467797,0.0,0.0,0.6160623846707592,0.0,0.0,0.0,0.0,0.0,0.9654138714910819,-1.56605070689043,0.0014802087306667966,-1.596770802696712,6.580844734471097e-05,-2.240308682928397e-06,1.6775897522973466,0.1335814887949061,0.27270330140831534,0.06340227970686914,-0.03522882753178618,0.0014484030711032522,1.0418214080120436,-1.5707963267948966,0.0,-1.5968038136467797,0.0,0.0
12.302,733.3333129882812,0.0,1.0084785021806817,-1.5707963267948966,0.0,-1.5968038136467797,0.0,0.0,0.7706676985311689,0.0,0.0,0.0,0.0,0.0,1.0083192608650215,-1.5738300667506604,0.0020588988113044784,-1.5966192688306864,0.00011417399415434654,1.136784062730268e-05,1.0891220983410612,1.043553481298015,-0.531422310643111,-0.2821526962986209,0.25374001319505396,-0.003935346380877635,1.1544271606778451,-1.5707963267948966,0.0,-1.5968038136467797,0.0,0.0
12.404,733.3333129882812,0.0,1.0786493212569381,-1.5707963267948966,0.0,-1.5968038136467797,0.0,0.0,0.9075337346375532,0.0,0.0,0.0,0.0,0.0,1.111673147240607,-1.5779322669357638,-0.00010637980232036832,-1.5969429760611855,0.00011515066264603328,-7.439724751541113e-06,-0.0035298579985954285,-0.30556541096886175,0.8355708533330234,0.30258150541499607,-0.19588250561794623,0.010657000085115453,1.1865716295376947,-1.5707963267948966,0.0,-1.5968038136467797,0.0,0.0
12.502,733.3333129882812,0.0,1.1492193582786112,-1.5707963267948966,0.0,-1.5968038136467797,0.0,0.0,1.0062541287304028,0.0,0.0,0.0,0.0,0.0,1.1989515274862015,-1.5661520401699074,0.0017905794798066782,-1.5966774589005046,7.792577036556688e-06,1.3377781047801602e-07,2.2882292875929777,0.39896633198152126,0.3493204818885911,0.06677702079546073,-0.03348447782373029,0.0014719465594665835,1.3631287978730022,-1.5707963267948966,0.0,-1.5968038136467797,0.0,0.0
12.603,733.3333129882812,0.0,1.2458343393252942,-1.5707963267948966,0.0,-1.5968038136467797,0.0,0.0,1.087110847470427,0.0,0.0,0.0,0.0,0.0,1.2641172151476774,-1.5635687739125306,-0.0015805264199043939,-1.5972179474437362,0.00024214554893723725,-9.657816382055972e-06,0.21351414670714078,-0.6034495995636624,0.7340118709531241,0.1884437307716233,-0.10911592667721605,0.004243605716608355,1.3338943809717145,-1.5707963267948966,0.0,-1.5968038136467797,0.0,0.0
12.702,800.0,0.0,1.3197687465457602,-1.5707963267948966,0.0,-1.5968038136467797,0.0,0.0,0.9468186735572923,0.0,0.0,0.0,0.0,0.0,1.4346002712774268,-1.5696237369669348,0.0005545808005798713,-1.596743904769702,-1.471714788542553e-05,7.265110240050585e-07,2.1388836078771325,-0.13860869637275663,-0.0744886156895163,-0.009539807128719116,0.003209383231884246,-0.0001470471125310416,1.2538053588654983,-1.5707963267948966,0.0,-1.5968038136467797,0.0,0.0
12.802,800.0,0.0,1.2906007989861843,-1.5707963267948966,0.0,-1.5968038136467797,0.0,0.0,-0.8947160365551042,0.0,0.0,0.0,0.0,0.0,1.4603174858179404,-1.567314509985727,0.0013906085743336546,-1.5966961010281353,-1.4529718871905588e-06,4.074751951996693e-07,1.6567186919924501,0.0890309649470837,0.4415654578301017,0.11300454966527365,-0.06562095921101416,0.0026937172225473447,1.012020481614225,-1.5707963267948966,0.0,-1.5968038136467797,0.0,0.0
12.902,800.0,0.0,1.1945529632479115,-1.5707963267948966,0.0,-1.5968038136467797,0.0,0.0,-0.8472350999088253,0.0,0.0,0.0,0.0,0.0,1.3749088443946633,-1.5715527977025336,-0.0003527704063034097,-1.5968415096236535,8.602582078105252e-06,-4.311518957149961e-07,-2.846969272723199,-0.00984455077972174,-0.0734532036248287,-0.01963516422499097,0.011323124293068823,-0.0004709453513673893,1.016550399756677,-1.5707963267948966,0.0,-1.5968038136467797,0.0,0.0
13.003,800.0,0.0,1.1173596748329846,-1.5707963267948966,0.0,-1.5968038136467797,0.0,0.0,-0.6551729807013418,0.0,0.0,0.0,0.0,0.0,1.1464293302579311,-1.5671797540345689,0.000971128583467012,-1.5968854517816398,0.00014568890687695932,-3.5015584253919144e-06,1.4642098289091459,0.3967051417684758,0.8522287927934145,0.01594861274583233,0.10957369077908703,0.004090754834200018,0.9270087898885448,-1.5707963267948966,0.0,-1.5968038136467797,0.0,0.0
13.102,800.0,0.0,1.0338039168778987,-1.5707963267948966,0.0,-1.5968038136467797,0.0,0.0,-0.8953834768105903,0.0,0.0,0.0,0.0,0.0,1.0697049908332934,-1.5723662602574984,0.0007120528786541599,-1.5968740001889525,0.00024177486175059628,6.847921052922574e-06,0.3749839671541124,-0.5118446478111252,0.6440367072086881,0.17567329077820487,-0.08600786931330184,0.0055317127575956835,0.9881047222140952,-1.5707963267948966,0.0,-1.5968038136467797,0.0,0.0
13.203,800.0,0.0,0.9514699372159852,-1.5707963267948966,0.0,-1.5968038136467797,0.0,0.0,-0.8762118355262049,0.0,0.0,0.0,0.0,0.0,0.8812059828242942,-1.5709886070256003,-9.477253889474825e-05,-1.5968147448546983,3.0132843725320126e-06,-1.4362233165294906e-07,-2.688189211687694,0.07958792003150232,0.03419475953121124,0.0031321099483799155,-0.0004332715372764165,2.5700727681325368e-05,0.6771710037379846,-1.5707963267948966,0.0,-1.5968038136467797,0.0,0.0
13.302,800.0,0.0,0.8760053064712165,-1.5707963267948966,0.0,-1.5968038136467797,0.0,0.0,-0.9140117175349124,0.0,0.0,0.0,0.0,0.0,0.7060809037564821,-1.5687952275518111,-0.0001812578906901279,-1.5967514947788088,-0.00015305224495462536,-5.981589093703224e-06,1.8059368062920804,0.5785913876327539,0.08471729312667103,-0.28442270823277715,0.32107912326690036,-0.0034217796914937726,0.8115398742850395,-1.5707963267948966,0.0,-1.5968038136467797,0.0,0.0
13.402,800.0,0.0,0.7906751344611296,-1.5707963267948966,0.0,-1.5968038136467797,0.0,0.0,-1.0983399006443868,0.0,0.0,0.0,0.0,0.0,0.7101197207076417,-1.5716634520458264,-0.002019922512483598,-1.5969040939092705,-0.00018262901878724372,-9.217571504407177e-06,-0.5040761736218504,0.06208350730219712,-0.49981375100766495,-0.07763816986318488,0.008560858760479061,-0.003145683747560913,0.5540679999890279,-1.5707963267948966,0.0,-1.5968038136467797,0.0,0.0
13.502,800.0,0.0,0.6978088082106906,-1.5707963267948966,0.0,-1.5968038136467797,0.0,0.0,-1.0890101505635286,0.0,0.0,0.0,0.0,0.0,0.6050941015367863,-1.5714470702072574,-0.0002579874075443947,-1.5968235332862954,2.4446592765480875e-10,-6.506941675159657e-08,-2.8086328025153997,0.019298836107638388,0.002235636090073927,-0.000929851537128223,0.0008855502815173914,-3.5378536261215995e-05,0.4598314445819315,-1.5707963267948966,0.0,-1.5968038136467797,0.0,0.0
13.602,800.0,0.0,0.6123157677160922,-1.5707963267948966,0.0,-1.5968038136467797,0.0,0.0,-0.955004098115802,0.0,0.0,0.0,0.0,0.0,0.5650377618970136,-1.5672695025633046,0.001508457093610214,-1.5966676052044713,-1.7778030685067532e-05,1.073516716280228e-06,2.2513122822461904,0.21071987486764557,0.40392473845708526,0.09525996557872453,-0.052017790356620006,0.0021755749155230224,0.46782871069685483,-1.5707963267948966,0.0,-1.5968038136467797,0.0,0.0
13.702,800.0,0.0,0.5356400007225428,-1.5707963267948966,0.0,-1.5968038136467797,0.0,0.0,-0.5497375016454976,0.0,0.0,0.0,0.0,0.0,0.4679303864372363,-1.576925325727605,0.0009356357851764826,-1.596554154542034,-0.00014361673218161335,5.7760816128568385e-06,-0.031178477844749707,0.6491632257280633,-0.7835121127134542,-0.20262909160744397,0.11479236299455747,-0.004444217168245631,0.41856538401300875,-1.5707963267948966,0.0,-1.5968038136467797,0.0,0.0
13.802,800.0,0.0,0.46377773859500415,-1.5707963267948966,0.0,-1.5968038136467797,0.0,0.0,-1.1075701618976643,0.0,0.0,0.0,0.0,0.0,0.36312331292333555,-1.5664714863426623,0.002147529540590426,-1.5965537550678706,-7.031443414825906e-05,3.3396870478786697e-06,-0.7292245725775977,-0.2751879141920616,0.17063708670929692,0.06931243753818944,-0.04536510576268278,0.0018513077450017287,0.3459602482499192,-1.5707963267948966,0.0,-1.5968038136467797,0.0,0.0
13.902,800.0,0.0,0.39111277241765396,-1.5707963267948966,0.0,-1.5968038136467797,0.0,0.0,-0.6511526917030311,0.0,0.0,0.0,0.0,0.0,0.4348796252029714,-1.5750527240071157,0.0013847769277396268,-1.596433912818817,-0.00021274154572978036,8.556973575153434e-06,0.2757939664323796,0.6518749229290093,-0.45133106981034055,-0.11472022461852995,0.06445449465355944,-0.0024374194366205675,0.2130628488599739,-1.5707963267948966,0.0,-1.5968038136467797,0.0,0.0
14.002,800.0,0.0,0.31765318466049397,-1.5707963267948966,0.0,-1.5968038136467797,0.0,0.0,-0.7582885009851718,0.0,0.0,0.0,0.0,0.0,0.3447485999557385,-1.5751640441406811,-0.00023696768043283376,-1.5969078223347966,7.110206924213649e-05,-3.917588453125174e-06,-0.10752964806342397,-0.06961941678809151,0.8252626222806809,0.30783182763554645,-0.19890347904523445,0.01050663655355336,0.03151381761296318,-1.5707963267948966,0.0,-1.5968038136467797,0.0,0.0
14.102,800.0,0.0,0.2268485966197744,-1.5707963267948966,0.0,-1.5968038136467797,0.0,0.0,-1.0313648877361128,0.0,0.0,0.0,0.0,0.0,0.18655368534599406,-1.5703289420235877,0.00023018983467978108,-1.5967771942833282,-7.386168234982941e-06,3.5443831933423786e-07,-2.49908000689393,0.14235376665568059,0.03832193517391269,-0.0007329949085610665,0.0029245901424422714,-0.00010624631917295785,-0.034321994743528594,-1.5707963267948966,0.0,-1.5968038136467797,0.0,0.0
14.203,800.0,0.0,0.13691840883191642,-1.5707963267948966,0.0,-1.5968038136467797,0.0,0.0,-0.993708351610254,0.0,0.0,0.0,0.0,0.0,0.05020552171838869,-1.5698097587690767,-0.00030959589019722975,-1.5969690750398684,0.0001140894781259782,-4.64019633042152e-06,-2.22770548971151,0.1827545528929415,0.1721165725633768,0.033357571956004216,-0.01635993901649237,0.0007010353500155831,0.08144206859943258,-1.5707963267948966,0.0,-1.5968038136467797,0.0,0.0
14.302,800.0,0.0,0.07274211502050143,-1.5707963267948966,0.0,-1.5968038136467797,0.0,0.0,-0.6536488408024971,0.0,0.0,0.0,0.0,0.0,0.040986818996322075,-1.5738417846594568,-0.0014064572436372034,-1.5969502997541833,3.2147590250774515e-05,-1.631535007600942e-06,-0.7068518223130328,0.0483526773242365,-0.3418213198645506,-0.09877297466216169,0.0586438017277644,-0.0024265259634351126,-0.06328363652577051,-1.5707963267948966,0.0,-1.5968038136467797,0.0,0.0
14.403,800.0,0.0,-0.004654137807595049,-1.5707963267948966,0.0,-1.5968038136467797,0.0,0.0,-0.9518389406532848,0.0,0.0,0.0,0.0,0.0,-0.051230709741203896,-1.5713886138213302,-0.00015345589656198583,-1.5967984995720488,-1.3872187737062807e-05,5.237573721524184e-07,-3.0514324001495967,-0.10400666877065584,-0.062105345223135766,-0.0076376250746299544,0.00229203528808881,-7.524000617524761e-05,-0.2251525185573232,-1.5707963267948966,0.0,-1.5968038136467797,0.0,0.0
14.502,800.0,0.0,-0.07908118233270756,-1.5707963267948966,0.0,-1.5968038136467797,0.0,0.0,-1.0384850191600967,0.0,0.0,0.0,0.0,0.0,-0.14446909886477372,-1.5750809535146706,0.001078827442128197,-1.596519000815645,-0.00016307269739430967,6.480521876256287e-06,-0.06079891906682979,0.683697567426584,-0.559782479538933,-0.147545782293115,0.08442248119399927,-0.00333745891392509,-0.2482899610358138,-1.5707963267948966,0.0,-1.5968038136467797,0.0,0.0
14.602,800.0,0.0,-0.16417073040152985,-1.5707963267948966,0.0,-1.5968038136467797,0.0,0.0,-0.685086356744934,0.0,0.0,0.0,0.0,0.0,-0.2637785159632418,-1.5693169408093577,-0.0001890690767557936,-1.5969749339942665,0.00012622283127487074,-5.099074619147315e-06,-1.134001289556913,0.4702776633325185,0.20646822141111815,0.019884533890968663,-0.0034245830326451363,0.00019249680759803384,-0.3141167005126898,-1.5707963267948966,0.0,-1.5968038136467797,0.0,0.0
14.702,800.0,0.0,-0.2355664730730922,-1.5707963267948966,0.0,-1.5968038136467797,0.0,0.0,-0.908866245561682,0.0,0.0,0.0,0.0,0.0,-0.28714089688888017,-1.5766664664696493,-0.00024551596590006086,-1.5968668096540093,3.564493364345054e-05,-1.3713515984890293e-06,0.0292117458632938,0.8003167257708814,-0.9739859878288016,-0.2648452784273867,0.15362038616055848,-0.006301472943101917,-0.4955113743222604,-1.5707963267948966,0.0,-1.5968038136467797,0.0,0.0
14.803,800.0,0.0,-0.3298984912985645,-1.5707963267948966,0.0,-1.5968038136467797,0.0,0.0,-0.7125712624375311,0.0,0.0,0.0,0.0,0.0,-0.32963046694811754,-1.569326261873173,0.0003931885246739252,-1.5968120816936082,3.075175509276442e-05,-1.1313263623792685e-06,-2.774641545942173,-0.014897484909821372,0.23873531420511357,0.06778442805681047,-0.03999865307384817,0.0016637338192868822,-0.5184314110339758,-1.5707963267948966,0.0,-1.5968038136467797,0.0,0.0
14.902,800.0,0.0,-0.41242420335137275,-1.5707963267948966,0.0,-1.5968038136467797,0.0,0.0,-0.9219454739292092,0.0,0.0,0.0,0.0,0.0,-0.530154046752988,-1.5705862033848894,0.00010235803733739633,-1.5967874474535249,-8.502630740127656e-06,1.4909968679090312e-07,-3.1415950504347743,-0.029045437695002153,-0.030179767468834773,2.5075860510242394e-05,-0.004578189255387478,-0.004016592299699442,-0.705911528745599,-1.5707963267948966,0.0,-1.5968038136467797,0.0,0.0
15.003,800.0,0.0,-0.5065407232576078,-1.5707963267948966,0.0,-1.5968038136467797,0.0,0.0,-0.9763259237432859,0.0,0.0,0.0,0.0,0.0,-0.5278333348895794,-1.5742959867833697,-0.0014715925983099822,-1.5969319239426618,1.3386795582023296e-05,-8.9573845395916e-07,-2.2853264420047914,-0.2441732727692168,-0.40978359298671874,-0.09411989960557524,0.05075184841007243,-0.002124840006273899,-0.7400482104816017,-1.5707963267948966,0.0,-1.5968038136467797,0.0,0.0
15.103,800.0,0.0,-0.5852212731412969,-1.5707963267948966,0.0,-1.5968038136467797,0.0,0.0,-0.4862155279779645,0.0,0.0,0.0,0.0,0.0,-0.5932465633743781,-1.5773780631129184,0.0007455759390241827,-1.596601425651383,-0.00011743728487715447,4.813652698432628e-06,-0.3943985779483582,0.6909004860688669,-0.9316788110147212,-0.2429094863186765,0.1381169270327167,-0.005404557738666058,-0.6463950302084625,-1.5707963267948966,0.0,-1.5968038136467797,0.0,0.0
15.202,800.0,0.0,-0.6476999528378897,-1.5707963267948966,0.0,-1.5968038136467797,0.0,0.0,-0.4481553602780066,0.0,0.0,0.0,0.0,0.0,-0.6412495759698656,-1.5658255366202638,0.002180881862165953,-1.5965951672228211,-3.4709840470844304e-05,1.9319159006232178e-06,1.8484029072442114,0.14605704195424707,0.3415411220283606,0.0831333614235896,-0.04602626047043017,0.0019252779545388178,-0.8124756460243485,-1.5707963267948966,0.0,-1.5968038136467797,0.0,0.0
15.302,800.0,0.0,-0.7152412378538706,-1.5707963267948966,0.0,-1.5968038136467797,0.0,0.0,-0.49027310380376604,0.0,0.0,0.0,0.0,0.0,-0.6899242377922711,-1.5648962265578805,0.0032255455508239895,-1.5961030150533746,-0.0003818537703771819,7.759023892901829e-06,-0.9621925784155493,0.3820106178217456,-1.0556221284099272,0.24302841310610537,-0.31185479877822014,-0.004747595949189591,-0.8348850880745714,-1.5707963267948966,0.0,-1.5968038136467797,0.0,0.0
15.403,800.0,0.0,-0.7852720763196643,-1.5707963267948966,0.0,-1.5968038136467797,0.0,0.0,-1.1209814179370359,0.0,0.0,0.0,0.0,0.0,-0.8044715899665413,-1.5689620745941044,-0.0006366139643840679,-1.5965152723901188,-0.0004828582183797683,-4.514485443264828e-06,0.7017968762479534,0.6497440611618096,-0.11903740016025174,-0.2213043589488133,0.212203854806065,-0.005074310159036721,-0.86728532244848,-1.5707963267948966,0.0,-1.5968038136467797,0.0,0.0
15.502,800.0,0.0,-0.8508620642638007,-1.5707963267948966,0.0,-1.5968038136467797,0.0,0.0,-0.4197658852180092,0.0,0.0,0.0,0.0,0.0,-0.8419750899643914,-1.5695845884989106,0.0005154337954737857,-1.596757353733207,-5.987181707610423e-06,3.7259666300372483e-07,0.31776741587235957,0.6613570414112091,0.14664075693092202,-0.01210521148144103,0.018666512199285706,-0.0007081308928115166,-1.046940640055937,-1.5707963267948966,0.0,-1.5968038136467797,0.0,0.0
15.602,800.0,0.0,-0.9209737662301904,-1.5707963267948966,0.0,-1.5968038136467797,0.0,0.0,-0.47592979078435665,0.0,0.0,0.0,0.0,0.0,-0.9165804186886805,-1.5737391197994341,0.0008656241019247279,-1.5965729298277191,-0.00013272907003186214,5.330479305700394e-06,0.1943896373793887,0.8457232894615961,-0.6789782462378819,-0.17590675013726395,0.09973805430693596,-0.0038700027066703685,-0.9873247818049908,-1.5707963267948966,0.0,-1.5968038136467797,0.0,0.0
15.703,800.0,0.0,-0.9985884037469486,-1.5707963267948966,0.0,-1.5968038136467797,0.0,0.0,-0.9190211008151552,0.0,0.0,0.0,0.0,0.0,-0.9824617643140878,-1.5620150857325783,-0.0016683622320153584,-1.5972967770120026,0.00029628596892844125,-1.315891155005612e-05,0.5767180535429648,0.26167386968802264,-0.5345020234171922,-0.15535410403020006,0.09353454512035422,-0.004007667849230099,-1.1021471163207883,-1.5707963267948966,0.0,-1.5968038136467797,0.0,0.0
15.803,800.0,0.0,-1.08532733192221,-1.5707963267948966,0.0,-1.5968038136467797,0.0,0.0,-0.9864814404964862,0.0,0.0,0.0,0.0,0.0,-1.0459179022928147,-1.5707491888436023,0.00010103896474193446,-1.5967793248122002,-1.3679763213872536e-05,5.798908849417154e-07,-2.792417080954016,-0.002810481491962132,0.15631512235431197,0.044112908224073544,-0.02598715504531763,0.0010891137718014655,-1.3247476667142821,-1.5707963267948966,0.0,-1.5968038136467797,0.0,0.0
15.903,800.0,0.0,-1.1553913485478517,-1.5707963267948966,0.0,-1.5968038136467797,0.0,0.0,-0.3344910902611502,0.0,0.0,0.0,0.0,0.0,-1.2613095775684613,-1.567449532252994,0.0018425531230667437,-1.596774264806129,0.00016398190098057422,2.3296551347254727e-06,0.7309841896888403,0.3013052853311165,0.8451614290506168,0.11236403445597437,-0.00419697543039675,0.0042986101360171745,-1.3864979950992082,-1.5707963267948966,0.0,-1.5968038136467797,0.0,0.0
16.002,800.0,0.0,-1.226690471286119,-1.5707963267948966,0.0,-1.5968038136467797,0.0,0.0,-0.9802694326630228,0.0,0.0,0.0,0.0,0.0,-1.2139722886664663,-1.5681016072459,0.0003115239186978319,-1.5966526915023669,-0.0001044565851947824,6.0807083970232374e-06,0.68871116791574,-0.14966033219863792,-0.6836400431470384,-0.1840554737959316,0.10496363409648378,-0.004254469281246412,-1.4335220653599485,-1.5707963267948966,0.0,-1.5968038136467797,0.0,0.0
16.102,800.0,0.0,-1.3070871459515665,-1.5707963267948966,0.0,-1.5968038136467797,0.0,0.0,-0.7727951545608354,0.0,0.0,0.0,0.0,0.0,-1.3888136079201305,-1.571751868994017,-0.00047029093934659714,-1.596857754906303,1.4907005190569755e-05,-7.140218053662732e-07,-2.6857351087431858,0.006726200843739668,0.026209793231853653,0.006819162850837548,-0.003892359215813473,0.00016405772890101624,-1.3849403539828962,-1.5707963267948966,0.0,-1.5968038136467797,0.0,0.0
16.202,866.6666870117188,0.0,-1.3061437503752753,-1.5707963267948966,0.0,-1.5968038136467797,0.0,0.0,0.6975276732391676,0.0,0.0,0.0,0.0,0.0,-1.4444024351436269,-1.5773419772801478,-0.0005306428769930789,-1.5970835909667418,0.00019615416781478304,-1.1727318204161267e-05,0.1393878956958218,-0.2655828076017705,0.8067447311149785,0.18499095906309238,-0.09589879134520729,0.002962974772173315,-1.2066519816505707,-1.5707963267948966,0.0,-1.5968038136467797,0.0,0.0
16.302,866.6666870117188,0.0,-1.2263187700772011,-1.5707963267948966,0.0,-1.5968038136467797,0.0,0.0,0.8282090999013089,0.0,0.0,0.0,0.0,0.0,-1.2948511593916279,-1.5706686282206272,-2.6377497966762346e-05,-1.596821802231587,1.263709476667352e-05,-5.095180806160724e-07,3.1097697427761095,0.10035693133237834,0.136481929215733,0.028095134433088614,-0.01361226417369515,0.0005515892956542232,-1.0941811289687013,-1.5707963267948966,0.0,-1.5968038136467797,0.0,0.0
16.402,866.6666870117188,0.0,-1.1490444430280888,-1.5707963267948966,0.0,-1.5968038136467797,0.0,0.0,0.8720779344875073,0.0,0.0,0.0,0.0,0.0,-1.1467012390052282,-1.5649577455790613,0.00034290162595925476,-1.5967825206055082,2.9837049309057304e-05,1.9782699584399136e-06,-0.7948276844481191,-0.9523824916451061,0.8922988477128012,0.3680170711634379,-0.2743091376113627,0.006983194328486364,-1.0773782159100176,-1.5707963267948966,0.0,-1.5968038136467797,0.0,0.0
16.502,866.6666870117188,0.0,-1.0616887788271638,-1.5707963267948966,0.0,-1.5968038136467797,0.0,0.0,1.0551845808844382,0.0,0.0,0.0,0.0,0.0,-1.0314992818350166,-1.5744063748105535,-0.0019480997366497106,-1.5970577583041679,8.361587861951044e-05,-3.836134647548811e-06,0.4225393689493849,0.22258766969909524,-0.12695300567737497,-0.054216754146320024,0.03498051688846071,-0.001444274001079166,-0.8680797140560519,-1.5707963267948966,0.0,-1.5968038136467797,0.0,0.0
16.602,866.6666870117188,0.0,-0.9765564338060431,-1.5707963267948966,0.0,-1.5968038136467797,0.0,0.0,0.7529019308252265,0.0,0.0,0.0,0.0,0.0,-0.9275195526032627,-1.5684386302818494,-0.0002475427251163682,-1.5966162061954328,-0.0003191893493588666,-5.683919297736007e-06,-1.2062167640979922,0.0960952910217631,-0.34190407759542485,0.06232006674721261,-0.12586691865057023,-0.0015325514193943253,-0.8451914307561741,-1.5707963267948966,0.0,-1.5968038136467797,0.0,0.0
16.702,866.6666870117188,0.0,-0.8975794568013518,-1.5707963267948966,0.0,-1.5968038136467797,0.0,0.0,0.9333716499697452,0.0,0.0,0.0,0.0,0.0,-0.8542515967993842,-1.56568292434389,0.0015053691011099155,-1.5968007632589754,8.695822380985745e-05,-3.252510591232507e-06,2.029307445351659,0.30277102261606886,0.41091503697583887,0.09118628618442004,-0.047620424537762406,0.001961683418655066,-0.7746628955293757,-1.5707963267948966,0.0,-1.5968038136467797,0.0,0.0
16.802,866.6666870117188,0.0,-0.8321928225193185,-1.5707963267948966,0.0,-1.5968038136467797,0.0,0.0,0.8468160911962926,0.0,0.0,0.0,0.0,0.0,-0.8119994142618138,-1.5633558541833787,0.003940461782780054,-1.5963008879223675,-0.00016090479909264366,7.423268447022357e-06,0.3583850500013802,-0.0036528819969435288,0.2944525723721791,0.08340372220850308,-0.04791598548449076,0.002008355186721542,-0.739302451531288,-1.5707963267948966,0.0,-1.5968038136467797,0.0,0.0
16.902,866.6666870117188,0.0,-0.7488365626058897,-1.5707963267948966,0.0,-1.5968038136467797,0.0,0.0,0.9236211528752902,0.0,0.0,0.0,0.0,0.0,-0.7382201315286401,-1.566309432990331,0.0013125856265869265,-1.5968042253683925,7.80190791411408e-05,-2.9571166995896494e-06,2.066942172612223,0.32773336414559956,0.707900575150306,0.1777102261827088,-0.09808766841227863,0.004177985323319073,-0.5535307751131565,-1.5707963267948966,0.0,-1.5968038136467797,0.0,0.0
17.002,866.6666870117188,0.0,-0.6668470041515446,-1.5707963267948966,0.0,-1.5968038136467797,0.0,0.0,0.5202857859653192,0.0,0.0,0.0,0.0,0.0,-0.6848026461209125,-1.565513280982452,0.001544608985259389,-1.5968034264200655,9.101612286938734e-05,-3.3956655065902943e-06,1.8642725510219391,0.19394274230371658,0.5386412082519343,0.13715606683379453,-0.07602533453989767,0.0031739353614333955,-0.48797158971973553,-1.5707963267948966,0.0,-1.5968038136467797,0.0,0.0
17.102,866.6666870117188,0.0,-0.6008240994445639,-1.5707963267948966,0.0,-1.5968038136467797,0.0,0.0,0.5966937687972274,0.0,0.0,0.0,0.0,0.0,-0.6130648761003663,-1.5703429236193105,0.00044508755911194797,-1.596923268669119,0.00019102039816314676,5.876960989490971e-07,0.2552620763370615,0.47525341364468165,0.7204617739058282,0.15066279596721419,-0.06393680110478327,0.0047302963252257345,-0.5224663309619252,-1.5707963267948966,0.0,-1.5968038136467797,0.0,0.0
17.203,866.6666870117188,0.0,-0.527924778743806,-1.5707963267948966,0.0,-1.5968038136467797,0.0,0.0,0.8648452462596503,0.0,0.0,0.0,0.0,0.0,-0.548009410018506,-1.5772206702924947,0.0007978561448950813,-1.5965271234569696,-0.00017729175723078138,7.386367862345842e-06,0.6269326882657087,0.022829182785890873,0.6389506021588547,0.14738975434274998,-0.04755067884552675,0.007207859534313019,-0.2696303197348671,-1.5707963267948966,0.0,-1.5968038136467797,0.0,0.0
17.302,866.6666870117188,0.0,-0.44920623762726564,-1.5707963267948966,0.0,-1.5968038136467797,0.0,0.0,1.0943496988812031,0.0,0.0,0.0,0.0,0.0,-0.3968696585448155,-1.5705700912602945,8.708080009025471e-05,-1.5967982332559398,7.278572388104674e-07,-1.7501403606883816e-08,3.097887516940503,0.04986427507539787,0.06515900895280469,0.014335383149868116,-0.007431528655474147,0.00030963610418976425,-0.18332971297994294,-1.5707963267948966,0.0,-1.5968038136467797,0.0,0.0
17.402,866.6666870117188,0.0,-0.3734754959024009,-1.5707963267948966,0.0,-1.5968038136467797,0.0,0.0,1.0669920885786521,0.0,0.0,0.0,0.0,0.0,-0.3602703683160745,-1.5651316499982435,0.0016028431376757424,-1.596268530515123,-0.00032549277077881293,1.5778405551384566e-05,-0.5240833377586388,0.15328436181001773,-0.6550241774970552,0.08261145675133973,-0.10665235286608143,0.012213716570510345,-0.28760309334242085,-1.5707963267948966,0.0,-1.5968038136467797,0.0,0.0
17.503,866.6666870117188,0.0,-0.28253326204185836,-1.5707963267948966,0.0,-1.5968038136467797,0.0,0.0,0.6830996027498345,0.0,0.0,0.0,0.0,0.0,-0.20771151816602162,-1.5721084662639786,-0.0005663561858020898,-1.5968560238515945,7.558680817649856e-06,-4.429773724205514e-07,2.7963268677503614,-0.06522962433358383,0.06568475024149996,0.023930127338745825,-0.014865542581199934,0.0006168403183831361,-0.06296907287284342,-1.5707963267948966,0.0,-1.5968038136467797,0.0,0.0
17.602,866.6666870117188,0.0,-0.21404444047745663,-1.5707963267948966,0.0,-1.5968038136467797,0.0,0.0,0.7222211689994165,0.0,0.0,0.0,0.0,0.0,-0.20747589498857688,-1.571215508350475,0.0012044826124243762,-1.5965879766878779,-4.200804212103098e-05,8.614546512979927e-06,-0.8356948900607938,0.4962556679227782,-0.4723097884023035,-0.06471700327444639,-0.015447743925302182,-0.004008454313989513,0.036115076800602885,-1.5707963267948966,0.0,-1.5968038136467797,0.0,0.0
17.702,866.6666870117188,0.0,-0.1153618973320567,-1.5707963267948966,0.0,-1.5968038136467797,0.0,0.0,0.8829327311421176,0.0,0.0,0.0,0.0,0.0,-0.1537446392701675,-1.5665981196524956,-0.0007112634880585873,-1.5971131520548416,0.00023990604892291378,-5.205471939911682e-06,0.3344375392947378,-0.7574566101354732,1.1374235847157192,0.2656611211825756,-0.12670575613729634,0.006782395103186292,0.0009663340830111805,-1.5707963267948966,0.0,-1.5968038136467797,0.0,0.0
17.803,866.6666870117188,0.0,-0.04957488184571357,-1.5707963267948966,0.0,-1.5968038136467797,0.0,0.0,0.5537279448644316,0.0,0.0,0.0,0.0,0.0,-0.04885348892841511,-1.5724817082907532,-0.00030538613211374924,-1.5967518942529724,-5.870280228670784e-05,2.2880564495923116e-06,1.527471356391215,-0.23624326121507191,-0.26577014433970075,-0.055606599662583536,0.02784371122023912,-0.0011836585912425304,0.15157132640513254,-1.5707963267948966,0.0,-1.5968038136467797,0.0,0.0
17.903,866.6666870117188,0.0,0.028613136942259646,-1.5707963267948966,0.0,-1.5968038136467797,0.0,0.0,0.9623822481818871,0.0,0.0,0.0,0.0,0.0,0.01507039480478397,-1.5748041179193568,-0.0010966502055971994,-1.596938581845387,9.573267641213927e-05,2.598984448610554e-06,0.03564747645514663,-0.09880472453578247,-0.6011371767891467,-0.16981921329377678,0.09995307127544623,-0.0039532002232284995,0.2449959370101895,-1.5707963267948966,0.0,-1.5968038136467797,0.0,0.0
18.003,866.6666870117188,0.0,0.10820116282337412,-1.5707963267948966,0.0,-1.5968038136467797,0.0,0.0,0.8725307724157778,0.0,0.0,0.0,0.0,0.0,0.1202774511875767,-1.5658385861096051,0.0012256998659859288,-1.596869605973154,0.00012477323387744758,-4.897636895124224e-06,2.188810155148957,0.5030006227261082,0.40482115848000594,0.0700551515543205,-0.031573794980247545,0.0012038408790269375,0.3228118502639193,-1.5707963267948966,0.0,-1.5968038136467797,0.0,0.0
18.103,866.6666870117188,0.0,0.1778663126207043,-1.5707963267948966,0.0,-1.5968038136467797,0.0,0.0,0.7518460920370408,0.0,0.0,0.0,0.0,0.0,0.19225915844159575,-1.5672676383505415,-0.0009485525715934361,-1.5973593612976194,0.0003784498850996337,-1.5558063674848278e-05,2.448252245909223,0.7288290265766937,0.09796849195349759,-0.061751931262914644,0.05862474348121352,-0.002716349150400839,0.4332835387871276,-1.5707963267948966,0.0,-1.5968038136467797,0.0,0.0
18.202,866.6666870117188,0.0,0.26259415142277626,-1.5707963267948966,0.0,-1.5968038136467797,0.0,0.0,1.0091917164231812,0.0,0.0,0.0,0.0,0.0,0.2717207447688874,-1.5634286916391924,7.989688891501078e-05,-1.5967854500827074,-9.83008514504301e-06,3.1498718397260483e-07,0.4895841830760207,-0.5777079505201473,0.9028239266569034,0.24578198851519278,-0.13910361989421266,0.005655420751419067,0.40723536969803203,-1.5707963267948966,0.0,-1.5968038136467797,0.0,0.0
18.302,866.6666870117188,0.0,0.33810262443044303,-1.5707963267948966,0.0,-1.5968038136467797,0.0,0.0,0.8327696564580019,0.0,0.0,0.0,0.0,0.0,0.35399915658115594,-1.5654789262043898,-0.0011478346533174363,-1.59710955678737,0.00017174789913223588,-6.798299684406098e-06,0.20681992512257674,-0.4280939906139904,0.3077495692473766,0.09079059870308312,-0.052992994174725784,0.00235002484060231,0.4335715299867748,-1.5707963267948966,0.0,-1.5968038136467797,0.0,0.0
18.402,866.6666870117188,0.0,0.41647618699053907,-1.5707963267948966,0.0,-1.5968038136467797,0.0,0.0,0.7339055814645405,0.0,0.0,0.0,0.0,0.0,0.469621194123814,-1.5747443299528845,-0.002103541999634371,-1.5970740035868174,8.704615331374407e-05,-4.012741622985841e-06,0.6468769685112575,0.3343294482439942,-0.11812144751521102,-0.060820856856309315,0.04067994793733929,-0.0016704222807452916,0.6557523843353551,-1.5707963267948966,0.0,-1.5968038136467797,0.0,0.0
18.502,866.6666870117188,0.0,0.49724170549630387,-1.5707963267948966,0.0,-1.5968038136467797,0.0,0.0,0.946992523794871,0.0,0.0,0.0,0.0,0.0,0.545315256391241,-1.5627707576918883,-0.0006865127346776634,-1.5970050277145844,0.0001172073954283203,-5.166269291090987e-06,0.6170411087659091,0.47065949405380864,-1.0084904355440862,-0.3840926771619696,0.24245826360623304,-0.012922127823444431,0.6190572007740452,-1.5707963267948966,0.0,-1.5968038136467797,0.0,0.0
18.603,866.6666870117188,0.0,0.5695057100760976,-1.5707963267948966,0.0,-1.5968038136467797,0.0,0.0,0.7931480332859143,0.0,0.0,0.0,0.0,0.0,0.6778797588672515,-1.570557308087062,-0.00012254229193388782,-1.5965581492836691,-0.00030393615273216094,9.865166479337268e-08,-1.2973699771506246,0.05138078302981907,-0.6891260884135744,-0.024378366478530582,-0.08264250754517437,-0.003967035657180651,0.7975730780942191,-1.5707963267948966,0.0,-1.5968038136467797,0.0,0.0
18.702,866.6666870117188,0.0,0.6483966415554043,-1.5707963267948966,0.0,-1.5968038136467797,0.0,0.0,0.60967524637827,0.0,0.0,0.0,0.0,0.0,0.6127941657755598,-1.5705798117982732,0.00029522642612756406,-1.5967174063168559,-5.03579071327735e-05,2.215071568209206e-06,-0.8684031021998472,-0.9443880815268518,0.6344294867342817,0.1703019778203809,-0.09582538796766198,0.0038274147556953933,0.9442824086819634,-1.5707963267948966,0.0,-1.5968038136467797,0.0,0.0
18.802,866.6666870117188,0.0,0.7541544543891718,-1.5707963267948966,0.0,-1.5968038136467797,0.0,0.0,1.1015660451941622,0.0,0.0,0.0,0.0,0.0,0.7415653281738886,-1.571276761055547,-0.0002157377319932821,-1.5969328560490432,0.00012560420385576197,-8.076050050694767e-07,0.823097605472501,-0.6795655398372716,0.46938463883998766,0.08211529319550115,0.0006976500275429963,0.0045250357849511294,0.8132241147748381,-1.5707963267948966,0.0,-1.5968038136467797,0.0,0.0
18.902,866.6666870117188,0.0,0.8353176874327977,-1.5707963267948966,0.0,-1.5968038136467797,0.0,0.0,0.968512555835327,0.0,0.0,0.0,0.0,0.0,0.8960500432662323,-1.5669561816610569,0.0016489082823786822,-1.5966528246604215,-2.0833853210436735e-05,1.2407781595811894e-06,2.213869169426058,0.20652454726817332,0.22268259474719976,0.04587077347466158,-0.022731136845883924,0.0009717657655637596,1.0242309910963776,-1.5707963267948966,0.0,-1.5968038136467797,0.0,0.0
19.002,866.6666870117188,0.0,0.9318483917197601,-1.5707963267948966,0.0,-1.5968038136467797,0.0,0.0,0.9548242157433136,0.0,0.0,0.0,0.0,0.0,0.9517298840199823,-1.5689800509314626,0.0008658780645032887,-1.5967080852530406,-2.384012548136276e-05,1.173658919350979e-06,2.8150779186695,0.24384488836205323,0.15729626418941078,0.02486249171400416,-0.010160241479220814,0.0004620937867276848,0.9917536786257907,-1.5707963267948966,0.0,-1.5968038136467797,0.0,0.0
19.103,866.6666870117188,0.0,1.0213525893682063,-1.5707963267948966,0.0,-1.5968038136467797,0.0,0.0,0.957523606763008,0.0,0.0,0.0,0.0,0.0,1.0630841060472473,-1.5656938433043592,0.0015178104066418164,-1.5967966353592857,8.423763505784431e-05,-3.1549837351966957e-06,1.9190103651191006,0.20996218889276122,0.5251938093541746,0.13365978573095444,-0.07416505826182848,0.003130333900813104,1.2074053452421483,-1.5707963267948966,0.0,-1.5968038136467797,0.0,0.0
19.202,866.6666870117188,0.0,1.1025671205599443,-1.5707963267948966,0.0,-1.5968038136467797,0.0,0.0,0.8217856212175421,0.0,0.0,0.0,0.0,0.0,1.2589735858182982,-1.5716753031126773,0.00035505301363713556,-1.5971223399606025,0.00043448120798151717,7.702696086305129e-07,0.3137671481779788,-0.6457075744766038,0.0894318705596815,-0.008431881660827064,0.025600790708390577,-0.000820087493269182,1.319033944945474,-1.5707963267948966,0.0,-1.5968038136467797,0.0,0.0
19.303,866.6666870117188,0.0,1.189303496158556,-1.5707963267948966,0.0,-1.5968038136467797,0.0,0.0,1.0657244455951524,0.0,0.0,0.0,0.0,0.0,1.1493082073963068,-1.569962491057593,0.00033808800780194345,-1.5967564216268255,-2.4462265935692437e-05,1.5100151204130458e-07,-3.1415958493831013,-0.08750932624637489,-0.12194950855560455,0.0035705474069964217,-0.02412499790972857,-0.018978220640717268,1.4121353012047717,-1.5707963267948966,0.0,-1.5968038136467797,0.0,0.0
19.403,866.6666870117188,0.0,1.2804145792928279,-1.5707963267948966,0.0,-1.5968038136467797,0.0,0.0,0.8512351850951595,0.0,0.0,0.0,0.0,0.0,1.314331516975285,-1.570693395618765,5.395028940483525e-05,-1.5967971679915036,-2.115465133487103e-06,9.876869347761094e-08,2.5374023623479522,-0.11824107338242601,-0.04661643777393775,-0.003472511869962481,-4.349595171748562e-05,-9.644868541139125e-06,1.3952568925011837,-1.5707963267948966,0.0,-1.5968038136467797,0.0,0.0
19.502,933.3333129882812,0.0,1.3413904418275329,-1.5707963267948966,0.0,-1.5968038136467797,0.0,0.0,0.038169751275360035,0.0,0.0,0.0,0.0,0.0,1.3995420192134602,-1.571467043915433,-4.864053477192447e-05,-1.5967626800553871,-3.5134521525594235e-05,1.4012967188393618e-06,2.4652418820833835,-0.012354494802742757,-0.236606849282895,-0.06576770770945592,0.03753919051764637,-0.0015699473765781093,1.2904524478620367,-1.5707963267948966,0.0,-1.5968038136467797,0.0,0.0
19.602,933.3333129882812,0.0,1.2750313866314285,-1.5707963267948966,0.0,-1.5968038136467797,0.0,0.0,-0.7360542712343806,0.0,0.0,0.0,0.0,0.0,1.4022659003763933,-1.5750547213779333,-0.0021313659212790566,-1.597057491988059,7.255615292166942e-05,-3.462612549171591e-06,-2.040545718835684,-0.2638107568571886,-0.41812198364927045,-0.09746631131807111,0.05154325250107072,-0.0022199447657371262,1.088551795159249,-1.5707963267948966,0.0,-1.5968038136467797,0.0,0.0
19.702,933.3333129882812,0.0,1.1971129220407866,-1.5707963267948966,0.0,-1.5968038136467797,0.0,0.0,-0.8440036720567947,0.0,0.0,0.0,0.0,0.0,1.204965078385655,-1.5703835368259342,0.00017321941591888008,-1.5967885127179609,-1.556227743767e-06,1.051769921550049e-07,-2.9853151650306353,0.023496797739876306,-0.006819648149528377,-0.0039411444778837115,0.0026181799351637446,-0.00010847852897885298,1.1409364369343444,-1.5707963267948966,0.0,-1.5968038136467797,0.0,0.0
19.802,933.3333129882812,0.0,1.1335584422913803,-1.5707963267948966,0.0,-1.5968038136467797,0.0,0.0,-0.5118261532860027,0.0,0.0,0.0,0.0,0.0,1.104966442088433,-1.5698305314255794,0.00031636614503091555,-1.5967939721981956,1.0650594243175313e-05,-3.562791261699615e-07,-3.066873408149876,-0.109070270109278,0.022285589995513666,0.015396522807102091,-0.01047911444816307,0.0004278918673503007,1.0343656410623776,-1.5707963267948966,0.0,-1.5968038136467797,0.0,0.0
19.902,933.3333129882812,0.0,1.0526726465118745,-1.5707963267948966,0.0,-1.5968038136467797,0.0,0.0,-1.1892545415281046,0.0,0.0,0.0,0.0,0.0,1.076891464455845,-1.5649241897493265,4.727941547266765e-05,-1.5968345854048194,5.298491382798818e-05,1.9645768166370234e-06,0.6372138882329869,0.40817720750669656,-0.624298489052484,-0.37307551262744804,0.28023428820738233,-0.010901368001670842,0.9410327250799757,-1.5707963267948966,0.0,-1.5968038136467797,0.0,0.0
20.002,933.3333129882812,0.0,0.9698108919621413,-1.5707963267948966,0.0,-1.5968038136467797,0.0,0.0,-0.7861589824885591,0.0,0.0,0.0,0.0,0.0,0.8676170036250831,-1.570710839323905,4.624876124019462e-05,-1.5967975674656671,-1.976546204098944e-06,9.171411391176988e-08,-2.717372929861109,0.0800810126297089,0.039997712645088244,0.004752500950962921,-0.0013254596957959653,6.32404409483654e-05,0.8734185777533409,-1.5707963267948966,0.0,-1.5968038136467797,0.0,0.0
20.102,933.3333129882812,0.0,0.8860745845748523,-1.5707963267948966,0.0,-1.5968038136467797,0.0,0.0,-1.0323424154172027,0.0,0.0,0.0,0.0,0.0,0.8764624268696722,-1.5715783640489984,0.0001607507375642515,-1.5967307221223062,-5.4902978231006e-05,1.297686561790598e-06,-0.3260255122280454,0.9857220726995901,-1.1047948679352046,-0.26903651141668294,0.12814425427772425,-0.007071954054637612,0.817877775697877,-1.5707963267948966,0.0,-1.5968038136467797,0.0,0.0
20.202,933.3333129882812,0.0,0.8214653508947816,-1.5707963267948966,0.0,-1.5968038136467797,0.0,0.0,-0.7175029733527212,0.0,0.0,0.0,0.0,0.0,0.7510852635435676,-1.569618543802809,0.0005011231407109066,-1.5967590847879156,-5.5560988623907045e-06,3.4467527774373273e-07,-2.508115579840351,0.015793223538010014,0.13153836154086776,0.03623908520774013,-0.02010801055712914,0.0008441267483149316,0.7440311520774451,-1.5707963267948966,0.0,-1.5968038136467797,0.0,0.0
20.302,933.3333129882812,0.0,0.748705510947179,-1.5707963267948966,0.0,-1.5968038136467797,0.0,0.0,-1.014674163818472,0.0,0.0,0.0,0.0,0.0,0.7110250623202142,-1.569446769912499,0.0008520801462725474,-1.5966721325783244,-5.1154563554806416e-05,2.279213414577741e-06,-2.1956602049468046,0.21133193586517304,0.17260874137758025,0.03166550342909795,-0.01423860741286546,0.00061583031974121,0.5653509587739467,-1.5707963267948966,0.0,-1.5968038136467797,0.0,0.0
20.402,933.3333129882812,0.0,0.6671295974393967,-1.5707963267948966,0.0,-1.5968038136467797,0.0,0.0,-0.8250188797106534,0.0,0.0,0.0,0.0,0.0,0.6326478319650187,-1.569650768051999,0.0002718518722930974,-1.5968212695993689,2.9266135369469964e-05,-1.123695695325008e-06,-1.1469940535670826,0.4404685350666117,0.40382520281134354,0.07875093843516086,-0.036882891917699175,0.0015891571164234196,0.6146472870189442,-1.5707963267948966,0.0,-1.5968038136467797,0.0,0.0
20.502,933.3333129882812,0.0,0.593830278836081,-1.5707963267948966,0.0,-1.5968038136467797,0.0,0.0,-0.7292806221855671,0.0,0.0,0.0,0.0,0.0,0.5033862484519517,-1.5668745557736459,0.00214772667692893,-1.5965164708126094,-9.557907814113888e-05,4.383319090770868e-06,0.3557493194705288,-0.03317165418359226,0.1620602099711286,0.04935688463108893,-0.028363023471615366,0.0011952875546196596,0.3381092977521334,-1.5707963267948966,0.0,-1.5968038136467797,0.0,0.0
20.602,933.3333129882812,0.0,0.5132494916923731,-1.5707963267948966,0.0,-1.5968038136467797,0.0,0.0,-0.8457296213103023,0.0,0.0,0.0,0.0,0.0,0.5093413762549915,-1.5639079274773522,0.0016853956699073695,-1.596199820958999,-0.00036418620626174435,1.8722193949765226e-05,0.2818536565977186,0.48110940527614326,-1.0866540803798574,-0.17711188046479526,0.07442058856842158,0.0012658909719798325,0.21998297214180973,-1.5707963267948966,0.0,-1.5968038136467797,0.0,0.0
20.702,933.3333129882812,0.0,0.4230370923025708,-1.5707963267948966,0.0,-1.5968038136467797,0.0,0.0,-0.9813342458755598,0.0,0.0,0.0,0.0,0.0,0.40051805608016955,-1.5695201400005305,0.00037706967065578113,-1.5968023611556295,2.0723819420738522e-05,-7.520488496627655e-07,-3.1133074859681704,-0.09359936812576243,0.05668321998395089,0.023964677692700397,-0.015044838861292218,0.0006218180759489411,0.3020123884295938,-1.5707963267948966,0.0,-1.5968038136467797,0.0,0.0
20.802,933.3333129882812,0.0,0.3516270604428673,-1.5707963267948966,0.0,-1.5968038136467797,0.0,0.0,-0.8064361322744853,0.0,0.0,0.0,0.0,0.0,0.2967068716559039,-1.5708854095333598,0.0005880312351945812,-1.5966439030707698,-8.824355176162424e-05,3.529425744907788e-06,-0.37392103298403456,0.8743928843865717,-0.478641886657644,-0.13009624316583304,0.07180875990835361,-0.002879853977541119,0.13516642095908166,-1.5707963267948966,0.0,-1.5968038136467797,0.0,0.0
20.902,933.3333129882812,0.0,0.26238328438461167,-1.5707963267948966,0.0,-1.5968038136467797,0.0,0.0,-0.941591824554437,0.0,0.0,0.0,0.0,0.0,0.33754658013032357,-1.5788783549130145,-0.000392808133464025,-1.5969111512861591,5.948053830158224e-05,-2.4023012083450812e-06,1.0907455613415735,0.5450894203308023,-1.100091259396934,-0.308010592323718,0.17186165811278578,-0.007154887595755662,0.21265014150357858,-1.5707963267948966,0.0,-1.5968038136467797,0.0,0.0
21.002,933.3333129882812,0.0,0.17972511369490363,-1.5707963267948966,0.0,-1.5968038136467797,0.0,0.0,-0.926652860514509,0.0,0.0,0.0,0.0,0.0,0.15444861261481632,-1.5703537094217255,0.00019214029446211643,-1.5967859827149253,-2.708738353634573e-06,1.5572058162536766e-07,-2.1247870967531797,0.20165548984718146,0.08285281404750656,0.006849286219628516,-0.00045906476608062615,3.728422275181868e-05,0.07372604483356905,-1.5707963267948966,0.0,-1.5968038136467797,0.0,0.0
21.103,933.3333129882812,0.0,0.12009115496540534,-1.5707963267948966,0.0,-1.5968038136467797,0.0,0.0,-0.6290851411587002,0.0,0.0,0.0,0.0,0.0,0.00398339069119537,-1.570962374888863,-7.126047076083048e-05,-1.5968098180066816,5.709232733094576e-07,-3.191194632414801e-08,-3.111740481982768,-0.058481432125053634,-0.07239703554839531,-0.015536961902414438,0.007734073638131506,-0.0003184179689103144,0.013758611002240226,-1.5707963267948966,0.0,-1.5968038136467797,0.0,0.0
21.203,933.3333129882812,0.0,0.04276038857917008,-1.5707963267948966,0.0,-1.5968038136467797,0.0,0.0,-0.6372995699164875,0.0,0.0,0.0,0.0,0.0,0.02612693563243856,-1.569853434610954,-0.00032415338800401725,-1.596894772845455,5.075815339193833e-05,-2.116844365540829e-06,0.05280628577636522,-0.8927040476726568,0.6427383495982472,0.17373226246245743,-0.09579165736798044,0.0038058343083386945,-0.17168443031626862,-1.5707963267948966,0.0,-1.5968038136467797,0.0,0.0
21.303,933.3333129882812,0.0,-0.025559663729502802,-1.5707963267948966,0.0,-1.5968038136467797,0.0,0.0,-0.7186223155479976,0.0,0.0,0.0,0.0,0.0,-0.07185916023198337,-1.571349997985524,-0.00023094985313125102,-1.59682366644435,1.8396429777205248e-06,-1.294622656388862e-07,-2.512202733165296,0.09121411621781138,0.0520279062075731,0.007272156149287018,-0.002557881442791092,0.00011589023275368413,-0.30470946084443706,-1.5707963267948966,0.0,-1.5968038136467797,0.0,0.0
21.402,933.3333129882812,0.0,-0.11915595476587626,-1.5707963267948966,0.0,-1.5968038136467797,0.0,0.0,-0.7111744455237085,0.0,0.0,0.0,0.0,0.0,-0.1529000343752057,-1.5704842043151392,-0.00022773639102368744,-1.5968817233561137,4.6446450236639585e-05,-2.338122535045731e-06,0.24117062521917973,-0.5784973114672468,-0.014484509767939547,-0.02035893858846345,0.014310915357353014,-0.001089494130502075,-0.2463973969385707,-1.5707963267948966,0.0,-1.5968038136467797,0.0,0.0
21.503,933.3333129882812,0.0,-0.19577416989705831,-1.5707963267948966,0.0,-1.5968038136467797,0.0,0.0,-1.0063403634559076,0.0,0.0,0.0,0.0,0.0,-0.21365296397896116,-1.576455011479097,-0.002169885659622043,-1.5969524302830553,-1.1774377434208361e-05,-2.3250722454170392e-08,-1.330570408038152,-0.06296042383132217,-0.5111950029527139,-0.14116398279393086,0.0783750582144314,-0.0033019382226631825,-0.2872985946099473,-1.5707963267948966,0.0,-1.5968038136467797,0.0,0.0
21.602,933.3333129882812,0.0,-0.2790263676214533,-1.5707963267948966,0.0,-1.5968038136467797,0.0,0.0,-0.8975754665661908,0.0,0.0,0.0,0.0,0.0,-0.33019692131197736,-1.5747832121047998,-0.0020770453673083587,-1.5970654814713292,7.995676290106612e-05,-3.729345437444806e-06,-1.9662599028631775,-0.2670824336115941,-0.08644435309358742,-0.002478182446055593,-0.0030861930460423415,0.00010424911090185168,-0.39540662566284784,-1.5707963267948966,0.0,-1.5968038136467797,0.0,0.0
21.702,933.3333129882812,0.0,-0.3771734830115321,-1.5707963267948966,0.0,-1.5968038136467797,0.0,0.0,-1.0722260012638478,0.0,0.0,0.0,0.0,0.0,-0.3550863920961808,-1.5707302803998626,-0.00026991631789170963,-1.5968865170460758,4.766494721415186e-05,-1.9958950735490845e-06,-2.2760181613627464,0.061620475134794815,-0.23353454342559551,-0.07215755910974835,0.041668692265112446,-0.0017510774407373999,-0.42932109299479293,-1.5707963267948966,0.0,-1.5968038136467797,0.0,0.0
21.802,933.3333129882812,0.0,-0.46347554032466753,-1.5707963267948966,0.0,-1.5968038136467797,0.0,0.0,-0.894497520586591,0.0,0.0,0.0,0.0,0.0,-0.539099271959428,-1.5707276172387725,2.9689717203829776e-05,-1.5968010295750843,-3.8693957790401904e-07,2.284112205933652e-08,-2.671630474977908,0.09430419867538713,0.04122253371992931,0.003912540203226254,-0.0006146679825632963,3.443734353295148e-05,-0.5722021581508043,-1.5707963267948966,0.0,-1.5968038136467797,0.0,0.0
21.903,933.3333129882812,0.0,-0.5501829519728094,-1.5707963267948966,0.0,-1.5968038136467797,0.0,0.0,-0.4841739973475608,0.0,0.0,0.0,0.0,0.0,-0.5397315064022128,-1.5781932567225916,-0.002704638263611271,-1.5975561689021762,0.0004184894002712348,-1.7297015093281826e-05,-0.6201024790179824,0.22317379816550806,0.1408588011777646,0.03835420519618389,-0.021163924801021135,0.0008517985507969337,-0.8410915451454228,-1.5707963267948966,0.0,-1.5968038136467797,0.0,0.0
22.003,933.3333129882812,0.0,-0.6280861792221337,-1.5707963267948966,0.0,-1.5968038136467797,0.0,0.0,-0.9830851452163961,0.0,0.0,0.0,0.0,0.0,-0.7009344115289312,-1.5639747728207132,-0.0010703126737396304,-1.5971364547143798,0.00019204710658046712,-8.94061063454192e-06,-0.7310632855732156,0.1949614014206719,-0.6101532420805826,-0.18700532417735785,0.10692271365099491,-0.004982508083429247,-0.9102686444816461,-1.5707963267948966,0.0,-1.5968038136467797,0.0,0.0
22.102,933.3333129882812,0.0,-0.7090306531195001,-1.5707963267948966,0.0,-1.5968038136467797,0.0,0.0,-0.5948786298286795,0.0,0.0,0.0,0.0,0.0,-0.7871751576348036,-1.5735775990793208,-0.001401539498221939,-1.5969725371492853,4.8161567265449744e-05,-2.2836633777143455e-06,-1.9940605083244602,-0.05651316882597093,-0.07803459803619998,-0.017710046216162154,0.00903225647862585,-0.0003874736189426227,-0.9757302977887148,-1.5707963267948966,0.0,-1.5968038136467797,0.0,0.0
22.203,933.3333129882812,0.0,-0.7904452353145857,-1.5707963267948966,0.0,-1.5968038136467797,0.0,0.0,-0.6803478841015245,0.0,0.0,0.0,0.0,0.0,-0.760309920927384,-1.5664785437195512,0.0023605380851243183,-1.596488640779218,-0.00010457564234446677,4.785993895538817e-06,1.6765556468460687,0.13601997895752352,0.19363018706028218,0.04374658209375474,-0.022276277254076795,0.0009372875822344285,-1.0531271144773537,-1.5707963267948966,0.0,-1.5968038136467797,0.0,0.0
22.303,933.3333129882812,0.0,-0.8689962986288222,-1.5707963267948966,0.0,-1.5968038136467797,0.0,0.0,-0.5775318850846524,0.0,0.0,0.0,0.0,0.0,-0.9127848149240723,-1.5714429423075678,-0.00033255681207210625,-1.5968451048911252,1.2331328633461359e-05,-5.822712380612312e-07,-2.9705370178256767,-0.047576265997937524,-0.05715885639344984,-0.012323187055474813,0.006109398691263756,-0.0002605751795894557,-1.016648579433027,-1.5707963267948966,0.0,-1.5968038136467797,0.0,0.0
22.403,933.3333129882812,0.0,-0.940117111517079,-1.5707963267948966,0.0,-1.5968038136467797,0.0,0.0,-0.6565207202237918,0.0,0.0,0.0,0.0,0.0,-0.9996793670775591,-1.5774459737207154,5.845031888087165e-05,-1.5968087527422457,6.663188532674781e-06,-9.536054992745052e-07,0.281290298158626,-0.3155310263469655,0.8094691449101294,0.34826670233476037,-0.21902193002607453,0.012520142382248384,-1.2158002116832909,-1.5707963267948966,0.0,-1.5968038136467797,0.0,0.0
22.502,933.3333129882812,0.0,-1.0196319539181253,-1.5707963267948966,0.0,-1.5968038136467797,0.0,0.0,-0.6748423296438845,0.0,0.0,0.0,0.0,0.0,-1.014469964560614,-1.5655736015811421,0.0026940337330011166,-1.5960546786795897,-0.00041718486745601633,1.7240477373179483e-05,0.6310070584174209,-0.38200615702691976,-0.020842551997665028,-0.00532735155433763,0.0028717071493041335,-0.00010552373516967183,-1.0955039160091615,-1.5707963267948966,0.0,-1.5968038136467797,0.0,0.0
22.602,933.3333129882812,0.0,-1.099341215035146,-1.5707963267948966,0.0,-1.5968038136467797,0.0,0.0,-0.5761656009618827,0.0,0.0,0.0,0.0,0.0,-1.1537227963772767,-1.5687824443785787,0.0008553974593090936,-1.5966769262682867,-6.517201296164846e-05,6.253729699293064e-07,-3.141594251486447,-0.19249995813840934,-0.22711825599029486,0.027812843518729417,-0.07100993641700594,-0.0480468049506625,-1.3676609500953465,-1.5707963267948966,0.0,-1.5968038136467797,0.0,0.0
22.703,933.3333129882812,0.0,-1.172739066314218,-1.5707963267948966,0.0,-1.5968038136467797,0.0,0.0,-0.9363423308802178,0.0,0.0,0.0,0.0,0.0,-1.2618834887833734,-1.5668914668465679,0.0021110465743252676,-1.5965255255603157,-9.080791711741696e-05,4.171199778959628e-06,1.3470957220762572,0.15169588608832635,0.23499217471397996,0.05478781078543867,-0.02830031643091701,0.0012073940144578616,-1.3626161381223398,-1.5707963267948966,0.0,-1.5968038136467797,0.0,0.0
22.802,933.3333129882812,0.0,-1.2608505847555307,-1.5707963267948966,0.0,-1.5968038136467797,0.0,0.0,-1.084501989334932,0.0,0.0,0.0,0.0,0.0,-1.2515124737083323,-1.5788008569252932,0.0012378331134796268,-1.5962454941716937,-0.0004164321473402974,1.062784993070404e-05,-0.5377825718269791,-0.0777406682756393,-0.2961452775610335,-0.031077698003436224,-0.017915338485504435,-0.002902375633880728,-1.537165179407563,-1.5707963267948966,0.0,-1.5968038136467797,0.0,0.0
22.902,933.3333129882812,0.0,-1.342327731121296,-1.5707963267948966,0.0,-1.5968038136467797,0.0,0.0,-0.8778663220897087,0.0,0.0,0.0,0.0,0.0,-1.3511711574924055,-1.571684224702329,0.0006693220818560669,-1.5966224646239946,-0.00010006851365208459,3.98932655241607e-06,-0.04483855720328209,0.7560246949963648,-0.3376067675709593,-0.0920703890872991,0.05086351808353082,-0.0020517448168039555,-1.5656025229884023,-1.5707963267948966,0.0,-1.5968038136467797,0.0,0.0
23.002,1000.0,0.0,-1.329877267274397,-1.5707963267948966,0.0,-1.5968038136467797,0.0,0.0,0.8484425768868336,0.0,0.0,0.0,0.0,0.0,-1.369386779874384,-1.5694062898639298,0.0002080437256657657,-1.596860418067393,5.52122675585924e-05,-2.193443746688707e-06,-0.49518241400347623,0.3951943637715875,0.071289992772763,-0.012752738294547782,0.013845670477591878,-0.0005509678480541505,-1.1856984194956297,-1.5707963267948966,0.0,-1.5968038136467797,0.0,0.0
23.102,1000.0,0.0,-1.2622546542855932,-1.5707963267948966,0.0,-1.5968038136467797,0.0,0.0,0.6251386919410523,0.0,0.0,0.0,0.0,0.0,-1.3522213750682783,-1.5704963216980992,0.0002485031795993431,-1.5967574868912615,-2.0764137036636992e-05,9.039505420573379e-07,2.910473414180575,0.1133141837538874,0.11272145564139822,0.023142734634139475,-0.010915558697151221,0.000474735544545736,-1.1109057414752614,-1.5707963267948966,0.0,-1.5968038136467797,0.0,0.0
23.202,1000.0,0.0,-1.1860900490936208,-1.5707963267948966,0.0,-1.5968038136467797,0.0,0.0,0.6710995489577865,0.0,0.0,0.0,0.0,0.0,-1.1548343998162758,-1.5757711117111646,-0.0006883939172904384,-1.5971055620457348,0.0002743835170478505,3.445011562051575e-06,-0.52672549316562,-0.3185743536826536,0.5329301258732866,-0.1825228079438342,0.1553869108458785,-0.002642481540185043,-0.9647653480095635,-1.5707963267948966,0.0,-1.5968038136467797,0.0,0.0
23.303,1000.0,0.0,-1.119567607502992,-1.5707963267948966,0.0,-1.5968038136467797,0.0,0.0,0.8305753171795918,0.0,0.0,0.0,0.0,0.0,-0.9867125023089905,-1.5699668852733915,0.00041309971748359873,-1.5967544242560079,-1.3526387428330034e-05,6.472797871980822e-07,2.8384530161893435,0.019580767079131502,0.01786300112830057,0.0035290122368898686,-0.001627251633244699,7.057680037845296e-05,-0.9927778781589085,-1.5707963267948966,0.0,-1.5968038136467797,0.0,0.0
23.402,1000.0,0.0,-1.039229552057729,-1.5707963267948966,0.0,-1.5968038136467797,0.0,0.0,1.0279643762868957,0.0,0.0,0.0,0.0,0.0,-1.0258850053619935,-1.567363911623948,0.0004395542177689279,-1.5967807895507997,-5.835690749784911e-05,-5.900306723839276e-06,1.7212896957825112,0.41547966179472107,0.5493886611470581,-0.12224829026277621,0.2009344389820425,0.001387889757337982,-0.9104054697581652,-1.5707963267948966,0.0,-1.5968038136467797,0.0,0.0
23.502,1000.0,0.0,-0.9608929496707548,-1.5707963267948966,0.0,-1.5968038136467797,0.0,0.0,0.8082793281838629,0.0,0.0,0.0,0.0,0.0,-0.8477520855800186,-1.5715302939913225,-0.000317656731360445,-1.5968335201403834,4.290598530174649e-06,-2.4787865847442037e-07,2.2835141608829925,-0.169515679508535,-0.07023722022671945,-0.005921530361412779,0.0004708798451467288,-3.5271125564907133e-05,-0.6908721360472059,-1.5707963267948966,0.0,-1.5968038136467797,0.0,0.0
23.602,1000.0,0.0,-0.8821178394889673,-1.5707963267948966,0.0,-1.5968038136467797,0.0,0.0,0.5841922533951988,0.0,0.0,0.0,0.0,0.0,-0.8579563867708206,-1.5704908622178646,0.001213954909459759,-1.59668944312541,5.558396253324354e-05,7.056929885963538e-06,-0.296126801880971,0.5089995928185935,0.16336096442655054,0.09493283785070032,-0.07355555223447181,0.0027720092171834953,-0.7089528215341476,-1.5707963267948966,0.0,-1.5968038136467797,0.0,0.0
23.702,1000.0,0.0,-0.8012624999870033,-1.5707963267948966,0.0,-1.5968038136467797,0.0,0.0,1.1622352349301637,0.0,0.0,0.0,0.0,0.0,-0.8236877619700625,-1.577227860827438,0.0005664979913279068,-1.596686513648211,-3.692983491077754e-05,4.299425310543895e-06,0.3787034710905716,-0.6303632392238943,1.4109552623811037,0.4266199975296588,-0.21909651518135356,0.013654002981998335,-0.6015005642836394,-1.5707963267948966,0.0,-1.5968038136467797,0.0,0.0
23.802,1000.0,0.0,-0.7193184096896212,-1.5707963267948966,0.0,-1.5968038136467797,0.0,0.0,0.8677758397540585,0.0,0.0,0.0,0.0,0.0,-0.688669422865653,-1.5679934829056428,0.0015460434252000466,-1.5965937024842216,-6.975554255072036e-05,3.20011018632309e-06,2.4457174491836855,0.32059972098117245,0.13531883522153293,0.011500478338100492,-0.0010060617018097045,5.418813143889477e-05,-0.48502714862052865,-1.5707963267948966,0.0,-1.5968038136467797,0.0,0.0
23.902,1000.0,0.0,-0.635322879170297,-1.5707963267948966,0.0,-1.5968038136467797,0.0,0.0,0.9779196714805298,0.0,0.0,0.0,0.0,0.0,-0.5330046943838088,-1.5664287426071666,0.0021554532250563875,-1.5965504261165078,-6.803929988772144e-05,3.266725278569386e-06,1.1960560055910128,-0.008942026292239903,0.010860143100234256,0.003915473061391569,-0.0023126095078812984,9.603520787093172e-05,-0.5202641080434568,-1.5707963267948966,0.0,-1.5968038136467797,0.0,0.0
24.002,1000.0,0.0,-0.549527456293613,-1.5707963267948966,0.0,-1.5968038136467797,0.0,0.0,0.9782796331560203,0.0,0.0,0.0,0.0,0.0,-0.5197239427912608,-1.5727051475062108,-0.0011559751097334544,-1.596976665048975,6.392592372369668e-05,-2.8764243225552386e-06,-2.2519916546402694,-0.08250281642362131,-0.3759342828995936,-0.10224347303669844,0.05507639341787318,-0.002344323751319534,-0.2809281500456035,-1.5707963267948966,0.0,-1.5968038136467797,0.0,0.0
24.102,1000.0,0.0,-0.46544622569719785,-1.5707963267948966,0.0,-1.5968038136467797,0.0,0.0,0.76840360682714,0.0,0.0,0.0,0.0,0.0,-0.4473559356987474,-1.5703666257530122,0.00025059152766678764,-1.5967676069034038,-1.2846151855692795e-05,5.822353000563326e-07,2.878561820102591,0.0053703532835640035,0.01225214619309965,0.0031122909844278172,-0.0016278973977941781,7.025461705346236e-05,-0.2775749717427884,-1.5707963267948966,0.0,-1.5968038136467797,0.0,0.0
24.202,1000.0,0.0,-0.39607658742579677,-1.5707963267948966,0.0,-1.5968038136467797,0.0,0.0,0.8950539058957805,0.0,0.0,0.0,0.0,0.0,-0.3469683114348059,-1.568153672045211,0.00027699895449925495,-1.5967273931709436,-4.139179194380102e-05,1.6624427077291255e-06,0.49214218259255543,-0.7256755109509035,0.6340016499051605,0.1789214984255041,-0.09778311929687127,0.004067990528514995,-0.21072193789158072,-1.5707963267948966,0.0,-1.5968038136467797,0.0,0.0
24.302,1000.0,0.0,-0.3179104494752423,-1.5707963267948966,0.0,-1.5968038136467797,0.0,0.0,0.6867804962698907,0.0,0.0,0.0,0.0,0.0,-0.27009886302027236,-1.5665641643485972,0.00193379499857773,-1.5966018251255465,-4.225988346837682e-05,2.1895179958638403e-06,1.771728901564176,0.08958397866981706,0.6074583893735315,0.17144856853820087,-0.09340069630844253,0.004060651751206416,-0.09576554596304881,-1.5707963267948966,0.0,-1.5968038136467797,0.0,0.0
24.402,1000.0,0.0,-0.24543453383373048,-1.5707963267948966,0.0,-1.5968038136467797,0.0,0.0,0.7160016710281606,0.0,0.0,0.0,0.0,0.0,-0.16937804401444834,-1.5663949204613226,0.001942555472185032,-1.5966143419826697,-3.2381823753571845e-05,1.770401236381211e-06,1.7003117095598481,0.037770398673346486,0.5929473572259077,0.1721698524299352,-0.09478010556218429,0.004127136111404023,-0.15193090048692887,-1.5707963267948966,0.0,-1.5968038136467797,0.0,0.0
24.502,1000.0,0.0,-0.1710174585958466,-1.5707963267948966,0.0,-1.5968038136467797,0.0,0.0,0.5847020466657702,0.0,0.0,0.0,0.0,0.0,-0.18112478152959707,-1.5697325270974645,0.00046729660611266247,-1.5966708009977795,-0.00010214231381196307,7.888054918355608e-07,-0.6731650316314297,0.6789735857059743,-0.4771091375817625,-0.10795805913665525,0.024394147788583904,-0.004720585149922653,0.06475361310636679,-1.5707963267948966,0.0,-1.5968038136467797,0.0,0.0
24.602,1000.0,0.0,-0.09208847374883522,-1.5707963267948966,0.0,-1.5968038136467797,0.0,0.0,0.9917856434609491,0.0,0.0,0.0,0.0,0.0,-0.08296033917651852,-1.5710835487184616,0.0009177519042410575,-1.5970160798331081,0.0003627329109325097,2.945545169969946e-06,-0.4637887381784859,-0.6101246796778915,-0.02397126693580374,0.12998563043443226,-0.1255291133110505,0.0023242064821164276,0.0653357118925057,-1.5707963267948966,0.0,-1.5968038136467797,0.0,0.0
24.702,1000.0,0.0,-0.0031995486387499383,-1.5707963267948966,0.0,-1.5968038136467797,0.0,0.0,0.8308640015650351,0.0,0.0,0.0,0.0,0.0,0.03679808272054776,-1.5727967602477095,-0.0007401993574806787,-1.5968479012102696,-8.439043075573177e-06,1.7669742364900528e-07,1.918498905031751,-0.19904569184744467,-0.03684766745109367,0.006340549630612325,-0.006788121939827263,0.00027103125652385514,0.1774882851813943,-1.5707963267948966,0.0,-1.5968038136467797,0.0,0.0
24.803,1000.0,0.0,0.08388799579293243,-1.5707963267948966,0.0,-1.5968038136467797,0.0,0.0,0.6171675260514312,0.0,0.0,0.0,0.0,0.0,0.0731570767563687,-1.5726144668710937,-0.0008889148630625433,-1.5969034281189978,2.452213788991711e-05,-1.1133350097926145e-06,-0.29616724864002664,-0.6574475209309728,-0.12696863510402237,0.03420947557682853,-0.0320277890447004,0.0017620819656597167,0.1652180005471738,-1.5707963267948966,0.0,-1.5968038136467797,0.0,0.0
24.902,1000.0,0.0,0.1704288261981878,-1.5707963267948966,0.0,-1.5968038136467797,0.0,0.0,0.7545884367357614,0.0,0.0,0.0,0.0,0.0,0.17569642699017496,-1.5724225861145535,-0.0007157214870854742,-1.5968732012406255,1.1355355027862268e-05,-6.263348512653662e-07,-0.6390842928455767,0.31800553576332624,0.14036370288636205,0.013585515009199365,-0.002250269171981477,0.00012167399316258411,0.32688550827429275,-1.5707963267948966,0.0,-1.5968038136467797,0.0,0.0
25.002,1000.0,0.0,0.24784194186874148,-1.5707963267948966,0.0,-1.5968038136467797,0.0,0.0,0.8513689974282044,0.0,0.0,0.0,0.0,0.0,0.23119926739997548,-1.5705915297070694,0.0002216331293062755,-1.596757087417098,-2.2479310956705785e-05,9.687446695642547e-07,2.8282259449712215,0.05609795704489236,0.07840268018836256,0.018033842912229155,-0.009033239559575117,0.00038935571181553585,0.33117040002829795,-1.5707963267948966,0.0,-1.5968038136467797,0.0,0.0
25.102,1000.0,0.0,0.3286713400547674,-1.5707963267948966,0.0,-1.5968038136467797,0.0,0.0,1.147901189857061,0.0,0.0,0.0,0.0,0.0,0.31795923004987253,-1.5689193308586087,0.0008843859937820387,-1.59670688683055,-2.2467566975458336e-05,1.117408322319574e-06,1.2310945502629127,-0.13618609363051723,-0.002365449848830103,0.01099117790794726,-0.008311759051650928,0.00034199113825600955,0.44063025309804404,-1.5707963267948966,0.0,-1.5968038136467797,0.0,0.0
25.203,1000.0,0.0,0.41715546829778216,-1.5707963267948966,0.0,-1.5968038136467797,0.0,0.0,0.6722022011631519,0.0,0.0,0.0,0.0,0.0,0.48957879017481326,-1.5706226886918235,0.00010392359537456942,-1.5967883795599065,-5.6233900462909955e-06,2.542078427452706e-07,1.8085544273275191,-0.2454052677342443,-0.10110094363954082,-0.008430306650713633,0.0006076152219938587,-4.744033646138704e-05,0.6677783025008293,-1.5707963267948966,0.0,-1.5968038136467797,0.0,0.0
25.303,1000.0,0.0,0.49729618302255885,-1.5707963267948966,0.0,-1.5968038136467797,0.0,0.0,0.847760709091335,0.0,0.0,0.0,0.0,0.0,0.5669020412390963,-1.570057965382672,-9.132407525239573e-05,-1.5968806580916777,5.215611790848603e-05,-1.8123632382352738e-06,0.09785257786705188,0.6651644962426682,-0.038090801919618236,-0.06651349268321899,0.047673200900427204,-0.0018149289385038139,0.7352184797649,-1.5707963267948966,0.0,-1.5968038136467797,0.0,0.0
25.403,1000.0,0.0,0.596917992036847,-1.5707963267948966,0.0,-1.5968038136467797,0.0,0.0,0.8110632310758363,0.0,0.0,0.0,0.0,0.0,0.627314052933808,-1.5660862600909824,0.002544309724204696,-1.5964664033841158,-0.00010861052482621618,5.0050872121310635e-06,1.6319041559034189,0.2619507718623636,0.19887701388190177,0.035040317338500604,-0.014976360251168953,0.0006450874459735085,0.6973743281091611,-1.5707963267948966,0.0,-1.5968038136467797,0.0,0.0
25.503,1000.0,0.0,0.6581542905501874,-1.5707963267948966,0.0,-1.5968038136467797,0.0,0.0,0.6550123886379835,0.0,0.0,0.0,0.0,0.0,0.7235304678508993,-1.5699663526411733,-2.3528085055055076e-05,-1.5968119485355536,4.750461748815617e-06,-2.474917217220309e-07,0.18664241854456412,-0.8336873326520648,0.5669561034092249,0.15726428961157302,-0.08552696899946079,0.0034707953794161413,0.749584264919322,-1.5707963267948966,0.0,-1.5968038136467797,0.0,0.0
