7cmdehdrb/project_th/tune/rtde_tune/data/rtde_log_elbow_zz.csv
Time,Stiffness,Damping,R_shoulder_pan_p,R_shoulder_lift_p,R_elbow_p,R_wrist_1_p,R_wrist_2_p,R_wrist_3_p,R_shoulder_pan_v,R_shoulder_lift_v,R_elbow_v,R_wrist_1_v,R_wrist_2_v,R_wrist_3_v,S_shoulder_pan_p,S_shoulder_lift_p,S_elbow_p,S_wrist_1_p,S_wrist_2_p,S_wrist_3_p,S_shoulder_pan_v,S_shoulder_lift_v,S_elbow_v,S_wrist_1_v,S_wrist_2_v,S_wrist_3_v,C_shoulder_pan_p,C_shoulder_lift_p,C_elbow_p,C_wrist_1_p,C_wrist_2_p,C_wrist_3_p
4.102,600.0,0.0,-1.5832661026634547,-1.5987760048798414,1.0893005098953348,-1.5968038136467797,0.0,0.0,0.0,0.0,0.3035464786710626,0.0,0.0,0.0,-1.5805785169529212,-1.5996205182211511,1.0993410469178586,-1.5968352511950918,3.834307473026959e-05,2.863802780944353e-07,0.06476771152607719,0.5363813829089475,0.11757299445584442,-0.01138119160780556,0.008739320201987442,-0.00044826898331357557,-1.5832661026634547,-1.5987760048798414,1.2864460567739027,-1.5968038136467797,0.0,0.0
4.203,600.0,0.0,-1.5832661026634547,-1.5987760048798414,1.1654853905765798,-1.5968038136467797,0.0,0.0,0.0,0.0,1.0009023418790262,0.0,0.0,0.0,-1.5830708362590717,-1.5983091777003962,1.3426794020405788,-1.596768938483949,-1.697091338285252e-05,3.520184090114501e-07,0.0263164216245923,-0.06364475220174244,3.1415995778086274,0.017556410949589003,0.0005577558529605315,-0.016592005417465652,-1.5832661026634547,-1.5987760048798414,1.4076938466827662,-1.5968038136467797,0.0,0.0
4.303,600.0,0.0,-1.5832661026634547,-1.5987760048798414,1.2346463695028191,-1.5968038136467797,0.0,0.0,0.0,0.0,0.4277015653070476,0.0,0.0,0.0,-1.584020519503794,-1.600305882727683,1.3771941029260604,-1.5967652100584226,-3.711666986780662e-05,1.6152289315620271e-06,-0.43691148395664736,0.6695632394151521,0.24273822841582762,0.0022367294425370806,-0.002588318721292581,1.2344680554701838e-06,-1.5832661026634547,-1.5987760048798414,1.3817857436796421,-1.5968038136467797,0.0,0.0
4.403,600.0,0.0,-1.5832661026634547,-1.5987760048798414,1.3002106234627724,-1.5968038136467797,0.0,0.0,0.0,0.0,0.6999907830957908,0.0,0.0,0.0,-1.5859672902606419,-1.5954867595771303,1.3745047096992438,-1.596807288003646,3.289307052524246e-08,-7.345742805069776e-07,-0.43837772058430413,-1.1469359966553188,-0.3413121900431547,0.013466397847364465,-0.012944517101952512,0.0005423661823316754,-1.5832661026634547,-1.5987760048798414,1.393163652987241,-1.5968038136467797,0.0,0.0
4.503,666.6666870117188,0.0,-1.5832661026634547,-1.5987760048798414,1.2751205641595886,-1.5968038136467797,0.0,0.0,0.0,0.0,-0.7921882077486144,0.0,0.0,0.0,-1.5817760073370752,-1.606181348724616,1.3988914089591538,-1.5954851616804762,-0.0006948372586973439,1.612197592596179e-05,-0.5143644309660172,1.4383360204965354,-1.3463649506731394,-0.18979766522506275,0.08500109455271102,-0.0012968480090202396,-1.5832661026634547,-1.5987760048798414,1.1512743633901432,-1.5968038136467797,0.0,0.0
4.603,666.6666870117188,0.0,-1.5832661026634547,-1.5987760048798414,1.2067371221885894,-1.5968038136467797,0.0,0.0,0.0,0.0,-0.8870609034091067,0.0,0.0,0.0,-1.5819939870722983,-1.5979765488802453,1.4063077799628065,-1.5968124811677717,9.277373360473886e-06,-1.7768570291004145e-07,-0.7101763794598331,-0.06777855245765547,-1.1761113258713003,0.01668821523273667,-0.015465586064308413,0.0006327676601700587,-1.5832661026634547,-1.5987760048798414,0.9192381152148259,-1.5968038136467797,0.0,0.0
4.703,666.6666870117188,0.0,-1.5832661026634547,-1.5987760048798414,1.112669153179719,-1.5968038136467797,0.0,0.0,0.0,0.0,-1.0770661429526744,0.0,0.0,0.0,-1.584271256120425,-1.599220111951258,1.2784938908183066,-1.596795703252904,-8.877883958232009e-06,6.696155905898203e-08,0.11902500813880447,-0.40183781884787195,-1.6351614682326947,0.005321786483926935,-0.004139513828763412,0.00029484037830109075,-1.5832661026634547,-1.5987760048798414,0.8795012506054463,-1.5968038136467797,0.0,0.0
4.804,666.6666870117188,0.0,-1.5832661026634547,-1.5987760048798414,1.0135773182299488,-1.5968038136467797,0.0,0.0,0.0,0.0,-0.8676217110405539,0.0,0.0,0.0,-1.5836174500728106,-1.598674297085846,1.076916564749119,-1.5968002306267572,-4.155804598006007e-06,-6.276391595632961e-08,0.08842716807131389,-0.2093453175605148,-2.1003985332805066,0.004245639757905768,-0.0030279819102037686,0.0002409984261073479,-1.5832661026634547,-1.5987760048798414,0.908549811911614,-1.5968038136467797,0.0,0.0
4.903,666.6666870117188,0.0,-1.5832661026634547,-1.5987760048798414,0.9331342489059669,-1.5968038136467797,0.0,0.0,0.0,0.0,-0.7810638193581964,0.0,0.0,0.0,-1.5839667236497745,-1.5984517899767698,0.910760812495612,-1.5967958364109587,-1.1825468832211434e-05,-2.0390896981754047e-07,-0.09128910084725392,-0.09886793299977982,-2.383833308617405,0.007329313724034193,-0.006622573188565213,0.0002558260436101494,-1.5832661026634547,-1.5987760048798414,0.8580586278848199,-1.5968038136467797,0.0,0.0
5.003,666.6666870117188,0.0,-1.5832661026634547,-1.5987760048798414,0.8627803678423982,-1.5968038136467797,0.0,0.0,0.0,0.0,-1.050347011447862,0.0,0.0,0.0,-1.5843604720169426,-1.6001060124878728,0.8334503113150478,-1.5967514947788088,-4.847734219652089e-05,9.909471181948825e-07,0.4682628155203054,0.3847975826129999,-2.3360199796705587,-0.009325011743533916,0.009927373009028604,0.0001684344709559224,-1.5832661026634547,-1.5987760048798414,0.6888251297120167,-1.5968038136467797,0.0,0.0
5.103,666.6666870117188,0.0,-1.5832661026634547,-1.5987760048798414,0.7829281891526945,-1.5968038136467797,0.0,0.0,0.0,0.0,-0.8531240240923172,0.0,0.0,0.0,-1.5849508948306132,-1.593092577757149,0.6768218181242175,-1.5968942402132371,3.96442712795351e-05,-5.271779209812133e-06,0.19163919118458211,-0.4285382724628429,-0.29645936412209467,0.00752066548939694,-0.0030008405536255784,0.0005450299936075677,-1.5832661026634547,-1.5987760048798414,0.7337544045277745,-1.5968038136467797,0.0,0.0
5.203,666.6666870117188,0.0,-1.5832661026634547,-1.5987760048798414,0.7016185660294258,-1.5968038136467797,0.0,0.0,0.0,0.0,-1.0496476679949076,0.0,0.0,0.0,-1.585818020081543,-1.5929631481281712,0.6500815502509499,-1.5968684075506634,3.9007260364521205e-06,-5.633361763240333e-06,0.6544133815010456,-0.6140517104422951,1.0577701675661577,-0.0032037008679528848,0.012589909920727355,0.0008393816922516019,-1.5832661026634547,-1.5987760048798414,0.6532196287886899,-1.5968038136467797,0.0,0.0
5.303,666.6666870117188,0.0,-1.5832661026634547,-1.5987760048798414,0.6169563511083833,-1.5968038136467797,0.0,0.0,0.0,0.0,-0.8725443144882911,0.0,0.0,0.0,-1.5840576706010006,-1.5942396012386462,0.5951034524444359,-1.5969123497086497,6.522679111639435e-05,-4.824238536200659e-06,-0.36192815280513524,-1.2589846379368221,1.760082232326987,0.06199104983929014,-0.053432399109832045,0.001628089072571853,-1.5832661026634547,-1.5987760048798414,0.47968081798718365,-1.5968038136467797,0.0,0.0
5.403,666.6666870117188,0.0,-1.5832661026634547,-1.5987760048798414,0.5423429098707624,-1.5968038136467797,0.0,0.0,0.0,0.0,-0.8883755929056625,0.0,0.0,0.0,-1.5828471307275052,-1.602485413763804,0.5078586946076036,-1.5966806546938128,-8.356623693268732e-05,4.787507101427059e-06,0.6457186265951276,-0.17529282492697343,-0.9994396160004247,-0.021513720607230037,0.030120225012525485,0.000596170781350461,-1.5832661026634547,-1.5987760048798414,0.24709527335287051,-1.5968038136467797,0.0,0.0
5.503,666.6666870117188,0.0,-1.5832661026634547,-1.5987760048798414,0.4696964031647948,-1.5968038136467797,0.0,0.0,0.0,0.0,-0.385343837553084,0.0,0.0,0.0,-1.5870667763166812,-1.5976618963974525,0.4998621539604771,-1.5965669377152663,-0.00027458572483569585,1.7840655515865327e-06,0.048560395566884275,-1.1983565772986777,3.141629405212836,0.1477679065727844,-0.05367857922428545,-0.08253990926417906,-1.5832661026634547,-1.5987760048798414,0.2165374825344311,-1.5968038136467797,0.0,0.0
5.603,666.6666870117188,0.0,-1.5832661026634547,-1.5987760048798414,0.4001683706742787,-1.5968038136467797,0.0,0.0,0.0,0.0,-0.7367140525909119,0.0,0.0,0.0,-1.5832916123134393,-1.6028966058361123,0.42776359219125243,-1.5966208667273405,-0.0001525771541810607,7.343516553607308e-06,1.7579720766372626,-0.20734739746598055,-0.537539591667023,-0.23633806974987875,0.20495021958977297,-0.0027318540014464694,-1.5832661026634547,-1.5987760048798414,0.1756519166815052,-1.5968038136467797,0.0,0.0
5.703,666.6666870117188,0.0,-1.5832661026634547,-1.5987760048798414,0.31597085579483863,-1.5968038136467797,0.0,0.0,0.0,0.0,-0.7448751420320574,0.0,0.0,0.0,-1.5815134196535934,-1.6005338493169938,0.29777320135637164,-1.5968664101798458,0.000110569851646392,2.461709651199154e-06,0.15500724394297405,-0.08280145665036007,-1.9002338810115516,-0.0090889339561687,0.012665956693714028,0.00013025082178700227,-1.5832661026634547,-1.5987760048798414,0.1553947732284468,-1.5968038136467797,0.0,0.0
5.803,666.6666870117188,0.0,-1.5832661026634547,-1.5987760048798414,0.2405580603908657,-1.5968038136467797,0.0,0.0,0.0,0.0,-0.7327347507018553,0.0,0.0,0.0,-1.583748344440388,-1.5943148355394408,0.2144038256035522,-1.5970397819668098,0.0001824778180764288,-7.949484143796086e-06,0.25314482998093485,-0.8429410850707904,1.0036378231428256,0.02939594298397021,-0.015313661046497798,0.0015902721850927276,-1.5832661026634547,-1.5987760048798414,0.17201326848462994,-1.5968038136467797,0.0,0.0
5.901,666.6666870117188,0.0,-1.5832661026634547,-1.5987760048798414,0.17570947807018555,-1.5968038136467797,0.0,0.0,0.0,0.0,-0.7907354883429987,0.0,0.0,0.0,-1.5807938335270542,-1.6012435817475,0.15784597392791677,-1.5969321902587708,0.00021463436666860816,3.4724059729800184e-06,0.6518418997314923,-0.790876751812932,0.19521336974930703,-0.020747267006694436,0.04517151475738004,0.0013803463015354676,-1.5832661026634547,-1.5987760048798414,0.051383354878959064,-1.5968038136467797,0.0,0.0
6.003,666.6666870117188,0.0,-1.5832661026634547,-1.5987760048798414,0.09400707919099371,-1.5968038136467797,0.0,0.0,0.0,0.0,-0.8742989236417881,0.0,0.0,0.0,-1.5820096997227298,-1.60040335442358,0.08232095581068252,-1.5968465696297247,9.312215599094566e-05,2.536951896451795e-06,0.7358577079046581,-0.5572082014502351,0.7780863214665813,-0.054849038523375276,0.08078233945802446,0.0006587444039199899,-1.5832661026634547,-1.5987760048798414,-0.06031776023470975,-1.5968038136467797,0.0,0.0
6.103,666.6666870117188,0.0,-1.5832661026634547,-1.5987760048798414,0.018187882417622703,-1.5968038136467797,0.0,0.0,0.0,0.0,-0.9247107573164738,0.0,0.0,0.0,-1.5828585823201924,-1.5989129163195173,-0.02903794963503091,-1.5968457706813977,5.462445081969753e-05,5.0737391193776106e-08,-0.0002225935512799597,-0.12750882404163133,-1.747566573626105,0.008836597362289091,-0.007703443644555042,0.00021316577571812252,-1.5832661026634547,-1.5987760048798414,-0.1260929962402303,-1.5968038136467797,0.0,0.0
6.203,666.6666870117188,0.0,-1.5832661026634547,-1.5987760048798414,-0.0697764859224499,-1.5968038136467797,0.0,0.0,0.0,0.0,-0.6997919027500986,0.0,0.0,0.0,-1.583682830677572,-1.5990830923131731,-0.11729351234419742,-1.5967347168639414,-7.54087944123044e-05,8.392813086416502e-07,0.9408352248956043,-0.4732717887670673,0.47039284504966444,-0.07503851684272562,0.10178838041829592,0.00043948685851870025,-1.5832661026634547,-1.5987760048798414,-0.1519422151942934,-1.5968038136467797,0.0,0.0
6.303,666.6666870117188,0.0,-1.5832661026634547,-1.5987760048798414,-0.15480531589929925,-1.5968038136467797,0.0,0.0,0.0,0.0,-0.9105474337405639,0.0,0.0,0.0,-1.5854984407507335,-1.5986853492043698,-0.1658003866955495,-1.5965850472106788,-0.00026321670574660713,5.488273053046515e-07,-0.5767600649091609,0.3351860872981318,-0.7165342770882338,0.03512464799889364,-0.05052374450151794,-0.0005160406138930658,-1.5832661026634547,-1.5987760048798414,-0.42285901313956886,-1.5968038136467797,0.0,0.0
6.403,666.6666870117188,0.0,-1.5832661026634547,-1.5987760048798414,-0.2384110510867945,-1.5968038136467797,0.0,0.0,0.0,0.0,-0.6512580119534811,0.0,0.0,0.0,-1.583192409562834,-1.597362956565091,-0.2077451738642975,-1.5969003654837444,8.041080390893467e-05,-2.6232762541125516e-06,0.1536619148288069,-0.4274864902798297,-0.4289064544835463,0.012373873460862286,-0.004227151334201409,0.0007599057092499643,-1.5832661026634547,-1.5987760048798414,-0.49706694991329714,-1.5968038136467797,0.0,0.0
6.503,666.6666870117188,0.0,-1.5832661026634547,-1.5987760048798414,-0.3079644122085625,-1.5968038136467797,0.0,0.0,0.0,0.0,-0.6333934637452763,0.0,0.0,0.0,-1.5852538294046097,-1.6137541804423108,-0.28979576889006653,-1.5962418989042222,-0.00040182357743789816,9.686699870883503e-06,-1.217352639038104,-0.924137071702753,0.7728389620127436,0.2720177205199449,-0.2040307299339095,0.004288398317638077,-1.5832661026634547,-1.5987760048798414,-0.3648475237438806,-1.5968038136467797,0.0,0.0
6.603,666.6666870117188,0.0,-1.5832661026634547,-1.5987760048798414,-0.37631112780752574,-1.5968038136467797,0.0,0.0,0.0,0.0,-0.6032234998775071,0.0,0.0,0.0,-1.5843760515093197,-1.6172619630721086,-0.35994303252859017,-1.5964195317489305,-0.00025578049809394824,7.31899184951526e-06,-0.45251018438297314,-0.08791778857856579,-0.5459083423660016,-0.10411842166789828,0.041770408373996655,-0.0027384923985972775,-1.5832661026634547,-1.5987760048798414,-0.4891786573015005,-1.5968038136467797,0.0,0.0
6.703,666.6666870117188,0.0,-1.5832661026634547,-1.5987760048798414,-0.4352487652171426,-1.5968038136467797,0.0,0.0,0.0,0.0,-0.4205762910055119,0.0,0.0,0.0,-1.581679734063669,-1.6022619745483464,-0.41944607405374423,-1.596736181602541,-9.2081448260339e-06,4.976286520403158e-06,0.6889292142299903,-0.09537164357456132,-1.4160352421604299,-0.030438863914575058,0.038453953062574965,0.00031638285480630986,-1.5832661026634547,-1.5987760048798414,-0.6413498960855335,-1.5968038136467797,0.0,0.0
6.804,666.6666870117188,0.0,-1.5832661026634547,-1.5987760048798414,-0.49678289919106433,-1.5968038136467797,0.0,0.0,0.0,0.0,-0.6202232973202073,0.0,0.0,0.0,-1.5828137080558247,-1.6144387460005156,-0.49541550717788546,-1.5966953020798083,-4.796723891692576e-05,2.6075895054584098e-06,-0.9222120057087893,-0.47867141445623024,-0.03705444942617071,0.045929454564805794,-0.05470520701856498,0.0006585206099631526,-1.5832661026634547,-1.5987760048798414,-0.752198399516592,-1.5968038136467797,0.0,0.0
6.903,666.6666870117188,0.0,-1.5832661026634547,-1.5987760048798414,-0.5792417608623524,-1.5968038136467797,0.0,0.0,0.0,0.0,-0.8581012179327865,0.0,0.0,0.0,-1.5813566926234424,-1.6061310149800134,-0.6153679112320396,-1.5968721359761895,7.677333125074084e-05,-3.201326681439439e-07,-1.2277791810218732,-0.1301391117370049,-1.0938552679674316,0.012076317223910973,-0.02056413931164326,-0.0013025324535462027,-1.5832661026634547,-1.5987760048798414,-0.789736064857692,-1.5968038136467797,0.0,0.0
7.003,666.6666870117188,0.0,-1.5832661026634547,-1.5987760048798414,-0.6619385224266487,-1.5968038136467797,0.0,0.0,0.0,0.0,-0.41935410926859523,0.0,0.0,0.0,-1.586691803235198,-1.5945418700223701,-0.7686872936103918,-1.5968273948698761,-2.6305067267193297e-05,-3.6604305668638286e-06,1.0514099396718033,-0.05185513779304342,-1.2240817813224616,-0.02303050111954405,0.02706412282598346,7.981852526989804e-05,-1.5832661026634547,-1.5987760048798414,-0.8165028547059929,-1.5968038136467797,0.0,0.0
7.103,666.6666870117188,0.0,-1.5832661026634547,-1.5987760048798414,-0.7431270510971029,-1.5968038136467797,0.0,0.0,0.0,0.0,-0.7461546669489626,0.0,0.0,0.0,-1.5823794796400872,-1.5954557337504307,-0.8385095184378712,-1.5968898459974386,6.163588801705719e-05,-2.466432895560288e-06,-0.514383139672675,0.7195669517795615,-0.9018890905352583,-0.021878344811164713,0.013008514111303876,-0.0012981655455517182,-1.5832661026634547,-1.5987760048798414,-0.9414232947662677,-1.5968038136467797,0.0,0.0
7.203,666.6666870117188,0.0,-1.5832661026634547,-1.5987760048798414,-0.8322142562493884,-1.5968038136467797,0.0,0.0,0.0,0.0,-0.9246015549731792,0.0,0.0,0.0,-1.5868501281620033,-1.592504152314296,-0.9066285851692178,-1.5968662770217912,7.317887041590814e-06,-4.329906834189958e-06,0.2280952033466768,-0.07454835372171813,-1.105131624655045,0.0022687014196315926,-0.00066123266502637,0.00027124446870658566,-1.5832661026634547,-1.5987760048798414,-0.9771385797420694,-1.5968038136467797,0.0,0.0
7.303,666.6666870117188,0.0,-1.5832661026634547,-1.5987760048798414,-0.9039918115249499,-1.5968038136467797,0.0,0.0,0.0,0.0,-0.6526858303082728,0.0,0.0,0.0,-1.582290929533842,-1.6215587071748425,-0.9747454547926651,-1.5968036927361744,2.901139764751024e-06,5.574669032738235e-07,-0.1936008922882913,-0.9733052838541775,0.7099814360680394,0.003018734967571174,-0.0033833747759653633,1.814815911827545e-05,-1.5832661026634547,-1.5987760048798414,-1.1261813667354958,-1.5968038136467797,0.0,0.0
7.403,666.6666870117188,0.0,-1.5832661026634547,-1.5987760048798414,-0.972171707515491,-1.5968038136467797,0.0,0.0,0.0,0.0,-0.5966016887616931,0.0,0.0,0.0,-1.5825688303935919,-1.597915163017119,-0.9429768724652188,-1.5953125888418391,-0.0007941340261713565,2.313368640454598e-05,1.32764226241961,0.819368380998063,-0.2931499869935077,-0.1471923974612183,0.1103823596440896,-0.004319445730506492,-1.5832661026634547,-1.5987760048798414,-1.1237283659590547,-1.5968038136467797,0.0,0.0
7.503,666.6666870117188,0.0,-1.5832661026634547,-1.5987760048798414,-1.0413283178896595,-1.5968038136467797,0.0,0.0,0.0,0.0,-0.6721186398417828,0.0,0.0,0.0,-1.5826950642292617,-1.5989151800064436,-1.1072953764617073,-1.59680622273921,4.497226565633141e-06,1.1809628426363202e-07,0.10741712950736812,0.05849954578165537,-3.1415945178025564,0.006016417438665812,-0.002810855998990425,0.0006403447305791057,-1.5832661026634547,-1.5987760048798414,-1.1082740261102735,-1.5968038136467797,0.0,0.0
7.603,666.6666870117188,0.0,-1.5832661026634547,-1.5987760048798414,-1.1157138428649205,-1.5968038136467797,0.0,0.0,0.0,0.0,-0.9345587235511945,0.0,0.0,0.0,-1.578675555196005,-1.6002580789861163,-1.1518750952129797,-1.5967870479793613,5.688954174125485e-06,1.1030327393918588e-06,-0.46570378402884827,1.1990672418355655,-1.5776813971610784,-0.2573051203673158,0.12174299705782571,-0.0027318194115612177,-1.5832661026634547,-1.5987760048798414,-1.2417625797385328,-1.5968038136467797,0.0,0.0
7.703,666.6666870117188,0.0,-1.5832661026634547,-1.5987760048798414,-1.1846241288451846,-1.5968038136467797,0.0,0.0,0.0,0.0,-0.6697038875530477,0.0,0.0,0.0,-1.581771479963222,-1.5988202383135823,-1.3225080873121007,-1.5968179406480063,1.4097900757963737e-05,-3.2627165401607694e-07,-0.14097220190593154,0.2562633250383904,-3.125152427548516,0.009393634954981992,-0.009178593019336502,0.0004266273209625822,-1.5832661026634547,-1.5987760048798414,-1.3440794730445238,-1.5968038136467797,0.0,0.0
7.803,666.6666870117188,0.0,-1.5832661026634547,-1.5987760048798414,-1.273182456129705,-1.5968038136467797,0.0,0.0,0.0,0.0,-1.1131837346726599,0.0,0.0,0.0,-1.5892140831036121,-1.591244077644525,-1.3267001691839944,-1.5967847842924348,-2.258005115293932e-05,-2.3481386030488178e-07,0.02565041288963932,0.0455213875455892,-0.40502778649108245,0.016952515245575617,-0.01477162558117991,0.0007969906825593867,-1.5832661026634547,-1.5987760048798414,-1.4237484047342095,-1.5968038136467797,0.0,0.0
7.903,733.3333129882812,0.0,-1.5832661026634547,-1.5987760048798414,-1.310481152231306,-1.5968038136467797,0.0,0.0,0.0,0.0,0.6607447711458951,0.0,0.0,0.0,-1.585511756556184,-1.6032634562762706,-1.4232862308603886,-1.597175869498513,0.00019483396552147107,-5.868664008967794e-06,-0.23329417649245907,0.22243370569857504,-3.1416584336687183,-0.3654881999713259,0.09602594896488016,0.19679092651052907,-1.5832661026634547,-1.5987760048798414,-1.1289672142083191,-1.5968038136467797,0.0,0.0
8.003,733.3333129882812,0.0,-1.5832661026634547,-1.5987760048798414,-1.2401834758692383,-1.5968038136467797,0.0,0.0,0.0,0.0,0.8154305704418419,0.0,0.0,0.0,-1.5830537920280954,-1.5953586615286974,-1.4563994432222158,-1.5968190059124423,8.763070286892857e-06,-4.3084096212844355e-07,0.6402979619333531,0.2772657956983255,0.9520201019997736,-0.009719850342273382,0.00779828702932144,-0.0004032851626362486,-1.5832661026634547,-1.5987760048798414,-1.062726100225548,-1.5968038136467797,0.0,0.0
8.103,733.3333129882812,0.0,-1.5832661026634547,-1.5987760048798414,-1.165229862576207,-1.5968038136467797,0.0,0.0,0.0,0.0,0.9479708109229387,0.0,0.0,0.0,-1.5820750803274912,-1.5997688562938686,-1.3215376314108758,-1.596803026945902,1.9135256742790136e-06,1.0954280099259392e-07,-0.352724035051226,0.22708561562218457,1.8648777543796595,-0.003288504083394819,0.0020689447022640968,-0.00017840835383675004,-1.5832661026634547,-1.5987760048798414,-1.0131099802956658,-1.5968038136467797,0.0,0.0
8.203,733.3333129882812,0.0,-1.5832661026634547,-1.5987760048798414,-1.083604602009217,-1.5968038136467797,0.0,0.0,0.0,0.0,0.8239303600949521,0.0,0.0,0.0,-1.5827969301409572,-1.5993271710270789,-1.1279485901894353,-1.5968024943136838,1.3379326826475204e-06,1.5447351380697156e-07,-0.1472772191419373,0.18198954322505945,2.0725577140867637,-0.0031225111251853214,0.001809997539186476,-0.00017483954892773246,-1.5832661026634547,-1.5987760048798414,-0.8743957196492063,-1.5968038136467797,0.0,0.0
8.303,733.3333129882812,0.0,-1.5832661026634547,-1.5987760048798414,-1.0017365837373937,-1.5968038136467797,0.0,0.0,0.0,0.0,0.750393129591181,0.0,0.0,0.0,-1.5824923976703067,-1.5990241032950279,-0.9612902328592032,-1.5968110164291722,9.306997451579047e-06,6.231014308661422e-08,0.13268968769200104,0.10710760360967367,2.3774577009677555,-0.00593870618999784,0.004960344549435443,-0.00018130941791580875,-1.5832661026634547,-1.5987760048798414,-0.9471541387005282,-1.5968038136467797,0.0,0.0
8.403,733.3333129882812,0.0,-1.5832661026634547,-1.5987760048798414,-0.9254637461756623,-1.5968038136467797,0.0,0.0,0.0,0.0,0.7663582501495445,0.0,0.0,0.0,-1.5801386958988946,-1.6007511632619444,-0.8312186489005886,-1.5968240659185136,4.0584204272786914e-05,1.130874534034995e-06,0.481780188975707,-0.24390462639425506,2.4356760002935416,-0.01038663617931007,0.01198499056416997,-0.00014201379658751502,-1.5832661026634547,-1.5987760048798414,-0.8181266452763927,-1.5968038136467797,0.0,0.0
8.504,733.3333129882812,0.0,-1.5832661026634547,-1.5987760048798414,-0.8324000263160967,-1.5968038136467797,0.0,0.0,0.0,0.0,0.6479869627564416,0.0,0.0,0.0,-1.5820108981452203,-1.5989848216689493,-0.8227881461538338,-1.5968305906631841,2.8988989603014132e-05,-8.266971336666e-08,-0.8140529777783738,0.49524083709988986,-1.4449321378844437,0.015545679593795244,-0.017177609574038858,-3.581332770535819e-05,-1.5832661026634547,-1.5987760048798414,-0.7695784328087986,-1.5968038136467797,0.0,0.0
8.603,733.3333129882812,0.0,-1.5832661026634547,-1.5987760048798414,-0.7646221973042486,-1.5968038136467797,0.0,0.0,0.0,0.0,0.7642633424654216,0.0,0.0,0.0,-1.5813333899639042,-1.5986592502256871,-0.7575551470958061,-1.596852694900232,5.09224472195627e-05,-2.8109891524733095e-07,0.12657080877143498,0.24548551210683972,1.3775858539224108,-0.01462242094081092,0.01165449643408034,-0.00048585989871338995,-1.5832661026634547,-1.5987760048798414,-0.6561811545146368,-1.5968038136467797,0.0,0.0
8.703,733.3333129882812,0.0,-1.5832661026634547,-1.5987760048798414,-0.6761435939568825,-1.5968038136467797,0.0,0.0,0.0,0.0,0.713422990259587,0.0,0.0,0.0,-1.5811202039186432,-1.6014234782791348,-0.7148325837307005,-1.5967929069337596,1.9287189166623528e-05,2.0801935690467726e-06,0.4360954913986471,0.27727073919109896,0.7173031982739669,-0.02258322321446524,0.020186059902419878,-0.00046960148231048386,-1.5832661026634547,-1.5987760048798414,-0.39663562936175883,-1.5968038136467797,0.0,0.0
8.803,733.3333129882812,0.0,-1.5832661026634547,-1.5987760048798414,-0.5878253902899502,-1.5968038136467797,0.0,0.0,0.0,0.0,1.068792240371559,0.0,0.0,0.0,-1.5844177299803794,-1.5889986333714248,-0.5923773741736035,-1.5967502963563183,-5.626831154706338e-05,5.854993090312808e-07,1.2013406493001115,0.3245107394895219,0.30831046426246095,-0.03392735111003746,0.040052819273706866,0.0004410495151016828,-1.5832661026634547,-1.5987760048798414,-0.4648036467961785,-1.5968038136467797,0.0,0.0
8.903,733.3333129882812,0.0,-1.5832661026634547,-1.5987760048798414,-0.5021979391253844,-1.5968038136467797,0.0,0.0,0.0,0.0,0.7580722716167837,0.0,0.0,0.0,-1.5814835922493846,-1.5948320214231342,-0.49568977948064996,-1.5969453729061667,0.00014583684040406388,-4.850036182204736e-06,-0.4771408624882481,0.6607754736081631,0.767434675791673,0.17737455137206112,-0.10483873184135906,0.002933382475154411,-1.5832661026634547,-1.5987760048798414,-0.2386053705593557,-1.5968038136467797,0.0,0.0
9.003,733.3333129882812,0.0,-1.5832661026634547,-1.5987760048798414,-0.412372334005207,-1.5968038136467797,0.0,0.0,0.0,0.0,0.7212427123693603,0.0,0.0,0.0,-1.5806781191776902,-1.5975099630572633,-0.4178647222879688,-1.5969580229213445,0.0001717637799207186,-3.202477205553863e-07,0.28592200134746454,-0.7757800905415999,0.6363339132297974,-0.020751821428277393,0.022195787371318353,-0.00021583130998641922,-1.5832661026634547,-1.5987760048798414,-0.12174500782134334,-1.5968038136467797,0.0,0.0
9.103,733.3333129882812,0.0,-1.5832661026634547,-1.5987760048798414,-0.3483214399943444,-1.5968038136467797,0.0,0.0,0.0,0.0,0.8387794268593591,0.0,0.0,0.0,-1.5825509872142884,-1.5975594978535388,-0.4088123714266805,-1.5969031618028888,8.625718533894997e-05,-2.0256023427221197e-06,-0.8362239935903653,-0.11613328957054758,0.8059504433198623,0.05196358254486928,-0.05577694210380773,0.00023753779586296948,-1.5832661026634547,-1.5987760048798414,-0.205946829529991,-1.5968038136467797,0.0,0.0
9.205,733.3333129882812,0.0,-1.5832661026634547,-1.5987760048798414,-0.24856431493121534,-1.5968038136467797,0.0,0.0,0.0,0.0,0.8817508317539506,0.0,0.0,0.0,-1.5837720465740897,-1.5985404732410695,-0.32077675461463545,-1.5967819879732903,-2.960007283486135e-05,-3.251149074202397e-07,-0.5579117087416932,-0.14772080191100365,1.638517184364249,0.046532206982085586,-0.04894388244147728,0.0003632285800870561,-1.5832661026634547,-1.5987760048798414,0.028049223660127243,-1.5968038136467797,0.0,0.0
9.303,733.3333129882812,0.0,-1.5832661026634547,-1.5987760048798414,-0.16118264172879293,-1.5968038136467797,0.0,0.0,0.0,0.0,0.8206873801326924,0.0,0.0,0.0,-1.5838856303945816,-1.5987637792984728,-0.19667662696549423,-1.5967475000371738,-6.400225553814377e-05,1.7157724211892438e-07,-0.022004266557644227,0.1304381930497992,1.745547897519825,-0.005554254439658332,0.0034640251245824554,-0.00020261693352285223,-1.5832661026634547,-1.5987760048798414,-0.04237890325286843,-1.5968038136467797,0.0,0.0
9.403,733.3333129882812,0.0,-1.5832661026634547,-1.5987760048798414,-0.09481680906136702,-1.5968038136467797,0.0,0.0,0.0,0.0,0.6682061669198976,0.0,0.0,0.0,-1.5859816713305284,-1.5974553682549169,-0.147276803023017,-1.5966004935450013,-0.00026558736449405957,-1.4120945019437028e-06,-0.39670966914232897,0.5040700483513432,-0.4512500431341749,0.008796391952207301,-0.022201783644960237,-0.0007881156462118327,-1.5832661026634547,-1.5987760048798414,0.18513137610219027,-1.5968038136467797,0.0,0.0
9.503,733.3333129882812,0.0,-1.5832661026634547,-1.5987760048798414,-0.026798939222924645,-1.5968038136467797,0.0,0.0,0.0,0.0,0.8216197130921169,0.0,0.0,0.0,-1.5852339888544886,-1.5941796801141193,-0.052553822266214904,-1.596921670772465,1.4999085724506295e-05,-1.0596952897686851e-05,-0.886268718635562,0.722166197003479,-0.13435324791167585,0.010338105269929879,-0.055516289373305425,-0.002308442597042895,-1.5832661026634547,-1.5987760048798414,0.12133066297268502,-1.5968038136467797,0.0,0.0
9.603,733.3333129882812,0.0,-1.5832661026634547,-1.5987760048798414,0.04763398025787489,-1.5968038136467797,0.0,0.0,0.0,0.0,0.7040172036240578,0.0,0.0,0.0,-1.583313183918269,-1.5988167762041654,0.1457193031937546,-1.5967941053562502,-1.0156821802555332e-05,1.057343487044757e-07,-0.0625403517812542,0.21966057270023234,2.0075757845405033,-0.0083235700670557,0.004421486672222885,-0.00040148785399335163,-1.5832661026634547,-1.5987760048798414,0.267934178676278,-1.5968038136467797,0.0,0.0
9.703,733.3333129882812,0.0,-1.5832661026634547,-1.5987760048798414,0.12255643740540839,-1.5968038136467797,0.0,0.0,0.0,0.0,0.8977575619713173,0.0,0.0,0.0,-1.5848106793992205,-1.5997775115674113,0.19527715245741442,-1.5965090139615572,-0.00030534026150464154,4.4081526331240946e-06,0.7850054137156889,0.005569860459616467,0.7089699674860273,0.09646062678905154,-0.0015867017547191776,0.004108757699139224,-1.5832661026634547,-1.5987760048798414,0.298272497736916,-1.5968038136467797,0.0,0.0
9.803,733.3333129882812,0.0,-1.5832661026634547,-1.5987760048798414,0.20007560381673725,-1.5968038136467797,0.0,0.0,0.0,0.0,1.0698156108018986,0.0,0.0,0.0,-1.5829069186939775,-1.6017161596829346,0.3261332703836527,-1.5966568194020565,-0.00010648270235259943,5.07866945172987e-06,-0.2390394472016006,-0.044150566986362945,1.942147376037491,0.026505089943067602,-0.029917396167191527,9.132544876992572e-05,-1.5832661026634547,-1.5987760048798414,0.3335830130267814,-1.5968038136467797,0.0,0.0
9.903,733.3333129882812,0.0,-1.5832661026634547,-1.5987760048798414,0.28474839108759026,-1.5968038136467797,0.0,0.0,0.0,0.0,0.9519299666435741,0.0,0.0,0.0,-1.5836902875286243,-1.5987647114048542,0.3302499847966972,-1.5967644111100958,-4.536667852965516e-05,8.730517629356706e-08,-0.7363946677594453,0.8416066416275789,-1.9816294049881882,0.022159911678602543,-0.04203133158179717,-0.0011409403430306284,-1.5832661026634547,-1.5987760048798414,0.34256392188327195,-1.5968038136467797,0.0,0.0
10.003,733.3333129882812,0.0,-1.5832661026634547,-1.5987760048798414,0.35740671619965064,-1.5968038136467797,0.0,0.0,0.0,0.0,0.7816961009674047,0.0,0.0,0.0,-1.5830224998852869,-1.5958590694975232,0.3567471393519542,-1.5967657426906408,3.0542811786262425e-05,-9.450824140950664e-07,-0.3153230001763167,0.10922164585011378,-0.1740384760535461,-0.022361209206309705,-0.0022073855164987458,-0.0011028636413006256,-1.5832661026634547,-1.5987760048798414,0.4219465072092892,-1.5968038136467797,0.0,0.0
10.103,733.3333129882812,0.0,-1.5832661026634547,-1.5987760048798414,0.4378015147127198,-1.5968038136467797,0.0,0.0,0.0,0.0,0.7897224998867547,0.0,0.0,0.0,-1.5833396823711152,-1.602153317575871,0.4669583992183846,-1.596625260943139,-0.00013920284826213913,5.3797994553206875e-06,-0.5301654983456754,-0.15421570253273206,2.0602240824463887,0.043597324398223405,-0.04823670914233116,4.898646207007385e-05,-1.5832661026634547,-1.5987760048798414,0.5618303996254197,-1.5968038136467797,0.0,0.0
10.203,733.3333129882812,0.0,-1.5832661026634547,-1.5987760048798414,0.4970974991149651,-1.5968038136467797,0.0,0.0,0.0,0.0,0.7168936416146904,0.0,0.0,0.0,-1.5781170903154154,-1.5996779093426423,0.5954519270730727,-1.596150153004669,-0.00021712267653892431,2.028726637940921e-05,-0.11501272293000471,0.4434941190915371,0.2500314448638209,0.07166832809512239,-0.053806527469906947,0.0013665180196272587,-1.5832661026634547,-1.5987760048798414,0.6273121599344731,-1.5968038136467797,0.0,0.0
10.304,733.3333129882812,0.0,-1.5832661026634547,-1.5987760048798414,0.5782094842518468,-1.5968038136467797,0.0,0.0,0.0,0.0,1.104868733167387,0.0,0.0,0.0,-1.5860987172604375,-1.6009524982403542,0.6258118969209489,-1.5966050209188545,-0.00019264678921044936,2.618924326805565e-06,0.43891747675823595,-0.20276278229416594,-0.30738558170539004,-0.009830009504050989,0.014448398968033753,0.00035538834697019427,-1.5832661026634547,-1.5987760048798414,0.8430527130524266,-1.5968038136467797,0.0,0.0
10.403,733.3333129882812,0.0,-1.5832661026634547,-1.5987760048798414,0.6593866815396775,-1.5968038136467797,0.0,0.0,0.0,0.0,1.165682119102533,0.0,0.0,0.0,-1.5828563186332658,-1.598794006176845,0.7838071243832077,-1.5968174080157884,1.5445446412458694e-05,-1.905754729556228e-09,0.2948491170584919,0.20594828914255062,2.4817148650060687,-0.016883014023205654,0.01610323213365205,-0.00026293247701845084,-1.5832661026634547,-1.5987760048798414,0.7645174059603516,-1.5968038136467797,0.0,0.0
10.503,733.3333129882812,0.0,-1.5832661026634547,-1.5987760048798414,0.7347908200690783,-1.5968038136467797,0.0,0.0,0.0,0.0,0.41248523690174205,0.0,0.0,0.0,-1.5851377155810824,-1.5988175751524922,0.861489136535838,-1.596755223204335,-5.294015259842394e-05,1.345353817164386e-07,0.3566967723178381,-0.6158522070762704,0.29018146119493726,0.011406251329484824,-0.006996695306856305,0.0009241739845718777,-1.5832661026634547,-1.5987760048798414,0.8056531016932916,-1.5968038136467797,0.0,0.0
10.604,733.3333129882812,0.0,-1.5832661026634547,-1.5987760048798414,0.797747317850291,-1.5968038136467797,0.0,0.0,0.0,0.0,0.9980098941646777,0.0,0.0,0.0,-1.5833933450670803,-1.6016116306101489,0.8537633727925454,-1.5967478995113373,-3.8647085361786634e-05,1.9481948009269798e-06,-0.5641976677311481,-1.1119401291398874,0.5284275527078033,0.050335517269098184,-0.04178564248766975,0.001535853973212916,-1.5832661026634547,-1.5987760048798414,1.08935620045456,-1.5968038136467797,0.0,0.0
10.703,733.3333129882812,0.0,-1.5832661026634547,-1.5987760048798414,0.8781091014726738,-1.5968038136467797,0.0,0.0,0.0,0.0,0.9946479087304116,0.0,0.0,0.0,-1.5810710685965312,-1.6045221993654966,0.8890846785931846,-1.5967484321435552,-1.3479851394679346e-05,4.008364297795533e-06,0.32013722976836656,0.35471667875785057,0.26065218122532735,-0.020572863244807872,0.018182538847218047,-0.0005296489054314434,-1.5832661026634547,-1.5987760048798414,1.1696947142313263,-1.5968038136467797,0.0,0.0
10.805,733.3333129882812,0.0,-1.5832661026634547,-1.5987760048798414,0.9643541468685036,-1.5968038136467797,0.0,0.0,0.0,0.0,0.5943420056480083,0.0,0.0,0.0,-1.5803990198954498,-1.5929357175689434,1.0095060986048152,-1.5968565564838124,5.7775763290860234e-05,-1.0405786617383635e-07,0.44328023396649013,-1.0610545775595253,2.88140501088236,-0.016954045522905112,0.01617109280717863,-0.00041969890842988224,-1.5832661026634547,-1.5987760048798414,1.2421839495269382,-1.5968038136467797,0.0,0.0
10.903,733.3333129882812,0.0,-1.5832661026634547,-1.5987760048798414,1.040891275537925,-1.5968038136467797,0.0,0.0,0.0,0.0,0.7860768774648019,0.0,0.0,0.0,-1.5822416610536756,-1.6049645504225587,1.1111389837049641,-1.596740442660285,-3.659374573671124e-05,3.200853328389051e-06,0.6728656923249048,-0.5168447993367762,1.7172350330228656,-0.009922750968121095,0.011904086643085805,-4.70975950737214e-05,-1.5832661026634547,-1.5987760048798414,1.2042611660216829,-1.5968038136467797,0.0,0.0
11.003,733.3333129882812,0.0,-1.5832661026634547,-1.5987760048798414,1.1281759282950903,-1.5968038136467797,0.0,0.0,0.0,0.0,0.7573548978506212,0.0,0.0,0.0,-1.5852643488909155,-1.595358794686752,1.108951463185573,-1.5972212763950988,0.00020786225880535528,-7.74736321671167e-06,0.6627514725579746,1.0559450366920993,0.061254873051397374,-0.01863668895626602,0.01926072377572583,-0.0007860702916812733,-1.5832661026634547,-1.5987760048798414,1.3706758175152296,-1.5968038136467797,0.0,0.0
11.103,733.3333129882812,0.0,-1.5832661026634547,-1.5987760048798414,1.199713021495165,-1.5968038136467797,0.0,0.0,0.0,0.0,0.5825208697162241,0.0,0.0,0.0,-1.5824013175610259,-1.5954782374616419,1.291045901668068,-1.5953283014922706,-0.0007412048698404951,1.721753190947231e-05,0.10724951680626126,1.2387394204880942,-0.5209039561807614,-0.13306239708655762,0.08158139597596752,-0.002924668944962808,-1.5832661026634547,-1.5987760048798414,1.2947514416937895,-1.5968038136467797,0.0,0.0
11.203,733.3333129882812,0.0,-1.5832661026634547,-1.5987760048798414,1.261949215476535,-1.5968038136467797,0.0,0.0,0.0,0.0,0.7773708592628832,0.0,0.0,0.0,-1.5880034100720621,-1.6072962811149776,1.2685310051803202,-1.5970518993497698,9.18102273121042e-05,-7.496890688287393e-07,-0.00031237306136961985,-0.8347878173935128,-0.04072289140991682,0.001703558480556575,-0.0027279247985413017,0.00034736446887044845,-1.5832661026634547,-1.5987760048798414,1.5309902526302415,-1.5968038136467797,0.0,0.0
11.303,800.0,0.0,-1.5832661026634547,-1.5987760048798414,1.3024995916404256,-1.5968038136467797,0.0,0.0,0.0,0.0,-0.546874398103433,0.0,0.0,0.0,-1.585295641033724,-1.5998938917070478,1.3900846015503707,-1.596794637988468,-6.80312579019468e-06,4.4250547974845443e-07,0.7496530820883502,-0.5486877171481492,3.0814065445345475,0.00046393972926939473,0.0002472752224182516,5.5938915223209724e-05,-1.5832661026634547,-1.5987760048798414,1.2115431832665655,-1.5968038136467797,0.0,0.0
11.403,800.0,0.0,-1.5832661026634547,-1.5987760048798414,1.2415118746880163,-1.5968038136467797,0.0,0.0,0.0,0.0,-0.7184811155622932,0.0,0.0,0.0,-1.5837197154586695,-1.6005094813930196,1.5142924374208488,-1.5967974343076128,-6.0716017319797995e-06,3.22156339739576e-07,0.3252102853288585,-0.6508474753804567,0.8624229073930471,0.004067835004068524,-0.0031435209694725247,0.00025507348604088373,-1.5832661026634547,-1.5987760048798414,1.060519151683643,-1.5968038136467797,0.0,0.0
11.503,800.0,0.0,-1.5832661026634547,-1.5987760048798414,1.1655589696002133,-1.5968038136467797,0.0,0.0,0.0,0.0,-0.7985160573322858,0.0,0.0,0.0,-1.5830347504263012,-1.5994844306894482,1.3763745151005884,-1.5968014290492478,-1.5456572717183786e-06,1.895031951560278e-07,0.1706091734521215,-0.2523080481216752,-1.8762393322221556,0.0014590551953149187,-0.0008772253023676417,0.00011413628337719209,-1.5832661026634547,-1.5987760048798414,1.0956930699500635,-1.5968038136467797,0.0,0.0
11.603,800.0,0.0,-1.5832661026634547,-1.5987760048798414,1.0902444729100704,-1.5968038136467797,0.0,0.0,0.0,0.0,-0.9788844415449146,0.0,0.0,0.0,-1.5832263648667324,-1.5991017344408038,1.178420819168617,-1.5968003637848118,-2.189075310757562e-06,1.6058483185996222e-07,0.01901037206909617,-0.16422862230969837,-2.1952310365371384,0.0020811874410487053,-0.0014248195312938396,9.894703252519573e-05,-1.5832661026634547,-1.5987760048798414,0.9567369581953933,-1.5968038136467797,0.0,0.0
11.703,800.0,0.0,-1.5832661026634547,-1.5987760048798414,1.015499838853402,-1.5968038136467797,0.0,0.0,0.0,0.0,-0.9942412599885281,0.0,0.0,0.0,-1.5837581981364213,-1.5988910783985786,1.0118506124704665,-1.596793040091814,-1.0339847077086313e-05,1.1982405464490191e-07,-0.01346935021110417,-0.16752048915411807,-2.256043121606607,0.003354786365841743,-0.0024144197636712357,0.00012902407557698747,-1.5832661026634547,-1.5987760048798414,0.79813562467458,-1.5968038136467797,0.0,0.0
11.803,800.0,0.0,-1.5832661026634547,-1.5987760048798414,0.913726822368802,-1.5968038136467797,0.0,0.0,0.0,0.0,-0.9772133746017575,0.0,0.0,0.0,-1.5841598028288053,-1.5967283252773252,0.9785071698324019,-1.5968124811677717,-1.455705461372356e-06,-9.160951114194624e-07,-0.31043563352283055,-0.005919463810824716,-1.5098935610903106,0.007933827884792912,-0.007807550356636522,0.00010087735293078874,-1.5832661026634547,-1.5987760048798414,0.6251969682794324,-1.5968038136467797,0.0,0.0
11.903,800.0,0.0,-1.5832661026634547,-1.5987760048798414,0.8260226104474055,-1.5968038136467797,0.0,0.0,0.0,0.0,-0.5871810034231522,0.0,0.0,0.0,-1.583937562035838,-1.5987338187362092,0.8520935042100385,-1.59678611587298,-1.867066672408437e-05,7.54635719321032e-08,-0.04079546254962148,-0.10188131641796129,-2.0847335534325513,0.004329876531467411,-0.0034426699015913825,0.0001356881875766998,-1.5832661026634547,-1.5987760048798414,0.6532669874963375,-1.5968038136467797,0.0,0.0
12.003,800.0,0.0,-1.5832661026634547,-1.5987760048798414,0.7594569899002384,-1.5968038136467797,0.0,0.0,0.0,0.0,-0.534086770687994,0.0,0.0,0.0,-1.583063246249965,-1.6011583605926174,0.675537308951445,-1.5968155438030252,1.1626143196165285e-05,-1.801111055250973e-07,-1.1640404150724617,0.2597700756932659,-1.954163692033983,0.03141164800115915,-0.03783106881192985,-0.0006756672452052084,-1.5832661026634547,-1.5987760048798414,0.6833297993066437,-1.5968038136467797,0.0,0.0
12.103,800.0,0.0,-1.5832661026634547,-1.5987760048798414,0.6954532063838696,-1.5968038136467797,0.0,0.0,0.0,0.0,-0.7621822447242476,0.0,0.0,0.0,-1.5812223361464477,-1.596641106751625,0.6329105528065551,-1.5966608141436915,-8.234496142673977e-06,2.709372792759922e-06,-0.12241393056020074,0.3757922698344651,-0.6543733009266398,-0.15592174017179364,0.08161050765563345,-0.003353065974180525,-1.5832661026634547,-1.5987760048798414,0.6351601561583444,-1.5968038136467797,0.0,0.0
12.204,800.0,0.0,-1.5832661026634547,-1.5987760048798414,0.6212241137136889,-1.5968038136467797,0.0,0.0,0.0,0.0,-0.7919362191601811,0.0,0.0,0.0,-1.5833541965990563,-1.5950461395747766,0.5995771636016055,-1.5968104837969541,4.205077507563324e-06,-5.353506169623608e-07,0.7077926505471305,-0.455993931983933,1.336715918569619,-0.01309637241984397,0.020598296433218127,0.0010611892013929261,-1.5832661026634547,-1.5987760048798414,0.42850875768844693,-1.5968038136467797,0.0,0.0
12.303,800.0,0.0,-1.5832661026634547,-1.5987760048798414,0.5460869625904561,-1.5968038136467797,0.0,0.0,0.0,0.0,-1.0156875081064487,0.0,0.0,0.0,-1.5853719405989548,-1.5957231151238747,0.626552322283018,-1.5968028937878473,-3.7523450494392176e-05,-2.9300509372713744e-06,0.7937010341489611,0.18057856719002183,-0.4884927863717926,-0.04225801652483335,0.04309711200529007,-0.00024194995679003924,-1.5832661026634547,-1.5987760048798414,0.43454854163537643,-1.5968038136467797,0.0,0.0
12.404,800.0,0.0,-1.5832661026634547,-1.5987760048798414,0.462534463199586,-1.5968038136467797,0.0,0.0,0.0,0.0,-0.8812788487443711,0.0,0.0,0.0,-1.583080689955105,-1.600456218171218,0.5409074584710508,-1.5967486984596642,-3.522059799991378e-05,2.0599405349504182e-06,0.5096494041245728,0.15849317200707647,-1.6658650524402183,-0.03495236228231153,0.03526937832057184,-0.0002595251132468031,-1.5832661026634547,-1.5987760048798414,0.21334405936915773,-1.5968038136467797,0.0,0.0
12.502,800.0,0.0,-1.5832661026634547,-1.5987760048798414,0.3794161725064509,-1.5968038136467797,0.0,0.0,0.0,0.0,-0.9756463045824625,0.0,0.0,0.0,-1.5824232886400191,-1.598973636392371,0.4167273527654232,-1.596856955957976,6.115748942316885e-05,1.5368281420449265e-07,0.20504299746424862,0.03329326909924641,-1.9754436807242612,-0.017595386728261234,0.018363796087722362,-0.00011771048482845761,-1.5832661026634547,-1.5987760048798414,0.15685476790272374,-1.5968038136467797,0.0,0.0
12.603,800.0,0.0,-1.5832661026634547,-1.5987760048798414,0.2937798855486653,-1.5968038136467797,0.0,0.0,0.0,0.0,-0.7105422553708582,0.0,0.0,0.0,-1.5829001276331978,-1.5989552605808495,0.2624315723076638,-1.5968308569792933,3.369620485202675e-05,1.9138857527697918e-07,-0.01655329387430783,-0.14174358651567298,-2.2853309693786446,0.010163584994745624,-0.008529981696293654,0.00022306714662615447,-1.5832661026634547,-1.5987760048798414,0.025644300903037043,-1.5968038136467797,0.0,0.0
12.703,800.0,0.0,-1.5832661026634547,-1.5987760048798414,0.21601167091905804,-1.5968038136467797,0.0,0.0,0.0,0.0,-0.6243518767021512,0.0,0.0,0.0,-1.582264431080996,-1.6004298528764263,0.13076101810818724,-1.5971878537234183,0.0002697710988903744,-5.772048936943192e-06,-0.5889566769114513,0.1648589592502065,-0.08792498743588742,0.039233709984993356,-0.06387648050609297,-0.0006004999135492097,-1.5832661026634547,-1.5987760048798414,0.15807335106426695,-1.5968038136467797,0.0,0.0
12.803,800.0,0.0,-1.5832661026634547,-1.5987760048798414,0.13222844138391388,-1.5968038136467797,0.0,0.0,0.0,0.0,-0.7922294459962489,0.0,0.0,0.0,-1.5812216703561752,-1.6025977991618052,0.13026790886522385,-1.5967849174504893,6.984475617158767e-05,6.474388287434359e-06,0.093236079663562,-0.6211404460528408,1.076539261401682,0.03531331631736894,-0.025434711405505114,0.0011793074177447209,-1.5832661026634547,-1.5987760048798414,-0.041710563753720564,-1.5968038136467797,0.0,0.0
12.903,800.0,0.0,-1.5832661026634547,-1.5987760048798414,0.053351157756958756,-1.5968038136467797,0.0,0.0,0.0,0.0,-0.5520487992586635,0.0,0.0,0.0,-1.581631131373775,-1.598486943703159,0.07767001960534654,-1.5971496373617757,0.00033633800017694276,-4.565265971176056e-06,-0.7178778418581788,0.24068058693384833,0.2666052617232792,0.1513845958464097,-0.13999939909399603,0.0017425193049551058,-1.5832661026634547,-1.5987760048798414,-0.11736095454556539,-1.5968038136467797,0.0,0.0
13.003,800.0,0.0,-1.5832661026634547,-1.5987760048798414,-0.012723575235632723,-1.5968038136467797,0.0,0.0,0.0,0.0,-0.8284881533585132,0.0,0.0,0.0,-1.5829616466543786,-1.5992881557171092,0.07415936575499843,-1.596805956423101,1.4509211351018361e-05,8.416163265394388e-07,0.049121219841752134,-0.4049882385488948,0.17200418716537547,0.025043185113371433,-0.018791210556139464,0.00078635903920083,-1.5832661026634547,-1.5987760048798414,-0.2710164747515979,-1.5968038136467797,0.0,0.0
13.103,800.0,0.0,-1.5832661026634547,-1.5987760048798414,-0.08890579279595912,-1.5968038136467797,0.0,0.0,0.0,0.0,-1.0040583562831134,0.0,0.0,0.0,-1.583189746401744,-1.5988474025567012,-0.06124217310194906,-1.5968087527422457,7.198468734005635e-06,9.60737955100078e-08,-0.04511210129793605,-0.0670775834916114,-2.0358252658035187,0.011119748251354639,-0.011033814492821047,0.0001567956410090808,-1.5832661026634547,-1.5987760048798414,-0.33460370284957675,-1.5968038136467797,0.0,0.0
13.203,800.0,0.0,-1.5832661026634547,-1.5987760048798414,-0.16452934983892575,-1.5968038136467797,0.0,0.0,0.0,0.0,-1.0650692160866053,0.0,0.0,0.0,-1.581394642668976,-1.6018687588133962,-0.18879961231704193,-1.5967951706206862,6.284846424000976e-05,5.135733415974618e-06,0.14807819812929227,-0.4540680670416422,-1.1220809805177183,0.01590846871329129,-0.006813071910141293,0.0008485099759733225,-1.5832661026634547,-1.5987760048798414,-0.2745223303871378,-1.5968038136467797,0.0,0.0
13.303,800.0,0.0,-1.5832661026634547,-1.5987760048798414,-0.23772704988873983,-1.5968038136467797,0.0,0.0,0.0,0.0,-0.9757429217678296,0.0,0.0,0.0,-1.584038229525043,-1.595943491704079,-0.2869686569453793,-1.5969072897025784,5.0901629082562456e-05,-4.777787839437929e-06,0.41502945441244316,-0.5784827306602786,0.14209901865265767,-0.0023203230522924954,0.0149888427784814,0.0008630890274398112,-1.5832661026634547,-1.5987760048798414,-0.31188578824636304,-1.5968038136467797,0.0,0.0
13.403,800.0,0.0,-1.5832661026634547,-1.5987760048798414,-0.3030242857689256,-1.5968038136467797,0.0,0.0,0.0,0.0,-0.6093549508030477,0.0,0.0,0.0,-1.5827453979738642,-1.5973014375439103,-0.3284258193185338,-1.59692832867519,0.00010453989025207401,-2.6123704030146817e-06,0.46447719860978504,-0.4809809743325742,-0.0679795545409292,-0.010360818080898513,0.021130396019015958,0.0006556681797829069,-1.5832661026634547,-1.5987760048798414,-0.48295064913479785,-1.5968038136467797,0.0,0.0
13.503,800.0,0.0,-1.5832661026634547,-1.5987760048798414,-0.38152963982195587,-1.5968038136467797,0.0,0.0,0.0,0.0,-0.7050239478800037,0.0,0.0,0.0,-1.581667882996818,-1.6021425317734563,-0.3179441499001999,-1.5967397768700125,-5.267584177929359e-07,5.171650086651292e-06,0.6319289116287518,0.563925492667742,-0.7492665242561253,-0.08007509541866188,0.07462298881126761,-0.0011663438829678122,-1.5832661026634547,-1.5987760048798414,-0.4620772569788292,-1.5968038136467797,0.0,0.0
13.604,800.0,0.0,-1.5832661026634547,-1.5987760048798414,-0.4497851968090565,-1.5968038136467797,0.0,0.0,0.0,0.0,-0.6551531946306824,0.0,0.0,0.0,-1.5827721627428195,-1.5985335490222354,-0.43568443248439337,-1.5968457706813977,4.088376519514618e-05,-4.4168763615817666e-07,0.305733523012673,-0.0795749620883234,-1.927155376996999,-0.01563931675384135,0.018198969302787076,4.549003503302803e-05,-1.5832661026634547,-1.5987760048798414,-0.5965445431580161,-1.5968038136467797,0.0,0.0
13.703,800.0,0.0,-1.5832661026634547,-1.5987760048798414,-0.5282719316660458,-1.5968038136467797,0.0,0.0,0.0,0.0,-0.7926237233892125,0.0,0.0,0.0,-1.583435822486467,-1.609761835652173,-0.5274973105390386,-1.5968022279975749,-3.057880261875839e-06,-2.6543100864787763e-07,-0.8290768681729196,-0.0969102848943546,-0.12862300741793642,0.02774450014725526,-0.031444144808241925,-0.00029312804894395385,-1.5832661026634547,-1.5987760048798414,-0.5851724262492863,-1.5968038136467797,0.0,0.0
13.804,800.0,0.0,-1.5832661026634547,-1.5987760048798414,-0.6047061607727819,-1.5968038136467797,0.0,0.0,0.0,0.0,-0.9943741962089706,0.0,0.0,0.0,-1.5852722052161312,-1.6065595175994072,-0.6230964712944768,-1.59675921794597,-5.4861264747440234e-05,-2.7484167048098633e-06,0.6846099664160452,-0.24787023970495117,0.3935337829633822,-0.08881330978461856,0.09572631005273262,-0.0070589258913908905,-1.5832661026634547,-1.5987760048798414,-0.7107649805315239,-1.5968038136467797,0.0,0.0
13.903,800.0,0.0,-1.5832661026634547,-1.5987760048798414,-0.6859144147355885,-1.5968038136467797,0.0,0.0,0.0,0.0,-0.9043001447530922,0.0,0.0,0.0,-1.5848101467670026,-1.596808619584191,-0.6690447219509136,-1.5968130137999896,-1.6857415321869376e-05,-1.8865171841876268e-06,0.13324157789364952,-0.34943439860421927,-0.7716815522029952,0.006900522942288119,-0.002406982158119079,0.0003722682759917544,-1.5832661026634547,-1.5987760048798414,-0.9604811417252315,-1.5968038136467797,0.0,0.0
14.003,800.0,0.0,-1.5832661026634547,-1.5987760048798414,-0.7871495408686897,-1.5968038136467797,0.0,0.0,0.0,0.0,-0.9886435315122212,0.0,0.0,0.0,-1.582256042123562,-1.6025426717272406,-0.7545702761460453,-1.5967281921192706,-3.429181162969372e-05,3.39874119026042e-06,-0.06700159601557087,-0.3546682092260111,-1.5082416022661345,0.011741002356129378,-0.008034134390834526,0.000341157014876502,-1.5832661026634547,-1.5987760048798414,-0.874945935810268,-1.5968038136467797,0.0,0.0
14.103,800.0,0.0,-1.5832661026634547,-1.5987760048798414,-0.8767985421815769,-1.5968038136467797,0.0,0.0,0.0,0.0,-0.8704096628049247,0.0,0.0,0.0,-1.5828360786089812,-1.5990187769728479,-0.9440588482370907,-1.596807021687537,5.310910236601863e-06,1.4085272422419064e-07,-0.010306896350905514,-0.1482254043585464,-2.791439434517848,0.002806637853509956,-0.0016678799241792693,8.979956019466877e-05,-1.5832661026634547,-1.5987760048798414,-0.9398464339318662,-1.5968038136467797,0.0,0.0
14.203,800.0,0.0,-1.5832661026634547,-1.5987760048798414,-0.942915503356355,-1.5968038136467797,0.0,0.0,0.0,0.0,-0.9088579259408073,0.0,0.0,0.0,-1.582457643418081,-1.6001293151474107,-1.0838277340939837,-1.5968211364413145,1.5874344531755174e-05,-4.102446121443028e-07,0.20669082838873515,0.6561375119907629,-1.2821723820739785,-0.010371124306257659,0.008700590453626854,-0.00038143856171699524,-1.5832661026634547,-1.5987760048798414,-1.2369672508194263,-1.5968038136467797,0.0,0.0
14.303,800.0,0.0,-1.5832661026634547,-1.5987760048798414,-1.0326641930694151,-1.5968038136467797,0.0,0.0,0.0,0.0,-0.908105721435417,0.0,0.0,0.0,-1.580035764722763,-1.6011264026595364,-1.0858116559480382,-1.596805157474774,1.7047634292872086e-05,1.1491366280578467e-06,-0.25100869182582547,-0.6732622370112176,-0.6247076171749475,0.014501269997752931,-0.010101396022103071,0.0004246698715539414,-1.5832661026634547,-1.5987760048798414,-1.3270448468865461,-1.5968038136467797,0.0,0.0
14.403,800.0,0.0,-1.5832661026634547,-1.5987760048798414,-1.1209715474633022,-1.5968038136467797,0.0,0.0,0.0,0.0,-0.5982696428251711,0.0,0.0,0.0,-1.5799786399173807,-1.6023426683293758,-1.1870329495017153,-1.5967902437726695,5.17787561581084e-06,1.30022482624966e-06,0.1896424861572952,-0.8401377751283458,-0.8069354134490281,0.009100720524586903,-0.004675120516836607,0.00036157343457217324,-1.5832661026634547,-1.5987760048798414,-1.1796520601786953,-1.5968038136467797,0.0,0.0
14.503,800.0,0.0,-1.5832661026634547,-1.5987760048798414,-1.2022916093550347,-1.5968038136467797,0.0,0.0,0.0,0.0,-0.9786717710331299,0.0,0.0,0.0,-1.587516983698959,-1.5992030677202813,-1.2544046666521584,-1.5967859827149253,-1.99268318103071e-05,-2.1087557746502976e-07,0.4233025310492607,1.000702154094204,-0.3638075788759178,-0.007692488273680189,0.0065899286592657254,-0.0002498097604998726,-1.5832661026634547,-1.5987760048798414,-1.3337519274003138,-1.5968038136467797,0.0,0.0
14.603,800.0,0.0,-1.5832661026634547,-1.5987760048798414,-1.2906069569757719,-1.5968038136467797,0.0,0.0,0.0,0.0,-1.0366261168148114,0.0,0.0,0.0,-1.58384981087792,-1.5969923776994066,-1.2697299603030738,-1.5968139459063713,3.1110669852528624e-06,-3.925287948443233e-07,-0.026411652520103253,0.14132633575188483,-2.144722988041295,0.0011853934170287974,-0.0012835297328637539,6.814640174576912e-05,-1.5832661026634547,-1.5987760048798414,-1.3677166852353648,-1.5968038136467797,0.0,0.0
14.703,866.6666870117188,0.0,-1.5832661026634547,-1.5987760048798414,-1.315592980256274,-1.5968038136467797,0.0,0.0,0.0,0.0,0.8746739794044164,0.0,0.0,0.0,-1.5866393389617235,-1.599695486205837,-1.3851762625033002,-1.5967943716723592,-5.659287414576346e-06,3.2466736496877644e-07,0.5529421169895508,-0.5507892508538443,-1.1760958795369778,0.0061626567115788365,-0.0037752940404044257,0.00024280764940526824,-1.5832661026634547,-1.5987760048798414,-1.1991098298902938,-1.5968038136467797,0.0,0.0
14.803,866.6666870117188,0.0,-1.5832661026634547,-1.5987760048798414,-1.2433968635097061,-1.5968038136467797,0.0,0.0,0.0,0.0,0.6895626493872061,0.0,0.0,0.0,-1.581333123647795,-1.5940497178529234,-1.3810298538441015,-1.5968392459367269,2.1306952789949073e-05,-9.133572830922089e-07,-0.10017369752700248,0.13409742632183852,1.039549951231299,-0.0005848700967903194,0.00020302110527886308,-2.374937986017355e-05,-1.5832661026634547,-1.5987760048798414,-1.0921203183994854,-1.5968038136467797,0.0,0.0
14.903,866.6666870117188,0.0,-1.5832661026634547,-1.5987760048798414,-1.1652792002052665,-1.5968038136467797,0.0,0.0,0.0,0.0,0.6965155455605971,0.0,0.0,0.0,-1.5834749709544913,-1.600200954180734,-1.246528900360467,-1.5967922411434872,-6.4850010469587095e-06,2.993493579912093e-07,0.007239083017499597,0.4896700367316621,1.5291028088749976,-0.004377759335629195,0.0024270794015991445,-0.00013638627582948076,-1.5832661026634547,-1.5987760048798414,-0.9226815337211975,-1.5968038136467797,0.0,0.0
15.003,866.6666870117188,0.0,-1.5832661026634547,-1.5987760048798414,-1.0803212770475152,-1.5968038136467797,0.0,0.0,0.0,0.0,1.039712099321423,0.0,0.0,0.0,-1.5875477432095495,-1.5906380753384775,-1.1032879182323834,-1.5964783876090212,-0.00018657715835421527,4.238618206255356e-06,0.06012830181483421,-0.18061265565197485,0.5837096503527499,0.11289287999181527,-0.055381799738256424,0.0015260945541225091,-1.5832661026634547,-1.5987760048798414,-0.9113054623674134,-1.5968038136467797,0.0,0.0
15.103,866.6666870117188,0.0,-1.5832661026634547,-1.5987760048798414,-1.0038780576526918,-1.5968038136467797,0.0,0.0,0.0,0.0,0.5877209401706985,0.0,0.0,0.0,-1.5843470230534378,-1.5963371069131924,-1.0105624414511951,-1.5968284601343121,7.980024082573787e-06,-1.2528318680157346e-06,-0.19063468011091786,0.7413678547790592,0.4729394928420527,-0.008993922563388221,0.003931754234297931,-0.0003686568188934035,-1.5832661026634547,-1.5987760048798414,-0.9072110473175421,-1.5968038136467797,0.0,0.0
15.203,866.6666870117188,0.0,-1.5832661026634547,-1.5987760048798414,-0.9233971557582734,-1.5968038136467797,0.0,0.0,0.0,0.0,1.057547510398597,0.0,0.0,0.0,-1.5859294733731628,-1.5935081640452557,-0.8872032218620709,-1.5966088825024352,-0.00011047775282597947,-4.963619770559961e-07,-0.4410147161166733,-0.5295311333740185,1.2714748634492938,0.2868147262343727,-0.14864799808927154,0.004666341447915052,-1.5832661026634547,-1.5987760048798414,-0.6486034043691333,-1.5968038136467797,0.0,0.0
15.303,866.6666870117188,0.0,-1.5832661026634547,-1.5987760048798414,-0.8210343390254247,-1.5968038136467797,0.0,0.0,0.0,0.0,0.9181648670933191,0.0,0.0,0.0,-1.5810584185813534,-1.6006375794414525,-0.8827631996926908,-1.5968090190583546,2.099007863848781e-05,1.0273596825433917e-06,0.34608420853192684,0.16030863227742667,0.793338777661683,-0.009011659632367068,0.007816043863949003,-9.186625707454013e-05,-1.5832661026634547,-1.5987760048798414,-0.7381508864362468,-1.5968038136467797,0.0,0.0
15.404,866.6666870117188,0.0,-1.5832661026634547,-1.5987760048798414,-0.7428713279570438,-1.5968038136467797,0.0,0.0,0.0,0.0,0.8126581695696466,0.0,0.0,0.0,-1.5832725707116453,-1.597544983625598,-0.7457914985077354,-1.596836050143419,1.9044066404663987e-05,-1.0796743061018934e-06,0.04359273460653222,0.20091528086695074,1.7062987620064554,-0.005868984944748756,0.0038510323652414078,-0.0001581341297783836,-1.5832661026634547,-1.5987760048798414,-0.608561027038504,-1.5968038136467797,0.0,0.0
15.503,866.6666870117188,0.0,-1.5832661026634547,-1.5987760048798414,-0.669491896045944,-1.5968038136467797,0.0,0.0,0.0,0.0,0.921355097562681,0.0,0.0,0.0,-1.5834021334986776,-1.5993990763765111,-0.7020243767840734,-1.5968821228302772,7.961067712012483e-05,-4.132385971732572e-06,-0.43593650068156936,0.7116347930517878,-0.7594443935731083,0.7360288825837229,-0.389572630447512,0.04115213472098875,-1.5832661026634547,-1.5987760048798414,-0.3990720035264477,-1.5968038136467797,0.0,0.0
15.602,866.6666870117188,0.0,-1.5832661026634547,-1.5987760048798414,-0.5739049453881879,-1.5968038136467797,0.0,0.0,0.0,0.0,0.6693109228183126,0.0,0.0,0.0,-1.582160434640428,-1.598288271885839,-0.5970432989824496,-1.5968608175415566,5.157225917572784e-05,-6.726353830429639e-07,-0.03928878332409835,0.1843849068227744,1.532611789927286,-0.004204004199109687,0.0019168705318279788,-0.00016710732792905655,-1.5832661026634547,-1.5987760048798414,-0.3160744265092995,-1.5968038136467797,0.0,0.0
15.703,866.6666870117188,0.0,-1.5832661026634547,-1.5987760048798414,-0.5095425068630774,-1.5968038136467797,0.0,0.0,0.0,0.0,0.6628746345835389,0.0,0.0,0.0,-1.5811874487361677,-1.5869245635144709,-0.4687893224678141,-1.597367217622835,0.00035028461590311895,-9.466831410892312e-06,0.6316038728177077,0.489409346550457,-0.30516157587906484,-0.11758896510000649,0.08101970201255618,-0.0020277330646180963,-1.5832661026634547,-1.5987760048798414,-0.24906752146583971,-1.5968038136467797,0.0,0.0
15.803,866.6666870117188,0.0,-1.5832661026634547,-1.5987760048798414,-0.4275568152441904,-1.5968038136467797,0.0,0.0,0.0,0.0,0.7062580393885766,0.0,0.0,0.0,-1.5841484843941724,-1.5968782612466965,-0.40614351782977115,-1.5968407106753264,3.7965685550177976e-06,-2.6454498761456107e-06,-0.2909056745638707,0.9787755498912547,-1.338510755986278,-0.02914227480954556,0.012467316085313141,-0.0013860736583250891,-1.5832661026634547,-1.5987760048798414,-0.16445952456388074,-1.5968038136467797,0.0,0.0
15.903,866.6666870117188,0.0,-1.5832661026634547,-1.5987760048798414,-0.3255849969402673,-1.5968038136467797,0.0,0.0,0.0,0.0,0.7577675501636004,0.0,0.0,0.0,-1.5809485631863878,-1.5926680698793902,-0.3852178960120417,-1.5973500402338041,0.00037018277248724175,-8.773216233321774e-06,0.4152073868627741,0.06570866875704023,-0.5484848175625988,-0.1739960485684298,0.10773972153916078,-0.0033535460713848496,-1.5832661026634547,-1.5987760048798414,-0.22200552547510682,-1.5968038136467797,0.0,0.0
16.003,866.6666870117188,0.0,-1.5832661026634547,-1.5987760048798414,-0.2572623540382919,-1.5968038136467797,0.0,0.0,0.0,0.0,0.7025581739213381,0.0,0.0,0.0,-1.5847422361592056,-1.5984808184326518,-0.3435149238702729,-1.5967139442074387,-9.969797275725154e-05,-1.5614666286542507e-07,-0.3672675244746351,0.2422432965719932,0.41018762781359736,0.014751588414868965,-0.019685275345971094,-0.00024073853058324344,-1.5832661026634547,-1.5987760048798414,-0.13538898422083,-1.5968038136467797,0.0,0.0
16.105,866.6666870117188,0.0,-1.5832661026634547,-1.5987760048798414,-0.19372083615921643,-1.5968038136467797,0.0,0.0,0.0,0.0,0.5985043545893657,0.0,0.0,0.0,-1.5838534061453915,-1.5986252949217885,-0.21005633163729553,-1.596757353733207,-5.2644525300233365e-05,-6.360010554888729e-08,-0.05844857121391558,0.28502697948411615,1.4259649714428448,-0.011954486966715555,0.006713139390979321,-0.0004522114825186193,-1.5832661026634547,-1.5987760048798414,-0.10808238026426363,-1.5968038136467797,0.0,0.0
16.203,866.6666870117188,0.0,-1.5832661026634547,-1.5987760048798414,-0.13785770733091685,-1.5968038136467797,0.0,0.0,0.0,0.0,0.8528271738365182,0.0,0.0,0.0,-1.5823007832298754,-1.6011841932551913,-0.10110210877251773,-1.5967416410827755,-1.0586466619621438e-05,4.30672720199857e-06,-0.060408154272320304,-0.8818619194007806,2.0014981846168336,0.07350817293420363,-0.059199179005965205,0.0017515788640363914,-1.5832661026634547,-1.5987760048798414,0.15750844067459585,-1.5968038136467797,0.0,0.0
16.303,866.6666870117188,0.0,-1.5832661026634547,-1.5987760048798414,-0.06276173406550978,-1.5968038136467797,0.0,0.0,0.0,0.0,0.5140082482984754,0.0,0.0,0.0,-1.584084169053847,-1.59806656372509,-0.17159304502733766,-1.5967612153167876,-6.159611696360778e-05,-9.568110296231077e-07,0.17158850100872772,0.15774339229167827,-0.44014722468109363,-0.029755272074643752,0.02858750922615763,-0.00033630155726212366,-1.5832661026634547,-1.5987760048798414,0.15504262246104322,-1.5968038136467797,0.0,0.0
16.403,866.6666870117188,0.0,-1.5832661026634547,-1.5987760048798414,0.005298883820246834,-1.5968038136467797,0.0,0.0,0.0,0.0,0.9200059187010903,0.0,0.0,0.0,-1.5835902858296917,-1.5984601789342037,-0.1122420034213999,-1.596787713769634,-2.4486968932925395e-05,-4.3803773809352585e-07,0.03983812687795445,0.23037313818507607,0.7641702395064812,-0.0215930869689036,0.018035883975533348,-0.0004628416629590968,-1.5832661026634547,-1.5987760048798414,0.06433512384146153,-1.5968038136467797,0.0,0.0
16.503,866.6666870117188,0.0,-1.5832661026634547,-1.5987760048798414,0.08658877570791518,-1.5968038136467797,0.0,0.0,0.0,0.0,0.5386439004385173,0.0,0.0,0.0,-1.5834217077326898,-1.5984951995025383,-0.003215874687041314,-1.596805157474774,-5.51376008293758e-06,-4.7393986848199925e-07,0.01874446791781937,0.16217940307466647,1.543625159457254,-0.01565249419975074,0.013252989178481249,-0.0003488653903104859,-1.5832661026634547,-1.5987760048798414,0.13876764379129408,-1.5968038136467797,0.0,0.0
16.603,866.6666870117188,0.0,-1.5832661026634547,-1.5987760048798414,0.16591680405906167,-1.5968038136467797,0.0,0.0,0.0,0.0,0.8339816815502156,0.0,0.0,0.0,-1.581699041981572,-1.585174067729962,0.13438178534723172,-1.5973376565347353,0.00042022754200514813,-8.517878105400352e-06,-1.1650205915116654,0.02847436024993749,0.33239972171812276,0.2347722974764803,-0.21740028130405484,0.002141185547575748,-1.5832661026634547,-1.5987760048798414,0.39230695068684723,-1.5968038136467797,0.0,0.0
16.703,866.6666870117188,0.0,-1.5832661026634547,-1.5987760048798414,0.24274061830567087,-1.5968038136467797,0.0,0.0,0.0,0.0,0.6340424397215485,0.0,0.0,0.0,-1.5837522060239686,-1.5974756082792014,0.16650204641900132,-1.5968392459367269,8.894694309244255e-06,-2.3054910805765775e-06,-0.1905079302877869,0.5690436888087107,-0.6322179977650799,-0.01837945880388339,0.00714837897569313,-0.001017945798099858,-1.5832661026634547,-1.5987760048798414,0.38357188276295523,-1.5968038136467797,0.0,0.0
16.802,866.6666870117188,0.0,-1.5832661026634547,-1.5987760048798414,0.30779877253629334,-1.5968038136467797,0.0,0.0,0.0,0.0,0.8557830450845669,0.0,0.0,0.0,-1.583682031729245,-1.5982258207582767,0.2309276416135442,-1.5967907764048874,-2.624948247567314e-05,-8.161919659254667e-07,-0.05895781754860917,0.43940683260853797,0.708414232345555,-0.024820958884566532,0.017438739801002235,-0.0007961766499215013,-1.5832661026634547,-1.5987760048798414,0.4135855953568738,-1.5968038136467797,0.0,0.0
16.903,866.6666870117188,0.0,-1.5832661026634547,-1.5987760048798414,0.3949310912432965,-1.5968038136467797,0.0,0.0,0.0,0.0,1.1770724037990317,0.0,0.0,0.0,-1.58533159370844,-1.5886138065939082,0.3941349250004404,-1.5959621338317094,-0.0005838829846890112,1.944627338042117e-05,1.306873068026409,1.2379363442613809,-1.1058825695034202,-0.38325830879244777,0.2623987821367422,-0.005748516956868751,-1.5832661026634547,-1.5987760048798414,0.6535757482002129,-1.5968038136467797,0.0,0.0
17.003,866.6666870117188,0.0,-1.5832661026634547,-1.5987760048798414,0.49676616601524043,-1.5968038136467797,0.0,0.0,0.0,0.0,0.9517890912245144,0.0,0.0,0.0,-1.583097068395809,-1.6002614079374788,0.5497101712696579,-1.5967497637241004,-3.398183351151166e-05,1.9323561729305806e-06,-0.1670219287532984,0.3183524457848227,1.6482782023916074,-0.0028572756249986165,-0.0018113123449375402,-0.00039534840943544584,-1.5832661026634547,-1.5987760048798414,0.7202920923622373,-1.5968038136467797,0.0,0.0
17.104,866.6666870117188,0.0,-1.5832661026634547,-1.5987760048798414,0.5676921691683975,-1.5968038136467797,0.0,0.0,0.0,0.0,0.6437791060896034,0.0,0.0,0.0,-1.5832778970338255,-1.5810833191375457,0.6805277399391173,-1.5970853220214503,0.0001444428257663302,-5.144966054519326e-06,0.5049432655832665,0.5452959151838243,0.4679749278064679,0.07416551599264083,-0.024752334632821154,0.0014218444110506792,-1.5832661026634547,-1.5987760048798414,0.7879573003857354,-1.5968038136467797,0.0,0.0
17.203,866.6666870117188,0.0,-1.5832661026634547,-1.5987760048798414,0.6448326721130857,-1.5968038136467797,0.0,0.0,0.0,0.0,0.8390548465269622,0.0,0.0,0.0,-1.5815372549453497,-1.599947288086904,0.6623834236953257,-1.5968469691038882,5.685495388783351e-05,8.731943403031616e-07,0.40282904740559944,-0.7082390629248551,0.5900036321149886,0.004360797808288102,0.00394810328660317,0.0007100354821135598,-1.5832661026634547,-1.5987760048798414,0.7942194571758606,-1.5968038136467797,0.0,0.0
17.303,866.6666870117188,0.0,-1.5832661026634547,-1.5987760048798414,0.729936892684459,-1.5968038136467797,0.0,0.0,0.0,0.0,0.7267134672450495,0.0,0.0,0.0,-1.5821312730264918,-1.5987503303349677,0.7156907873919786,-1.596852961216341,5.059533060971589e-05,-1.2930070335361297e-07,-0.4965401933957395,-0.007873077123168731,1.61430199267854,0.021655442389114286,-0.022140266704374006,5.8397718848599336e-05,-1.5832661026634547,-1.5987760048798414,0.8280909639929036,-1.5968038136467797,0.0,0.0
17.402,866.6666870117188,0.0,-1.5832661026634547,-1.5987760048798414,0.7841581609125952,-1.5968038136467797,0.0,0.0,0.0,0.0,0.8107286521491756,0.0,0.0,0.0,-1.5833141160246504,-1.5988547262496988,0.892423749967926,-1.5968007632589754,-2.491889194012536e-06,4.3859795190487024e-08,0.11451719187492503,0.013345675506794412,3.0565621810413073,-0.0034759474517984134,0.00348814961898829,-9.144035488956015e-06,-1.5832661026634547,-1.5987760048798414,0.943009794906584,-1.5968038136467797,0.0,0.0
17.503,866.6666870117188,0.0,-1.5832661026634547,-1.5987760048798414,0.8625777712051239,-1.5968038136467797,0.0,0.0,0.0,0.0,1.0183512397535317,0.0,0.0,0.0,-1.5826966621259158,-1.6065844181555995,0.8916070250406258,-1.596820736967151,1.660326784671802e-05,-9.502322794012783e-08,-1.0203863766593066,-0.24536565321302933,0.05433807777872995,0.027132865671621133,-0.027738641192857086,4.390892942760141e-05,-1.5832661026634547,-1.5987760048798414,1.06687156922947,-1.5968038136467797,0.0,0.0
17.603,866.6666870117188,0.0,-1.5832661026634547,-1.5987760048798414,0.9315987344718965,-1.5968038136467797,0.0,0.0,0.0,0.0,0.7606458765790992,0.0,0.0,0.0,-1.5846836466152239,-1.5963797174906338,0.9570141282549175,-1.5968138127483167,-6.156557143729575e-06,-1.5275798203072678e-06,0.1036983246506951,0.34720979356664883,1.718194037331403,-0.00824175016419817,0.006187045961647729,-0.0002052664407108583,-1.5832661026634547,-1.5987760048798414,1.1030578194324738,-1.5968038136467797,0.0,0.0
17.702,866.6666870117188,0.0,-1.5832661026634547,-1.5987760048798414,1.0085275383347123,-1.5968038136467797,0.0,0.0,0.0,0.0,0.991704977981779,0.0,0.0,0.0,-1.582048848190754,-1.6032884899905173,1.1193801356982145,-1.5967682726936763,-1.4987947228797209e-05,2.090586890859233e-06,0.1821744664732518,0.04414617277056431,1.7052524060141632,-0.0029404988889149422,0.002926072566095929,2.0610969005780054e-06,-1.5832661026634547,-1.5987760048798414,1.0992216770063734,-1.5968038136467797,0.0,0.0
17.803,866.6666870117188,0.0,-1.5832661026634547,-1.5987760048798414,1.0857100584442103,-1.5968038136467797,0.0,0.0,0.0,0.0,1.0429927993575752,0.0,0.0,0.0,-1.5810509617303012,-1.6013530376683023,1.1562751699660088,-1.5968095516905725,1.591442035980443e-05,9.796772519343198e-07,0.6762407163743622,0.10404193901034257,1.917761475725908,-0.010078708178269658,0.010047244386406593,-1.2557051813515618e-05,-1.5832661026634547,-1.5987760048798414,1.3040213454408294,-1.5968038136467797,0.0,0.0
17.903,866.6666870117188,0.0,-1.5832661026634547,-1.5987760048798414,1.1730965821681647,-1.5968038136467797,0.0,0.0,0.0,0.0,0.9792077646571066,0.0,0.0,0.0,-1.5839621962759214,-1.6015385268382263,1.2693212982338011,-1.5967738653319654,-2.239041023776099e-05,9.309194114507446e-07,-0.041346204263049864,-0.28197379845239484,2.653981706433953,-0.003060997305490995,0.0024038206946219104,-0.00016855059414212556,-1.5832661026634547,-1.5987760048798414,1.28915141266592,-1.5968038136467797,0.0,0.0
18.002,866.6666870117188,0.0,-1.5832661026634547,-1.5987760048798414,1.250781616297367,-1.5968038136467797,0.0,0.0,0.0,0.0,0.9059943342919833,0.0,0.0,0.0,-1.5884963611898357,-1.5929598191768086,1.2515352437356524,-1.5967875806115794,-2.892642750498814e-05,-1.3157392502654714e-06,-0.0725491935928013,-0.3910363370721332,-0.05629088642111178,0.004314044506920675,-0.0031998083355275707,0.00015570396277439567,-1.5832661026634547,-1.5987760048798414,1.4890285651462984,-1.5968038136467797,0.0,0.0
18.103,866.6666870117188,0.0,-1.5832661026634547,-1.5987760048798414,1.3302104573945006,-1.5968038136467797,0.0,0.0,0.0,0.0,0.8040182602430661,0.0,0.0,0.0,-1.58282569228073,-1.5968280606601486,1.4244007637765868,-1.5953975436806125,-0.0006943181503442387,1.7461727478023315e-05,0.506502446532967,0.2511413505376251,1.7308507104120048,0.4135966737459805,-0.23143405833957958,0.008367293762608837,-1.5832661026634547,-1.5987760048798414,1.5783615036863683,-1.5968038136467797,0.0,0.0
18.203,933.3333129882812,0.0,-1.5832661026634547,-1.5987760048798414,1.3136447218571838,-1.5968038136467797,0.0,0.0,0.0,0.0,-0.7329825762122038,0.0,0.0,0.0,-1.5802829060719223,-1.5874862241883687,1.4825190614034405,-1.5961159313846613,-0.00032495022322714874,6.66970410566185e-06,0.12275676261627799,1.1377329108763319,-1.64846542261624,-0.2675518157537206,0.12738933133247082,-0.0013918431471553936,-1.5832661026634547,-1.5987760048798414,1.1186999767215264,-1.5968038136467797,0.0,0.0
18.303,933.3333129882812,0.0,-1.5832661026634547,-1.5987760048798414,1.2373901536784189,-1.5968038136467797,0.0,0.0,0.0,0.0,-0.8894184776226727,0.0,0.0,0.0,-1.5831885479792533,-1.5990937449575335,1.3959629970245027,-1.5968026274717384,-6.709128351014518e-07,7.466174488199447e-08,0.4167395700169239,-0.44537614174438245,-1.445095256501211,-0.0016050143681797,0.001720542374289635,3.3318404226225336e-05,-1.5832661026634547,-1.5987760048798414,1.0133989060189008,-1.5968038136467797,0.0,0.0
18.403,933.3333129882812,0.0,-1.5832661026634547,-1.5987760048798414,1.149692164752902,-1.5968038136467797,0.0,0.0,0.0,0.0,-0.8440376632538542,0.0,0.0,0.0,-1.5830797578487235,-1.5996042729385018,1.202951728601555,-1.5967994316784302,-2.2279472791374226e-06,2.5934562818322813e-07,-0.045239916385503044,-0.18378181734916915,-2.161653368881201,0.0012434171693160613,-0.0009072892441753013,2.968305483107711e-05,-1.5832661026634547,-1.5987760048798414,0.9633198381472798,-1.5968038136467797,0.0,0.0
18.503,933.3333129882812,0.0,-1.5832661026634547,-1.5987760048798414,1.0557117006033785,-1.5968038136467797,0.0,0.0,0.0,0.0,-1.1325476924436555,0.0,0.0,0.0,-1.581750307832556,-1.6067420772921321,1.0389099270423257,-1.5968345854048194,2.976408423802319e-05,-1.5588168357400573e-07,-0.6143842061043916,-0.20426658613794962,-0.3269810211376522,0.014153328001334078,-0.013221914457808686,0.00013738156401738751,-1.5832661026634547,-1.5987760048798414,0.9329674062147587,-1.5968038136467797,0.0,0.0
18.603,933.3333129882812,0.0,-1.5832661026634547,-1.5987760048798414,0.966764209856076,-1.5968038136467797,0.0,0.0,0.0,0.0,-0.9697559921200981,0.0,0.0,0.0,-1.5836395543098583,-1.605293850291347,1.001419210217708,-1.5966970331345167,-6.822902004429573e-05,3.579668345650286e-06,0.09796110168147262,0.03192900241301527,-0.9868977917418329,-0.003934816609477196,0.003286723614564479,-8.937433054563911e-05,-1.5832661026634547,-1.5987760048798414,0.8255029343968532,-1.5968038136467797,0.0,0.0
18.703,933.3333129882812,0.0,-1.5832661026634547,-1.5987760048798414,0.8920253293604814,-1.5968038136467797,0.0,0.0,0.0,0.0,-0.6675364858123092,0.0,0.0,0.0,-1.5824086412540237,-1.601724948114532,0.8849678310220855,-1.5967688053258944,-1.368144455374836e-05,1.9355707830224702e-06,0.1403263853415873,-0.1656438760472369,-1.6919764148220635,-0.0010841309427863188,0.002031818962304199,7.280206945079422e-05,-1.5832661026634547,-1.5987760048798414,0.7026388950361102,-1.5968038136467797,0.0,0.0
18.803,933.3333129882812,0.0,-1.5832661026634547,-1.5987760048798414,0.7892643526954384,-1.5968038136467797,0.0,0.0,0.0,0.0,-0.9320641681162336,0.0,0.0,0.0,-1.5791145773017046,-1.602422563162078,0.8229168434135119,-1.5967554895204439,3.064581341002682e-05,4.8224083647285754e-06,-0.9819548981796186,0.658300464849098,-0.8862113940930981,-0.1995944528348123,0.09104734407692357,-0.004800163732245583,-1.5832661026634547,-1.5987760048798414,0.5894159320787334,-1.5968038136467797,0.0,0.0
18.903,933.3333129882812,0.0,-1.5832661026634547,-1.5987760048798414,0.7065265818835273,-1.5968038136467797,0.0,0.0,0.0,0.0,-0.656060348245334,0.0,0.0,0.0,-1.585952509716592,-1.597670285354886,0.7592296762102206,-1.5967392442377946,-7.462918098589494e-05,-8.007619898716962e-07,0.10540856509085196,-0.31192640452202963,-0.6816187038796683,0.0032561919290829415,-0.0007009594733312051,0.00020770036253791636,-1.5832661026634547,-1.5987760048798414,0.6416745714267246,-1.5968038136467797,0.0,0.0
19.003,933.3333129882812,0.0,-1.5832661026634547,-1.5987760048798414,0.6432854381114499,-1.5968038136467797,0.0,0.0,0.0,0.0,-0.6033304438284225,0.0,0.0,0.0,-1.5837994771333175,-1.6001728578312338,0.6538928000869623,-1.596735915286432,-5.2343582733021454e-05,1.4158028468873452e-06,0.3078164145907376,-0.23593376860689108,-1.2191887554516592,-0.006788499047598808,0.009227389204528398,0.00019008811298052046,-1.5832661026634547,-1.5987760048798414,0.4674867637952967,-1.5968038136467797,0.0,0.0
19.104,933.3333129882812,0.0,-1.5832661026634547,-1.5987760048798414,0.5668960236682059,-1.5968038136467797,0.0,0.0,0.0,0.0,-1.0093359675187552,0.0,0.0,0.0,-1.581445642203851,-1.600054347162725,0.5096276993616887,-1.5970028971857124,0.00015177563762007554,-1.108968986660385e-06,0.5149400399461243,-0.11924784814301685,-1.1405280315984245,-0.31025620304438645,0.17639653875124314,-0.005628478091625332,-1.5832661026634547,-1.5987760048798414,0.4268956500166126,-1.5968038136467797,0.0,0.0
19.203,933.3333129882812,0.0,-1.5832661026634547,-1.5987760048798414,0.49252486369123005,-1.5968038136467797,0.0,0.0,0.0,0.0,-0.7106005378997703,0.0,0.0,0.0,-1.5817551015225182,-1.6017519791995962,0.399412278306055,-1.5967733326997475,1.9533237764741605e-05,4.1263455931424314e-06,0.3491814981692026,-0.15947058541664919,-0.8989289204046079,-0.022008629564523832,0.02508091461587729,0.00014332265313839,-1.5832661026634547,-1.5987760048798414,0.3506792025763299,-1.5968038136467797,0.0,0.0
19.303,933.3333129882812,0.0,-1.5832661026634547,-1.5987760048798414,0.4068442207054783,-1.5968038136467797,0.0,0.0,0.0,0.0,-0.8461605313561112,0.0,0.0,0.0,-1.5809730642684163,-1.6031109903038636,0.3888971196370134,-1.5967684058517309,4.0752809645083784e-05,6.20145552186375e-06,0.1500436609480412,-0.2904422845341969,0.3740624801274314,0.002015272123474642,0.0028655259628170325,0.00038098261891562365,-1.5832661026634547,-1.5987760048798414,0.21846565862776018,-1.5968038136467797,0.0,0.0
19.403,933.3333129882812,0.0,-1.5832661026634547,-1.5987760048798414,0.3145335051824647,-1.5968038136467797,0.0,0.0,0.0,0.0,-1.159999041107289,0.0,0.0,0.0,-1.5828631096940455,-1.5986979992195478,0.379362004249121,-1.5968453712072341,4.126458308948608e-05,-2.4546355787578645e-07,0.06638988871912568,-0.3994838174708373,0.01648901806527985,0.015793113266496125,-0.009451405784987998,0.0005631406268452793,-1.5832661026634547,-1.5987760048798414,0.19032265735402115,-1.5968038136467797,0.0,0.0
19.503,933.3333129882812,0.0,-1.5832661026634547,-1.5987760048798414,0.22893459258836657,-1.5968038136467797,0.0,0.0,0.0,0.0,-0.8054596505833681,0.0,0.0,0.0,-1.5832260985506235,-1.5985520579918113,0.2810612995943928,-1.5968232669701865,1.560782422376535e-05,-4.144311674835181e-07,-0.06224662175777527,-0.18650025567662434,-1.503372145370979,0.01886299731167931,-0.01601011928344555,0.0003343941396517939,-1.5832661026634547,-1.5987760048798414,-0.04658429576696177,-1.5968038136467797,0.0,0.0
19.603,933.3333129882812,0.0,-1.5832661026634547,-1.5987760048798414,0.14669857232211303,-1.5968038136467797,0.0,0.0,0.0,0.0,-0.8145062876640817,0.0,0.0,0.0,-1.5832073232649384,-1.5989154463225528,0.0938554893212224,-1.5968008964170297,8.941877226983118e-08,2.4830223167349984e-07,0.0044138321646835085,-0.14171870260423755,-2.1854563032301657,0.011041942335632294,-0.008508142214909052,0.00028770608443070194,-1.5832661026634547,-1.5987760048798414,0.08456219315559417,-1.5968038136467797,0.0,0.0
19.705,933.3333129882812,0.0,-1.5832661026634547,-1.5987760048798414,0.0754248454902644,-1.5968038136467797,0.0,0.0,0.0,0.0,-0.9858450584295634,0.0,0.0,0.0,-1.5815523018055087,-1.59590154691691,-0.012251060122717601,-1.5972917170059313,0.0004495305388465543,-7.500424168804373e-06,-0.6232127182760587,0.8361855109126136,-0.9172549308137702,-0.017877057625429148,-0.013783164214272578,-0.003523642742371726,-1.5832661026634547,-1.5987760048798414,0.0278063347243485,-1.5968038136467797,0.0,0.0
19.803,933.3333129882812,0.0,-1.5832661026634547,-1.5987760048798414,0.008810258119066994,-1.5968038136467797,0.0,0.0,0.0,0.0,-0.7538439480440898,0.0,0.0,0.0,-1.5832652470186477,-1.598655255484052,-0.012786441846499495,-1.5968144785385892,8.247152415890304e-06,-2.6231635510053164e-07,0.14800008428556888,-0.8109011266282651,0.9007901371114371,0.046992397057262075,-0.030773063583650184,0.001628995301558023,-1.5832661026634547,-1.5987760048798414,-0.09610050979207589,-1.5968038136467797,0.0,0.0
19.903,933.3333129882812,0.0,-1.5832661026634547,-1.5987760048798414,-0.06339382146586559,-1.5968038136467797,0.0,0.0,0.0,0.0,-0.6866103081181705,0.0,0.0,0.0,-1.5829692366634853,-1.5995496781361551,-0.008659806118097163,-1.5967815884991268,-5.041667783477739e-06,1.4217441737325354e-06,0.20843829482750426,-0.6482648749133524,1.1134396885706836,0.02442908305253978,-0.010585887442226534,0.0012316386632019404,-1.5832661026634547,-1.5987760048798414,-0.327376789588602,-1.5968038136467797,0.0,0.0
20.003,933.3333129882812,0.0,-1.5832661026634547,-1.5987760048798414,-0.14416330007822253,-1.5968038136467797,0.0,0.0,0.0,0.0,-0.6227867564722829,0.0,0.0,0.0,-1.5830736325782164,-1.5991826945379422,-0.08794026732264175,-1.5967971679915036,2.5742187186057935e-06,7.112358480501272e-07,-0.0038123595731580392,-0.2010438283238175,-1.170725348882724,0.016982725479191205,-0.01320893154749455,0.0004232056205937576,-1.5832661026634547,-1.5987760048798414,-0.39917742022289726,-1.5968038136467797,0.0,0.0
20.103,933.3333129882812,0.0,-1.5832661026634547,-1.5987760048798414,-0.2143463079819341,-1.5968038136467797,0.0,0.0,0.0,0.0,-0.6782661865988323,0.0,0.0,0.0,-1.5808187340832462,-1.6049436446080017,-0.2117540635427074,-1.596960020292162,0.00013408392722900743,5.849784238422585e-06,0.7346590856770406,-0.37460586485834846,-0.5196826637943646,-0.1963244738456017,0.14172326326760432,-0.002756274720508711,-1.5832661026634547,-1.5987760048798414,-0.4146869391052199,-1.5968038136467797,0.0,0.0
20.203,933.3333129882812,0.0,-1.5832661026634547,-1.5987760048798414,-0.2885269643720427,-1.5968038136467797,0.0,0.0,0.0,0.0,-0.5400423595316444,0.0,0.0,0.0,-1.5832350201402752,-1.5979780136188448,-0.32149684008387924,-1.59685589069354,3.647753314995879e-05,-1.401959857572863e-06,0.054767633178992116,-0.17904555179803133,-1.4365419820282035,0.005601443365520474,-0.002215014796828577,0.00026260237768118685,-1.5832661026634547,-1.5987760048798414,-0.564213071427407,-1.5968038136467797,0.0,0.0
20.303,933.3333129882812,0.0,-1.5832661026634547,-1.5987760048798414,-0.36839122308793293,-1.5968038136467797,0.0,0.0,0.0,0.0,-0.8963756520022181,0.0,0.0,0.0,-1.5852872520762902,-1.599129031841977,-0.47144189749256027,-1.5966823857485213,-0.00012151655879528699,3.1075218217095547e-07,-0.6837481009082683,0.5532337997079417,-3.0553824006784023,0.04840524146625194,-0.046445829016604545,0.0004571729854390992,-1.5832661026634547,-1.5987760048798414,-0.4226393495277405,-1.5968038136467797,0.0,0.0
20.403,933.3333129882812,0.0,-1.5832661026634547,-1.5987760048798414,-0.43245296175157044,-1.5968038136467797,0.0,0.0,0.0,0.0,-0.5853152954991834,0.0,0.0,0.0,-1.5824283486460902,-1.597089982553358,-0.5965494157582943,-1.5969016970642893,7.252873946232848e-05,-2.0711509066693023e-06,-1.1080344036642042,-0.05588053907021181,-0.6283428986419328,0.04976823482858689,-0.04789220428819419,0.0002553054398296742,-1.5832661026634547,-1.5987760048798414,-0.6481764733180752,-1.5968038136467797,0.0,0.0
20.503,933.3333129882812,0.0,-1.5832661026634547,-1.5987760048798414,-0.5116964972409157,-1.5968038136467797,0.0,0.0,0.0,0.0,-0.8169858504169154,0.0,0.0,0.0,-1.581916222768468,-1.598558582736482,-0.5329864517303418,-1.596873600714789,6.574941860021254e-05,-4.333125888911429e-07,-0.6056859890890565,-0.019562110387338735,1.1459779244531627,0.02902454020282344,-0.028180923590297394,0.00013829718818855549,-1.5832661026634547,-1.5987760048798414,-0.7857809771370347,-1.5968038136467797,0.0,0.0
20.603,933.3333129882812,0.0,-1.5832661026634547,-1.5987760048798414,-0.5918361718627025,-1.5968038136467797,0.0,0.0,0.0,0.0,-0.8122495494551327,0.0,0.0,0.0,-1.5840787095736122,-1.5983571146000177,-0.5043025090249935,-1.5967789253380367,-3.1152765320259534e-05,-4.10309091020583e-07,0.8636349785841694,-0.0842603779073975,0.12591008682736474,-0.04299966943771759,0.04357772935826531,-9.224004077111555e-05,-1.5832661026634547,-1.5987760048798414,-0.7140689794550348,-1.5968038136467797,0.0,0.0
20.703,933.3333129882812,0.0,-1.5832661026634547,-1.5987760048798414,-0.6559825856980552,-1.5968038136467797,0.0,0.0,0.0,0.0,-0.9027926974013747,0.0,0.0,0.0,-1.5835777689725683,-1.5990211738178288,-0.6011616112921482,-1.5967803900766362,-1.9205775743681646e-05,3.2726306039149695e-07,0.379278247832838,0.025948861701674732,-1.983785633364771,-0.01787984562219532,0.017194768237718455,-8.982226793418806e-05,-1.5832661026634547,-1.5987760048798414,-0.848623102925988,-1.5968038136467797,0.0,0.0
20.803,933.3333129882812,0.0,-1.5832661026634547,-1.5987760048798414,-0.7432481171844962,-1.5968038136467797,0.0,0.0,0.0,0.0,-0.5848874059079555,0.0,0.0,0.0,-1.5858501111726786,-1.5950165784866768,-0.7874928061738229,-1.5968388464625634,-7.894548014215939e-06,-3.260839573088668e-06,0.045899023788162435,0.8684606930584202,-2.4752060993019147,-0.02428952508904122,0.014368616487439863,-0.0007338996421198666,-1.5832661026634547,-1.5987760048798414,-0.9204478089086379,-1.5968038136467797,0.0,0.0
20.903,933.3333129882812,0.0,-1.5832661026634547,-1.5987760048798414,-0.8025112738976343,-1.5968038136467797,0.0,0.0,0.0,0.0,-0.6394291222955553,0.0,0.0,0.0,-1.5839129277957549,-1.6023609109828427,-0.8196315678927901,-1.5959280453697564,-0.00043712980490938504,1.4074205548740942e-05,0.3482181995134073,0.5500217611171971,0.03140387073853828,-0.0023085624913068135,0.005213122749519247,1.949258083312197e-05,-1.5832661026634547,-1.5987760048798414,-0.9980481265892258,-1.5968038136467797,0.0,0.0
21.003,933.3333129882812,0.0,-1.5832661026634547,-1.5987760048798414,-0.8948887509780796,-1.5968038136467797,0.0,0.0,0.0,0.0,-0.9515446194519115,0.0,0.0,0.0,-1.5859125623002408,-1.600533316684776,-0.8691455249327341,-1.5967091505174766,-7.614027783390597e-05,1.4303860575112064e-06,-0.024457895126583074,-0.7912912062575757,0.8213009704221063,0.016902979409002844,-0.00955317182814265,0.0005163018910620229,-1.5832661026634547,-1.5987760048798414,-1.08765463911223,-1.5968038136467797,0.0,0.0
21.103,933.3333129882812,0.0,-1.5832661026634547,-1.5987760048798414,-0.9879001480797136,-1.5968038136467797,0.0,0.0,0.0,0.0,-0.9342916754825267,0.0,0.0,0.0,-1.583448472501645,-1.5987716356236885,-1.022338274001253,-1.5968007632589754,-2.7685813542722618e-06,1.069993775884826e-08,0.0109845678588979,-0.07883362126462941,-2.8121670835980437,0.0012052497016465625,-0.0005878364395250041,4.036689591943444e-05,-1.5832661026634547,-1.5987760048798414,-1.2668763272016612,-1.5968038136467797,0.0,0.0
21.203,933.3333129882812,0.0,-1.5832661026634547,-1.5987760048798414,-1.0606901683926324,-1.5968038136467797,0.0,0.0,0.0,0.0,-0.7764266066434743,0.0,0.0,0.0,-1.5861972542207703,-1.6076408941600338,-1.142315545322086,-1.5962709273601041,-0.0002735750109893755,6.999612958800918e-06,-0.26908621266052657,-0.053184912381968825,0.015111178620165013,0.02575860588951839,-0.019260509474481862,0.0009041287559568526,-1.5832661026634547,-1.5987760048798414,-1.2382380414573797,-1.5968038136467797,0.0,0.0
21.302,933.3333129882812,0.0,-1.5832661026634547,-1.5987760048798414,-1.134511903744336,-1.5968038136467797,0.0,0.0,0.0,0.0,-0.5279867832256585,0.0,0.0,0.0,-1.5800143262759878,-1.6188655855224998,-1.1957157867617552,-1.5968959712679456,5.5779989492204e-05,-1.0492474513996773e-06,0.4850880347866672,0.8423419404045498,-1.8155051446145716,-0.3507824241689901,0.17064537579818978,-0.004264406981286746,-1.5832661026634547,-1.5987760048798414,-1.3020346537566125,-1.5968038136467797,0.0,0.0
21.403,933.3333129882812,0.0,-1.5832661026634547,-1.5987760048798414,-1.2064307549416995,-1.5968038136467797,0.0,0.0,0.0,0.0,-0.9319508896711014,0.0,0.0,0.0,-1.5769414378522,-1.59963023875913,-1.214064167724074,-1.597650178488656,0.0004332217980617214,-1.0047044023520991e-05,0.28397133571752237,0.5540698991321721,-1.0509612636071521,-0.21826091509982756,0.1088623854190621,-0.0030785453004354207,-1.5832661026634547,-1.5987760048798414,-1.442802672506553,-1.5968038136467797,0.0,0.0
21.503,933.3333129882812,0.0,-1.5832661026634547,-1.5987760048798414,-1.2955213755627337,-1.5968038136467797,0.0,0.0,0.0,0.0,-0.7731390848862311,0.0,0.0,0.0,-1.5813771989638359,-1.6054472483701356,-1.2818934159497928,-1.5967545574140625,-2.1056271617913314e-05,1.8114084048118355e-06,-0.34998317623634373,-0.40555389396442765,-1.5504552355469259,0.0051738796144407085,-0.0035707908365648117,8.222057986479608e-05,-1.5832661026634547,-1.5987760048798414,-1.544020994388555,-1.5968038136467797,0.0,0.0
21.603,1000.0,0.0,-1.5832661026634547,-1.5987760048798414,-1.2891080942461324,-1.5968038136467797,0.0,0.0,0.0,0.0,0.823094032887793,0.0,0.0,0.0,-1.5800726495038606,-1.601663429093351,-1.3789443323944603,-1.5967962358851222,1.5586075254341413e-06,5.447321505980363e-07,-0.4655435615997664,-0.7247983322668587,-1.133418456752349,0.0060241504886513995,-0.003770766926625616,0.00011192275015877561,-1.5832661026634547,-1.5987760048798414,-1.1709828740791761,-1.5968038136467797,0.0,0.0
21.703,1000.0,0.0,-1.5832661026634547,-1.5987760048798414,-1.2007909140626802,-1.5968038136467797,0.0,0.0,0.0,0.0,0.9534914046968562,0.0,0.0,0.0,-1.5833404813194423,-1.5974050345103143,-1.4025724302178613,-1.5968112827452812,3.7371354762169037e-06,-2.1706004142198377e-07,-0.10140213883645037,0.4015593187768769,0.9546914523102048,-0.00039158854742527596,-0.00017202191994312795,1.4512523235003369e-05,-1.5832661026634547,-1.5987760048798414,-1.131172303488822,-1.5968038136467797,0.0,0.0
21.803,1000.0,0.0,-1.5832661026634547,-1.5987760048798414,-1.1217878161809312,-1.5968038136467797,0.0,0.0,0.0,0.0,0.5896200568824059,0.0,0.0,0.0,-1.5830497972864601,-1.598435411536066,-1.228230453668587,-1.5968087527422457,3.1595406234220796e-06,-1.2329531034774634e-07,0.06967403655757336,0.07770847731596298,2.1960690001741314,-0.00035165052625908536,0.0002354464406861398,7.644431183147567e-06,-1.5832661026634547,-1.5987760048798414,-0.9869734734558858,-1.5968038136467797,0.0,0.0
21.903,1000.0,0.0,-1.5832661026634547,-1.5987760048798414,-1.0582242252266525,-1.5968038136467797,0.0,0.0,0.0,0.0,0.8465680652066153,0.0,0.0,0.0,-1.5830374135873913,-1.598421429940343,-1.0734394750508842,-1.596811815377499,5.101809463223278e-06,-1.6158803237744925e-07,0.023084817122214055,0.1282490080547268,2.1590981989733247,-0.0013892485156500054,0.0007454672929748292,-2.919648218242086e-05,-1.5832661026634547,-1.5987760048798414,-0.9523496401934441,-1.5968038136467797,0.0,0.0
22.003,1000.0,0.0,-1.5832661026634547,-1.5987760048798414,-0.987271337469779,-1.5968038136467797,0.0,0.0,0.0,0.0,0.9326929666036342,0.0,0.0,0.0,-1.5801864996404615,-1.6018521140565831,-0.9605785696369068,-1.5967979669398307,1.5847696056659856e-05,1.5433729860925229e-06,0.06452075326924278,-0.152049454012548,1.960719329373322,0.0029793425498299687,-0.0013949290590610903,0.00013540256094904553,-1.5832661026634547,-1.5987760048798414,-0.7427077565143285,-1.5968038136467797,0.0,0.0
22.103,1000.0,0.0,-1.5832661026634547,-1.5987760048798414,-0.9153549498869964,-1.5968038136467797,0.0,0.0,0.0,0.0,0.9725636289322905,0.0,0.0,0.0,-1.5810047558853884,-1.6043131412199254,-0.9099498133646556,-1.5967521605690813,-1.2926913060991004e-05,3.2848095874089937e-06,-0.5043492475021244,0.7764216460482,-1.10172044819379,-0.03713275884578666,0.014064143313735449,-0.0005624955775001945,-1.5832661026634547,-1.5987760048798414,-0.6784598927279879,-1.5968038136467797,0.0,0.0
22.203,1000.0,0.0,-1.5832661026634547,-1.5987760048798414,-0.8446136569068674,-1.5968038136467797,0.0,0.0,0.0,0.0,0.5974862971154832,0.0,0.0,0.0,-1.5842920287769275,-1.5969834561097547,-0.838745407931425,-1.596822867496023,1.8885163785732087e-06,-1.260495552318312e-06,0.35742681135165605,0.5185122044952748,0.9410461472539386,-0.018467139221585046,0.013046999909947423,-0.0003399902889443505,-1.5832661026634547,-1.5987760048798414,-0.6754191711251594,-1.5968038136467797,0.0,0.0
22.302,1000.0,0.0,-1.5832661026634547,-1.5987760048798414,-0.7668010563740237,-1.5968038136467797,0.0,0.0,0.0,0.0,0.7630504874813403,0.0,0.0,0.0,-1.579756265966359,-1.601630139579725,-0.8283171348929473,-1.5969178091888843,9.822863409308093e-05,-1.6819437105003567e-06,-0.6656719615883828,0.5668881928014279,-1.904253922677026,-0.008306767705201631,0.0024347770814765043,-0.0010720177210156617,-1.5832661026634547,-1.5987760048798414,-0.6942471202686354,-1.5968038136467797,0.0,0.0
22.403,1000.0,0.0,-1.5832661026634547,-1.5987760048798414,-0.6894703362590144,-1.5968038136467797,0.0,0.0,0.0,0.0,0.6364097227574186,0.0,0.0,0.0,-1.5832033285233031,-1.5966959678700807,-0.7555625699682088,-1.596861483331829,3.291348678836018e-05,-1.7807567153475236e-06,-0.11922535275418408,0.08359247375076244,1.5418794573627073,0.0021922783190963507,-0.002597855126649126,-7.031536574261926e-06,-1.5832661026634547,-1.5987760048798414,-0.4598970136609037,-1.5968038136467797,0.0,0.0
22.503,1000.0,0.0,-1.5832661026634547,-1.5987760048798414,-0.6007058269263741,-1.5968038136467797,0.0,0.0,0.0,0.0,0.7816228082040491,0.0,0.0,0.0,-1.5827734943233644,-1.5977657596799655,-0.6205797840643519,-1.5968557575354854,3.6650222501893615e-05,-1.0999679768115608e-06,-0.238472793100659,0.018171110141071325,2.096064105448348,0.008731344242582116,-0.008343470434271586,3.776420617362624e-05,-1.5832661026634547,-1.5987760048798414,-0.3406531611403534,-1.5968038136467797,0.0,0.0
22.602,1000.0,0.0,-1.5832661026634547,-1.5987760048798414,-0.5057523592951876,-1.5968038136467797,0.0,0.0,0.0,0.0,0.7056641110964549,0.0,0.0,0.0,-1.5784971234029697,-1.6022469276881874,-0.527959402277681,-1.5968965039001637,0.00013907850022540144,3.583916395614491e-06,-0.08790636195301367,0.48579786708571415,-0.9499990290485125,-0.015971549220720638,0.008145667785346504,-0.0006043960219964953,-1.5832661026634547,-1.5987760048798414,-0.27824734077021834,-1.5968038136467797,0.0,0.0
22.703,1000.0,0.0,-1.5832661026634547,-1.5987760048798414,-0.43735894038356626,-1.5968038136467797,0.0,0.0,0.0,0.0,0.6872586407799784,0.0,0.0,0.0,-1.584003075798654,-1.5989645816446647,-0.4645637513452126,-1.5967545574140625,-4.445599983432736e-05,3.605573678679642e-07,-0.5884492781447639,-0.05758092581433537,1.2626020096454766,0.03607173466155307,-0.03356511542870545,0.00020780418095760837,-1.5832661026634547,-1.5987760048798414,-0.3284592963473486,-1.5968038136467797,0.0,0.0
22.803,1000.0,0.0,-1.5832661026634547,-1.5987760048798414,-0.3479543283854234,-1.5968038136467797,0.0,0.0,0.0,0.0,0.8599923672764559,0.0,0.0,0.0,-1.5840494148016213,-1.5983665688218873,-0.3230983320053984,-1.5967662753228589,-4.4428822067343636e-05,-4.4801716964992257e-07,-0.10697918931086141,0.2320679406132889,1.5323655806845082,-0.00429916721522176,3.061257266033681e-05,-0.0003164548628851004,-1.5832661026634547,-1.5987760048798414,-0.05742095933193958,-1.5968038136467797,0.0,0.0
22.903,1000.0,0.0,-1.5832661026634547,-1.5987760048798414,-0.25108993808202307,-1.5968038136467797,0.0,0.0,0.0,0.0,0.9785897158916959,0.0,0.0,0.0,-1.5840534095432566,-1.5974240761121083,-0.2867215488857336,-1.5968164759094068,-1.3825821361272701e-05,-2.064530948381785e-06,-0.10867925148222711,0.826382148623923,-0.9442426063523062,-0.04138776622081191,0.024493067578323535,-0.0013738635588682936,-1.5832661026634547,-1.5987760048798414,-0.16265622413680297,-1.5968038136467797,0.0,0.0
23.004,1000.0,0.0,-1.5832661026634547,-1.5987760048798414,-0.15901426607907165,-1.5968038136467797,0.0,0.0,0.0,0.0,0.8460022924678057,0.0,0.0,0.0,-1.5835109236292073,-1.5984011899160584,-0.15652715991135271,-1.596803026945902,-8.998919095069377e-06,-6.000208662933814e-07,0.05963131018234419,0.09647154574952085,1.68524887043436,-0.013965986061917313,0.011911229324353182,-0.00021455675073718037,-1.5832661026634547,-1.5987760048798414,0.11355924843343645,-1.5968038136467797,0.0,0.0
23.103,1000.0,0.0,-1.5832661026634547,-1.5987760048798414,-0.07835808492507912,-1.5968038136467797,0.0,0.0,0.0,0.0,1.0868425065160157,0.0,0.0,0.0,-1.5833695097753242,-1.5984937347639387,-0.017248997895712496,-1.5968130137999896,2.7122559604744775e-06,-5.232878287845286e-07,0.009026993614581041,0.10801728118139589,2.007841568017293,-0.01048800274830121,0.008245136852060964,-0.0002359732212318386,-1.5832661026634547,-1.5987760048798414,0.21681361796314452,-1.5968038136467797,0.0,0.0
23.203,1000.0,0.0,-1.5832661026634547,-1.5987760048798414,-0.0007545294193311847,-1.5968038136467797,0.0,0.0,0.0,0.0,0.5680448219012975,0.0,0.0,0.0,-1.584537039597215,-1.5955562680815814,0.08310783668901688,-1.5968901123135475,1.5444375637697895e-05,-5.865401396876428e-06,0.04388338118881154,0.1063384993316156,0.3238828659730221,-0.01600240964014923,0.014106209815688392,-0.0002642740216610748,-1.5832661026634547,-1.5987760048798414,0.12824832166803368,-1.5968038136467797,0.0,0.0
23.303,1000.0,0.0,-1.5832661026634547,-1.5987760048798414,0.05863104755146778,-1.5968038136467797,0.0,0.0,0.0,0.0,0.7246299476634585,0.0,0.0,0.0,-1.5831370158121603,-1.5993119910088656,0.0921702992400691,-1.5967771942833282,-1.5280915876561782e-05,1.025298390333091e-06,-0.013418098924282355,-0.6129540220199917,0.18172147941658615,0.054857219421348864,-0.042775660139339096,0.0013105130942893833,-1.5832661026634547,-1.5987760048798414,0.17949829382173774,-1.5968038136467797,0.0,0.0
23.403,1000.0,0.0,-1.5832661026634547,-1.5987760048798414,0.14247966290464525,-1.5968038136467797,0.0,0.0,0.0,0.0,0.845446955695838,0.0,0.0,0.0,-1.5829836177333718,-1.5991491387082073,0.10744163891177526,-1.5968144785385892,1.9568819183358445e-05,5.784082835028747e-07,-0.2363484893676437,0.8868892351695505,-0.8469837636055306,-0.041293715022440086,0.022324114285157345,-0.0017080525648960835,-1.5832661026634547,-1.5987760048798414,0.4039948287116756,-1.5968038136467797,0.0,0.0
23.503,1000.0,0.0,-1.5832661026634547,-1.5987760048798414,0.22959272198635922,-1.5968038136467797,0.0,0.0,0.0,0.0,1.0887162140034992,0.0,0.0,0.0,-1.5863786154910047,-1.5922181288132216,0.25701278850340914,-1.5961412314150172,-0.00044955849683651363,3.6676996950490202e-06,0.3552569009849731,0.24860310834742735,0.7107822486078262,0.13776761184386077,-0.049089024720886595,0.0037425342981788736,-1.5832661026634547,-1.5987760048798414,0.3961674577920411,-1.5968038136467797,0.0,0.0
23.603,1000.0,0.0,-1.5832661026634547,-1.5987760048798414,0.3068470154805879,-1.5968038136467797,0.0,0.0,0.0,0.0,1.0890359385786066,0.0,0.0,0.0,-1.58283780966369,-1.6018427929927679,0.34272216739278355,-1.5966472320221323,-9.849771349179415e-05,5.162282331367318e-06,-0.5419646002657578,0.8798696085892924,-1.4407337975839882,0.0019160137169635973,-0.018347509193180848,-0.0012789940366322128,-1.5832661026634547,-1.5987760048798414,0.5605570606658239,-1.5968038136467797,0.0,0.0
23.703,1000.0,0.0,-1.5832661026634547,-1.5987760048798414,0.399940462270821,-1.5968038136467797,0.0,0.0,0.0,0.0,0.5553859643303953,0.0,0.0,0.0,-1.583788824488957,-1.597781738646506,0.4323569125708802,-1.5968120816936082,-8.541466643513202e-06,-1.3850993457410591e-06,0.041875844586028575,0.13916394049290295,1.6924192985113438,-0.01171222357159971,0.009293373181724315,-0.00021852343685446795,-1.5832661026634547,-1.5987760048798414,0.6229083682627681,-1.5968038136467797,0.0,0.0
23.803,1000.0,0.0,-1.5832661026634547,-1.5987760048798414,0.49330081521866076,-1.5968038136467797,0.0,0.0,0.0,0.0,0.7318474063210607,0.0,0.0,0.0,-1.5815215422949183,-1.5996183876922792,0.5935692053404412,-1.5968724022922984,7.997349705842841e-05,1.1054301725879078e-06,0.630381947930552,-0.5684946115709637,3.108994762898896,-0.01896154883617445,0.02263633663345551,0.0005450120809884193,-1.5832661026634547,-1.5987760048798414,0.7095059776803453,-1.5968038136467797,0.0,0.0
23.903,1000.0,0.0,-1.5832661026634547,-1.5987760048798414,0.5860190487186986,-1.5968038136467797,0.0,0.0,0.0,0.0,0.8418014767055992,0.0,0.0,0.0,-1.5814983727934344,-1.5977139611967635,0.6180535094543027,-1.5968931749488011,8.86970888754877e-05,1.579481029820018e-07,0.4678486606812845,-0.5927182587931337,1.564135095118336,-0.025965302560216768,0.025036993263836998,-6.945553868927598e-05,-1.5832661026634547,-1.5987760048798414,0.7272403323681449,-1.5968038136467797,0.0,0.0
24.003,1000.0,0.0,-1.5832661026634547,-1.5987760048798414,0.6461368405967626,-1.5968038136467797,0.0,0.0,0.0,0.0,0.9123502342586861,0.0,0.0,0.0,-1.5828989292107072,-1.599510263352022,0.7225949659389816,-1.5967971679915036,1.2605821591004353e-06,6.964667884150674e-07,-0.3782257998595523,0.06736172613516604,1.9374837814945989,0.015242883379339739,-0.015380757101508283,-3.984011943739699e-05,-1.5832661026634547,-1.5987760048798414,0.9008542944929256,-1.5968038136467797,0.0,0.0
24.103,1000.0,0.0,-1.5832661026634547,-1.5987760048798414,0.7288683676220591,-1.5968038136467797,0.0,0.0,0.0,0.0,0.6557266122010107,0.0,0.0,0.0,-1.584556347515118,-1.5959336380080456,0.7821576955620672,-1.5968316559276203,1.2985483119716664e-06,-2.3413775277721006e-06,0.04335618764508434,0.6893507260515226,-0.40734004281803016,-0.01835824506132523,0.011851736802314333,-0.0005195771370764675,-1.5832661026634547,-1.5987760048798414,0.886578707747445,-1.5968038136467797,0.0,0.0
24.204,1000.0,0.0,-1.5832661026634547,-1.5987760048798414,0.823357041516246,-1.5968038136467797,0.0,0.0,0.0,0.0,1.026457847057973,0.0,0.0,0.0,-1.583933567294203,-1.5872750355139253,0.8815197697797328,-1.5967853169246529,-1.7132534337236222e-05,4.0918386954741756e-08,0.07985501012170206,-0.3413760060407757,0.39133880559293893,-0.0044721954440023245,0.003612814166179771,-0.00011117034700864053,-1.5832661026634547,-1.5987760048798414,0.9370687763222105,-1.5968038136467797,0.0,0.0
24.303,1000.0,0.0,-1.5832661026634547,-1.5987760048798414,0.9073052272275122,-1.5968038136467797,0.0,0.0,0.0,0.0,0.8468819091616253,0.0,0.0,0.0,-1.5845592769923171,-1.5963123395150547,0.9966723918907506,-1.5968158101191343,-2.93352028813297e-06,-1.4318690399182968e-06,-0.06187179847910343,0.16374907022115917,2.217691737696703,-0.0009323645703140787,3.421331388375704e-05,-7.67815967378887e-05,-1.5832661026634547,-1.5987760048798414,1.197288229576107,-1.5968038136467797,0.0,0.0
