7cmdehdrb/project_th/tune/rtde_tune/data/rtde_log_elbow_test2.csv
Time,Stiffness,Damping,R_shoulder_pan_p,R_shoulder_lift_p,R_elbow_p,R_wrist_1_p,R_wrist_2_p,R_wrist_3_p,R_shoulder_pan_v,R_shoulder_lift_v,R_elbow_v,R_wrist_1_v,R_wrist_2_v,R_wrist_3_v,S_shoulder_pan_p,S_shoulder_lift_p,S_elbow_p,S_wrist_1_p,S_wrist_2_p,S_wrist_3_p,S_shoulder_pan_v,S_shoulder_lift_v,S_elbow_v,S_wrist_1_v,S_wrist_2_v,S_wrist_3_v,C_shoulder_pan_p,C_shoulder_lift_p,C_elbow_p,C_wrist_1_p,C_wrist_2_p,C_wrist_3_p
3.904,733.3333129882812,30.0,0.0,-1.5707963267948966,1.0301237090140436,-1.655141228937726,-1.623404528450802,-1.5789738532851736,0.0,0.0,-0.1286362972023664,0.0,0.0,0.0,0.000286328048109323,-1.5720737120117532,0.9170736361225631,-1.655200690171105,-1.6234053430747033,-1.5789739623961485,-0.006144258013516672,0.026006604443653613,2.039162472965497,0.0011633428853292942,6.354846546136243e-06,1.1726002085847595e-06,0.0,-1.5707963267948966,0.6613119787388608,-1.655141228937726,-1.623404528450802,-1.5789738532851736
4.004,733.3333129882812,30.0,0.0,-1.5707963267948966,0.9833537249191657,-1.655141228937726,-1.623404528450802,-1.5789738532851736,0.0,0.0,-0.8978105280240039,0.0,0.0,0.0,-0.0003989970896715914,-1.5588042455643243,0.9197059045439974,-1.6550048146729295,-1.6234009488589047,-1.5789743618703118,0.014513193885414841,-0.29959144130110965,-0.6572916594281759,-0.0030478955412102412,-5.815069700359241e-05,7.355573436777268e-06,0.0,-1.5707963267948966,0.697514622469058,-1.655141228937726,-1.623404528450802,-1.5789738532851736
4.103,733.3333129882812,30.0,0.0,-1.5707963267948966,0.8737506076011776,-1.655141228937726,-1.623404528450802,-1.5789738532851736,0.0,0.0,-1.5497268698132498,0.0,0.0,0.0,-0.0002555820126198823,-1.5655200720432316,0.7982654925202751,-1.6549986894024225,-1.6234005493847412,-1.5789743618703118,0.00844293117860764,-0.1316948388996667,-2.8201680184609685,-0.0033511167171131283,-8.066627816951069e-05,9.630148943881833e-06,0.0,-1.5707963267948966,0.7251006504954608,-1.655141228937726,-1.623404528450802,-1.5789738532851736
4.204,733.3333129882812,30.0,0.0,-1.5707963267948966,0.7401779040152663,-1.655141228937726,-1.623404528450802,-1.5789738532851736,0.0,0.0,-1.615062371574371,0.0,0.0,0.0,0.0003461389336315104,-1.5790208340313339,0.6894427382671848,-1.6551104090101512,-1.6234029462297224,-1.5789740955542029,-0.01216709876786635,0.20499514378841124,-1.7167757708928815,-0.0009546565160059516,-4.55021975713926e-05,5.786417535452994e-06,0.0,-1.5707963267948966,0.04810816349087854,-1.655141228937726,-1.623404528450802,-1.5789738532851736
4.304,733.3333129882812,30.0,0.0,-1.5707963267948966,0.5515084249371487,-1.655141228937726,-1.623404528450802,-1.5789738532851736,0.0,0.0,-1.9594121555513104,0.0,0.0,0.0,-0.00028079782765820527,-1.5701418549570096,0.6298773454830092,-1.6550403678734822,-1.6234025467555588,-1.5789743618703118,0.007259821344191288,-0.016316680333832698,-1.9513611144608383,-0.002437675089682242,-3.6009200245188067e-05,9.73766326355464e-06,0.0,-1.5707963267948966,0.18432319544072373,-1.655141228937726,-1.623404528450802,-1.5789738532851736
4.404,733.3333129882812,30.0,0.0,-1.5707963267948966,0.38791218319073817,-1.655141228937726,-1.623404528450802,-1.5789738532851736,0.0,0.0,-1.214950015030842,0.0,0.0,0.0,-0.0001818997216154384,-1.5696278648666244,0.4490905856747705,-1.6550708610679636,-1.6234017478072318,-1.5789742287122575,0.005086371886090987,-0.02904981526604397,-2.744594963575572,-0.0016808786990272428,-4.599439635916204e-05,7.78227971874318e-06,0.0,-1.5707963267948966,0.19629906778337575,-1.655141228937726,-1.623404528450802,-1.5789738532851736
4.504,733.3333129882812,30.0,0.0,-1.5707963267948966,0.2402670249581469,-1.655141228937726,-1.623404528450802,-1.5789738532851736,0.0,0.0,-1.8507525782925254,0.0,0.0,0.0,0.00030518776042220063,-1.5716518672950845,0.3272382492094402,-1.6551611422289172,-1.6234054762327579,-1.5789742287122575,0.017323881616316858,-0.07740221379060386,-1.6587405638920383,-0.0032829509764030836,-8.69122150362645e-05,9.400566301478174e-06,0.0,-1.5707963267948966,-0.15260319231787245,-1.655141228937726,-1.623404528450802,-1.5789738532851736
4.604,733.3333129882812,30.0,0.0,-1.5707963267948966,0.06895505289343529,-1.655141228937726,-1.623404528450802,-1.5789738532851736,0.0,0.0,-1.7655158529360968,0.0,0.0,0.0,-0.0002412587930161668,-1.5696438438331648,0.20073624986267016,-1.6550880384569946,-1.6234037451780494,-1.5789742287122575,0.006710150616834088,-0.02859546125872504,-2.6547654747427636,-0.001255370055265231,-1.3034854065103598e-05,7.880702612102541e-06,0.0,-1.5707963267948966,-0.2115043022002373,-1.655141228937726,-1.623404528450802,-1.5789738532851736
4.703,733.3333129882812,30.0,0.0,-1.5707963267948966,-0.08143678025025025,-1.655141228937726,-1.623404528450802,-1.5789738532851736,0.0,0.0,-1.6874348427258512,0.0,0.0,0.0,-0.0003110565976447327,-1.5697483729059505,0.002496781401348164,-1.6550948295177743,-1.6234024135975043,-1.5789742287122575,-0.004889994444468018,-0.04124025206355674,-3.0962576623533744,-0.0020731986079642805,7.107472892869952e-05,9.294967998123072e-06,0.0,-1.5707963267948966,-0.1940642029706529,-1.655141228937726,-1.623404528450802,-1.5789738532851736
4.802,733.3333129882812,30.0,0.0,-1.5707963267948966,-0.23587411202593955,-1.655141228937726,-1.623404528450802,-1.5789738532851736,0.0,0.0,-1.9082067776814011,0.0,0.0,0.0,-8.936986051817468e-05,-1.5705397312238674,-0.15416660050013373,-1.6551197300739664,-1.6234026799136134,-1.5789742287122575,0.0029351457790792877,-0.0082202071675443,-3.1415937188542293,-0.001035007324018991,5.0006518273794854e-05,2.225960301133718e-05,0.0,-1.5707963267948966,-0.9109567016045332,-1.655141228937726,-1.623404528450802,-1.5789738532851736
4.903,733.3333129882812,30.0,0.0,-1.5707963267948966,-0.41256497677713,-1.655141228937726,-1.623404528450802,-1.5789738532851736,0.0,0.0,-1.8878174216237034,0.0,0.0,0.0,1.7701938626638984e-05,-1.57109739715613,-0.36358520492489615,-1.6551369074629976,-1.6234028130716678,-1.5789742287122575,0.0004839244906038102,0.004513621642966618,-3.1415929199059023,-0.0008064404831656396,-5.214224863236231e-05,5.322450730008149e-05,0.0,-1.5707963267948966,-0.82238555528898,-1.655141228937726,-1.623404528450802,-1.5789738532851736
5.004,733.3333129882812,30.0,0.0,-1.5707963267948966,-0.5935183905786534,-1.655141228937726,-1.623404528450802,-1.5789738532851736,0.0,0.0,-1.9812187567557966,0.0,0.0,0.0,6.029015373960066e-05,-1.5714032612073257,-0.5731569411123382,-1.6551494243201208,-1.6234030793877767,-1.5789742287122575,-0.0008261696564569618,0.01250290777686583,-3.1415937188542293,-0.00038899960504575157,-0.00011235631844085709,4.970686388722497e-05,0.0,-1.5707963267948966,-0.9159977620683318,-1.655141228937726,-1.623404528450802,-1.5789738532851736
5.104,733.3333129882812,30.0,0.0,-1.5707963267948966,-0.7738463232774109,-1.655141228937726,-1.623404528450802,-1.5789738532851736,0.0,0.0,-1.8343900234818902,0.0,0.0,0.0,7.65026101328498e-05,-1.5715416124259554,-0.7304061505742386,-1.6551576801195,-1.6234030793877767,-1.5789742287122575,-0.0014500411492405435,0.016629768209485137,-3.141594784118665,-2.391007734751972e-05,-0.00010372887285089629,3.683955661064144e-05,0.0,-1.5707963267948966,-1.4108526433014432,-1.655141228937726,-1.623404528450802,-1.5789738532851736
5.204,733.3333129882812,30.0,0.0,-1.5707963267948966,-0.9801063400946202,-1.655141228937726,-1.623404528450802,-1.5789738532851736,0.0,0.0,-1.5390939487823039,0.0,0.0,0.0,8.507646415717344e-05,-1.5716259014744562,-0.8875981686517296,-1.6551659359188793,-1.623403345703886,-1.5789742287122575,-0.0019215391260396987,0.019719411661599948,-3.1415929199059023,0.0004292781935407956,-5.472195430968069e-05,1.858194074257682e-05,0.0,-1.5707963267948966,-1.322272630110784,-1.655141228937726,-1.623404528450802,-1.5789738532851736
5.304,866.6666870117188,30.0,0.0,-1.5707963267948966,-1.0393162902040647,-1.655141228937726,-1.623404528450802,-1.5789738532851736,0.0,0.0,0.574863005102207,0.0,0.0,0.0,8.840385507382127e-05,-1.5719807676897093,-1.0926593754799316,-1.6551949643747612,-1.6234046772844308,-1.5789742287122575,0.005813407581601514,-0.054828644535090156,-2.7195039913653907,-0.003679923484980841,-7.13707585293619e-05,9.35705667960397e-06,0.0,-1.5707963267948966,-0.6270676249794288,-1.655141228937726,-1.623404528450802,-1.5789738532851736
5.404,866.6666870117188,30.0,0.0,-1.5707963267948966,-0.923168725790136,-1.655141228937726,-1.623404528450802,-1.5789738532851736,0.0,0.0,1.6326829389656106,0.0,0.0,0.0,0.00037345297956163556,-1.576573122673442,-1.1598601842674188,-1.6553044202955636,-1.6234085388680115,-1.5789742287122575,-0.010988135038342384,0.15410847700934277,-0.26906395862066756,0.0047215006115473674,0.00014632366703155335,5.026792751174524e-06,0.0,-1.5707963267948966,-0.37028064696106855,-1.655141228937726,-1.623404528450802,-1.5789738532851736
5.503,866.6666870117188,30.0,0.0,-1.5707963267948966,-0.76099355938626,-1.655141228937726,-1.623404528450802,-1.5789738532851736,0.0,0.0,1.5678737471341426,0.0,0.0,0.0,0.0002366668882210911,-1.5739045021031282,-1.0625458811909423,-1.6552801855296437,-1.6234085388680115,-1.5789742287122575,-0.008537074443290592,0.0920985603382051,2.480387279202664,0.00405917738985684,0.00010063674354336261,7.939266575336203e-06,0.0,-1.5707963267948966,-0.44537987545465707,-1.655141228937726,-1.623404528450802,-1.5789738532851736
5.603,866.6666870117188,30.0,0.0,-1.5707963267948966,-0.6273598806622172,-1.655141228937726,-1.623404528450802,-1.5789738532851736,0.0,0.0,1.615714963160204,0.0,0.0,0.0,6.960483760658786e-05,-1.5718382885713902,-0.8861199145096539,-1.6551852438367824,-1.6234077399196845,-1.5789740955542029,-0.002569044092903132,0.030791358251982266,2.676232949973783,0.0012877974225031733,6.851137948823961e-05,6.433926411558628e-06,0.0,-1.5707963267948966,0.017177520456304052,-1.655141228937726,-1.623404528450802,-1.5789738532851736
5.704,866.6666870117188,30.0,0.0,-1.5707963267948966,-0.45118247443249526,-1.655141228937726,-1.623404528450802,-1.5789738532851736,0.0,0.0,1.8073711549999618,0.0,0.0,0.0,4.116023233015969e-05,-1.5714834223561371,-0.7497008858299172,-1.6551652701286068,-1.6234074736035755,-1.5789739623961485,-0.0015577863011316147,0.020248598414955504,2.6727098541677172,0.0006894294682348156,6.248415700165893e-05,2.1776264529142975e-06,0.0,-1.5707963267948966,-0.26304001298519136,-1.655141228937726,-1.623404528450802,-1.5789738532851736
5.803,866.6666870117188,30.0,0.0,-1.5707963267948966,-0.2490760983521616,-1.655141228937726,-1.623404528450802,-1.5789738532851736,0.0,0.0,2.0387717296794996,0.0,0.0,0.0,5.003754839172065e-05,-1.57146784286376,-0.6113073229389685,-1.6551600769644812,-1.623407074129412,-1.578973829238094,-0.0018240654795853596,0.01976765024743861,2.754145059244596,0.0005516197893688532,5.903398662154727e-05,-6.708148468928655e-08,0.0,-1.5707963267948966,0.4307379249116221,-1.655141228937726,-1.623404528450802,-1.5789738532851736
5.904,866.6666870117188,30.0,0.0,-1.5707963267948966,-0.043813339355501135,-1.655141228937726,-1.623404528450802,-1.5789738532851736,0.0,0.0,1.791296378891872,0.0,0.0,0.0,3.606947653371521e-05,-1.5713553243077043,-0.42736082236589157,-1.655151022216775,-1.6234064083391395,-1.578973829238094,-0.0013939861595950666,0.01641722090676699,2.7514565981241614,0.00027049909569055373,4.2296594584843766e-05,-2.7666303206229267e-08,0.0,-1.5707963267948966,0.428094896991579,-1.655141228937726,-1.623404528450802,-1.5789738532851736
6.004,866.6666870117188,30.0,0.0,-1.5707963267948966,0.11428715722583299,-1.655141228937726,-1.623404528450802,-1.5789738532851736,0.0,0.0,1.6768117615506852,0.0,0.0,0.0,3.258764210451008e-05,-1.5712886121223977,-0.2884766053336094,-1.6551446306301587,-1.623406275181085,-1.5789736960800393,-0.0013007188252393991,0.014437413428537176,2.7789998090660877,0.0001228390367389445,3.654012166178344e-05,2.4920083656431794e-08,0.0,-1.5707963267948966,0.47123623968318185,-1.655141228937726,-1.623404528450802,-1.5789738532851736
6.104,866.6666870117188,30.0,0.0,-1.5707963267948966,0.28078342664490963,-1.655141228937726,-1.623404528450802,-1.5789738532851736,0.0,0.0,2.3195731760778293,0.0,0.0,0.0,5.7572088521274265e-05,-1.5712697036786583,-0.14421232020141964,-1.6551444974721043,-1.623406275181085,-1.5789736960800393,-0.00208666551659762,0.013882429382716078,2.910485132089371,7.183788452671722e-05,3.488774756392852e-05,-2.1816746215367694e-06,0.0,-1.5707963267948966,0.7613833048512612,-1.655141228937726,-1.623404528450802,-1.5789738532851736
6.204,866.6666870117188,30.0,0.0,-1.5707963267948966,0.44477770735652444,-1.655141228937726,-1.623404528450802,-1.5789738532851736,0.0,0.0,0.9044929986135165,0.0,0.0,0.0,4.5126000059986393e-05,-1.5710330818158047,0.05732266576762494,-1.6551371737791065,-1.623406008864976,-1.5789736960800393,-0.0015627101582935214,0.006948105620678618,3.08337621847677,-0.0001413558085447513,2.9433682157990035e-05,-2.1613108526691373e-06,0.0,-1.5707963267948966,0.570936054736662,-1.655141228937726,-1.623404528450802,-1.5789738532851736
6.304,866.6666870117188,30.0,0.0,-1.5707963267948966,0.5745314430403786,-1.655141228937726,-1.623404528450802,-1.5789738532851736,0.0,0.0,1.9947782333726363,0.0,0.0,0.0,-3.781637952145877e-05,-1.5706325423878567,0.2146144150667502,-1.6551266542928007,-1.6234054762327579,-1.5789736960800393,-0.0007536610646275138,0.00026561884974205446,3.1415945178025564,0.001142437070772172,-0.0005226753374940301,6.840452144987181e-05,0.0,-1.5707963267948966,1.0992885851572425,-1.655141228937726,-1.623404528450802,-1.5789738532851736
6.404,866.6666870117188,30.0,0.0,-1.5707963267948966,0.8083930542303157,-1.655141228937726,-1.623404528450802,-1.5789738532851736,0.0,0.0,2.57142116334882,0.0,0.0,0.0,-9.258454985146031e-05,-1.5702477156103403,0.42468973837156937,-1.6551152027001135,-1.6234040114941584,-1.5789736960800393,0.0013141715598220147,-0.011488648077195655,3.1415929199059023,0.000890231554352465,-0.0005509459367922521,0.00012116017569653218,0.0,-1.5707963267948966,1.4542817754970754,-1.655141228937726,-1.623404528450802,-1.5789738532851736
6.503,1000.0,30.0,0.0,-1.5707963267948966,0.9633367567082609,-1.655141228937726,-1.623404528450802,-1.5789738532851736,0.0,0.0,0.723805279121762,0.0,0.0,0.0,-9.653184417687493e-05,-1.5701029728050944,0.5823146865737664,-1.6551093437457152,-1.6234026799136134,-1.5789736960800393,0.0018781007320213096,-0.016835456832099027,3.141594784118665,0.00046336402224126717,-0.0004251832907811829,0.00010975490874836824,0.0,-1.5707963267948966,0.8503350584745766,-1.655141228937726,-1.623404528450802,-1.5789738532851736
6.603,1000.0,30.0,0.0,-1.5707963267948966,0.9102499061563956,-1.655141228937726,-1.623404528450802,-1.5789738532851736,0.0,0.0,-1.2477159137443121,0.0,0.0,0.0,-0.00018582032581322905,-1.5585416578808424,0.7416273132482603,-1.6549893683386072,-1.6234010820169593,-1.5789739623961485,0.005465493673209783,0.5922795030035432,0.22716011755367954,-0.0043668143677273496,-0.00011191274542457796,-3.711636509320677e-07,0.0,-1.5707963267948966,0.6410883270248129,-1.655141228937726,-1.623404528450802,-1.5789738532851736
6.704,1000.0,30.0,0.0,-1.5707963267948966,0.7991001215166866,-1.655141228937726,-1.623404528450802,-1.5789738532851736,0.0,0.0,-1.3718267759079874,0.0,0.0,0.0,-0.0004891084546002106,-1.5615020277485745,0.7816527602193881,-1.6550211931136336,-1.6234024135975043,-1.5789740955542029,0.021444825878186448,-0.32372181130609956,0.12351986645950498,-0.0042204125483610725,-0.00010627170892895581,6.859996222568525e-06,0.0,-1.5707963267948966,0.6579991523531978,-1.655141228937726,-1.623404528450802,-1.5789738532851736
6.804,1000.0,30.0,0.0,-1.5707963267948966,0.6855765251648442,-1.655141228937726,-1.623404528450802,-1.5789738532851736,0.0,0.0,-1.522452804386098,0.0,0.0,0.0,7.635171826029605e-05,-1.5698696798936036,0.734638046704429,-1.6551205290222935,-1.6234026799136134,-1.5789740955542029,0.004090310107103922,-0.0630419332054354,-0.34529541350655896,-0.002083196515210899,-5.2829137434514214e-05,6.971073357313548e-06,0.0,-1.5707963267948966,0.04164043592408584,-1.655141228937726,-1.623404528450802,-1.5789738532851736
6.904,1000.0,30.0,0.0,-1.5707963267948966,0.49574900830135427,-1.655141228937726,-1.623404528450802,-1.5789738532851736,0.0,0.0,-1.5812362757051792,0.0,0.0,0.0,-0.00016836514489361045,-1.56911094529904,0.6182272141364031,-1.6550647357974564,-1.6234020141233407,-1.5789739623961485,0.007139500038230698,-0.05765221530776543,-2.5104463784263884,-0.002452986185355596,-5.562659034060885e-05,2.662261497052022e-06,0.0,-1.5707963267948966,-0.18544561522136405,-1.655141228937726,-1.623404528450802,-1.5789738532851736
7.004,1000.0,30.0,0.0,-1.5707963267948966,0.32195755656634084,-1.655141228937726,-1.623404528450802,-1.5789738532851736,0.0,0.0,-1.6985721239746412,0.0,0.0,0.0,-6.337832097733633e-05,-1.5700825996227554,0.4267837153576714,-1.655106680584625,-1.6234026799136134,-1.5789739623961485,0.0028332871494648627,-0.0243440637153336,-2.8903646837377135,-0.0011194269948498323,-4.216224994123106e-05,2.200605441827453e-06,0.0,-1.5707963267948966,0.08230436251506545,-1.655141228937726,-1.623404528450802,-1.5789738532851736
7.104,1000.0,30.0,0.0,-1.5707963267948966,0.16722457325176254,-1.655141228937726,-1.623404528450802,-1.5789738532851736,0.0,0.0,-1.4042810774741568,0.0,0.0,0.0,-3.621087162973771e-05,-1.5708043162781669,0.28122185491861096,-1.6551455627365403,-1.6234049436005398,-1.5789739623961485,0.039279358230552994,-0.16433681322898283,-2.38640911802373,-0.006539277103837829,-0.00023256603626128938,5.427658718692379e-06,0.0,-1.5707963267948966,0.045171056198969384,-1.655141228937726,-1.623404528450802,-1.5789738532851736
7.204,1000.0,30.0,0.0,-1.5707963267948966,0.012914586975791842,-1.655141228937726,-1.623404528450802,-1.5789738532851736,0.0,0.0,-1.602547854831761,0.0,0.0,0.0,-9.717494296452077e-05,-1.5703537094217255,0.08720370354415308,-1.6551189311256396,-1.6234037451780494,-1.5789739623961485,0.0038867709987878353,-0.015028621666669857,-2.934979556215375,-0.0007167656855011644,-1.742899062233838e-05,2.360775669115883e-06,0.0,-1.5707963267948966,-0.27123188256704345,-1.655141228937726,-1.623404528450802,-1.5789738532851736
7.303,1000.0,30.0,0.0,-1.5707963267948966,-0.15293733711612134,-1.655141228937726,-1.623404528450802,-1.5789738532851736,0.0,0.0,-2.1104152929594195,0.0,0.0,0.0,0.00014600649013732288,-1.572190225309444,0.002039650060310388,-1.655153685377865,-1.623406008864976,-1.5789739623961485,0.030013492590056756,-0.06974085693379913,-1.5706676961142458,-0.003528992731315478,-9.988606338563199e-05,4.0909216414021765e-06,0.0,-1.5707963267948966,-0.2736031253703017,-1.655141228937726,-1.623404528450802,-1.5789738532851736
7.404,1000.0,30.0,0.0,-1.5707963267948966,-0.289786901423156,-1.655141228937726,-1.623404528450802,-1.5789738532851736,0.0,0.0,-1.2596628147492928,0.0,0.0,0.0,-0.00024843681188248034,-1.5703362657165854,-0.17130086296624236,-1.6551136048034594,-1.6234037451780494,-1.5789739623961485,0.008983769261732295,-0.015636287408101385,-2.7349742941376607,-0.0009003019573172336,-1.2096361639793731e-05,2.4887893823532555e-06,0.0,-1.5707963267948966,-0.769843476367694,-1.655141228937726,-1.623404528450802,-1.5789738532851736
7.503,1000.0,30.0,0.0,-1.5707963267948966,-0.4549526277887228,-1.655141228937726,-1.623404528450802,-1.5789738532851736,0.0,0.0,-1.9365595500913393,0.0,0.0,0.0,-2.120519261472138e-05,-1.570979285961785,-0.3540040834291726,-1.6551342443019075,-1.6234054762327579,-1.5789739623961485,0.0005356774282896502,0.006205501876061437,-2.7188661642843166,-0.00022267721393944847,1.6938431521916124e-05,4.798733981770102e-06,0.0,-1.5707963267948966,-0.9423239950815149,-1.655141228937726,-1.623404528450802,-1.5789738532851736
7.604,1000.0,30.0,0.0,-1.5707963267948966,-0.6741255191749289,-1.655141228937726,-1.623404528450802,-1.5789738532851736,0.0,0.0,-1.6252927768856469,0.0,0.0,0.0,-7.116982673117455e-05,-1.5708189636641623,-0.5061978807728029,-1.6551311816666539,-1.6234049436005398,-1.5789739623961485,0.002899371515350307,-0.0009940380756440798,-3.1415937188542293,-0.0007564814406471783,-4.173413915631752e-05,3.523725088404944e-05,0.0,-1.5707963267948966,-1.1022876275780489,-1.655141228937726,-1.623404528450802,-1.5789738532851736
7.704,1000.0,30.0,0.0,-1.5707963267948966,-0.8805793388588352,-1.655141228937726,-1.623404528450802,-1.5789738532851736,0.0,0.0,-1.5226129850906407,0.0,0.0,0.0,5.22641665996239e-05,-1.5713092516208458,-0.7158556370634545,-1.655152886429538,-1.6234049436005398,-1.5789739623961485,-0.0013849522178348136,0.01577692832109009,-3.141594784118665,3.2023729853396566e-05,-5.687986413179436e-05,2.9036670573244916e-05,0.0,-1.5707963267948966,-1.0788284496793983,-1.655141228937726,-1.623404528450802,-1.5789738532851736
7.804,1000.0,30.0,0.0,-1.5707963267948966,-1.0127772209631338,-1.655141228937726,-1.623404528450802,-1.5789738532851736,0.0,0.0,-1.6109625936595056,0.0,0.0,0.0,0.00023248352768161871,-1.5750314187183951,-0.8985306446635867,-1.6552490265448898,-1.6234082725519026,-1.5789739623961485,-0.013392242334870668,-0.2503576654525988,-1.0711270522763685,0.0027162838717452132,9.008281364410554e-05,2.920890174736464e-06,0.0,-1.5707963267948966,-1.5393483007079454,-1.655141228937726,-1.623404528450802,-1.5789738532851736
7.904,1133.3333740234375,30.0,0.0,-1.5707963267948966,-1.1693168642580059,-1.655141228937726,-1.623404528450802,-1.5789738532851736,0.0,0.0,-0.5854286238352254,0.0,0.0,0.0,-1.9582836783120757e-05,-1.5713346848092562,-1.0436587427401005,-1.6551379727274336,-1.6234056093908125,-1.5789739623961485,0.00030529650399942616,0.01842059632034671,-3.1212772618463416,-6.118304985294271e-05,1.941622260487622e-05,2.4826723021554865e-06,0.0,-1.5707963267948966,-0.6363881396596499,-1.655141228937726,-1.623404528450802,-1.5789738532851736
8.003,1133.3333740234375,30.0,0.0,-1.5707963267948966,-1.111927378715908,-1.655141228937726,-1.623404528450802,-1.5789738532851736,0.0,0.0,1.045508271946788,0.0,0.0,0.0,6.900285494429208e-05,-1.5810292569674171,-1.2030270960604041,-1.6552692665691744,-1.623407340445521,-1.578973829238094,-0.0023513512196608457,-0.48765212628419546,-0.2388414078850396,0.004275353249560217,0.00011154311478988312,1.6221555057959324e-07,0.0,-1.5707963267948966,-0.688994635732195,-1.655141228937726,-1.623404528450802,-1.5789738532851736
8.104,1133.3333740234375,30.0,0.0,-1.5707963267948966,-0.960117204638185,-1.655141228937726,-1.623404528450802,-1.5789738532851736,0.0,0.0,2.075729425608377,0.0,0.0,0.0,0.00019895411174527375,-1.575378828082596,-1.1548112303147922,-1.6552604781375773,-1.623406807813303,-1.5789739623961485,-0.011814708460189224,0.1792670768664555,1.8261537942332533,0.00463883858802483,0.00013205958182753086,1.134906701990975e-06,0.0,-1.5707963267948966,-0.4272454002012037,-1.655141228937726,-1.623404528450802,-1.5789738532851736
8.204,1133.3333740234375,30.0,0.0,-1.5707963267948966,-0.7969189054895995,-1.655141228937726,-1.623404528450802,-1.5789738532851736,0.0,0.0,1.1042311032608179,0.0,0.0,0.0,3.854410405632889e-05,-1.57166917784217,-0.9915973389594411,-1.6551744580343677,-1.623407074129412,-1.5789739623961485,-0.002265172211038587,0.03404724537395607,2.5530625485059453,0.0012795664602219846,7.028298953687748e-05,4.802138314050397e-06,0.0,-1.5707963267948966,-0.6559986237111304,-1.655141228937726,-1.623404528450802,-1.5789738532851736
8.304,1133.3333740234375,30.0,0.0,-1.5707963267948966,-0.6817365718712853,-1.655141228937726,-1.623404528450802,-1.5789738532851736,0.0,0.0,1.1936971339785323,0.0,0.0,0.0,5.369827332005216e-05,-1.5714460049428214,-0.8601424425516122,-1.6551670011833155,-1.623406807813303,-1.5789739623961485,-0.002649834881655834,0.025272968061769433,2.6891767118198953,0.0009774421477856414,6.76347420838841e-05,4.6023580558928085e-06,0.0,-1.5707963267948966,-0.5523252985630293,-1.655141228937726,-1.623404528450802,-1.5789738532851736
8.402,1133.3333740234375,30.0,0.0,-1.5707963267948966,-0.5682931894002792,-1.655141228937726,-1.623404528450802,-1.5789738532851736,0.0,0.0,0.8065297196945455,0.0,0.0,0.0,5.0234099562992854e-05,-1.571342541134472,-0.6769360677349819,-1.655158479067827,-1.6234064083391395,-1.5789736960800393,-0.002432614823536766,0.02116008402338654,2.792922815245022,0.0006575004684225436,5.1577192460584034e-05,-7.318569133494742e-08,0.0,-1.5707963267948966,-0.36129257465951353,-1.655141228937726,-1.623404528450802,-1.5789738532851736
8.504,1133.3333740234375,30.0,0.0,-1.5707963267948966,-0.451811814211462,-1.655141228937726,-1.623404528450802,-1.5789738532851736,0.0,0.0,1.448883068924645,0.0,0.0,0.0,2.4438324874959097e-05,-1.570826819989378,-0.5327250957588642,-1.6551299832441633,-1.6234048104424854,-1.5789734297639304,-0.028879628869414902,0.15502465435860047,2.329336244282787,0.005961978680914309,0.00014363363701275157,-9.676356836880018e-06,0.0,-1.5707963267948966,-0.34145258278315255,-1.655141228937726,-1.623404528450802,-1.5789738532851736
8.604,1133.3333740234375,30.0,0.0,-1.5707963267948966,-0.3170801996672088,-1.655141228937726,-1.623404528450802,-1.5789738532851736,0.0,0.0,1.7914536155505427,0.0,0.0,0.0,0.00015586914248019027,-1.5724127324185202,-0.4189699008508381,-1.6551592780161541,-1.6234061420230304,-1.578973562921985,-0.007705517477224211,0.06238150670579858,2.538767498722727,0.0006608619940943743,4.4883939945464985e-05,-5.2173068455814205e-06,0.0,-1.5707963267948966,-0.19803775499055598,-1.655141228937726,-1.623404528450802,-1.5789738532851736
8.704,1133.3333740234375,30.0,0.0,-1.5707963267948966,-0.13152251980869067,-1.655141228937726,-1.623404528450802,-1.5789738532851736,0.0,0.0,2.2610176770842783,0.0,0.0,0.0,5.032141951767978e-05,-1.5712978000281586,-0.2308479465179236,-1.6551470274751399,-1.6234064083391395,-1.5789736960800393,-0.002595658018749811,0.019315108438017693,2.8947146910622488,0.00020279994457456855,4.0483153206461533e-05,-2.399637986300082e-06,0.0,-1.5707963267948966,0.33684507448930756,-1.655141228937726,-1.623404528450802,-1.5789738532851736
8.804,1133.3333740234375,30.0,0.0,-1.5707963267948966,0.019044008168097946,-1.655141228937726,-1.623404528450802,-1.5789738532851736,0.0,0.0,1.355835124838563,0.0,0.0,0.0,2.097216601933945e-05,-1.571041337615184,-0.0829184526459986,-1.6551399700982512,-1.623406008864976,-1.5789736960800393,-0.0011969578819732761,0.009422402296241352,2.9748910198918472,-3.8777419171665346e-05,3.2625226908163246e-05,-2.4120765996563507e-06,0.0,-1.5707963267948966,0.3988733045737819,-1.655141228937726,-1.623404528450802,-1.5789738532851736
8.904,1133.3333740234375,30.0,0.0,-1.5707963267948966,0.16439265921239157,-1.655141228937726,-1.623404528450802,-1.5789738532851736,0.0,0.0,1.569996919534765,0.0,0.0,0.0,3.194129848329119e-05,-1.5708919342780305,0.12013225897389694,-1.6551369074629976,-1.6234054762327579,-1.5789736960800393,-0.0014036579336378803,0.0036929474870383595,3.1127213242122442,-0.0001833669309210714,2.0424766456045664e-05,-2.4606137325338697e-06,0.0,-1.5707963267948966,0.799880354033389,-1.655141228937726,-1.623404528450802,-1.5789738532851736
9.004,1133.3333740234375,30.0,0.0,-1.5707963267948966,0.34293957383475465,-1.655141228937726,-1.623404528450802,-1.5789738532851736,0.0,0.0,1.8111681905330175,0.0,0.0,0.0,-5.781911036628119e-05,-1.5705276138409077,0.27759066806180155,-1.6551265211347461,-1.6234046772844308,-1.5789736960800393,0.00045260946125476125,-0.005258554613240317,3.1415945178025564,0.001054185204759464,-0.000569755227195331,9.129226491149433e-05,0.0,-1.5707963267948966,0.9411834543423969,-1.655141228937726,-1.623404528450802,-1.5789738532851736
9.104,1133.3333740234375,30.0,0.0,-1.5707963267948966,0.5106860973183001,-1.655141228937726,-1.623404528450802,-1.5789738532851736,0.0,0.0,1.2836700511603198,0.0,0.0,0.0,-7.752293047455734e-05,-1.570315493060083,0.48770292608198873,-1.6551194637578575,-1.6234030793877767,-1.5789736960800393,0.0018939575936661023,-0.014745989534795993,3.14159345253812,0.0005756033885090095,-0.00046370969352875263,0.00010650672671839007,0.0,-1.5707963267948966,0.9544277140687674,-1.655141228937726,-1.623404528450802,-1.5789738532851736
9.204,1133.3333740234375,30.0,0.0,-1.5707963267948966,0.6797968637258495,-1.655141228937726,-1.623404528450802,-1.5789738532851736,0.0,0.0,1.4486467381147148,0.0,0.0,0.0,-7.576911926255056e-05,-1.5702414571817787,0.6453409903525543,-1.6551168005967674,-1.6234026799136134,-1.5789736960800393,0.0022634806876274663,-0.018858688400259345,3.1415945178025564,6.899871813705683e-05,-0.00031355272599945026,7.864011224775768e-05,0.0,-1.5707963267948966,1.2537514535710654,-1.655141228937726,-1.623404528450802,-1.5789738532851736
9.304,1133.3333740234375,30.0,0.0,-1.5707963267948966,0.8513348241869831,-1.655141228937726,-1.623404528450802,-1.5789738532851736,0.0,0.0,1.137009791689959,0.0,0.0,0.0,-7.108758635315175e-05,-1.5701948518627022,0.8555387025542195,-1.6551137379615137,-1.6234029462297224,-1.5789736960800393,0.004581222242167997,-0.016163300980395548,3.1273503343961586,-0.00018973753279014673,-0.000180741350570984,-1.1724142960788526e-06,0.0,-1.5707963267948966,1.1920212528448868,-1.655141228937726,-1.623404528450802,-1.5789738532851736
9.403,1266.6666259765625,30.0,0.0,-1.5707963267948966,0.9768984034147093,-1.655141228937726,-1.623404528450802,-1.5789738532851736,0.0,0.0,0.497667044326083,0.0,0.0,0.0,-6.99148218202619e-05,-1.570190590804958,1.0131749359015356,-1.6551138711195683,-1.6234030793877767,-1.5789736960800393,0.002799108961869653,-0.0232969836761201,3.141120208812413,-0.001039154274152935,-4.9460276853980494e-05,-2.3934614750553427e-06,0.0,-1.5707963267948966,0.736631154183119,-1.655141228937726,-1.623404528450802,-1.5789738532851736
9.503,1266.6666259765625,30.0,0.0,-1.5707963267948966,0.9137026794787664,-1.655141228937726,-1.623404528450802,-1.5789738532851736,0.0,0.0,-1.138544342637746,0.0,0.0,0.0,-0.00010083152295829437,-1.5682098647442115,1.0608280091297868,-1.655072858438781,-1.6234028130716678,-1.578973829238094,0.006423825429542342,-0.10133809813461238,0.5039719441546874,-0.0024375297081344538,-4.5478994065190894e-05,-4.427918789797193e-06,0.0,-1.5707963267948966,0.2817209778457934,-1.655141228937726,-1.623404528450802,-1.5789738532851736
9.602,1266.6666259765625,30.0,0.0,-1.5707963267948966,0.7734655887031785,-1.655141228937726,-1.623404528450802,-1.5789738532851736,0.0,0.0,-1.2436564133398902,0.0,0.0,0.0,-6.551878550135475e-05,-1.5696246690733162,1.026460647631614,-1.6550769863384707,-1.6234024135975043,-1.5789739623961485,0.004312128279292579,-0.051552864848130216,-1.0510244471040144,-0.0026158171599192748,-5.9254375230188865e-05,5.160119955581401e-06,0.0,-1.5707963267948966,0.38923877297240617,-1.655141228937726,-1.623404528450802,-1.5789738532851736
9.704,1266.6666259765625,30.0,0.0,-1.5707963267948966,0.634963664300634,-1.655141228937726,-1.623404528450802,-1.5789738532851736,0.0,0.0,-1.420439957545878,0.0,0.0,0.0,-3.725020584281439e-05,-1.5701618286651853,0.919162020470376,-1.65510268584299,-1.6234026799136134,-1.5789739623961485,0.0024203817075021906,-0.027863308340791818,-1.7684682602835375,-0.0015574311696405498,-5.282124986787017e-05,4.996645971630626e-06,0.0,-1.5707963267948966,0.12202634279300717,-1.655141228937726,-1.623404528450802,-1.5789738532851736
9.803,1266.6666259765625,30.0,0.0,-1.5707963267948966,0.473421339172023,-1.655141228937726,-1.623404528450802,-1.5789738532851736,0.0,0.0,-2.0254717453713345,0.0,0.0,0.0,-3.506437460369337e-05,-1.5702652924735347,0.7841237742368181,-1.6551117405906963,-1.6234028130716678,-1.578973829238094,0.0022135680033574727,-0.023265914156934044,-2.108637155270721,-0.0012137641449422225,-4.441773639923186e-05,2.4314376600904855e-06,0.0,-1.5707963267948966,0.1803973136338874,-1.655141228937726,-1.623404528450802,-1.5789738532851736
9.904,1266.6666259765625,30.0,0.0,-1.5707963267948966,0.3277629927569734,-1.655141228937726,-1.623404528450802,-1.5789738532851736,0.0,0.0,-1.5858165487668698,0.0,0.0,0.0,-1.7425865666774615e-05,-1.5703935236800222,0.6784534703450819,-1.6551183984934215,-1.6234032125458313,-1.578973829238094,0.001295263766268265,-0.017586535878825926,-2.0732946107603887,-0.0009279432417670455,-3.886864024123031e-05,-5.428050703274079e-08,0.0,-1.5707963267948966,-0.15089122141163214,-1.655141228937726,-1.623404528450802,-1.5789738532851736
10.002,1266.6666259765625,30.0,0.0,-1.5707963267948966,0.1620559806958921,-1.655141228937726,-1.623404528450802,-1.5789738532851736,0.0,0.0,-1.6603478306864168,0.0,0.0,0.0,-1.4970940806125727e-05,-1.5704169594976147,0.5719997310396715,-1.6551197300739664,-1.6234036120199948,-1.578973829238094,0.0011853983584409762,-0.0165336613836469,-2.082749098946279,-0.0008647888732293384,-2.781737305445038e-05,-3.06715831501066e-08,0.0,-1.5707963267948966,-0.3572776707992461,-1.655141228937726,-1.623404528450802,-1.5789738532851736
10.104,1266.6666259765625,30.0,0.0,-1.5707963267948966,-0.007880223816567167,-1.655141228937726,-1.623404528450802,-1.5789738532851736,0.0,0.0,-1.4101978048609873,0.0,0.0,0.0,-5.220026552518925e-05,-1.5703035088351773,0.4252421112711654,-1.6551160016484403,-1.6234034788619403,-1.578973829238094,0.003046785283915949,-0.02142962297343238,-2.2492376797570186,-0.0010060066310713428,-2.809100375385464e-05,-3.132915815979282e-08,0.0,-1.5707963267948966,-0.18578313238676297,-1.655141228937726,-1.623404528450802,-1.5789738532851736
10.204,1266.6666259765625,30.0,0.0,-1.5707963267948966,-0.1286046114076509,-1.655141228937726,-1.623404528450802,-1.5789738532851736,0.0,0.0,-1.463357372680123,0.0,0.0,0.0,-2.53919158339454e-05,-1.5704459879534967,0.31013339802862017,-1.655121993760893,-1.6234037451780494,-1.578973829238094,0.0017213603080423986,-0.015201082153198504,-2.2908466423123075,-0.0007862100816310699,-2.513929832728528e-05,-6.643358567788259e-09,0.0,-1.5707963267948966,-0.528283909480143,-1.655141228937726,-1.623404528450802,-1.5789738532851736
10.304,1266.6666259765625,30.0,0.0,-1.5707963267948966,-0.28216408883777433,-1.655141228937726,-1.623404528450802,-1.5789738532851736,0.0,0.0,-1.7782436468764593,0.0,0.0,0.0,-3.944135235095675e-05,-1.5705027132847154,0.14586459527597523,-1.6551242574478195,-1.6234037451780494,-1.578973829238094,0.0023228639784497293,-0.012698196547363498,-2.4791273376909477,-0.0006817458973895981,-1.859239044769025e-05,-2.035608104740365e-09,0.0,-1.5707963267948966,-0.5827696225024452,-1.655141228937726,-1.623404528450802,-1.5789738532851736
10.404,1266.6666259765625,30.0,0.0,-1.5707963267948966,-0.4572536361611004,-1.655141228937726,-1.623404528450802,-1.5789738532851736,0.0,0.0,-1.2114354226193067,0.0,0.0,0.0,-8.590288283479678e-05,-1.5704981859108622,0.014631034602461644,-1.6551243906058741,-1.6234037451780494,-1.578973829238094,0.00438694984213322,-0.012894408061566989,-2.659449975100213,-0.0006752922830468469,-1.7500962128176993e-05,8.164330553328876e-08,0.0,-1.5707963267948966,-0.8144079253949007,-1.655141228937726,-1.623404528450802,-1.5789738532851736
10.504,1266.6666259765625,30.0,0.0,-1.5707963267948966,-0.6145021558242263,-1.655141228937726,-1.623404528450802,-1.5789738532851736,0.0,0.0,-1.4488876219956528,0.0,0.0,0.0,-8.495398540464812e-05,-1.5706380018680914,-0.1721917569299011,-1.6551287848216727,-1.6234037451780494,-1.578973829238094,0.003984008367717728,-0.006868558247274713,-2.896807935679051,-0.0005135880804971103,-1.6045031514569e-05,9.961957018988261e-08,0.0,-1.5707963267948966,-0.7604632969213287,-1.655141228937726,-1.623404528450802,-1.5789738532851736
10.604,1266.6666259765625,30.0,0.0,-1.5707963267948966,-0.7675398432359692,-1.655141228937726,-1.623404528450802,-1.5789738532851736,0.0,0.0,-2.014478601698982,0.0,0.0,0.0,-5.749930021950806e-05,-1.5707655672843062,-0.32447235668031116,-1.655133045879417,-1.6234037451780494,-1.578973829238094,0.002522083252224193,-0.0013401074719028888,-3.11694243454002,-0.00035357953003840707,-1.828462905676442e-05,1.0800472105237483e-07,0.0,-1.5707963267948966,-0.9659719482310609,-1.655141228937726,-1.623404528450802,-1.5789738532851736
10.704,1266.6666259765625,30.0,0.0,-1.5707963267948966,-0.9426845274913855,-1.655141228937726,-1.623404528450802,-1.5789738532851736,0.0,0.0,-2.4604929458370393,0.0,0.0,0.0,3.1076929272494856e-05,-1.5710876766181512,-0.4816094137708057,-1.6551442311559952,-1.6234038783361038,-1.578973829238094,-0.0006474029527093726,0.0100562190312207,-3.141592653589793,-0.0004308359412208899,-7.107456638224627e-05,3.9643287873492927e-05,0.0,-1.5707963267948966,-1.5575184188232072,-1.655141228937726,-1.623404528450802,-1.5789738532851736
10.804,1400.0,30.0,0.0,-1.5707963267948966,-1.1020614325601752,-1.655141228937726,-1.623404528450802,-1.5789738532851736,0.0,0.0,0.0,0.0,0.0,0.0,4.8284740904062705e-05,-1.5712060541286053,-0.6912444333236506,-1.6551508890587203,-1.6234040114941584,-1.578973829238094,-0.0018356493200670661,0.0165614539663354,-3.141594251486447,0.00020636905832184727,-4.165762447711052e-05,1.4200689039508247e-05,0.0,-1.5707963267948966,-0.6665053249482671,-1.655141228937726,-1.623404528450802,-1.5789738532851736
10.903,1400.0,30.0,0.0,-1.5707963267948966,-1.015234812462241,-1.655141228937726,-1.623404528450802,-1.5789738532851736,0.0,0.0,1.8429135035051754,0.0,0.0,0.0,0.0002695616577853593,-1.5723699886830245,-0.8246684044624569,-1.6552070817577211,-1.623406807813303,-1.5789739623961485,-0.013439851540842339,0.06854122353720532,-1.9552494628104085,0.0027972356465052156,8.033219644414206e-05,-1.8214655856385473e-06,0.0,-1.5707963267948966,-0.5927758167227333,-1.655141228937726,-1.623404528450802,-1.5789738532851736
11.004,1400.0,30.0,0.0,-1.5707963267948966,-0.8839217019680605,-1.655141228937726,-1.623404528450802,-1.5789738532851736,0.0,0.0,1.2965316240870268,0.0,0.0,0.0,0.00021606472669328896,-1.5729823825756881,-0.7581772615264486,-1.655205483861067,-1.623406275181085,-1.5789740955542029,-0.013405025508103048,0.10553517343355,2.104210848380955,0.003041045703633043,9.926785045997901e-05,7.035370638728005e-06,0.0,-1.5707963267948966,-0.7048893922751636,-1.655141228937726,-1.623404528450802,-1.5789738532851736
11.104,1400.0,30.0,0.0,-1.5707963267948966,-0.7604738799949189,-1.655141228937726,-1.623404528450802,-1.5789738532851736,0.0,0.0,0.8576107167845434,0.0,0.0,0.0,-8.254135716296605e-05,-1.5658622882433069,-0.7299137320886829,-1.6551361085146705,-1.623404144652213,-1.5789739623961485,0.013925079491454776,-0.2458479350416859,0.45923013876157004,-0.0005763903734170739,-4.061969629085447e-05,7.884463530664657e-06,0.0,-1.5707963267948966,-0.30350829108939636,-1.655141228937726,-1.623404528450802,-1.5789738532851736
11.203,1400.0,30.0,0.0,-1.5707963267948966,-0.6541162789813884,-1.655141228937726,-1.623404528450802,-1.5789738532851736,0.0,0.0,1.0141231787640055,0.0,0.0,0.0,5.440132736697997e-05,-1.5707336093512252,-0.727857838306169,-1.655151022216775,-1.6234054762327579,-1.5789743618703118,-0.0025122870326167697,-0.003009554864040157,-0.13924773019869957,0.0004562325891884556,3.00956302387211e-05,6.723394215086288e-06,0.0,-1.5707963267948966,-0.07020193648936157,-1.655141228937726,-1.623404528450802,-1.5789738532851736
11.303,1400.0,30.0,0.0,-1.5707963267948966,-0.5125089550160045,-1.655141228937726,-1.623404528450802,-1.5789738532851736,0.0,0.0,1.7413079429757043,0.0,0.0,0.0,8.242792412056421e-05,-1.572158001060254,-0.6032216995533789,-1.6551670011833155,-1.6234066746552485,-1.5789742287122575,-0.0059335905280210955,0.06546253857685727,2.084094261612878,0.0011936765242121894,6.704058603331241e-05,1.0137870917936826e-05,0.0,-1.5707963267948966,0.11679499321016562,-1.655141228937726,-1.623404528450802,-1.5789738532851736
11.402,1400.0,30.0,0.0,-1.5707963267948966,-0.3389659908353151,-1.655141228937726,-1.623404528450802,-1.5789738532851736,0.0,0.0,2.0538855887181806,0.0,0.0,0.0,6.296887458891744e-05,-1.5714097859519964,-0.47928903480253326,-1.6551562153809005,-1.6234065414971939,-1.5789742287122575,-0.003971382019303444,0.02944406505651118,2.6054354755551166,0.0006930011339614104,6.365600721074922e-05,1.0222684609497672e-05,0.0,-1.5707963267948966,-0.198796447325497,-1.655141228937726,-1.623404528450802,-1.5789738532851736
11.504,1400.0,30.0,0.0,-1.5707963267948966,-0.19168752602279326,-1.655141228937726,-1.623404528450802,-1.5789738532851736,0.0,0.0,1.7316841159552483,0.0,0.0,0.0,2.1978503302405996e-05,-1.5710795539768265,-0.2965192519571078,-1.6551430327335046,-1.6234048104424854,-1.5789740955542029,-0.0015856029406951947,0.013535677486409353,2.721436114736243,0.00010698308535429011,1.4349243290881162e-05,1.026656605638369e-05,0.0,-1.5707963267948966,0.3249720438386745,-1.655141228937726,-1.623404528450802,-1.5789738532851736
11.603,1400.0,30.0,0.0,-1.5707963267948966,-0.01675903034826476,-1.655141228937726,-1.623404528450802,-1.5789738532851736,0.0,0.0,2.1354266649914693,0.0,0.0,0.0,3.600904176239615e-05,-1.5710706323871748,-0.14234835710971636,-1.6551430327335046,-1.6234053430747033,-1.5789739623961485,-0.0023507200192735777,0.013125960555673671,3.098126935122501,0.000106725782446115,1.5261585039608797e-05,2.6362804783303706e-06,0.0,-1.5707963267948966,0.21151148650415436,-1.655141228937726,-1.623404528450802,-1.5789738532851736
11.703,1400.0,30.0,0.0,-1.5707963267948966,0.14824192103647596,-1.655141228937726,-1.623404528450802,-1.5789738532851736,0.0,0.0,2.0022095863233225,0.0,0.0,0.0,-2.8216995033643195e-06,-1.5708574463419138,0.01419099924719109,-1.6551377064113246,-1.6234053430747033,-1.5789739623961485,-0.0003015766934353376,0.0039627850024095326,3.141593186222011,0.00011613605988225965,-4.151697709477298e-05,-5.80790604958348e-07,0.0,-1.5707963267948966,0.5850674319387937,-1.655141228937726,-1.623404528450802,-1.5789738532851736
11.804,1400.0,30.0,0.0,-1.5707963267948966,0.3049737872545233,-1.655141228937726,-1.623404528450802,-1.5789738532851736,0.0,0.0,1.0711475305666207,0.0,0.0,0.0,-5.5313749373018896e-05,-1.5705891328620885,0.22408749544600062,-1.6551303827183268,-1.6234044109683219,-1.5789739623961485,0.0011689383844360377,-0.005832108486029565,3.141592653589793,0.0007068887128157655,-0.0004255111794866826,6.055838383309563e-05,0.0,-1.5707963267948966,0.9623729044154388,-1.655141228937726,-1.623404528450802,-1.5789738532851736
11.904,1400.0,30.0,0.0,-1.5707963267948966,0.4729440601873776,-1.655141228937726,-1.623404528450802,-1.5789738532851736,0.0,0.0,1.601369902314563,0.0,0.0,0.0,-5.533342562118504e-05,-1.570492060640355,0.38096176511593155,-1.6551277195572367,-1.6234034788619403,-1.5789739623961485,0.003146066576967612,-0.014587541852909287,3.139530567957745,-0.0006259346624054176,-2.4024067111523948e-05,2.4058386255339756e-06,0.0,-1.5707963267948966,0.5810108346103734,-1.655141228937726,-1.623404528450802,-1.5789738532851736
12.004,1400.0,30.0,0.0,-1.5707963267948966,0.6093490038716567,-1.655141228937726,-1.623404528450802,-1.5789738532851736,0.0,0.0,1.422501385043832,0.0,0.0,0.0,-6.317740949745565e-05,-1.5703730173396284,0.5911127055509522,-1.6551229258672746,-1.6234029462297224,-1.5789739623961485,0.0023437651116689977,-0.017701580276728145,3.141593985170338,7.915648169312568e-05,-0.0003117475826175065,8.019446270697905e-05,0.0,-1.5707963267948966,1.09621647052556,-1.655141228937726,-1.623404528450802,-1.5789738532851736
12.103,1400.0,30.0,0.0,-1.5707963267948966,0.7723382357978735,-1.655141228937726,-1.623404528450802,-1.5789738532851736,0.0,0.0,1.652509854046955,0.0,0.0,0.0,5.98047290752705e-05,-1.568056732981532,0.6801220073470438,-1.6551393043079785,-1.6234046772844308,-1.5789739623961485,0.0017582177813358496,-0.13254318054253306,2.653509527972682,0.00016111677592232947,3.932630095542972e-06,4.940865616408902e-06,0.0,-1.5707963267948966,1.1569171840367978,-1.655141228937726,-1.623404528450802,-1.5789738532851736
12.204,1400.0,30.0,0.0,-1.5707963267948966,0.9687807931166551,-1.655141228937726,-1.623404528450802,-1.5789738532851736,0.0,0.0,1.869082083241869,0.0,0.0,0.0,-1.8859228737179246e-05,-1.570372617865465,0.8842704157116211,-1.6551266542928007,-1.623403345703886,-1.5789739623961485,0.0007424814446657542,-0.019617015198281,3.141593985170338,-0.0004845946046119865,-7.083489163692634e-05,2.127292572179145e-05,0.0,-1.5707963267948966,1.0661078128509962,-1.655141228937726,-1.623404528450802,-1.5789738532851736
12.304,1533.3333740234375,30.0,0.0,-1.5707963267948966,1.0829446894265413,-1.655141228937726,-1.623404528450802,-1.5789738532851736,0.0,0.0,0.14054160564010415,0.0,0.0,0.0,-5.276116863508693e-05,-1.5703305399202416,1.0419080472185096,-1.655120395864239,-1.6234036120199948,-1.5789739623961485,0.002863043033234319,-0.02244974682898723,3.140074651768448,-0.000966286584698963,-4.221923060041852e-05,5.159098960671912e-06,0.0,-1.5707963267948966,0.800085171375164,-1.655141228937726,-1.623404528450802,-1.5789738532851736
12.402,1533.3333740234375,30.0,0.0,-1.5707963267948966,0.9952177331141732,-1.655141228937726,-1.623404528450802,-1.5789738532851736,0.0,0.0,-1.6385204551701804,0.0,0.0,0.0,-0.00010112122950192523,-1.569718678659796,1.157928993002948,-1.6550745894934897,-1.6234024135975043,-1.5789739623961485,0.006554715635930533,-0.05275779959976896,0.8965933947076358,-0.0030053450409380953,-6.946738019839538e-05,3.0550636366155837e-06,0.0,-1.5707963267948966,0.880079267004779,-1.655141228937726,-1.623404528450802,-1.5789738532851736
12.502,1533.3333740234375,30.0,0.0,-1.5707963267948966,0.8622680273740935,-1.655141228937726,-1.623404528450802,-1.5789738532851736,0.0,0.0,-1.3979128858218992,0.0,0.0,0.0,-5.6074783739821664e-05,-1.5699667521153369,1.1308048304585454,-1.655086307402286,-1.6234025467555588,-1.5789740955542029,0.0045489673042076635,-0.04468063175064039,-0.9874013955039669,-0.002724515484212215,-6.623924014610317e-05,8.051962063206416e-06,0.0,-1.5707963267948966,0.5762460692376479,-1.655141228937726,-1.623404528450802,-1.5789738532851736
12.603,1533.3333740234375,30.0,0.0,-1.5707963267948966,0.7317100211125398,-1.655141228937726,-1.623404528450802,-1.5789738532851736,0.0,0.0,-1.503011648020785,0.0,0.0,0.0,-2.8946617806312694e-05,-1.5703201535919904,1.0215796059857167,-1.6551118737487507,-1.6234029462297224,-1.5789740955542029,0.0024418768504802226,-0.025604548262241112,-1.8298128444129678,-0.0014581529974807893,-4.454522564617866e-05,7.863934929534274e-06,0.0,-1.5707963267948966,0.3451607017259607,-1.655141228937726,-1.623404528450802,-1.5789738532851736
12.702,1533.3333740234375,30.0,0.0,-1.5707963267948966,0.542592594779447,-1.655141228937726,-1.623404528450802,-1.5789738532851736,0.0,0.0,-2.2328651578084484,0.0,0.0,0.0,-2.1379474921898076e-05,-1.5704342700447003,0.8880208788957524,-1.655120395864239,-1.6234034788619403,-1.5789739623961485,0.0018320991754908818,-0.019415457596248638,-2.02200412553628,-0.0010077230565991016,-3.114776295316071e-05,7.809959347901313e-06,0.0,-1.5707963267948966,-0.10596030988593308,-1.655141228937726,-1.623404528450802,-1.5789738532851736
12.803,1533.3333740234375,30.0,0.0,-1.5707963267948966,0.3685546865636331,-1.655141228937726,-1.623404528450802,-1.5789738532851736,0.0,0.0,-1.489480627616032,0.0,0.0,0.0,-1.7552615327359118e-05,-1.5704678258744353,0.7846548085581799,-1.65512279270922,-1.6234034788619403,-1.5789739623961485,0.0015756480757493974,-0.01756021843770998,-2.0420918170065296,-0.0008968856859999476,-3.008111280861504e-05,2.5249752705931283e-06,0.0,-1.5707963267948966,-0.24856272229359888,-1.655141228937726,-1.623404528450802,-1.5789738532851736
12.904,1533.3333740234375,30.0,0.0,-1.5707963267948966,0.1961182283111187,-1.655141228937726,-1.623404528450802,-1.5789738532851736,0.0,0.0,-1.3879802299840718,0.0,0.0,0.0,-3.3245644370088454e-05,-1.5704016463213468,0.645427276771873,-1.655120395864239,-1.6234034788619403,-1.578973829238094,0.0025771721957887034,-0.021014760732246878,-2.1208496130814978,-0.0010011710691428424,-2.822627491225088e-05,-5.999633242139831e-08,0.0,-1.5707963267948966,-0.199615014968616,-1.655141228937726,-1.623404528450802,-1.5789738532851736
13.004,1533.3333740234375,30.0,0.0,-1.5707963267948966,0.07830613494938632,-1.655141228937726,-1.623404528450802,-1.5789738532851736,0.0,0.0,-1.2119727588953582,0.0,0.0,0.0,-3.7877777380513345e-05,-1.5704125652818162,0.49769580557175214,-1.655121727444784,-1.6234037451780494,-1.578973829238094,0.0028711807588699227,-0.020373196903268383,-2.2550950362585387,-0.0009355352014312104,-1.800131871606901e-05,-7.403914751974385e-08,0.0,-1.5707963267948966,-0.30297499602713107,-1.655141228937726,-1.623404528450802,-1.5789738532851736
13.104,1533.3333740234375,30.0,0.0,-1.5707963267948966,-0.07916250973796579,-1.655141228937726,-1.623404528450802,-1.5789738532851736,0.0,0.0,-1.4656787477953326,0.0,0.0,0.0,-6.11722852140761e-06,-1.570562634409242,0.38637730319260766,-1.6551274532411278,-1.6234037451780494,-1.578973829238094,0.0009006227589973716,-0.012379498348367778,-2.1854680211389623,-0.000664802640269851,-1.872145842706426e-05,-4.6385237686891185e-08,0.0,-1.5707963267948966,-0.6585569797314486,-1.655141228937726,-1.623404528450802,-1.5789738532851736
13.203,1533.3333740234375,30.0,0.0,-1.5707963267948966,-0.25751786993895465,-1.655141228937726,-1.623404528450802,-1.5789738532851736,0.0,0.0,-1.8345146991869359,0.0,0.0,0.0,-1.1974247600872903e-05,-1.5705767491630196,0.27692795706929213,-1.6551281190314002,-1.6234038783361038,-1.578973829238094,0.0012401181265008607,-0.011582085500160006,-2.1639242463427117,-0.0006316300300530393,-1.4599404314266514e-05,-4.563094833120394e-09,0.0,-1.5707963267948966,-0.7105846532958046,-1.655141228937726,-1.623404528450802,-1.5789738532851736
13.303,1533.3333740234375,30.0,0.0,-1.5707963267948966,-0.43804131815365466,-1.655141228937726,-1.623404528450802,-1.5789738532851736,0.0,0.0,-1.2503684288777583,0.0,0.0,0.0,-2.7722169596780738e-05,-1.5706048455125199,0.12376381201535624,-1.6551291842958362,-1.6234038783361038,-1.578973829238094,0.002079692273753113,-0.01010086963166886,-2.29639746897236,-0.0005864388651199442,-1.296056017681415e-05,-3.909018977124482e-09,0.0,-1.5707963267948966,-0.8497467915833152,-1.655141228937726,-1.623404528450802,-1.5789738532851736
13.403,1533.3333740234375,30.0,0.0,-1.5707963267948966,-0.5996160003540965,-1.655141228937726,-1.623404528450802,-1.5789738532851736,0.0,0.0,-1.8092829589232706,0.0,0.0,0.0,-8.35903994629632e-05,-1.5705477207071377,0.0004281033077766908,-1.6551277195572367,-1.6234038783361038,-1.578973829238094,0.005244041945745337,-0.013096234060302962,-2.5111481213736244,-0.0006503764474880004,-1.1504341043251633e-05,1.1188789867532541e-07,0.0,-1.5707963267948966,-1.1410264296097625,-1.655141228937726,-1.623404528450802,-1.5789738532851736
13.504,1533.3333740234375,30.0,0.0,-1.5707963267948966,-0.7698149208187512,-1.655141228937726,-1.623404528450802,-1.5789738532851736,0.0,0.0,-1.764880272912962,0.0,0.0,0.0,-5.616448500004873e-05,-1.570710839323905,-0.17925908738318527,-1.6551322469310898,-1.6234040114941584,-1.578973829238094,0.003201298821485309,-0.004514373777915105,-2.7712273734246917,-0.0004414348477237618,-1.0840426150436218e-05,1.1768884665729966e-07,0.0,-1.5707963267948966,-1.0107562640942964,-1.655141228937726,-1.623404528450802,-1.5789738532851736
13.604,1666.6666259765625,30.0,0.0,-1.5707963267948966,-0.9193520999518832,-1.655141228937726,-1.623404528450802,-1.5789738532851736,0.0,0.0,-0.6355370516362832,0.0,0.0,0.0,-4.269809245169864e-05,-1.5707910004727164,-0.3767983455152698,-1.6551351764082889,-1.6234037451780494,-1.578973829238094,0.002240479974380834,-0.0002921733486054241,-3.086628204483866,-0.0002992252314240142,-1.664796608953163e-05,1.2140729519640048e-07,0.0,-1.5707963267948966,-0.4833369596845922,-1.655141228937726,-1.623404528450802,-1.5789738532851736
13.704,1666.6666259765625,30.0,0.0,-1.5707963267948966,-0.8530448322117836,-1.655141228937726,-1.623404528450802,-1.5789738532851736,0.0,0.0,1.259464794649306,0.0,0.0,0.0,0.0002580297346408215,-1.5719595955590433,-0.5684524004676859,-1.6551793848823844,-1.623406008864976,-1.5789736960800393,-0.015710089219512904,0.061360533967646264,-2.292365709398089,0.0019322093254169669,5.670990556027417e-05,-1.486005263163261e-06,0.0,-1.5707963267948966,-0.3928981087738822,-1.655141228937726,-1.623404528450802,-1.5789738532851736
13.804,1666.6666259765625,30.0,0.0,-1.5707963267948966,-0.7033977427091775,-1.655141228937726,-1.623404528450802,-1.5789738532851736,0.0,0.0,1.6594377136247667,0.0,0.0,0.0,0.0002610788785387927,-1.5848470315481002,-0.5262975897574715,-1.6551458290526493,-1.6234050767585944,-1.578973829238094,-0.044837962153226024,0.8058150215784318,-1.2492708910188126,-2.8913074313853495e-05,6.80822202787026e-05,-1.9279868480735196e-06,0.0,-1.5707963267948966,-0.5894881404747289,-1.655141228937726,-1.623404528450802,-1.5789738532851736
13.904,1666.6666259765625,30.0,0.0,-1.5707963267948966,-0.5401145041818749,-1.655141228937726,-1.623404528450802,-1.5789738532851736,0.0,0.0,2.6564571342446377,0.0,0.0,0.0,0.0002110269082130073,-1.5709021874482272,-0.5132104832656859,-1.6551788522501663,-1.623406275181085,-1.5789742287122575,-0.012258962221014571,0.006179974020596807,1.2193960825425216,0.0020924753169483308,8.851148520784201e-05,6.218189171268368e-06,0.0,-1.5707963267948966,0.1445119801190271,-1.655141228937726,-1.623404528450802,-1.5789738532851736
14.004,1666.6666259765625,30.0,0.0,-1.5707963267948966,-0.317515843366305,-1.655141228937726,-1.623404528450802,-1.5789738532851736,0.0,0.0,1.8646544986041786,0.0,0.0,0.0,0.00016655787215312913,-1.5705391985916495,-0.5614406967916707,-1.6551619411772442,-1.6234065414971939,-1.5789744950283664,-0.008911650651353489,-0.014679105700434875,-0.11672692482228306,0.001151218870474141,6.795939611496413e-05,1.2469747097558685e-05,0.0,-1.5707963267948966,-0.19312374014211595,-1.655141228937726,-1.623404528450802,-1.5789738532851736
14.104,1666.6666259765625,30.0,0.0,-1.5707963267948966,-0.19257376482483135,-1.655141228937726,-1.623404528450802,-1.5789738532851736,0.0,0.0,1.1429259556764786,0.0,0.0,0.0,0.00011240237597838601,-1.5714444070461673,-0.5110725974111112,-1.6551618080191897,-1.6234065414971939,-1.5789744950283664,-0.007879931642083783,0.037255334996146756,1.2060025127882952,0.0011218915891926188,6.527175959268649e-05,1.555067289080198e-05,0.0,-1.5707963267948966,0.46291515042429643,-1.655141228937726,-1.623404528450802,-1.5789738532851736
14.204,1666.6666259765625,30.0,0.0,-1.5707963267948966,-0.0296049958777731,-1.655141228937726,-1.623404528450802,-1.5789738532851736,0.0,0.0,1.973424031822784,0.0,0.0,0.0,9.820258602394731e-05,-1.5713952717240554,-0.4251122488785104,-1.6551562153809005,-1.623407074129412,-1.5789744950283664,-0.007041305855858384,0.03437367818338333,1.9140721986678213,0.0008389231161976876,7.468152907116473e-05,1.5538596705240695e-05,0.0,-1.5707963267948966,0.29540644009463557,-1.655141228937726,-1.623404528450802,-1.5789738532851736
14.303,1666.6666259765625,30.0,0.0,-1.5707963267948966,0.15269195489160908,-1.655141228937726,-1.623404528450802,-1.5789738532851736,0.0,0.0,1.5509735135645033,0.0,0.0,0.0,3.100514063141615e-05,-1.571078621870445,-0.2789595827963727,-1.6551442311559952,-1.6234065414971939,-1.5789744950283664,-0.0025680082168658483,0.016168105073330698,2.2780064774325997,0.0001651490495335042,5.327583947001844e-05,1.5863720089204496e-05,0.0,-1.5707963267948966,0.466181202373281,-1.655141228937726,-1.623404528450802,-1.5789738532851736
14.404,1666.6666259765625,30.0,0.0,-1.5707963267948966,0.3243011148541233,-1.655141228937726,-1.623404528450802,-1.5789738532851736,0.0,0.0,1.7280274268728049,0.0,0.0,0.0,3.417717167987648e-05,-1.5710059175726858,-0.10898349266963345,-1.6551417011529597,-1.6234056093908125,-1.5789742287122575,-0.0026881451301298694,0.011983141955866427,2.632238061397892,6.817441053149509e-06,2.9076142947586474e-05,1.3256564379593202e-05,0.0,-1.5707963267948966,0.8303303168334788,-1.655141228937726,-1.623404528450802,-1.5789738532851736
14.504,1666.6666259765625,30.0,0.0,-1.5707963267948966,0.46458951661599085,-1.655141228937726,-1.623404528450802,-1.5789738532851736,0.0,0.0,1.0067803759910305,0.0,0.0,0.0,3.544195375995222e-05,-1.5709028532384997,0.07774193327715709,-1.6551402364143601,-1.6234049436005398,-1.5789742287122575,-0.002465289781532302,0.006109857982522064,2.8918840171396036,-0.00010678759073496404,1.1747990049353578e-05,1.0598626110240013e-05,0.0,-1.5707963267948966,0.8497756251693953,-1.655141228937726,-1.623404528450802,-1.5789738532851736
14.604,1666.6666259765625,30.0,0.0,-1.5707963267948966,0.6148396790703498,-1.655141228937726,-1.623404528450802,-1.5789738532851736,0.0,0.0,1.4175087400476332,0.0,0.0,0.0,2.8336914187487454e-05,-1.5708197626124893,0.23098914398996823,-1.6551390379918696,-1.6234048104424854,-1.5789742287122575,-0.0021192759761605048,0.002645657307770097,3.14159345253812,0.00025687745908836403,-0.00014473399522804033,3.109671523951695e-05,0.0,-1.5707963267948966,1.3104153436103565,-1.655141228937726,-1.623404528450802,-1.5789738532851736
14.704,1666.6666259765625,30.0,0.0,-1.5707963267948966,0.7662764490601292,-1.655141228937726,-1.623404528450802,-1.5789738532851736,0.0,0.0,1.4340791268292135,0.0,0.0,0.0,-5.729497120044775e-05,-1.5704924601145185,0.44108322593571564,-1.6551285185055638,-1.6234032125458313,-1.5789742287122575,0.002285711840945823,-0.014037084140644022,3.1415945178025564,0.0004257258383328471,-0.00040423622193422554,9.771749051618499e-05,0.0,-1.5707963267948966,1.2155025446002408,-1.655141228937726,-1.623404528450802,-1.5789738532851736
14.804,1666.6666259765625,30.0,0.0,-1.5707963267948966,0.9182434903073065,-1.655141228937726,-1.623404528450802,-1.5789738532851736,0.0,0.0,1.4898049123208281,0.0,0.0,0.0,-5.4286951555149266e-05,-1.5704469200598783,0.5987109704570572,-1.6551266542928007,-1.623403345703886,-1.5789742287122575,0.002589306483579702,-0.017967981690114734,3.141594251486447,-0.0001213208284836037,-0.0002420733620573481,6.877716732127448e-05,0.0,-1.5707963267948966,1.0726949012976046,-1.655141228937726,-1.623404528450802,-1.5789738532851736
14.903,1666.6666259765625,30.0,0.0,-1.5707963267948966,1.0648287091301405,-1.655141228937726,-1.623404528450802,-1.5789738532851736,0.0,0.0,1.8518056702767214,0.0,0.0,0.0,-5.0005295111734136e-05,-1.5704218863456314,0.8089138092438207,-1.655124656921983,-1.6234034788619403,-1.5789742287122575,0.002893650920493141,-0.02110591990412245,3.141322076423041,-0.0009074504252383459,-4.445692634911089e-05,1.0670744923801886e-05,0.0,-1.5707963267948966,1.5106583507534987,-1.655141228937726,-1.623404528450802,-1.5789738532851736
15.004,1800.0,30.0,0.0,-1.5707963267948966,1.1435760848511078,-1.655141228937726,-1.623404528450802,-1.5789738532851736,0.0,0.0,-0.5897313628319815,0.0,0.0,0.0,-4.720341281478839e-05,-1.5704204216070319,0.9665573662841347,-1.6551245237639287,-1.6234036120199948,-1.5789742287122575,0.003116317715204936,-0.021699440723154835,3.1397438871610603,-0.0009132851277056951,-3.9644259088551105e-05,1.063456208330801e-05,0.0,-1.5707963267948966,0.7136260553391924,-1.655141228937726,-1.623404528450802,-1.5789738532851736
15.104,1800.0,30.0,0.0,-1.5707963267948966,0.9932890302035533,-1.655141228937726,-1.623404528450802,-1.5789738532851736,0.0,0.0,-1.731026989716744,0.0,0.0,0.0,-0.0001207767367406336,-1.5697222739272676,1.1145750607224116,-1.6550784510770702,-1.6234026799136134,-1.5789744950283664,0.010557454036400734,-0.0685880868500123,0.9047542523940201,-0.003590694324672601,-5.1898843445940244e-05,1.3534500528177971e-05,0.0,-1.5707963267948966,0.4466845183753073,-1.655141228937726,-1.623404528450802,-1.5789738532851736
15.204,1800.0,30.0,0.0,-1.5707963267948966,0.8467039809685355,-1.655141228937726,-1.623404528450802,-1.5789738532851736,0.0,0.0,-1.8662610066381273,0.0,0.0,0.0,-4.5891549154528225e-05,-1.5701457165405903,1.089693080078774,-1.6550985579433004,-1.6234029462297224,-1.5789744950283664,0.004660204213988911,-0.04152676242376803,-0.934294834153506,-0.002442890620199864,-5.1769176076519865e-05,1.6114580062338828e-05,0.0,-1.5707963267948966,0.3494559309057157,-1.655141228937726,-1.623404528450802,-1.5789738532851736
15.302,1800.0,30.0,0.0,-1.5707963267948966,0.6508400056339942,-1.655141228937726,-1.623404528450802,-1.5789738532851736,0.0,0.0,-1.656602554092581,0.0,0.0,0.0,-2.3514548999160523e-05,-1.57042361740034,0.9843072017914583,-1.655118797967585,-1.623403345703886,-1.5789744950283664,0.0024980440621970245,-0.02374328786292535,-1.7763473555265914,-0.0012983381048664903,-3.208696245554222e-05,1.5946700053589594e-05,0.0,-1.5707963267948966,0.09276361081992868,-1.655141228937726,-1.623404528450802,-1.5789738532851736
15.404,1800.0,30.0,0.0,-1.5707963267948966,0.4506849386648275,-1.655141228937726,-1.623404528450802,-1.5789738532851736,0.0,0.0,-2.0169820407070653,0.0,0.0,0.0,-1.826366259612559e-05,-1.5704969874883716,0.887251358498774,-1.6551239911317106,-1.6234034788619403,-1.5789740955542029,0.00197449676050917,-0.019030840958786953,-1.95804484984861,-0.0009796975773523834,-2.754319172893573e-05,1.0607148623967077e-05,0.0,-1.5707963267948966,0.09063896762142565,-1.655141228937726,-1.623404528450802,-1.5789738532851736
15.504,1800.0,30.0,0.0,-1.5707963267948966,0.26586817060611967,-1.655141228937726,-1.623404528450802,-1.5789738532851736,0.0,0.0,-1.5758328718885368,0.0,0.0,0.0,-1.3789726905412783e-05,-1.5705378670111043,0.7519865438354777,-1.6551269206089096,-1.6234037451780494,-1.5789739623961485,0.0015979859895782502,-0.01636347186612593,-2.013905985293567,-0.0008128238124220046,-1.8230255236320994e-05,2.532081090388569e-06,0.0,-1.5707963267948966,-0.10253427255445113,-1.655141228937726,-1.623404528450802,-1.5789738532851736
15.604,1800.0,30.0,0.0,-1.5707963267948966,0.0782117092311383,-1.655141228937726,-1.623404528450802,-1.5789738532851736,0.0,0.0,-1.906500557433993,0.0,0.0,0.0,-1.1467454173432113e-05,-1.5705534465034814,0.650026356237358,-1.6551275863991823,-1.6234037451780494,-1.5789739623961485,0.0014311033171022331,-0.015303195655651627,-2.010757463094821,-0.0007695600583129894,-2.009245039152547e-05,2.6041831413474497e-06,0.0,-1.5707963267948966,-0.46595871763961105,-1.655141228937726,-1.623404528450802,-1.5789738532851736
15.703,1800.0,30.0,0.0,-1.5707963267948966,-0.1004269781236573,-1.655141228937726,-1.623404528450802,-1.5789738532851736,0.0,0.0,-1.5060320390580886,0.0,0.0,0.0,-9.924153825285887e-06,-1.5705698249441853,0.5147382056250098,-1.6551287848216727,-1.6234037451780494,-1.5789739623961485,0.0013387484535165404,-0.014218979083393736,-2.0003969675060858,-0.0007164080833040101,-2.1581721314526096e-05,2.6195140656562694e-06,0.0,-1.5707963267948966,-0.7605008018631367,-1.655141228937726,-1.623404528450802,-1.5789738532851736
15.803,1800.0,30.0,0.0,-1.5707963267948966,-0.2814730556104408,-1.655141228937726,-1.623404528450802,-1.5789738532851736,0.0,0.0,-2.2253581964864053,0.0,0.0,0.0,-1.1340237191794507e-05,-1.5705858039107259,0.37942605327333734,-1.6551290511377819,-1.6234038783361038,-1.5789739623961485,0.0014554086932012467,-0.013140549685020262,-2.011594095151269,-0.0006715213353685653,-1.7414899876672106e-05,2.6415472373945655e-06,0.0,-1.5707963267948966,-0.49261474608561734,-1.655141228937726,-1.623404528450802,-1.5789738532851736
15.904,1800.0,30.0,0.0,-1.5707963267948966,-0.4605689771846002,-1.655141228937726,-1.623404528450802,-1.5789738532851736,0.0,0.0,-1.8197360225560038,0.0,0.0,0.0,-1.584289992037359e-05,-1.5706004512967213,0.27657893316368043,-1.655129850086109,-1.6234040114941584,-1.5789739623961485,0.0017640733547677964,-0.012226289603687962,-2.0473366464573317,-0.0006283746797244727,-8.071538243712276e-06,2.664312122151328e-06,0.0,-1.5707963267948966,-0.7610483796859668,-1.655141228937726,-1.623404528450802,-1.5789738532851736
16.004,1800.0,30.0,0.0,-1.5707963267948966,-0.6349238505710453,-1.655141228937726,-1.623404528450802,-1.5789738532851736,0.0,0.0,-2.3825055363085714,0.0,0.0,0.0,-2.8913269369597397e-05,-1.5706245529045866,0.13478601158881373,-1.6551311816666539,-1.6234042778102673,-1.5789739623961485,0.002582219718292244,-0.01068340491120467,-2.148718395466686,-0.0005715093635002443,-1.128305919105365e-06,2.7532781136562613e-06,0.0,-1.5707963267948966,-0.9113199533209366,-1.655141228937726,-1.623404528450802,-1.5789738532851736
16.104,1800.0,30.0,0.0,-1.5707963267948966,-0.7740595714333338,-1.655141228937726,-1.623404528450802,-1.5789738532851736,0.0,0.0,-1.4340040555374514,0.0,0.0,0.0,-4.34285233850154e-05,-1.5706489208285608,0.0222782038846779,-1.655131714298872,-1.623404144652213,-1.5789739623961485,0.0034079926313661086,-0.009170463095930654,-2.2782831798698586,-0.0005419365070371494,-7.901098636281991e-07,2.7377602609262014e-06,0.0,-1.5707963267948966,-1.3476904267854644,-1.655141228937726,-1.623404528450802,-1.5789738532851736
16.204,1800.0,30.0,0.0,-1.5707963267948966,-0.9426793388876469,-1.655141228937726,-1.623404528450802,-1.5789738532851736,0.0,0.0,-1.873524886533525,0.0,0.0,0.0,-5.7293825247952326e-05,-1.5706924635123836,-0.1409157761803355,-1.6551329127213623,-1.6234042778102673,-1.5789739623961485,0.004004880372612573,-0.0064584179155376,-2.539532092271689,-0.00047598386879742,-7.732652254734707e-06,2.7832801252652317e-06,0.0,-1.5707963267948966,-1.233584981013913,-1.655141228937726,-1.623404528450802,-1.5789738532851736
16.303,1800.0,46.66666793823242,0.0,-1.5707963267948966,-0.9751019378059231,-1.655141228937726,-1.623404528450802,-1.5789738532851736,0.0,0.0,1.138904135079654,0.0,0.0,0.0,-5.229926850620365e-05,-1.5707373377767513,-0.2768478458547512,-1.6551343774599618,-1.6234040114941584,-1.5789739623961485,0.003444461553617706,-0.0036868245572001038,-2.8012004525452063,-0.0004018281937571705,-9.266245023918128e-06,2.853317328310147e-06,0.0,-1.5707963267948966,-0.5387313667819235,-1.655141228937726,-1.623404528450802,-1.5789738532851736
16.403,1800.0,46.66666793823242,0.0,-1.5707963267948966,-0.8447074271782009,-1.655141228937726,-1.623404528450802,-1.5789738532851736,0.0,0.0,1.5992504936660228,0.0,0.0,0.0,-2.2209197356183764e-05,-1.5709088453509525,-0.479371659375353,-1.655138638517706,-1.6234038783361038,-1.5789739623961485,0.0013118031929795532,0.002947218169180888,-3.141592653589793,-0.0004991670892017638,-5.636922851256483e-05,3.181743199042124e-05,0.0,-1.5707963267948966,-0.2947511333032967,-1.655141228937726,-1.623404528450802,-1.5789738532851736
16.504,1800.0,46.66666793823242,0.0,-1.5707963267948966,-0.6395621401459008,-1.655141228937726,-1.623404528450802,-1.5789738532851736,0.0,0.0,1.9622753943428373,0.0,0.0,0.0,0.0007338640119373137,-1.580809413019431,-0.48665919996127305,-1.6552032201741405,-1.6234069409713574,-1.578973829238094,-0.028468486731377106,0.3180040377352131,0.15469755159771148,0.0024018454301219933,8.649773783511746e-05,1.8147892440500585e-06,0.0,-1.5707963267948966,-0.24834019859301182,-1.655141228937726,-1.623404528450802,-1.5789738532851736
16.604,1800.0,46.66666793823242,0.0,-1.5707963267948966,-0.4340582153631125,-1.655141228937726,-1.623404528450802,-1.5789738532851736,0.0,0.0,2.3961535617248724,0.0,0.0,0.0,0.0003027125680506619,-1.5740010416926435,-0.3655048114386253,-1.6551785859340573,-1.6234066746552485,-1.5789736960800393,-0.015195320986746605,0.1252768037649007,2.8181051338805934,0.0014131762638288242,5.542181025514076e-05,-2.517949708108981e-06,0.0,-1.5707963267948966,-0.018433710611612253,-1.655141228937726,-1.623404528450802,-1.5789738532851736
16.703,1800.0,46.66666793823242,0.0,-1.5707963267948966,-0.2866901652973386,-1.655141228937726,-1.623404528450802,-1.5789738532851736,0.0,0.0,1.8253123766933181,0.0,0.0,0.0,-6.63667984752926e-05,-1.5677511352464455,-0.23393123791471965,-1.6551411685207416,-1.6234049436005398,-1.5789736960800393,0.0066167007103021275,-0.11897250225343788,2.2775702516460448,2.2053821233350932e-05,1.2075744654029393e-05,-1.6028007313379195e-07,0.0,-1.5707963267948966,0.24422617421155846,-1.655141228937726,-1.623404528450802,-1.5789738532851736
16.803,1800.0,46.66666793823242,0.0,-1.5707963267948966,-0.11146831872798835,-1.655141228937726,-1.623404528450802,-1.5789738532851736,0.0,0.0,1.9590755502727295,0.0,0.0,0.0,0.00016352641330927173,-1.570859576870786,-0.1029678694979568,-1.6551471606331942,-1.6234053430747033,-1.5789736960800393,-0.00650493845038397,0.002500250272697722,2.63987041476595,0.00022316527591998266,2.0818872522938905e-05,-2.534935812473805e-06,0.0,-1.5707963267948966,0.4005844863053538,-1.655141228937726,-1.623404528450802,-1.5789738532851736
16.904,1800.0,46.66666793823242,0.0,-1.5707963267948966,0.11811965890624783,-1.655141228937726,-1.623404528450802,-1.5789738532851736,0.0,0.0,2.5399634865571334,0.0,0.0,0.0,0.00011194748160163789,-1.5701493118080618,0.0379820076278993,-1.6551411685207416,-1.6234046772844308,-1.578973562921985,-0.00328967129696633,-0.025289825039231797,2.2685993935141124,5.25046479817181e-06,9.70292403874871e-06,-5.085936294105563e-06,0.0,-1.5707963267948966,0.32101883303516326,-1.655141228937726,-1.623404528450802,-1.5789738532851736
17.004,1800.0,46.66666793823242,0.0,-1.5707963267948966,0.2973532710113782,-1.655141228937726,-1.623404528450802,-1.5789738532851736,0.0,0.0,1.6998740594306592,0.0,0.0,0.0,0.00014615403355293965,-1.5709992596699607,0.22051895945383532,-1.6551428995754502,-1.6234049436005398,-1.578973562921985,-0.006101121045641193,0.007948255247909226,2.922657908799905,2.9925092595461198e-05,4.9190904871651434e-06,-4.885580011954264e-06,0.0,-1.5707963267948966,0.5699505666462983,-1.655141228937726,-1.623404528450802,-1.5789738532851736
17.104,1800.0,46.66666793823242,0.0,-1.5707963267948966,0.46697631720033783,-1.655141228937726,-1.623404528450802,-1.5789738532851736,0.0,0.0,1.8128940883125662,0.0,0.0,0.0,-4.906807664425163e-05,-1.5701265417807417,0.37583764344153736,-1.6551132053292958,-1.6234037451780494,-1.578973562921985,-0.03085322681305617,0.12708825264885898,2.6223675874497316,0.004394985618633344,0.00019253723290095758,-7.672322630652595e-06,0.0,-1.5707963267948966,0.9060044566460734,-1.655141228937726,-1.623404528450802,-1.5789738532851736
17.205,1800.0,46.66666793823242,0.0,-1.5707963267948966,0.6298469317972818,-1.655141228937726,-1.623404528450802,-1.5789738532851736,0.0,0.0,1.6017369103160333,0.0,0.0,0.0,-5.7715808031578265e-05,-1.5703808736648441,0.5851582768276985,-1.6551262548186372,-1.6234037451780494,-1.578973562921985,0.0018775632884282776,-0.014873781735822366,3.1415950504347743,7.266336043491171e-05,-0.00020356337650155677,4.835180757067444e-05,0.0,-1.5707963267948966,1.0839740090864014,-1.655141228937726,-1.623404528450802,-1.5789738532851736
17.304,1800.0,46.66666793823242,0.0,-1.5707963267948966,0.7956936998217745,-1.655141228937726,-1.623404528450802,-1.5789738532851736,0.0,0.0,1.1128287285535077,0.0,0.0,0.0,-6.039699958698447e-05,-1.5703297409719148,0.7428088246658738,-1.6551254558703101,-1.6234026799136134,-1.578973562921985,0.0023586634693882544,-0.018079428739950745,3.1415676198755462,-0.0006308962303444789,-4.181710692971863e-05,-4.850229714075639e-06,0.0,-1.5707963267948966,1.414352189073091,-1.655141228937726,-1.623404528450802,-1.5789738532851736
17.403,1666.6666259765625,46.66666793823242,0.0,-1.5707963267948966,0.9496452733270621,-1.655141228937726,-1.623404528450802,-1.5789738532851736,0.0,0.0,1.9229725420008876,0.0,0.0,0.0,-5.72798909532473e-05,-1.570320553066154,0.9004578411864225,-1.6551239911317106,-1.6234026799136134,-1.578973562921985,0.002523138373761542,-0.01870690278228704,3.140277850959621,-0.0006511393755209835,-5.09787208016785e-05,-4.842902932695309e-06,0.0,-1.5707963267948966,0.6414587072692807,-1.655141228937726,-1.623404528450802,-1.5789738532851736
17.504,1666.6666259765625,46.66666793823242,0.0,-1.5707963267948966,0.9792026277579726,-1.655141228937726,-1.623404528450802,-1.5789738532851736,0.0,0.0,-0.9179903578807492,0.0,0.0,0.0,3.695499710174094e-05,-1.5698905857081606,1.0469480795814845,-1.6551425001012867,-1.6234036120199948,-1.5789736960800393,-0.0007029470263429881,-0.03577464655838712,3.0250569853456697,0.00010509575848558223,-2.3498723070105785e-05,-2.675716533698782e-06,0.0,-1.5707963267948966,0.3824427186041829,-1.655141228937726,-1.623404528450802,-1.5789738532851736
17.603,1666.6666259765625,46.66666793823242,0.0,-1.5707963267948966,0.8582588490905181,-1.655141228937726,-1.623404528450802,-1.5789738532851736,0.0,0.0,-1.2908383058721948,0.0,0.0,0.0,-0.00013243097609124348,-1.5693209355509927,1.1405675795406123,-1.6550740568612716,-1.62340228043945,-1.5789739623961485,0.00587631696012488,-0.053922146111919214,0.8313972138516784,-0.0023378588237436366,-6.324424047171016e-05,3.5851807657408994e-07,0.0,-1.5707963267948966,0.27353964149852483,-1.655141228937726,-1.623404528450802,-1.5789738532851736
17.704,1666.6666259765625,46.66666793823242,0.0,-1.5707963267948966,0.7016625637461376,-1.655141228937726,-1.623404528450802,-1.5789738532851736,0.0,0.0,-1.7310407824121685,0.0,0.0,0.0,-7.641155160973808e-05,-1.5696963081066393,1.0852195020796591,-1.655083111608978,-1.6234021472813953,-1.5789739623961485,0.00356517843262693,-0.04019338008380341,-1.5199620410655186,-0.002039463977130705,-6.036737549587931e-05,2.541158801845021e-06,0.0,-1.5707963267948966,0.4478474680597092,-1.655141228937726,-1.623404528450802,-1.5789738532851736
17.804,1666.6666259765625,46.66666793823242,0.0,-1.5707963267948966,0.5632248718957618,-1.655141228937726,-1.623404528450802,-1.5789738532851736,0.0,0.0,-1.6504314401784872,0.0,0.0,0.0,-3.655722561232687e-05,-1.5701449175922633,0.9936968420048051,-1.6551082784812792,-1.6234026799136134,-1.5789739623961485,0.0018005706251208412,-0.02378454397328096,-1.8986094859046576,-0.00114771137808729,-4.5572795559701236e-05,4.7508955446627334e-06,0.0,-1.5707963267948966,0.3026965016154035,-1.655141228937726,-1.623404528450802,-1.5789738532851736
17.904,1666.6666259765625,46.66666793823242,0.0,-1.5707963267948966,0.41586269780503926,-1.655141228937726,-1.623404528450802,-1.5789738532851736,0.0,0.0,-1.5447442836008838,0.0,0.0,0.0,-2.6057082334450857e-05,-1.570290459345836,0.8931605134834963,-1.6551174663870398,-1.6234026799136134,-1.5789739623961485,0.0013223303514779596,-0.018457175254037866,-2.011487036075448,-0.0008368497386585876,-3.9467420738397024e-05,4.712873897416446e-06,0.0,-1.5707963267948966,0.152255234293604,-1.655141228937726,-1.623404528450802,-1.5789738532851736
18.004,1666.6666259765625,46.66666793823242,0.0,-1.5707963267948966,0.2561304688510324,-1.655141228937726,-1.623404528450802,-1.5789738532851736,0.0,0.0,-1.610975012309606,0.0,0.0,0.0,-2.94103912830697e-05,-1.5702991146193788,0.7507166820487007,-1.655119330599803,-1.6234025467555588,-1.5789739623961485,0.001458484982356911,-0.018114370245690424,-2.1749272295444286,-0.0007643888704678144,-4.4798546166249095e-05,4.694296869640419e-06,0.0,-1.5707963267948966,-0.210444005575941,-1.655141228937726,-1.623404528450802,-1.5789738532851736
18.103,1666.6666259765625,46.66666793823242,0.0,-1.5707963267948966,0.09274735907344223,-1.655141228937726,-1.623404528450802,-1.5789738532851736,0.0,0.0,-1.4606617493136234,0.0,0.0,0.0,-1.2614928510026625e-05,-1.5703957873669487,0.6435731840209598,-1.655123591657547,-1.6234026799136134,-1.5789739623961485,0.0007893585414119781,-0.014576515741817979,-2.095405106236608,-0.0006154485956503933,-3.9772256293164315e-05,4.703678847739053e-06,0.0,-1.5707963267948966,-0.5284497815570733,-1.655141228937726,-1.623404528450802,-1.5789738532851736
18.204,1666.6666259765625,46.66666793823242,0.0,-1.5707963267948966,-0.04722221437310026,-1.655141228937726,-1.623404528450802,-1.5789738532851736,0.0,0.0,-1.9870394096899322,0.0,0.0,0.0,-1.3728235582147587e-05,-1.5703985836860932,0.49873696839991866,-1.6551242574478195,-1.6234032125458313,-1.5789739623961485,0.0008674699144292753,-0.014455821489275048,-2.1416034942984306,-0.0005936734176426987,-2.9282780126282962e-05,4.728230981545086e-06,0.0,-1.5707963267948966,-0.6469765951662113,-1.655141228937726,-1.623404528450802,-1.5789738532851736
18.304,1666.6666259765625,46.66666793823242,0.0,-1.5707963267948966,-0.1840606810939338,-1.655141228937726,-1.623404528450802,-1.5789738532851736,0.0,0.0,-1.3481193991904334,0.0,0.0,0.0,-8.116570214712717e-06,-1.5704445232148971,0.3922868576514935,-1.6551261216605826,-1.623403345703886,-1.5789739623961485,0.0006583127455587341,-0.012769069921873231,-2.0938261180263,-0.0005292059988556226,-2.6306664286096496e-05,4.702734046479526e-06,0.0,-1.5707963267948966,-0.5194108387422762,-1.655141228937726,-1.623404528450802,-1.5789738532851736
18.404,1666.6666259765625,46.66666793823242,0.0,-1.5707963267948966,-0.3649390105137442,-1.655141228937726,-1.623404528450802,-1.5789738532851736,0.0,0.0,-2.2872495543628677,0.0,0.0,0.0,-2.7204298628550832e-05,-1.5704441237407336,0.24600725865389989,-1.6551259885025282,-1.623403345703886,-1.5789739623961485,0.0014241664846632548,-0.01276963064211837,-2.1948127870879413,-0.0005223037563018963,-2.5105712166382105e-05,4.7486915163481704e-06,0.0,-1.5707963267948966,-0.4754576511047655,-1.655141228937726,-1.623404528450802,-1.5789738532851736
18.504,1666.6666259765625,46.66666793823242,0.0,-1.5707963267948966,-0.5259704930989919,-1.655141228937726,-1.623404528450802,-1.5789738532851736,0.0,0.0,-1.6465324922970317,0.0,0.0,0.0,-4.409412266545264e-05,-1.570485935369848,0.1297232258432754,-1.6551271869250188,-1.6234036120199948,-1.5789739623961485,0.002038291171961202,-0.011243282515528788,-2.3150427923962225,-0.00047955514441252697,-2.1977406113846545e-05,4.752643426992857e-06,0.0,-1.5707963267948966,-0.7693604507394621,-1.655141228937726,-1.623404528450802,-1.5789738532851736
18.604,1666.6666259765625,46.66666793823242,0.0,-1.5707963267948966,-0.6799300332729565,-1.655141228937726,-1.623404528450802,-1.5789738532851736,0.0,0.0,-1.7350287216656664,0.0,0.0,0.0,-0.00011521408014476951,-1.5704798100993407,-0.039329579623047,-1.6551270537669642,-1.6234034788619403,-1.5789739623961485,0.004656786837355743,-0.011453702410266772,-2.6149155300874716,-0.0004812982275586191,-1.9538723707538855e-05,4.775718419904965e-06,0.0,-1.5707963267948966,-1.2994800264749315,-1.655141228937726,-1.623404528450802,-1.5789738532851736
18.703,1666.6666259765625,46.66666793823242,0.0,-1.5707963267948966,-0.8226500063979891,-1.655141228937726,-1.623404528450802,-1.5789738532851736,0.0,0.0,-1.5619859499467545,0.0,0.0,0.0,-0.00011025464969156857,-1.5706020491933752,-0.17821684264582593,-1.6551299832441633,-1.6234034788619403,-1.5789739623961485,0.004255873682602509,-0.007023244214121683,-2.8416775716372116,-0.0003909754872221911,-1.991775562272365e-05,4.775444122765103e-06,0.0,-1.5707963267948966,-1.2196416745640806,-1.655141228937726,-1.623404528450802,-1.5789738532851736
18.804,1666.6666259765625,46.66666793823242,0.0,-1.5707963267948966,-1.0119579356973016,-1.655141228937726,-1.623404528450802,-1.5789738532851736,0.0,0.0,-1.704014933630693,0.0,0.0,0.0,-5.033126170542418e-05,-1.5708341436823756,-0.38132408818223684,-1.6551358421985616,-1.6234034788619403,-1.5789739623961485,0.002208574576313574,0.0002019503467727115,-3.1415950504347743,-0.0005043542065993573,-3.7567683447983355e-05,2.6924072606805874e-05,0.0,-1.5707963267948966,-1.3595703127107757,-1.655141228937726,-1.623404528450802,-1.5789738532851736
18.904,1533.3333740234375,46.66666793823242,0.0,-1.5707963267948966,-1.10010976534243,-1.655141228937726,-1.623404528450802,-1.5789738532851736,0.0,0.0,0.43501386455007285,0.0,0.0,0.0,3.0622607871994445e-05,-1.5711196345512322,-0.5385049542726631,-1.6551442311559952,-1.6234037451780494,-1.5789739623961485,-0.0008400417608889673,0.010703647016083872,-3.141593985170338,-0.00014724597186194997,-4.9491993730671275e-05,2.3449688900651682e-05,0.0,-1.5707963267948966,-0.8334676771781915,-1.655141228937726,-1.623404528450802,-1.5789738532851736
19.004,1533.3333740234375,46.66666793823242,0.0,-1.5707963267948966,-0.9940171866333403,-1.655141228937726,-1.623404528450802,-1.5789738532851736,0.0,0.0,1.7151371294548858,0.0,0.0,0.0,0.0004932520237679269,-1.5884308474270197,-0.6402556842510481,-1.6552108101832472,-1.6234074736035755,-1.5789739623961485,-0.016899936539397968,-0.10338855740402686,-0.12113622077058638,0.002236443880928008,7.994857055982222e-05,1.7445869547635592e-06,0.0,-1.5707963267948966,-0.6880114784916709,-1.655141228937726,-1.623404528450802,-1.5789738532851736
19.103,1533.3333740234375,46.66666793823242,0.0,-1.5707963267948966,-0.8289212818206853,-1.655141228937726,-1.623404528450802,-1.5789738532851736,0.0,0.0,1.5657535705932735,0.0,0.0,0.0,3.554472375502074e-05,-1.5885628070590332,-0.7021872290847317,-1.6551936327942163,-1.6234072072874663,-1.5789739623961485,0.002961720953851511,-0.650755862638958,0.9213406859791425,0.0021607010047903345,7.63681354520745e-05,2.8651603613025477e-06,0.0,-1.5707963267948966,-0.1699242754931598,-1.655141228937726,-1.623404528450802,-1.5789738532851736
19.204,1533.3333740234375,46.66666793823242,0.0,-1.5707963267948966,-0.6855029053867057,-1.655141228937726,-1.623404528450802,-1.5789738532851736,0.0,0.0,1.2380602347902603,0.0,0.0,0.0,-4.959033433488868e-05,-1.5765881695336008,-0.6625481402087471,-1.6551522206392655,-1.6234054762327579,-1.578973829238094,-0.0017874758828468676,0.19280214369834928,0.22135103084691696,0.00036824651913610506,2.537068320348937e-05,-4.4416085028858353e-07,0.0,-1.5707963267948966,-0.5018909013571667,-1.655141228937726,-1.623404528450802,-1.5789738532851736
19.304,1533.3333740234375,46.66666793823242,0.0,-1.5707963267948966,-0.5327713178379501,-1.655141228937726,-1.623404528450802,-1.5789738532851736,0.0,0.0,1.9151969116117349,0.0,0.0,0.0,-0.00020722951422678156,-1.572730314378512,-0.5926706547886484,-1.655116667438713,-1.6234045441263765,-1.578973829238094,0.009089091041061124,0.18011567650305244,0.43449466526740044,-0.0005812128666107328,-1.1622948142443552e-05,1.2287668656117896e-06,0.0,-1.5707963267948966,-0.1249070224904788,-1.655141228937726,-1.623404528450802,-1.5789738532851736
19.404,1533.3333740234375,46.66666793823242,0.0,-1.5707963267948966,-0.36039022350125993,-1.655141228937726,-1.623404528450802,-1.5789738532851736,0.0,0.0,1.5783587380008364,0.0,0.0,0.0,0.00011461450316998186,-1.5719699818872945,-0.42905113070976486,-1.6551607427547537,-1.623406807813303,-1.578973829238094,-0.00464163074598021,0.039015738572148774,2.760969942170142,0.0006347366178675897,5.219012669016766e-05,1.5206142325435306e-08,0.0,-1.5707963267948966,0.18281867080727154,-1.655141228937726,-1.623404528450802,-1.5789738532851736
19.504,1533.3333740234375,46.66666793823242,0.0,-1.5707963267948966,-0.1989225123675924,-1.655141228937726,-1.623404528450802,-1.5789738532851736,0.0,0.0,1.994367318597883,0.0,0.0,0.0,0.00011461450316998186,-1.5719699818872945,-0.42905113070976486,-1.6551607427547537,-1.623406807813303,-1.578973829238094,-0.00464163074598021,0.039015738572148774,2.760969942170142,0.0006347366178675897,5.219012669016766e-05,1.5206142325435306e-08,0.0,-1.5707963267948966,0.0444583367222805,-1.655141228937726,-1.623404528450802,-1.5789738532851736
19.604,1533.3333740234375,46.66666793823242,0.0,-1.5707963267948966,-0.0058384571716416644,-1.655141228937726,-1.623404528450802,-1.5789738532851736,0.0,0.0,1.9397494416850856,0.0,0.0,0.0,0.00011461450316998186,-1.5719699818872945,-0.42905113070976486,-1.6551607427547537,-1.623406807813303,-1.578973829238094,-0.00464163074598021,0.039015738572148774,2.760969942170142,0.0006347366178675897,5.219012669016766e-05,1.5206142325435306e-08,0.0,-1.5707963267948966,0.1491249811751429,-1.655141228937726,-1.623404528450802,-1.5789738532851736
19.703,1533.3333740234375,46.66666793823242,0.0,-1.5707963267948966,0.15698669177980154,-1.655141228937726,-1.623404528450802,-1.5789738532851736,0.0,0.0,1.2544228844124452,0.0,0.0,0.0,2.0485668548417823e-05,-1.5712605157728974,-0.28508067546959487,-1.6551447637882133,-1.6234064083391395,-1.578973829238094,-0.0010762804042243209,0.015416429936250434,2.8578813089736896,0.00014047796016931904,3.995197577920229e-05,-1.2179293030726979e-08,0.0,-1.5707963267948966,0.4343414519317699,-1.655141228937726,-1.623404528450802,-1.5789738532851736
19.804,1533.3333740234375,46.66666793823242,0.0,-1.5707963267948966,0.2970718144118839,-1.655141228937726,-1.623404528450802,-1.5789738532851736,0.0,0.0,1.9018194365053525,0.0,0.0,0.0,1.8923540241408363e-05,-1.571095000311149,-0.1393849246067307,-1.6551422337851778,-1.623406275181085,-1.578973829238094,-0.0009417645016684739,0.009921965543658982,2.9237865564698806,2.2303663259321776e-05,3.7853907433853304e-05,1.9977359915005478e-08,0.0,-1.5707963267948966,0.9242060507324553,-1.655141228937726,-1.623404528450802,-1.5789738532851736
19.903,1533.3333740234375,46.66666793823242,0.0,-1.5707963267948966,0.5040180368277898,-1.655141228937726,-1.623404528450802,-1.5789738532851736,0.0,0.0,1.3995435938403815,0.0,0.0,0.0,3.227610557220747e-05,-1.5709523880347753,0.06391513379260194,-1.655138372201597,-1.6234058757069214,-1.578973829238094,-0.0012718176757397224,0.005184238894962196,3.1086616014465274,-0.00010035809015855287,2.693374005711303e-05,-1.9724555733902952e-08,0.0,-1.5707963267948966,1.067441224421977,-1.655141228937726,-1.623404528450802,-1.5789738532851736
20.003,1533.3333740234375,46.66666793823242,0.0,-1.5707963267948966,0.6218490650627614,-1.655141228937726,-1.623404528450802,-1.5789738532851736,0.0,0.0,1.352468046464247,0.0,0.0,0.0,-4.749011631269543e-05,-1.5706174955276977,0.2213276449635947,-1.655132779563308,-1.6234049436005398,-1.578973829238094,0.00021770137442179177,-0.0024819569047372647,3.1415945178025564,0.0009135508586474713,-0.00041636621849885843,5.7913972476398995e-05,0.0,-1.5707963267948966,0.7951304070150282,-1.655141228937726,-1.623404528450802,-1.5789738532851736
20.104,1533.3333740234375,46.66666793823242,0.0,-1.5707963267948966,0.7473175374046294,-1.655141228937726,-1.623404528450802,-1.5789738532851736,0.0,0.0,1.2543722139400337,0.0,0.0,0.0,-7.7012591502605e-05,-1.5703644952241402,0.43140410011187713,-1.6551263879766918,-1.6234037451780494,-1.578973829238094,0.0017514654716306029,-0.011828136617748107,3.1415950504347743,0.0005588490753865225,-0.0003677305966934835,8.163878547199419e-05,0.0,-1.5707963267948966,1.0790673730186304,-1.655141228937726,-1.623404528450802,-1.5789738532851736
20.204,1533.3333740234375,46.66666793823242,0.0,-1.5707963267948966,0.9113606744610232,-1.655141228937726,-1.623404528450802,-1.5789738532851736,0.0,0.0,1.702061094447486,0.0,0.0,0.0,-7.424668479942522e-05,-1.5702573029902644,0.6415776774161633,-1.6551231921833836,-1.6234026799136134,-1.578973829238094,0.002198403329529208,-0.016871015234138087,3.1415950504347743,-0.0001201441628358358,-0.00017216271768093474,4.1768452712599e-05,0.0,-1.5707963267948966,1.5386447862648178,-1.655141228937726,-1.623404528450802,-1.5789738532851736
20.304,1400.0,46.66666793823242,0.0,-1.5707963267948966,1.0689967457375134,-1.655141228937726,-1.623404528450802,-1.5789738532851736,0.0,0.0,0.3226891720723511,0.0,0.0,0.0,-7.009613426154175e-05,-1.570227342428001,0.7992307552573744,-1.6551210616545116,-1.6234021472813953,-1.578973829238094,0.0023390138138218632,-0.01879602297145302,3.1415364608907925,-0.0006633842599187748,-6.009105871633506e-05,3.848904369935195e-08,0.0,-1.5707963267948966,0.7652710682279266,-1.655141228937726,-1.623404528450802,-1.5789738532851736
20.403,1400.0,46.66666793823242,0.0,-1.5707963267948966,0.9918386375968442,-1.655141228937726,-1.623404528450802,-1.5789738532851736,0.0,0.0,-1.1492575954086788,0.0,0.0,0.0,-0.00018413941668550575,-1.5694401120097738,0.9886034798410014,-1.655083644241196,-1.6234017478072318,-1.5789739623961485,0.007010477685646115,-0.045460538475870095,2.0453599151382207,-0.0018354079710932777,-6.667631536791356e-05,3.9500004063877287e-07,0.0,-1.5707963267948966,0.6700054409559623,-1.655141228937726,-1.623404528450802,-1.5789738532851736
20.503,1400.0,46.66666793823242,0.0,-1.5707963267948966,0.8825302498732555,-1.655141228937726,-1.623404528450802,-1.5789738532851736,0.0,0.0,-1.3983976258762516,0.0,0.0,0.0,-0.00041076971160410465,-1.5616965716662048,0.9438086442526779,-1.6550341094449204,-1.6234016146491772,-1.5789739623961485,0.017021855221863953,-0.27797174976903505,-1.4217248195132752,-0.002979737082581302,-5.8835895322630496e-05,3.7102406416533762e-06,0.0,-1.5707963267948966,0.5360555017531178,-1.655141228937726,-1.623404528450802,-1.5789738532851736
20.604,1400.0,46.66666793823242,0.0,-1.5707963267948966,0.742672717981316,-1.655141228937726,-1.623404528450802,-1.5789738532851736,0.0,0.0,-1.125253715180635,0.0,0.0,0.0,0.0001642074829483972,-1.5743525789565338,0.8033193067418912,-1.655185376994837,-1.623405209916649,-1.5789739623961485,-0.005366824074970998,-0.3218227444222777,-0.07637616440162358,0.0012383821303801304,1.3851799332248354e-05,3.5186816783266702e-06,0.0,-1.5707963267948966,0.33199495835315673,-1.655141228937726,-1.623404528450802,-1.5789738532851736
20.704,1400.0,46.66666793823242,0.0,-1.5707963267948966,0.6161354223344189,-1.655141228937726,-1.623404528450802,-1.5789738532851736,0.0,0.0,-1.01678495024895,0.0,0.0,0.0,-0.0001928858787885376,-1.569921345218751,0.6290720721483966,-1.6550969600466463,-1.6234036120199948,-1.5789739623961485,0.011338267900876747,-0.10644617426343886,-2.8402551772990003,-0.005344080055083341,-0.0002185883741625421,5.559001840454251e-06,0.0,-1.5707963267948966,0.38555121982299145,-1.655141228937726,-1.623404528450802,-1.5789738532851736
20.803,1400.0,46.66666793823242,0.0,-1.5707963267948966,0.47903082748485115,-1.655141228937726,-1.623404528450802,-1.5789738532851736,0.0,0.0,-1.5040376393600454,0.0,0.0,0.0,0.00012617974833743632,-1.5709818159648206,0.5119120590762177,-1.6551391711499241,-1.6234037451780494,-1.5789739623961485,-0.003976792605564969,0.0056531268958707765,-1.9470581119295427,-5.342100564375639e-05,-2.1267992436935256e-05,2.4767525635111184e-06,0.0,-1.5707963267948966,-0.08043028474066405,-1.655141228937726,-1.623404528450802,-1.5789738532851736
20.904,1400.0,46.66666793823242,0.0,-1.5707963267948966,0.3440847023803064,-1.655141228937726,-1.623404528450802,-1.5789738532851736,0.0,0.0,-1.145763150358535,0.0,0.0,0.0,-0.000301966999978886,-1.5703675578593939,0.44210947506177767,-1.6550869731925586,-1.6234036120199948,-1.5789739623961485,0.009522698399309958,-0.013064742180412776,-2.046060859137129,-0.0015894541213028015,-2.0930135570189838e-05,2.477896992133545e-06,0.0,-1.5707963267948966,0.15438585421841938,-1.655141228937726,-1.623404528450802,-1.5789738532851736
21.003,1400.0,46.66666793823242,0.0,-1.5707963267948966,0.20997466208958482,-1.655141228937726,-1.623404528450802,-1.5789738532851736,0.0,0.0,-1.5952601988652315,0.0,0.0,0.0,-0.000300457951216186,-1.5699644884284103,0.3100259727681491,-1.655109610061824,-1.6234048104424854,-1.5789739623961485,0.040590682106551194,-0.154286559262485,-2.4617504778942894,-0.005236568449936302,-0.0001412608976706975,4.5089471808279355e-06,0.0,-1.5707963267948966,0.023139079991338796,-1.655141228937726,-1.623404528450802,-1.5789738532851736
21.104,1400.0,46.66666793823242,0.0,-1.5707963267948966,0.01987819042160588,-1.655141228937726,-1.623404528450802,-1.5789738532851736,0.0,0.0,-1.9306430131736056,0.0,0.0,0.0,0.0004003163491954745,-1.5718356254103,0.15593964993012444,-1.655150755900666,-1.6234046772844308,-1.5789739623961485,-0.013220345689479062,0.031553931543585836,-1.7607773173714978,0.00023438296426109387,-9.766906513399408e-07,2.430513177137615e-06,0.0,-1.5707963267948966,-0.3375232803848356,-1.655141228937726,-1.623404528450802,-1.5789738532851736
21.204,1400.0,46.66666793823242,0.0,-1.5707963267948966,-0.15944285300803784,-1.655141228937726,-1.623404528450802,-1.5789738532851736,0.0,0.0,-1.7698618692782064,0.0,0.0,0.0,-0.0002358790255621791,-1.570140656534519,0.013085220432779264,-1.6551164011226038,-1.6234037451780494,-1.5789739623961485,0.007865792961468445,-0.019906411343204745,-2.841114046750551,-0.0007116304529314488,-1.3283713700947601e-05,2.2249315344719336e-06,0.0,-1.5707963267948966,-0.5307944915431853,-1.655141228937726,-1.623404528450802,-1.5789738532851736
21.303,1400.0,46.66666793823242,0.0,-1.5707963267948966,-0.3692366625925718,-1.655141228937726,-1.623404528450802,-1.5789738532851736,0.0,0.0,-2.3307562898214496,0.0,0.0,0.0,-0.000262443130920936,-1.5702538408808475,-0.1492977261714668,-1.655120395864239,-1.6234036120199948,-1.5789739623961485,0.008496821699681615,-0.01644843086608866,-2.773124609385264,-0.0006095649341913246,-1.7024531362288325e-05,2.2857401626334716e-06,0.0,-1.5707963267948966,-0.8867398418075375,-1.655141228937726,-1.623404528450802,-1.5789738532851736
21.403,1400.0,46.66666793823242,0.0,-1.5707963267948966,-0.602667785213395,-1.655141228937726,-1.623404528450802,-1.5789738532851736,0.0,0.0,-2.4370160416871354,0.0,0.0,0.0,-0.0001493092227570124,-1.5705823418013087,-0.29955405717730765,-1.6551281190314002,-1.623403345703886,-1.5789739623961485,0.004697895225494638,-0.0064990378840937635,-3.085157873246033,-0.00038803664734739663,-2.2660038230753917e-05,2.2388013185533187e-06,0.0,-1.5707963267948966,-1.0096843387403756,-1.655141228937726,-1.623404528450802,-1.5789738532851736
21.504,1400.0,46.66666793823242,0.0,-1.5707963267948966,-0.808804711590561,-1.655141228937726,-1.623404528450802,-1.5789738532851736,0.0,0.0,-1.7484208800087186,0.0,0.0,0.0,1.9172736145227528e-05,-1.57112962140532,-0.509053222225045,-1.655142633259341,-1.6234034788619403,-1.5789739623961485,-0.00015935807206207984,0.00864349581686638,-3.14159345253812,-0.0003402139528640251,-6.771676302419502e-05,3.094415726581737e-05,0.0,-1.5707963267948966,-1.1395512912551147,-1.655141228937726,-1.623404528450802,-1.5789738532851736
21.604,1266.6666259765625,46.66666793823242,0.0,-1.5707963267948966,-0.9668864759191038,-1.655141228937726,-1.623404528450802,-1.5789738532851736,0.0,0.0,-1.7285161108271545,0.0,0.0,0.0,5.202125717988425e-05,-1.5712935389704143,-0.7187014910043131,-1.65514969063623,-1.6234036120199948,-1.5789739623961485,-0.0015205515900294565,0.014771390473989926,-3.14159345253812,0.0002007531433805752,-2.4466603894163597e-05,6.09910357595469e-06,0.0,-1.5707963267948966,-0.4560915335369117,-1.655141228937726,-1.623404528450802,-1.5789738532851736
21.704,1266.6666259765625,46.66666793823242,0.0,-1.5707963267948966,-0.986083835804056,-1.655141228937726,-1.623404528450802,-1.5789738532851736,0.0,0.0,0.8891410868582968,0.0,0.0,0.0,5.990099721220894e-05,-1.571348932721088,-0.9284316186975875,-1.6551548838003556,-1.6234037451780494,-1.5789739623961485,-0.0019918156299730916,0.01677400959143195,-3.1407202020166833,0.0004202520540102985,-9.495158178117456e-06,2.1697947616135537e-06,0.0,-1.5707963267948966,-0.49898874131159987,-1.655141228937726,-1.623404528450802,-1.5789738532851736
21.803,1266.6666259765625,46.66666793823242,0.0,-1.5707963267948966,-0.8257173370040372,-1.655141228937726,-1.623404528450802,-1.5789738532851736,0.0,0.0,1.3549608941550157,0.0,0.0,0.0,0.00044923769515637567,-1.5812256650978105,-0.9166703003754706,-1.6552523554962524,-1.6234077399196845,-1.5789740955542029,-0.012311700092679245,0.10112161642750256,1.0832314523259148,0.0030241931474342108,0.00010661921699136306,3.4357299055920578e-06,0.0,-1.5707963267948966,-0.2627938488493502,-1.655141228937726,-1.623404528450802,-1.5789738532851736
21.903,1266.6666259765625,46.66666793823242,0.0,-1.5707963267948966,-0.6470746027717178,-1.655141228937726,-1.623404528450802,-1.5789738532851736,0.0,0.0,2.028284311244679,0.0,0.0,0.0,0.00014560839761866364,-1.573717681352659,-0.7340769186627493,-1.6551772543535122,-1.623406275181085,-1.5789739623961485,-0.022979091707532512,0.1831200883973117,2.5058087497041246,0.004830819733254567,0.00014142953961594635,2.333984457916304e-06,0.0,-1.5707963267948966,0.022474163949011694,-1.655141228937726,-1.623404528450802,-1.5789738532851736
22.004,1266.6666259765625,46.66666793823242,0.0,-1.5707963267948966,-0.4796626109543327,-1.655141228937726,-1.623404528450802,-1.5789738532851736,0.0,0.0,2.3721832241516756,0.0,0.0,0.0,5.071524519194116e-05,-1.5719983445529038,-0.5920040655678016,-1.6551596774903177,-1.6234061420230304,-1.5789739623961485,-0.0018898064173243738,0.0329803539129459,2.8719867416872944,0.0005052424579477977,3.3967492850673516e-05,2.04862450803692e-06,0.0,-1.5707963267948966,0.04517741079004611,-1.655141228937726,-1.623404528450802,-1.5789738532851736
22.104,1266.6666259765625,46.66666793823242,0.0,-1.5707963267948966,-0.28863197560240383,-1.655141228937726,-1.623404528450802,-1.5789738532851736,0.0,0.0,1.490437913485402,0.0,0.0,0.0,2.242621109408972e-05,-1.5713733006450623,-0.40408422851686737,-1.6551474269493034,-1.6234061420230304,-1.5789739623961485,-0.0008997691300434738,0.01580431518783127,2.811538843896894,0.00017696284448262615,3.197982402454256e-05,2.0464617512827536e-06,0.0,-1.5707963267948966,-0.11631952117287814,-1.655141228937726,-1.623404528450802,-1.5789738532851736
22.204,1266.6666259765625,46.66666793823242,0.0,-1.5707963267948966,-0.13710830193991352,-1.655141228937726,-1.623404528450802,-1.5789738532851736,0.0,0.0,1.5949914451946183,0.0,0.0,0.0,5.816472069884672e-05,-1.5713555906238132,-0.25886877875659897,-1.6551447637882133,-1.623406008864976,-1.5789739623961485,-0.00192676011811815,0.015325515234240554,2.932969668540692,0.00012620791763778488,2.8659851321655015e-05,2.0902998947777096e-06,0.0,-1.5707963267948966,0.435932235785097,-1.655141228937726,-1.623404528450802,-1.5789738532851736
22.304,1266.6666259765625,46.66666793823242,0.0,-1.5707963267948966,0.08210678496143334,-1.655141228937726,-1.623404528450802,-1.5789738532851736,0.0,0.0,2.6570223767703216,0.0,0.0,0.0,-0.0003032601545423769,-1.5702852661817104,-0.07504778797227046,-1.6551202627061845,-1.6234053430747033,-1.5789739623961485,0.008721464539116302,-0.014026029941525592,2.4073615378999285,-0.0005686964646174294,1.5961746775584054e-05,1.985033795736442e-06,0.0,-1.5707963267948966,0.3192023397645145,-1.655141228937726,-1.623404528450802,-1.5789738532851736
22.403,1266.6666259765625,46.66666793823242,0.0,-1.5707963267948966,0.2912064219528396,-1.655141228937726,-1.623404528450802,-1.5789738532851736,0.0,0.0,2.113570045634175,0.0,0.0,0.0,0.00013253408743386382,-1.5711506603779317,0.11232952987510103,-1.6551402364143601,-1.6234057425488668,-1.5789739623961485,-0.003946465858651691,0.009715284477420118,2.9574276073597616,-2.8381955809683555e-05,2.0509355630317956e-05,2.0457549281899407e-06,0.0,-1.5707963267948966,0.8330294453409044,-1.655141228937726,-1.623404528450802,-1.5789738532851736
22.503,1266.6666259765625,46.66666793823242,0.0,-1.5707963267948966,0.4981938071487388,-1.655141228937726,-1.623404528450802,-1.5789738532851736,0.0,0.0,1.3865339746181746,0.0,0.0,0.0,2.065386958641223e-05,-1.570728016712936,0.26924949772486206,-1.6551326464052534,-1.6234054762327579,-1.5789739623961485,-0.0022727835462399795,0.002585622530763201,3.1415950504347743,0.0013943220455860665,-0.0005768973232954759,9.695561090782531e-05,0.0,-1.5707963267948966,1.0035610482376558,-1.655141228937726,-1.623404528450802,-1.5789738532851736
22.604,1266.6666259765625,46.66666793823242,0.0,-1.5707963267948966,0.6785458201876794,-1.655141228937726,-1.623404528450802,-1.5789738532851736,0.0,0.0,1.9811650532663574,0.0,0.0,0.0,-7.995695795681002e-05,-1.570271151427933,0.4793637697606236,-1.6551221269189476,-1.6234038783361038,-1.5789739623961485,0.0013948381630844318,-0.011826348346688012,3.141594251486447,0.0006144662949241013,-0.0003710775907123935,9.257216381172251e-05,0.0,-1.5707963267948966,1.2182257094242293,-1.655141228937726,-1.623404528450802,-1.5789738532851736
22.704,1266.6666259765625,46.66666793823242,0.0,-1.5707963267948966,0.851395037621163,-1.655141228937726,-1.623404528450802,-1.5789738532851736,0.0,0.0,1.2076120494840934,0.0,0.0,0.0,-8.649559222193453e-05,-1.5701494449661164,0.6370007687667533,-1.6551186648095304,-1.6234029462297224,-1.5789739623961485,0.002001206133633198,-0.016364477833615814,3.1415937188542293,4.488212348884989e-05,-0.0002089932895363727,5.805733032084452e-05,0.0,-1.5707963267948966,1.186638653618799,-1.655141228937726,-1.623404528450802,-1.5789738532851736
