7cmdehdrb/project_th/tune/rtde_tune/data/rtde_log_wrist1_3.csv
Time,Stiffness,Damping,R_shoulder_pan_p,R_shoulder_lift_p,R_elbow_p,R_wrist_1_p,R_wrist_2_p,R_wrist_3_p,R_shoulder_pan_v,R_shoulder_lift_v,R_elbow_v,R_wrist_1_v,R_wrist_2_v,R_wrist_3_v,S_shoulder_pan_p,S_shoulder_lift_p,S_elbow_p,S_wrist_1_p,S_wrist_2_p,S_wrist_3_p,S_shoulder_pan_v,S_shoulder_lift_v,S_elbow_v,S_wrist_1_v,S_wrist_2_v,S_wrist_3_v,C_shoulder_pan_p,C_shoulder_lift_p,C_elbow_p,C_wrist_1_p,C_wrist_2_p,C_wrist_3_p
4.502,600.0,0.0,0.0,-1.5707963267948966,0.0,0.04015599402792601,0.0,0.0,0.0,0.0,0.0,0.7984017848330545,0.0,0.0,-2.072757830746997e-06,-1.5709179000986586,0.00016460365741890809,0.05454270425779971,-5.139548904270099e-09,-5.3111939508006514e-09,0.0011987504442597383,-0.017268041578101162,-0.004192721134585078,2.430986173613912,-1.1453998374848853e-05,-5.349843159901694e-07,0.0,-1.5707963267948966,0.0,0.11010805395943689,0.0,0.0
4.602,600.0,0.0,0.0,-1.5707963267948966,0.0,0.10920567904948879,0.0,0.0,0.0,0.0,0.0,0.6591408784213767,0.0,0.0,0.0005053580609853505,-1.5707517188466378,6.591103041135825e-05,0.1710424364719638,0.00023122501176731582,-1.05683101807932e-05,0.04024155417120942,0.056707400654410975,-0.20115241871726547,0.2976309885541614,-0.2238737101894945,0.005635617652000806,0.0,-1.5707963267948966,0.0,0.15753277703158464,0.0,0.0
4.702,600.0,0.0,0.0,-1.5707963267948966,0.0,0.18267866996854654,0.0,0.0,0.0,0.0,0.0,0.7724071895153827,0.0,0.0,-7.145495759214639e-05,-1.5706613045276296,9.416212819885137e-05,0.2353819782737835,2.4418581576380987e-06,2.2448568406313896e-07,-0.02140084626949731,-0.02322949334843261,0.0005841749181190516,1.8946339190293873,0.000474820621359368,2.2230167880483927e-05,0.0,-1.5707963267948966,0.0,0.30785562685732804,0.0,0.0
4.802,600.0,0.0,0.0,-1.5707963267948966,0.0,0.26121305366515535,0.0,0.0,0.0,0.0,0.0,0.5728341271510577,0.0,0.0,-1.7031903859858632e-05,-1.5705702244183488,6.977004982167309e-05,0.3665470728207414,-1.2128999189754882e-06,6.51235737693585e-08,0.06370797731049661,-0.009578061981361883,-0.014024109552708292,2.974814320852453,-0.0026383016256303795,-0.00015495142145977532,0.0,-1.5707963267948966,0.0,0.49300805186103236,0.0,0.0
4.902,600.0,0.0,0.0,-1.5707963267948966,0.0,0.33575402550075767,0.0,0.0,0.0,0.0,0.0,0.6092589050400484,0.0,0.0,0.0001376505621428741,-1.5710983292625116,-6.355706924831612e-05,0.4200324355467524,-1.9378410998125e-06,-2.1867890250483948e-07,0.03403452877975094,-0.02030871511537484,0.0016014953024853775,2.328004930053856,-0.0011729495107536444,-4.807469024984793e-05,0.0,-1.5707963267948966,0.0,0.5732856642559738,0.0,0.0
5.002,600.0,0.0,0.0,-1.5707963267948966,0.0,0.4232505557303069,0.0,0.0,0.0,0.0,0.0,0.9761079940065716,0.0,0.0,0.00025536036427622805,-1.5710268233872429,-1.5809859306004144e-05,0.5230287259669674,-1.1298154930962922e-05,-5.372192662276748e-07,0.010344700754817028,0.013096606486736653,-0.006806535722200289,-1.287061679519255,-0.0007477728518677541,-6.755501304856405e-05,0.0,-1.5707963267948966,0.0,0.6454746570427203,0.0,0.0
5.102,600.0,0.0,0.0,-1.5707963267948966,0.0,0.49491865844676897,0.0,0.0,0.0,0.0,0.0,0.7820017593620926,0.0,0.0,0.000529415748798899,-1.572222183242525,-0.0004400293410517832,0.616711875476148,-1.911273212200959e-05,-2.6451476413340954e-06,0.01732756010757253,0.06340281650027636,0.019260499071508855,-0.9694361102644559,-0.0016584816182894065,-9.310729924511844e-06,0.0,-1.5707963267948966,0.0,0.6504230701227779,0.0,0.0
5.203,600.0,0.0,0.0,-1.5707963267948966,0.0,0.5840512644322841,0.0,0.0,0.0,0.0,0.0,0.829033771331938,0.0,0.0,0.00015263268004949153,-1.5709720954268418,-4.762508676015316e-05,0.6459386702801954,-6.998718953308032e-06,-4.954237157514245e-07,-0.028388577334512517,0.18261418765873752,0.05117798331280953,3.0181799044627584,-0.0007921245618976752,0.00013760607317861903,0.0,-1.5707963267948966,0.0,0.6803882714738488,0.0,0.0
5.302,600.0,0.0,0.0,-1.5707963267948966,0.0,0.6552087827113038,0.0,0.0,0.0,0.0,0.0,0.589267914632921,0.0,0.0,9.26614912151071e-05,-1.570997528615252,-8.799812287185918e-05,0.7460946328188136,-8.8850857820264e-06,-2.9698059265595844e-07,0.025443755750238377,0.054794439559839446,0.018872403679873254,3.1415950504347743,-0.006552720345707575,0.0053627913624844,0.0,-1.5707963267948966,0.0,0.9122254381641015,0.0,0.0
5.402,600.0,0.0,0.0,-1.5707963267948966,0.0,0.7452498244157018,0.0,0.0,0.0,0.0,0.0,0.8386593801749924,0.0,0.0,6.611622905394346e-05,-1.5705678275733679,0.00017112347693206868,0.8225270232089515,-3.604218193646821e-06,8.642697145884241e-07,0.09187510447799063,-0.06738440877751295,0.011905876994740503,-1.3654695362269864,-0.00383259153513856,-0.00011786570856399052,0.0,-1.5707963267948966,0.0,0.806428944669689,0.0,0.0
5.502,600.0,0.0,0.0,-1.5707963267948966,0.0,0.8208973404152272,0.0,0.0,0.0,0.0,0.0,0.807498740617927,0.0,0.0,-6.929242535526836e-06,-1.5707939299499156,-0.00032752684458551667,0.9126795534819868,3.03204076016005e-05,-6.526513379288581e-06,-0.0038451440224444855,0.07008431316825688,-0.0004842765662215538,0.023101341204540157,-0.015426898447988507,0.0007770936963097274,0.0,-1.5707963267948966,0.0,0.9416810850590271,0.0,0.0
5.602,600.0,0.0,0.0,-1.5707963267948966,0.0,0.9038426991476974,0.0,0.0,0.0,0.0,0.0,1.1220291243468703,0.0,0.0,5.88338431736582e-05,-1.570725353551846,6.729918118579087e-05,0.9059557375198093,-4.103258663225163e-06,2.559096437908452e-07,0.07510562850219563,-0.010479898832327883,0.07074505175708394,-1.499559164480258,-0.0007674684755711251,0.0004802362465609431,0.0,-1.5707963267948966,0.0,1.1899962408562168,0.0,0.0
5.702,600.0,0.0,0.0,-1.5707963267948966,0.0,0.9932852290774226,0.0,0.0,0.0,0.0,0.0,0.885830441711297,0.0,0.0,8.595779102670527e-05,-1.5710657055391581,-0.00010180581014444097,1.0786839716065502,-1.18233384577585e-05,-2.43753566012841e-07,0.013819346794692126,0.05668754762072228,0.027065568839231592,3.1415945178025564,-0.005455695112933433,0.007286933052296405,0.0,-1.5707963267948966,0.0,1.1714784825072886,0.0,0.0
5.802,600.0,0.0,0.0,-1.5707963267948966,0.0,1.0861390739917725,0.0,0.0,0.0,0.0,0.0,1.0474493300551724,0.0,0.0,0.0002442571248928515,-1.5707850083602637,0.00013884049970854998,1.1331377595734546,-7.170265908451097e-06,-4.7304478357907265e-08,0.09959123090708853,0.053970374294784865,-0.025313179713635028,0.03860086384739567,-0.03281295759367761,0.0006169378462550872,0.0,-1.5707963267948966,0.0,1.3017693892456175,0.0,0.0
5.904,600.0,0.0,0.0,-1.5707963267948966,0.0,1.164286180184203,0.0,0.0,0.0,0.0,0.0,0.843209426326769,0.0,0.0,-0.0002696697511767718,-1.569194701715323,0.0005229631747534487,1.2821042051500726,6.8412652836195745e-06,4.9512508108987e-06,0.033075466214564565,-0.16428920922449766,-0.05648615854685264,0.7299101368212113,-0.0016074260373973078,-0.0006016564640733877,0.0,-1.5707963267948966,0.0,1.2124125997371178,0.0,0.0
6.002,600.0,0.0,0.0,-1.5707963267948966,0.0,1.2390932877068181,0.0,0.0,0.0,0.0,0.0,0.6769589085061494,0.0,0.0,-4.297479121540803e-05,-1.5703928578897497,4.211620459468613e-05,1.2909180699357443,-1.1568840491817324e-05,-5.454694511508335e-07,0.027815234121926685,-0.314748256723564,-0.13136713692753246,-0.6759753989507631,-0.0016173002793022921,-0.0013081124782305966,0.0,-1.5707963267948966,0.0,1.4619505612372565,0.0,0.0
6.102,600.0,0.0,0.0,-1.5707963267948966,0.0,1.3223283029792554,0.0,0.0,0.0,0.0,0.0,0.7624912814635659,0.0,0.0,-8.58642699248268e-05,-1.5707847420441547,-5.7934883061694526e-06,1.3044124403372304,-2.7893542322444225e-05,3.7858422669550043e-06,-0.014241939485119962,-0.09663805989667806,-0.2109157670105777,-0.03493766912323486,0.017840306002386053,-0.004628775792234073,0.0,-1.5707963267948966,0.0,1.4952668658406787,0.0,0.0
6.202,666.6666870117188,0.0,0.0,-1.5707963267948966,0.0,1.3402310831206066,0.0,0.0,0.0,0.0,0.0,-0.5848337417499173,0.0,0.0,0.0001557333999370796,-1.5716240372616932,-0.0003321296725022509,1.469229088615618,-1.463775003850397e-05,-4.271452589812241e-06,-0.003226600152212688,-0.05863640313336103,-0.01374275802681173,2.7999194720608784,0.0020768715076219606,2.827169445495079e-05,0.0,-1.5707963267948966,0.0,1.1573934038189138,0.0,0.0
6.302,666.6666870117188,0.0,0.0,-1.5707963267948966,0.0,1.2570054524922911,0.0,0.0,0.0,0.0,0.0,-0.6708916484713534,0.0,0.0,3.8330623671950497e-05,-1.5705337391114147,0.00015739711165004884,1.4437044206219172,-9.740707961807116e-07,1.5852825413175285e-06,0.01658599145876966,-0.012052370620343577,-0.021083389145181458,-2.8883127181178074,-0.0042803856877528966,-0.0005331115024879062,0.0,-1.5707963267948966,0.0,1.104328936752082,0.0,0.0
6.402,666.6666870117188,0.0,0.0,-1.5707963267948966,0.0,1.1776707832258788,0.0,0.0,0.0,0.0,0.0,-0.8501506491924273,0.0,0.0,5.6882668058112954e-05,-1.5708883390105588,-2.286456230555813e-05,1.19692246505167,-4.905399504182335e-06,-5.136768570204057e-07,0.0032820604819135883,-0.0014385612084517557,0.007905987968577227,-2.888678902767693,0.0005898149549539863,0.00011748702409184955,0.0,-1.5707963267948966,0.0,1.0465390896004125,0.0,0.0
6.502,666.6666870117188,0.0,0.0,-1.5707963267948966,0.0,1.1023414168946601,0.0,0.0,0.0,0.0,0.0,-1.0156357675281318,0.0,0.0,-7.077938202314082e-05,-1.570507373816623,0.00011931225821541522,1.0261973275788323,5.501225719561193e-06,1.2215160239025886e-06,0.019704102646521195,-0.0343878636773772,0.03151521583923881,-2.074959352757797,0.0027064821905769605,0.00044396878438350573,0.0,-1.5707963267948966,0.0,0.9730065000475852,0.0,0.0
6.602,666.6666870117188,0.0,0.0,-1.5707963267948966,0.0,1.0295160993623904,0.0,0.0,0.0,0.0,0.0,-0.5355552991874133,0.0,0.0,-2.9238400880883858e-05,-1.5698418498602122,0.00042623555150095446,1.0108156414918346,-2.052461239280748e-06,3.0962366532242913e-06,0.03550721108948352,-0.04265225175113835,-0.006012194871921815,-3.031523140472382,-0.002264310064650539,-0.00017321268649571545,0.0,-1.5707963267948966,0.0,0.797745102174777,0.0,0.0
6.702,666.6666870117188,0.0,0.0,-1.5707963267948966,0.0,0.953374854533438,0.0,0.0,0.0,0.0,0.0,-0.6894496738318463,0.0,0.0,-0.0003272260361191287,-1.5692327849189112,0.0004495288158541498,0.8968121068121585,3.143518622708106e-06,2.6823974469062687e-06,-0.037048852626692344,-0.07983682572488386,-0.03694892582916553,0.33800424436365367,0.0034875925397837054,-2.5091227245566695e-05,0.0,-1.5707963267948966,0.0,0.824676830425738,0.0,0.0
6.802,666.6666870117188,0.0,0.0,-1.5707963267948966,0.0,0.8785150751497515,0.0,0.0,0.0,0.0,0.0,-0.677078722349763,0.0,0.0,0.0002768336447562978,-1.5714199059641387,-0.00014809602479387617,0.8828094721166309,-1.3305629026507289e-05,-1.561957760222963e-06,0.09122431113135933,-0.054305146127375435,0.02088921349279566,-1.6975751783817372,-0.004666161996630663,-9.299805990121049e-05,0.0,-1.5707963267948966,0.0,0.8266750931824921,0.0,0.0
6.902,666.6666870117188,0.0,0.0,-1.5707963267948966,0.0,0.8003492351126651,0.0,0.0,0.0,0.0,0.0,-0.8106445622210261,0.0,0.0,-0.00028283271419717526,-1.5692542233656863,0.0004903845742954007,0.8283640065281327,1.856812708781757e-06,2.584700425052209e-06,-0.05180549480584866,0.08233408852380797,0.01929460209762408,1.6222045237391867,0.0024281972010488672,0.0002214398778280043,0.0,-1.5707963267948966,0.0,0.6768314513993167,0.0,0.0
7.004,666.6666870117188,0.0,0.0,-1.5707963267948966,0.0,0.7271888524773429,0.0,0.0,0.0,0.0,0.0,-1.0156325009187617,0.0,0.0,9.620835235293564e-05,-1.570646390825525,8.035783001981987e-05,0.6959940479697525,-9.10157632353595e-06,-2.5713634568155363e-08,0.036916539293596645,-0.13467292711102624,-0.04464086742661414,-3.1329403095242347,-0.005217348957303796,-0.000134196596303079,0.0,-1.5707963267948966,0.0,0.6737423351973089,0.0,0.0
7.102,666.6666870117188,0.0,0.0,-1.5707963267948966,0.0,0.6447550890498288,0.0,0.0,0.0,0.0,0.0,-0.9937121872555592,0.0,0.0,0.00020754472430892766,-1.5714543939002552,-0.00024354795097195872,0.6128949664228193,-8.040515237193818e-06,-1.4025649621429765e-06,0.02965585502279433,-0.022930753253152972,-0.0006604958094444884,-2.0536649829976326,-0.0009557532494353329,-4.473618115579767e-05,0.0,-1.5707963267948966,0.0,0.3804044987579649,0.0,0.0
7.202,666.6666870117188,0.0,0.0,-1.5707963267948966,0.0,0.5582706189046442,0.0,0.0,0.0,0.0,0.0,-0.5680201674829904,0.0,0.0,1.8624164215639666e-05,-1.570133998631794,0.00027442035007415737,0.5243143004041759,-5.696330227399456e-06,6.862480770504364e-07,0.025242741183397036,0.0052435467642301505,0.006790100065144757,-2.367591488077339,-0.0008274416149629486,-1.6617603427979507e-05,0.0,-1.5707963267948966,0.0,0.4582915533641518,0.0,0.0
7.302,666.6666870117188,0.0,0.0,-1.5707963267948966,0.0,0.47893310174299497,0.0,0.0,0.0,0.0,0.0,-0.9302299877713998,0.0,0.0,-0.00023384880410641745,-1.5698429151246482,0.0003439522937237844,0.4335876258896331,3.827891764517106e-06,1.0115633420227214e-06,-0.05004065540215598,0.0016976343775399372,-0.026339651463319437,1.4696983375996902,0.0007445095692722689,-4.376483606045493e-05,0.0,-1.5707963267948966,0.0,0.20762361004397034,0.0,0.0
7.402,666.6666870117188,0.0,0.0,-1.5707963267948966,0.0,0.3880803055632871,0.0,0.0,0.0,0.0,0.0,-1.142553814199455,0.0,0.0,0.0001033912801221374,-1.5705461228104836,0.00011617275474408126,0.33736984610248316,-5.143269475913509e-06,3.400501168332476e-08,0.05964582024909592,-0.09988268892126248,-0.03388873111304211,-2.435510617989848,-0.0011773667431300555,-0.00012582904623722267,0.0,-1.5707963267948966,0.0,0.13348542672433783,0.0,0.0
7.503,666.6666870117188,0.0,0.0,-1.5707963267948966,0.0,0.3060228056982055,0.0,0.0,0.0,0.0,0.0,-0.7716109988832044,0.0,0.0,0.00012903477113361143,-1.5704089700143447,0.00016468918936260923,0.32484147080739617,-6.7062054356125655e-06,4.178677630124684e-08,0.06499105087299396,-0.05587564551170879,-0.017574039827648567,-1.5464949818479234,-0.0011098751150709371,-8.416964187644903e-05,0.0,-1.5707963267948966,0.0,0.0366632724107781,0.0,0.0
7.602,666.6666870117188,0.0,0.0,-1.5707963267948966,0.0,0.20945488006042812,0.0,0.0,0.0,0.0,0.0,-0.9018719682428683,0.0,0.0,0.00010672595311989092,-1.5705872686493254,8.604312791466252e-05,0.2557772648499373,-4.283655764790128e-06,-5.293588753187791e-08,0.027725296259082266,-0.027285903807543616,-0.019588188560075496,-2.086040766053617,-0.000312676177995644,-5.219944060193899e-05,0.0,-1.5707963267948966,0.0,0.14963851285759605,0.0,0.0
7.702,666.6666870117188,0.0,0.0,-1.5707963267948966,0.0,0.13851967793352582,0.0,0.0,0.0,0.0,0.0,-0.6802166724106142,0.0,0.0,0.00016098982714233976,-1.5709229601047299,-4.0935101428744466e-05,0.0766003276640026,-1.8528811164437267e-06,-1.0139339010834819e-07,0.03886676799867247,-0.01319868461908155,-0.00792877932199207,-2.153705830398132,6.427545955310824e-05,4.563958996100378e-06,0.0,-1.5707963267948966,0.0,-0.0533261733815274,0.0,0.0
7.802,666.6666870117188,0.0,0.0,-1.5707963267948966,0.0,0.05738563480435044,0.0,0.0,0.0,0.0,0.0,-0.882954761528484,0.0,0.0,0.000198703400095778,-1.5708812816336701,-9.139942366080066e-06,0.018680495875603224,-1.1982003860460184e-06,-4.501590683924121e-08,0.05339079554017796,-0.026024406011065114,-0.00965164324974563,-1.968659677321448,0.00032100457062091196,1.686862899531309e-05,0.0,-1.5707963267948966,0.0,-0.21354710200882382,0.0,0.0
7.902,666.6666870117188,0.0,0.0,-1.5707963267948966,0.0,-0.022250926090345402,0.0,0.0,0.0,0.0,0.0,-0.9617122252896871,0.0,0.0,-0.0003815298478051415,-1.5706529155701958,-0.00016427172130672237,0.022485139823755464,-2.391307023409022e-05,2.658373112862991e-07,-0.14381993670431006,-0.07797731510562807,0.21865832531349466,-0.13294002483446848,0.09135579638780358,-0.0030791533542077454,0.0,-1.5707963267948966,0.0,-0.1424061683207593,0.0,0.0
8.003,666.6666870117188,0.0,0.0,-1.5707963267948966,0.0,-0.10261580527791381,0.0,0.0,0.0,0.0,0.0,-0.8011076651831166,0.0,0.0,5.83237967853217e-05,-1.5703469183609458,0.00018345460847795546,-0.12864547783963395,9.146298440359881e-07,-6.25249179058634e-08,0.033252004666512396,0.007548326994625536,-0.0019391282127275062,-2.0389197258321365,0.0008804826682722286,3.9165429746561635e-05,0.0,-1.5707963267948966,0.0,-0.32390471246639757,0.0,0.0
8.103,666.6666870117188,0.0,0.0,-1.5707963267948966,0.0,-0.17668703945040676,0.0,0.0,0.0,0.0,0.0,-0.5704710360163581,0.0,0.0,0.00013363278767532943,-1.5705101701357675,0.00012661180493750255,-0.15429213525601734,1.853638227345514e-06,-1.0179767282136182e-08,0.06396606674844971,-0.03776019127623092,-0.01604641837716279,-1.6466898931174843,0.001416731739928675,7.838015170507192e-05,0.0,-1.5707963267948966,0.0,-0.4284699968325419,0.0,0.0
8.202,666.6666870117188,0.0,0.0,-1.5707963267948966,0.0,-0.2512505174434132,0.0,0.0,0.0,0.0,0.0,-0.6903120351578609,0.0,0.0,-9.8482029790886e-06,-1.5704628990264187,-7.916374751958604e-05,-0.26868048006845296,0.00011765603176661823,-3.151769429879406e-05,0.12978758279549285,0.031922548408561034,0.0029393285544515283,-1.1217036105912541,0.21566423316845945,-0.05884202829783956,0.0,-1.5707963267948966,0.0,-0.346946537396126,0.0,0.0
8.302,666.6666870117188,0.0,0.0,-1.5707963267948966,0.0,-0.3166517056355236,0.0,0.0,0.0,0.0,0.0,-0.8658179451783737,0.0,0.0,0.00010791593132218014,-1.570607242357501,7.915631914667243e-05,-0.3998350884186187,4.82358428672632e-06,5.3275361989812015e-08,0.023899034933019148,0.016748400592777858,0.0011411649172104413,-2.1284663869571787,0.0016107025837833785,7.148441913679829e-05,0.0,-1.5707963267948966,0.0,-0.37317508566953533,0.0,0.0
8.402,666.6666870117188,0.0,0.0,-1.5707963267948966,0.0,-0.3929852564989851,0.0,0.0,0.0,0.0,0.0,-0.9834546743505856,0.0,0.0,0.00035624041547814073,-1.572070249902336,-0.00010945067055181666,-0.4118998073679229,0.00012696736717666843,-2.75535667642722e-06,0.021337812575446497,0.1426331488987867,-0.2399238497101023,-0.00016001612512342485,-0.010797269611967768,6.622760182005034e-05,0.0,-1.5707963267948966,0.0,-0.44695659452193065,0.0,0.0
8.502,666.6666870117188,0.0,0.0,-1.5707963267948966,0.0,-0.4668563901848639,0.0,0.0,0.0,0.0,0.0,-0.6080571823040356,0.0,0.0,0.0001944942596888199,-1.5711068513779998,-0.00014239604082698219,-0.47564613003692746,7.593388041122803e-06,7.525534421096377e-07,0.030014335230870413,-0.030500457837161547,-0.02049216946377847,-1.9322896852625628,0.002004059929203651,0.0001510413665268007,0.0,-1.5707963267948966,0.0,-0.7333424083300053,0.0,0.0
8.601,666.6666870117188,0.0,0.0,-1.5707963267948966,0.0,-0.5545714396858017,0.0,0.0,0.0,0.0,0.0,-0.8931526160067603,0.0,0.0,-3.8849260640341355e-05,-1.5716783657479307,0.00021980358770169866,-0.5321962252558881,6.184967723969676e-05,-4.1475337773026505e-06,0.04832588342695678,0.16319882785043516,-0.03926882209949037,-0.1941863882539452,0.20695146863566982,-8.977810406283952e-05,0.0,-1.5707963267948966,0.0,-0.6764153962995406,0.0,0.0
8.702,666.6666870117188,0.0,0.0,-1.5707963267948966,0.0,-0.6166003455338238,0.0,0.0,0.0,0.0,0.0,-0.5473862849738264,0.0,0.0,0.0006973841665640575,-1.5719988771851219,-0.0006230944557184564,-0.6036836914234804,0.00011171074894712181,-2.8267226967274697e-06,-0.044408527427450745,0.07456517324847767,-0.014595918326775427,0.0057694576213854504,-0.005891409073216412,0.00014317548357961575,0.0,-1.5707963267948966,0.0,-0.8747372811629792,0.0,0.0
8.802,666.6666870117188,0.0,0.0,-1.5707963267948966,0.0,-0.6998635067990318,0.0,0.0,0.0,0.0,0.0,-0.750392879644512,0.0,0.0,-0.00022252872775440285,-1.570931482220218,0.0003406941475962219,-0.7077418507493373,-1.230198188724206e-05,5.9364845799985484e-08,-0.007529310880115339,-0.13276550455928424,0.2927073030413093,-0.0004978924974432343,0.017838250374919647,-0.0004937261717720627,0.0,-1.5707963267948966,0.0,-0.9467003312512798,0.0,0.0
8.902,666.6666870117188,0.0,0.0,-1.5707963267948966,0.0,-0.7940152028296978,0.0,0.0,0.0,0.0,0.0,-0.7625277505506433,0.0,0.0,7.033673552164522e-05,-1.5705362691144504,7.954036765177071e-05,-0.8540844168619545,1.0125216676551164e-05,1.3160464852852655e-07,0.010573416358184396,0.0011746054039822123,0.0034448690900852996,-2.318186387746952,0.001038324572036956,3.254710505089971e-05,0.0,-1.5707963267948966,0.0,-0.9173956189997654,0.0,0.0
9.002,666.6666870117188,0.0,0.0,-1.5707963267948966,0.0,-0.8687818440966488,0.0,0.0,0.0,0.0,0.0,-0.6258930685411478,0.0,0.0,0.0002502784469431791,-1.5723339028502539,-0.0004311434791104425,-0.8731232889159036,-4.366903422865425e-06,2.2153407857724045e-06,-0.0006738752030673968,-0.05100731629882749,-0.06028115893902635,1.1785936583233632,0.0022995948684994875,0.0005459693495609105,0.0,-1.5707963267948966,0.0,-0.9971678427651661,0.0,0.0
9.102,666.6666870117188,0.0,0.0,-1.5707963267948966,0.0,-0.9478845255898705,0.0,0.0,0.0,0.0,0.0,-0.9466422619389487,0.0,0.0,0.00020997602913808838,-1.5704451890051696,0.00015546119964646393,-0.996741434342011,2.4006808741849928e-05,3.48640934992767e-07,0.010206118590186632,0.12046361447015165,0.1304028229415716,-2.671223011331126,-0.00405644218817868,-0.0012025437583299873,0.0,-1.5707963267948966,0.0,-1.1020555073581506,0.0,0.0
9.202,666.6666870117188,0.0,0.0,-1.5707963267948966,0.0,-1.012909459574761,0.0,0.0,0.0,0.0,0.0,-0.9447974970907606,0.0,0.0,0.00019677852499636893,-1.5715541292830786,0.00010310810794592725,-1.0102628358285612,-5.330353332199124e-05,3.2041522594535653e-06,0.19322951447427975,-0.05947952248377728,-0.0486452172476033,0.0003967881158811886,0.0017271861029641094,0.0009050233466169697,0.0,-1.5707963267948966,0.0,-1.1089794868634981,0.0,0.0
9.303,666.6666870117188,0.0,0.0,-1.5707963267948966,0.0,-1.0869322603487568,0.0,0.0,0.0,0.0,0.0,-0.6540850847974505,0.0,0.0,0.00023458102711438133,-1.571112710332398,-0.00012182509634552709,-1.1011733017478331,2.894647964182743e-05,2.067055545604885e-08,-0.008619752591421292,0.07682175286388587,0.0273495429546235,-3.1415945178025564,0.01171986975676068,-0.01667238398841291,0.0,-1.5707963267948966,0.0,-1.3260873160257725,0.0,0.0
9.402,666.6666870117188,0.0,0.0,-1.5707963267948966,0.0,-1.1644020585967336,0.0,0.0,0.0,0.0,0.0,-0.6612207579815387,0.0,0.0,0.0003220497768246124,-1.5714991350065686,-0.0002895362274571558,-1.1607483484909602,3.285364124793416e-05,4.4052887678008625e-06,0.033590712984089235,-0.06540540128790746,0.03223596917934973,-1.5901551110747916,-0.002290399420583283,-0.0004879516114924168,0.0,-1.5707963267948966,0.0,-1.4396492029763304,0.0,0.0
9.502,666.6666870117188,0.0,0.0,-1.5707963267948966,0.0,-1.2547422003199333,0.0,0.0,0.0,0.0,0.0,-0.6891254624051116,0.0,0.0,4.873425499320819e-05,-1.5717927485167498,-0.00026762873663651427,-1.3288980760316367,-1.8002119257351276e-05,1.1130770942874939e-06,-0.015557324681780536,0.10117297382464906,-0.08371174175570596,-1.088644060925392,0.013462284511837053,0.001857869680300927,0.0,-1.5707963267948966,0.0,-1.4669646147482007,0.0,0.0
9.602,733.3333129882812,0.0,0.0,-1.5707963267948966,0.0,-1.3247283585891303,0.0,0.0,0.0,0.0,0.0,-0.6126069203859066,0.0,0.0,-0.00011265803716738327,-1.5711342819372276,-4.054122699054711e-05,-1.3626172906995115,-3.0113829345993317e-05,-1.7780124740547316e-06,-0.06405023512246383,0.21714794679076985,-0.03868174488193921,-0.2928379643822913,0.008372736077938035,0.0011182595212039957,0.0,-1.5707963267948966,0.0,-1.2256306459662674,0.0,0.0
9.702,733.3333129882812,0.0,0.0,-1.5707963267948966,0.0,-1.2969183561396669,0.0,0.0,0.0,0.0,0.0,0.819030622624217,0.0,0.0,-0.00016330736570886945,-1.5707304135579172,-1.0456237449022009e-05,-1.394797864047593,-1.760857600755242e-05,-1.0374886758851928e-06,-0.03442566600069412,0.16632466324564524,-0.0031499312814401294,0.31895695006275704,0.0053087343938422946,0.0004945729737749238,0.0,-1.5707963267948966,0.0,-1.204506376290219,0.0,0.0
9.802,733.3333129882812,0.0,0.0,-1.5707963267948966,0.0,-1.2139416560379033,0.0,0.0,0.0,0.0,0.0,0.9708098839097185,0.0,0.0,8.93602540227875e-05,-1.5696421127784563,0.00026572362718582063,-1.2289891882631507,3.539148714987884e-05,-1.061162296907167e-06,0.030126554181303625,0.2696445610278185,-0.23935920962473506,-0.1258918691410329,0.07856968535584576,-0.0048031212974717925,0.0,-1.5707963267948966,0.0,-1.151616248187157,0.0,0.0
9.902,733.3333129882812,0.0,0.0,-1.5707963267948966,0.0,-1.1385596012760404,0.0,0.0,0.0,0.0,0.0,0.9163934928885756,0.0,0.0,-8.854319802087146e-06,-1.5718245732917762,-0.00045293068555567764,-1.0857335587490715,-6.872082567283137e-06,3.245740277475732e-06,0.011704420301546318,-0.02905384537778732,-0.057487993975859214,1.8102119787899846,0.005681626360575177,0.0008704229283547934,0.0,-1.5707963267948966,0.0,-0.9816683130762653,0.0,0.0
10.002,733.3333129882812,0.0,0.0,-1.5707963267948966,0.0,-1.0513603660394617,0.0,0.0,0.0,0.0,0.0,0.9849413791893924,0.0,0.0,0.0002420972401313308,-1.5714916781555164,-0.00011311433757095203,-1.033303972947709,5.283103618027127e-06,9.69595054192537e-07,-5.5448618228943335e-05,-0.04175826186271237,-0.09250747207882995,1.9365048034778858,0.006650227411712703,0.0011947402282022697,0.0,-1.5707963267948966,0.0,-0.8126538125050331,0.0,0.0
10.102,733.3333129882812,0.0,0.0,-1.5707963267948966,0.0,-0.951510902884654,0.0,0.0,0.0,0.0,0.0,0.830155003010706,0.0,0.0,0.00028786170640504534,-1.5720872941333126,-0.0004172520316505,-0.9001410581747575,8.658020577817481e-06,3.1057153972583764e-06,0.01542235442937856,-0.09288073075036136,-0.05603506067008525,2.4500871639002875,0.002202212378096132,0.0005147461914672396,0.0,-1.5707963267948966,0.0,-0.9055511097467052,0.0,0.0
10.202,733.3333129882812,0.0,0.0,-1.5707963267948966,0.0,-0.8796720413184804,0.0,0.0,0.0,0.0,0.0,0.8141213389046814,0.0,0.0,7.359297172838203e-05,-1.5715920793286122,0.0004033510264591063,-0.7241332743636387,-0.00042173083662340303,3.057019476814337e-05,-0.059012108584143956,-0.12008227476918752,0.41950003635533195,-0.4899615197129713,-0.06921592291580929,-0.051756118134762906,0.0,-1.5707963267948966,0.0,-0.5976865171214545,0.0,0.0
10.304,733.3333129882812,0.0,0.0,-1.5707963267948966,0.0,-0.7923017518168125,0.0,0.0,0.0,0.0,0.0,1.0674963723727173,0.0,0.0,-0.0007179598167653342,-1.5694844536419235,0.000771401384535427,-0.7213775684256792,-0.00013409898715790121,3.3214033656549957e-06,-0.010931246380447469,0.061782540970693745,0.15483631893526142,0.03740010276852778,-0.019808565140279552,0.0008263455967379616,0.0,-1.5707963267948966,0.0,-0.6088592731334721,0.0,0.0
10.402,733.3333129882812,0.0,0.0,-1.5707963267948966,0.0,-0.7085967849302328,0.0,0.0,0.0,0.0,0.0,0.6447216619472633,0.0,0.0,-0.0009492688813036266,-1.5683570043944386,0.00107024167344885,-0.6340315438883967,-0.00011315577066188593,1.8079067986384229e-06,-0.13337645035810522,0.025068518433240813,0.2100896211509215,0.11192250731437446,-0.07042994986585713,0.002913333085350183,0.0,-1.5707963267948966,0.0,-0.4212672834091633,0.0,0.0
10.502,733.3333129882812,0.0,0.0,-1.5707963267948966,0.0,-0.6457878857673132,0.0,0.0,0.0,0.0,0.0,0.643210974986403,0.0,0.0,0.0002045320720897115,-1.5706597066309755,-3.968379851330463e-05,-0.5102222500750488,1.5682478761997952e-05,9.367149544456747e-07,0.04138144537441218,-0.11366242535592888,0.025036747753674007,0.43227525339395567,-0.0005400113393541244,-0.0001520170191031546,0.0,-1.5707963267948966,0.0,-0.5341441270445544,0.0,0.0
10.602,733.3333129882812,0.0,0.0,-1.5707963267948966,0.0,-0.5728114769460877,0.0,0.0,0.0,0.0,0.0,0.9734820097852183,0.0,0.0,0.00012806779853786118,-1.572015521941935,-0.0003784182535598309,-0.572976179053349,-6.165702413555661e-06,1.035575834302901e-06,-0.01611481272320469,-0.026785832895043188,-0.06725760069773315,1.1425281987351286,0.001119756378982702,0.00035289546954454175,0.0,-1.5707963267948966,0.0,-0.279751687775697,0.0,0.0
10.702,733.3333129882812,0.0,0.0,-1.5707963267948966,0.0,-0.48421816860575184,0.0,0.0,0.0,0.0,0.0,1.0384134995684784,0.0,0.0,-0.00024979290443267034,-1.5703650278563583,0.00016299600797766543,-0.44605984177523306,-9.609438493906874e-06,-9.296177699305634e-07,-0.04194201581673864,0.14562154853699186,-0.036034338054183476,1.9609800528440409,0.0019928223776859524,0.0002530345033312918,0.0,-1.5707963267948966,0.0,-0.4113303897895424,0.0,0.0
10.802,733.3333129882812,0.0,0.0,-1.5707963267948966,0.0,-0.4023641394927022,0.0,0.0,0.0,0.0,0.0,0.868876425492982,0.0,0.0,-4.0173617519406925e-06,-1.5702340003307265,0.0003695483861894902,-0.33588583287455015,-1.0744413262225147e-06,-9.490080379305166e-07,-0.02043061299189481,-0.01888931891398446,-0.0100190752160952,2.709430318226057,-0.0009292834697833982,-1.8267740480271548e-05,0.0,-1.5707963267948966,0.0,-0.22352344287624765,0.0,0.0
10.902,733.3333129882812,0.0,0.0,-1.5707963267948966,0.0,-0.33245322341945194,0.0,0.0,0.0,0.0,0.0,0.6532431121609543,0.0,0.0,0.00021895802105188224,-1.5706609050534661,-0.00021935455312459027,-0.327479564893715,0.00034287480579446816,-3.155127030054391e-05,0.006785014571789737,0.04290674176043064,-0.2011788505910845,-0.08073681604814091,0.23205277723983225,0.008192803656046304,0.0,-1.5707963267948966,0.0,-0.11927337674063176,0.0,0.0
11.002,733.3333129882812,0.0,0.0,-1.5707963267948966,0.0,-0.26081544327628237,0.0,0.0,0.0,0.0,0.0,0.5918343682769426,0.0,0.0,0.00018482207927987313,-1.5712760952652745,-0.00019410850444596248,-0.22493151777447398,2.610332730835869e-06,3.573582822322543e-07,0.010207139121838729,-0.006941570993183567,-0.039608067210474426,-1.3356081767142005,0.001334552154279389,0.00011937830083937146,0.0,-1.5707963267948966,0.0,-0.20710158620241936,0.0,0.0
11.103,733.3333129882812,0.0,0.0,-1.5707963267948966,0.0,-0.18105291330320394,0.0,0.0,0.0,0.0,0.0,0.7141372243437771,0.0,0.0,0.0007287190265804031,-1.570897660074374,-9.377559273301832e-05,-0.16424062317936053,-2.306163108569241e-06,5.641476894918934e-07,0.09167170554973583,0.07546189287702097,-0.11378843448738166,-0.04834435910701921,0.026048663663525453,-0.0014342425442445965,0.0,-1.5707963267948966,0.0,0.03255602393052781,0.0,0.0
11.202,733.3333129882812,0.0,0.0,-1.5707963267948966,0.0,-0.10422696804055764,0.0,0.0,0.0,0.0,0.0,0.718778644924295,0.0,0.0,0.0002536154931191501,-1.5707751546642306,1.3147000958694087e-05,-0.09165381243616186,1.9735964939300883e-06,8.225848195150663e-08,0.04332929387926374,-0.05085697669410331,-0.012530669150635302,-1.0656946697057976,0.0008626400091173482,4.379936499078696e-05,0.0,-1.5707963267948966,0.0,0.009946248723898085,0.0,0.0
11.302,733.3333129882812,0.0,0.0,-1.5707963267948966,0.0,-0.025138601105118674,0.0,0.0,0.0,0.0,0.0,0.6349098166423824,0.0,0.0,0.0002451577135170937,-1.5718974107475898,-0.0003628989358798612,0.03231346300588184,2.4834667400089164e-08,6.105600056876656e-09,-0.023763276135263155,-0.0007734596777636652,-0.020897594127851003,2.2836531778918947,-0.00016489705376702778,-6.3628768488845535e-06,0.0,-1.5707963267948966,0.0,0.2603483087760596,0.0,0.0
11.402,733.3333129882812,0.0,0.0,-1.5707963267948966,0.0,0.048585901208435776,0.0,0.0,0.0,0.0,0.0,0.9047690022818651,0.0,0.0,0.00024162327092829355,-1.5718759723008147,-0.000379428804859698,0.1473621074016836,-6.852869576508761e-07,-2.733150354619386e-07,-0.032572869460217764,0.0003712214443235214,-0.029769979797882633,2.309036565189767,-4.84715392881398e-05,-2.8692850283495816e-05,0.0,-1.5707963267948966,0.0,0.28133443371052863,0.0,0.0
11.502,733.3333129882812,0.0,0.0,-1.5707963267948966,0.0,0.1445192991286558,0.0,0.0,0.0,0.0,0.0,0.8130512280430873,0.0,0.0,-8.934442199824076e-05,-1.5706397329228,2.9843939246844517e-05,0.16651421373623163,5.53673221442224e-07,4.6354101469307824e-08,-0.027322667914154317,0.08933985002164085,0.03589580790441812,3.0730929545596473,0.0002298294854475669,4.0018697034600864e-05,0.0,-1.5707963267948966,0.0,0.19565876679704353,0.0,0.0
11.602,733.3333129882812,0.0,0.0,-1.5707963267948966,0.0,0.210402653947386,0.0,0.0,0.0,0.0,0.0,0.6241113474438067,0.0,0.0,-9.41223368270953e-05,-1.5706674297981367,-0.00014523431321114972,0.346077251023579,-0.00015136654070653114,6.096407336661374e-06,-0.14116093680343408,0.00996836800476171,0.09520715176535689,-0.03951543497762091,0.029240855462365125,-0.0004714620215236958,0.0,-1.5707963267948966,0.0,0.4563872482816113,0.0,0.0
11.702,733.3333129882812,0.0,0.0,-1.5707963267948966,0.0,0.294430023984505,0.0,0.0,0.0,0.0,0.0,0.6451827343735299,0.0,0.0,-5.051679629082724e-05,-1.5699623578995383,0.0003614463232457302,0.3144298092362177,1.3477516821244516e-05,-2.3727994318586254e-08,-0.05680582110144621,-0.004290174625279214,0.009962711908337194,-0.03424611692835774,0.021933062368592833,-0.0008024684330153948,0.0,-1.5707963267948966,0.0,0.4170809624823486,0.0,0.0
11.802,733.3333129882812,0.0,0.0,-1.5707963267948966,0.0,0.37439315743848167,0.0,0.0,0.0,0.0,0.0,0.8994924126479871,0.0,0.0,-0.0002548687912923036,-1.5700566338021271,0.00019417017457032623,0.46698702820010296,4.064208147725558e-06,6.23050016026095e-07,0.006657147989506357,0.02808524120575789,0.01925617559592668,2.2555283325678945,-0.00039900521699425396,3.472141784197717e-05,0.0,-1.5707963267948966,0.0,0.5314466081309446,0.0,0.0
11.902,733.3333129882812,0.0,0.0,-1.5707963267948966,0.0,0.4571008221901009,0.0,0.0,0.0,0.0,0.0,0.7890711908965131,0.0,0.0,-1.1172338896569281e-05,-1.5704913948500825,0.00010841416058336522,0.5794344778548457,-2.089669138345442e-06,2.5782291396241805e-07,-0.04080905715474849,0.017293407147186867,-0.007337265756601602,2.3597423533965483,0.0014969997792877187,4.124942563272034e-05,0.0,-1.5707963267948966,0.0,0.5388903393451211,0.0,0.0
12.002,733.3333129882812,0.0,0.0,-1.5707963267948966,0.0,0.5362360631469862,0.0,0.0,0.0,0.0,0.0,0.7403541071947568,0.0,0.0,0.000175772045420748,-1.5709911370286358,-4.426482895065779e-05,0.5562583850474584,-7.644581538616824e-06,-5.04872236304358e-07,0.05662502575294346,-0.08618691696233924,-0.006395838831407242,-1.0975474079236902,-0.0010238322553579224,-5.375436403740806e-05,0.0,-1.5707963267948966,0.0,0.685919115808401,0.0,0.0
12.102,733.3333129882812,0.0,0.0,-1.5707963267948966,0.0,0.5995683951547545,0.0,0.0,0.0,0.0,0.0,0.7932198933095691,0.0,0.0,0.0005379427081714594,-1.5721205836469385,-0.0003763015411362939,0.6461953324302517,-1.8923556496053688e-05,-2.416448083333494e-06,0.047477637491442126,0.09941940708250797,0.07120709356145588,-0.3220575353618818,-0.001805310739771992,0.0002311047111372641,0.0,-1.5707963267948966,0.0,0.7994800778017166,0.0,0.0
12.203,733.3333129882812,0.0,0.0,-1.5707963267948966,0.0,0.6849449030208855,0.0,0.0,0.0,0.0,0.0,0.7410086923174127,0.0,0.0,-6.965502382402939e-05,-1.5705458564943746,4.92277744709103e-05,0.7476011830474715,1.6096778431940577e-07,1.8950021090473764e-07,-0.017995393523991137,0.06939907349740108,0.033939324931969814,3.1147919319597808,0.001120331013204238,0.0002172135237516468,0.0,-1.5707963267948966,0.0,0.9201671132736866,0.0,0.0
12.302,733.3333129882812,0.0,0.0,-1.5707963267948966,0.0,0.7559365298045877,0.0,0.0,0.0,0.0,0.0,0.4992965630649257,0.0,0.0,0.00012026813701573104,-1.570184998166669,0.0003998752306306395,0.8408302635907936,9.397880221338187e-06,8.345773666718399e-07,0.07212564278855943,-0.11551642656067958,-0.1316751980866274,-0.051030831179015045,0.02259245897390185,-0.0033044089287526113,0.0,-1.5707963267948966,0.0,0.856745065615456,0.0,0.0
12.402,733.3333129882812,0.0,0.0,-1.5707963267948966,0.0,0.8270886080643859,0.0,0.0,0.0,0.0,0.0,0.8273632746465605,0.0,0.0,0.0002232008735932448,-1.5716175125170224,-0.00024526938293047774,0.9295645274253073,-7.977298889693486e-06,-1.980156386223552e-06,0.053838035994553946,0.02797537124662991,0.01148143049452262,-1.1604267717893333,-0.00561936976860807,-0.0002485418819098624,0.0,-1.5707963267948966,0.0,1.104662569162902,0.0,0.0
12.502,733.3333129882812,0.0,0.0,-1.5707963267948966,0.0,0.9113531439276729,0.0,0.0,0.0,0.0,0.0,0.6078678444319624,0.0,0.0,0.00018033485440069162,-1.5708095094422925,0.00011992023884183599,0.9870418021777789,3.5757390391217544e-06,-2.004973832668224e-07,0.058425401712431886,0.11235163411214869,0.02010807505556179,0.012009116098873106,-0.01275381188136222,2.4578242830087673e-05,0.0,-1.5707963267948966,0.0,1.1545905731256076,0.0,0.0
12.602,733.3333129882812,0.0,0.0,-1.5707963267948966,0.0,0.982275471442852,0.0,0.0,0.0,0.0,0.0,0.7490035393815854,0.0,0.0,0.00019920176752144837,-1.5709096442992794,7.119099840671062e-05,1.075547100737573,-1.0590363670838153e-05,4.728113611576791e-08,0.05083428156818879,0.08532928754517125,0.01564996003552596,-0.20655404177724596,-0.008343687336258806,-0.000413756632719771,0.0,-1.5707963267948966,0.0,1.1435612854574415,0.0,0.0
12.702,733.3333129882812,0.0,0.0,-1.5707963267948966,0.0,1.0549173943068282,0.0,0.0,0.0,0.0,0.0,0.6975184074285657,0.0,0.0,0.0006161603540598927,-1.5725492194243869,-0.00027004323416240873,1.042842417286964,-4.44067441953307e-05,2.4241339907839773e-06,0.05326195680006698,0.06975147212745661,-0.0038097278810613096,-0.024705469239419565,0.007445382294629063,-0.001800343190123451,0.0,-1.5707963267948966,0.0,1.1960051108050505,0.0,0.0
12.803,733.3333129882812,0.0,0.0,-1.5707963267948966,0.0,1.1356948754378078,0.0,0.0,0.0,0.0,0.0,0.7693967332025526,0.0,0.0,-0.0002261640629267364,-1.5697539655442396,0.00032886512204443024,1.1598877479847012,7.709442145083333e-06,2.9491684320044646e-06,-0.11270622568891434,0.20433487957515337,0.056452515332144376,2.995647431111816,0.008804711209721896,0.0009540553542032448,0.0,-1.5707963267948966,0.0,1.3533890474462869,0.0,0.0
12.902,733.3333129882812,0.0,0.0,-1.5707963267948966,0.0,1.22082815466287,0.0,0.0,0.0,0.0,0.0,0.8280866221175105,0.0,0.0,0.0001984706498293666,-1.5718478759513144,-0.0006361258698942431,1.266320182001391,-7.1581500006003e-05,-1.977954770707905e-06,0.03151113579322502,-0.05395110382758462,-0.008401632416062696,0.04781853459453988,-0.02631938023011581,0.0023790467946260435,0.0,-1.5707963267948966,0.0,1.3827664353229687,0.0,0.0
13.002,733.3333129882812,0.0,0.0,-1.5707963267948966,0.0,1.3038626278057295,0.0,0.0,0.0,0.0,0.0,0.9286336962277155,0.0,0.0,-0.0002948950914372553,-1.5701643586682208,0.00013050224864089233,1.3527125951313435,5.2515252105962125e-05,-2.5461474540868557e-06,-0.030298569420587524,0.18028512012740872,-0.1791246476824067,-0.019435549898316525,-0.005615600251338578,-0.004832643894571542,0.0,-1.5707963267948966,0.0,1.3979609065186025,0.0,0.0
13.103,800.0,0.0,0.0,-1.5707963267948966,0.0,1.3518694889131302,0.0,0.0,0.0,0.0,0.0,-0.5385231362446137,0.0,0.0,0.0003324074643908584,-1.5720763751728433,-0.00037176057839966736,1.4082212612060285,-1.791237329684957e-05,-4.675611138923779e-06,0.0720674527187412,-0.1939603025221543,-0.1038962224868232,-2.6307261848470542,-0.011859452687394457,-0.0018676324803575616,0.0,-1.5707963267948966,0.0,1.1441556986055903,0.0,0.0
13.202,800.0,0.0,0.0,-1.5707963267948966,0.0,1.2705383745092957,0.0,0.0,0.0,0.0,0.0,-1.0071126429989699,0.0,0.0,0.00026126081678391755,-1.5717219084317535,-0.0002644789439746895,1.400449091880741,-1.5199871230885712e-05,-3.47615546249464e-06,0.042755902813002074,0.007944464924693717,-0.001082553917096869,-1.4126335865000716,-0.006614006860441674,-0.0004658645068409319,0.0,-1.5707963267948966,0.0,1.1002955848618714,0.0,0.0
13.302,800.0,0.0,0.0,-1.5707963267948966,0.0,1.1869531100607258,0.0,0.0,0.0,0.0,0.0,-0.8472087787906487,0.0,0.0,-4.597335878444991e-05,-1.5704305416191742,0.00014691117493218704,1.1855847225009302,2.5745946072789384e-06,1.437108242279089e-06,0.009649462786603127,-0.021993686734094967,-0.007660983910222392,-2.928538701119018,-0.0009188150230639063,-0.00012373656948986555,0.0,-1.5707963267948966,0.0,0.9926124653908563,0.0,0.0
13.402,800.0,0.0,0.0,-1.5707963267948966,0.0,1.1037791887520498,0.0,0.0,0.0,0.0,0.0,-0.7756983655750005,0.0,0.0,0.00035986338086538186,-1.572184898987264,-0.00043364191562479627,1.0716638789731012,-1.680869405433778e-05,-4.253508985246229e-06,0.04737959571262438,-0.09051248146149478,-0.03218742058491543,-1.6868048223012388,-0.004333565165621766,-0.0005147204441090444,0.0,-1.5707963267948966,0.0,0.9379476491798112,0.0,0.0
13.502,800.0,0.0,0.0,-1.5707963267948966,0.0,1.024772962805928,0.0,0.0,0.0,0.0,0.0,-0.8102727999284065,0.0,0.0,-0.0002172144177571397,-1.5691877774964886,0.0006086462866561261,0.9760609232131097,4.734683059823855e-06,4.519223672377121e-06,-0.008639211872581634,0.026668454069997946,-0.005536356124597858,-2.7522989559769533,-0.0007745985432337293,-0.0001061154611507674,0.0,-1.5707963267948966,0.0,0.9516533962681217,0.0,0.0
13.602,800.0,0.0,0.0,-1.5707963267948966,0.0,0.9525014190407886,0.0,0.0,0.0,0.0,0.0,-0.5559165532010164,0.0,0.0,-0.0005168626763257419,-1.57005317169271,0.0004366786734830297,0.914031107735202,-6.84657770807798e-05,1.5257208476354989e-05,-0.04461322048554776,0.09673729593679714,-0.08368141500879268,0.5170307878494046,-0.36570794405077106,0.013319334138840545,0.0,-1.5707963267948966,0.0,0.8648451227588274,0.0,0.0
13.702,800.0,0.0,0.0,-1.5707963267948966,0.0,0.8834533945127303,0.0,0.0,0.0,0.0,0.0,-0.8268958221745297,0.0,0.0,-1.7157519758931707e-05,-1.5700558348538,0.00011403420420454989,0.808151079907622,2.266388042254266e-05,-2.8381837455547282e-06,0.12252758928209827,0.051846041433445116,0.026238245363030866,-0.24675023066376153,0.13019925756574866,-0.009379557651907401,0.0,-1.5707963267948966,0.0,0.8185035069491202,0.0,0.0
13.802,800.0,0.0,0.0,-1.5707963267948966,0.0,0.8019234725090376,0.0,0.0,0.0,0.0,0.0,-1.0782544858964656,0.0,0.0,0.00035441206046267265,-1.5719671855681498,-0.0003751464210209046,0.7816840523621965,-1.3837738048126732e-05,-2.6902265984186797e-06,0.0888816198665791,-0.16019767832851126,-0.02663743656567693,-1.9770465042263254,-0.003760864856767835,-0.00030964146822272154,0.0,-1.5707963267948966,0.0,0.6903568363401158,0.0,0.0
13.902,800.0,0.0,0.0,-1.5707963267948966,0.0,0.7212243844185267,0.0,0.0,0.0,0.0,0.0,-1.1137169723427045,0.0,0.0,0.0003890348776261072,-1.5722657259263477,-0.0005037569784208191,0.6876736669340724,-1.2374170798961897e-05,-2.9347462439608557e-06,-0.03464390372964771,0.04774276766152712,0.022023674344088178,-1.491457562128128,0.002454806185483367,0.00022997933702281984,0.0,-1.5707963267948966,0.0,0.5196196897680598,0.0,0.0
14.002,800.0,0.0,0.0,-1.5707963267948966,0.0,0.6267229009226893,0.0,0.0,0.0,0.0,0.0,-1.1743956316879947,0.0,0.0,-0.0002585000140393699,-1.5689607430135595,0.0007122769977039036,0.6073466697658026,1.849098355701955e-06,2.9828630418694187e-06,-0.02341367798554141,0.017422040948729595,0.00987515944720354,-2.4438116911076246,0.001681156068295072,0.000125302021871844,0.0,-1.5707963267948966,0.0,0.3771884628286367,0.0,0.0
14.103,800.0,0.0,0.0,-1.5707963267948966,0.0,0.5253164505535519,0.0,0.0,0.0,0.0,0.0,-0.9119472918756346,0.0,0.0,0.0003002495991724077,-1.571752135310126,-0.0003355573220712645,0.4479229559843389,-7.480914022795146e-06,-1.332212444376636e-06,0.006344333191895379,-0.08838275986013681,-0.0217109235247612,-2.1862969300282495,0.000824845618067353,-1.8914344175815637e-05,0.0,-1.5707963267948966,0.0,0.2583342289586699,0.0,0.0
14.202,800.0,0.0,0.0,-1.5707963267948966,0.0,0.43556842033676446,0.0,0.0,0.0,0.0,0.0,-0.838946054790902,0.0,0.0,0.0004289494921030296,-1.5720947509843648,-0.0004462588038354999,0.39665294381111027,-9.357384820256473e-06,-1.5517666055617349e-06,-0.019732182351264716,0.02042977659286496,0.018652792758482594,-1.460235194140257,0.0012238115963477919,0.0001114814121562287,0.0,-1.5707963267948966,0.0,0.22081254235024084,0.0,0.0
14.302,800.0,0.0,0.0,-1.5707963267948966,0.0,0.35208752573533353,0.0,0.0,0.0,0.0,0.0,-0.6760133353601224,0.0,0.0,0.0002491656051602806,-1.5715982045991195,-0.00031878555145969825,0.2543711990181595,8.857402495573069e-05,-2.339750133000449e-05,-0.025624669692633422,0.07142940925582865,0.0011373535279745907,-1.6210985129384767,0.17817634595249993,-0.043488059892124495,0.0,-1.5707963267948966,0.0,0.0726908947149047,0.0,0.0
14.402,800.0,0.0,0.0,-1.5707963267948966,0.0,0.2752655159822819,0.0,0.0,0.0,0.0,0.0,-0.6698664537258803,0.0,0.0,-4.642420575451206e-05,-1.5699114915227177,0.0003716346699169784,0.29746001361217833,6.0082787133695206e-06,2.424544325336376e-07,-0.048400210588505216,0.015942133774242872,0.024404007726401,-0.02282842544945588,0.014644348327317439,-0.0004573066311329629,0.0,-1.5707963267948966,0.0,0.22110742562372243,0.0,0.0
14.502,800.0,0.0,0.0,-1.5707963267948966,0.0,0.21074637125818185,0.0,0.0,0.0,0.0,0.0,-0.5179475844449054,0.0,0.0,-7.967452536696217e-05,-1.5699851279268584,0.00030904446760921797,0.17285901194102046,-7.857041563032811e-07,3.407063187698668e-07,-0.006714973435120653,-0.019900650176752847,0.0036903256777659874,-2.148933712040819,0.0005168243803813558,3.1063003105112505e-05,0.0,-1.5707963267948966,0.0,-0.0051990417343668605,0.0,0.0
14.602,800.0,0.0,0.0,-1.5707963267948966,0.0,0.12503252414416455,0.0,0.0,0.0,0.0,0.0,-0.8059604822368185,0.0,0.0,-2.016402569038428e-05,-1.5701250770421422,0.00026256887685717164,0.13080317095481617,-1.168634075125413e-06,2.0408132620322497e-07,-0.015132108361560053,-0.03736027186547428,-0.006868653434477737,-1.9082611811692682,0.0006054377497060962,2.3316864066376885e-05,0.0,-1.5707963267948966,0.0,0.02966713376117848,0.0,0.0
14.702,800.0,0.0,0.0,-1.5707963267948966,0.0,0.04744004157601012,0.0,0.0,0.0,0.0,0.0,-0.987832102203628,0.0,0.0,-7.941411782152995e-05,-1.5712167067729657,-0.0001419812710422193,0.028873605548043198,-2.555383038786029e-05,1.1316731704760115e-06,0.1116206629719492,0.01933107492099056,-0.1113513091948229,0.025088450529524374,-0.018846379602596136,0.0003535798876406042,0.0,-1.5707963267948966,0.0,-0.01636199090845182,0.0,0.0
14.804,800.0,0.0,0.0,-1.5707963267948966,0.0,-0.036302362725965764,0.0,0.0,0.0,0.0,0.0,-0.7533465344494261,0.0,0.0,0.00011163687158411882,-1.570790334682444,3.7431855060027064e-06,-0.08022617987625344,6.758527234073105e-07,2.7102577343831974e-08,-0.01711610719761484,0.03792472053613817,0.02814275092114139,-1.9916503475379383,6.967004311630987e-05,-4.6490119357221046e-06,0.0,-1.5707963267948966,0.0,-0.3092492967862429,0.0,0.0
14.902,800.0,0.0,0.0,-1.5707963267948966,0.0,-0.10950701892217118,0.0,0.0,0.0,0.0,0.0,-0.4780021606122464,0.0,0.0,5.475841347914509e-05,-1.5706433281902716,5.51623576701214e-05,-0.2182403255356499,1.611631194400246e-06,2.863005763618398e-08,-0.01776240021812283,0.0293005123513775,0.022735377097682034,-2.219119591515149,-0.0002696417769321672,-3.651491883420673e-05,0.0,-1.5707963267948966,0.0,-0.2699449391861628,0.0,0.0
15.002,800.0,0.0,0.0,-1.5707963267948966,0.0,-0.15999500484912588,0.0,0.0,0.0,0.0,0.0,-0.5103966602475687,0.0,0.0,0.00019957609574864217,-1.571483688672246,-3.045046965412768e-06,-0.2002070797540714,0.00016491111403523406,-5.18729061115779e-06,0.049603634828463174,0.14737132859695798,-0.30587307265379315,-0.0929249725139703,0.04686144859422504,-0.002635648867513308,0.0,-1.5707963267948966,0.0,-0.3533792320215773,0.0,0.0
15.102,800.0,0.0,0.0,-1.5707963267948966,0.0,-0.23832901016330688,0.0,0.0,0.0,0.0,0.0,-1.0383103679656196,0.0,0.0,-3.893183017493199e-05,-1.570332404133005,0.00015795799444163987,-0.2116935931412058,9.916272100155e-07,-1.1432188894967903e-07,-0.017804020432533724,0.054340441334197395,0.012992564273087823,-1.355625827047781,0.0001623957726897421,-3.5729699079033083e-06,0.0,-1.5707963267948966,0.0,-0.40112409803474264,0.0,0.0
15.202,800.0,0.0,0.0,-1.5707963267948966,0.0,-0.3155187372943242,0.0,0.0,0.0,0.0,0.0,-1.1616884463351795,0.0,0.0,-3.3108678664917066e-05,-1.570276477750113,0.00019156206796396342,-0.34140766436823405,1.5957859629541836e-06,-2.731419488871086e-07,-0.019285692991539927,0.023667108972181473,0.01943145944932973,-2.140881777643019,-0.0006222384860956318,-7.027304982126113e-05,0.0,-1.5707963267948966,0.0,-0.4835723223527086,0.0,0.0
15.302,800.0,0.0,0.0,-1.5707963267948966,0.0,-0.40441430330254313,0.0,0.0,0.0,0.0,0.0,-0.9057869109316387,0.0,0.0,0.0002453259978601454,-1.5713200374232608,-0.00021300514731301896,-0.3600605445116899,6.461153958393655e-06,7.269919329257342e-07,0.009833274997278239,-0.1003336952518674,-0.007180045625529854,-1.2976747759373843,-0.000734654637885931,-3.321221466014653e-05,0.0,-1.5707963267948966,0.0,-0.5920801370515032,0.0,0.0
15.402,800.0,0.0,0.0,-1.5707963267948966,0.0,-0.4755014735444991,0.0,0.0,0.0,0.0,0.0,-1.117193263985878,0.0,0.0,0.00021901117374209563,-1.5713721022225717,-0.00021676016543888192,-0.4949074759104392,6.756002049523953e-06,9.329369558070257e-07,-0.003797950155170164,-0.044880685082775776,0.007044275384503552,-2.0668976978220184,-0.0012037815820807912,-8.652476118297059e-05,0.0,-1.5707963267948966,0.0,-0.6482949630204062,0.0,0.0
15.502,800.0,0.0,0.0,-1.5707963267948966,0.0,-0.5648489316327776,0.0,0.0,0.0,0.0,0.0,-0.7125534550264317,0.0,0.0,0.00021775384441690147,-1.5711265587700665,-0.000118330542656355,-0.560902272198284,9.588635595636629e-06,8.486125544683508e-07,-0.017919599543248562,-0.04169717560520868,0.015705250796766827,-1.6331953895579436,-0.0024945983374624094,-0.00019355904867003504,0.0,-1.5707963267948966,0.0,-0.7812661921146136,0.0,0.0
15.602,800.0,0.0,0.0,-1.5707963267948966,0.0,-0.6322448746396869,0.0,0.0,0.0,0.0,0.0,-0.6635954049824866,0.0,0.0,0.0005081018451162427,-1.5714306917665535,-0.0004483684942522564,-0.6516571429308681,9.106829215355854e-05,-2.405440640702342e-06,-0.09624141534182439,-0.06151849270980159,-0.03598871477575905,0.021618372435097143,-0.017869756818972047,0.000518719672026273,0.0,-1.5707963267948966,0.0,-0.7808354915968398,0.0,0.0
15.702,800.0,0.0,0.0,-1.5707963267948966,0.0,-0.7105425801020537,0.0,0.0,0.0,0.0,0.0,-0.7901934033467145,0.0,0.0,4.353293103560043e-05,-1.5703128298989928,0.00017967455819829174,-0.7020050688661703,8.1520058494793e-06,-3.635044747537795e-07,-0.025771262146480074,0.09371117095727532,0.11052409807073066,-1.5625173579141673,-0.004876784229193654,-0.0007906677555650502,0.0,-1.5707963267948966,0.0,-0.9126537649082695,0.0,0.0
15.802,800.0,0.0,0.0,-1.5707963267948966,0.0,-0.7935598050440227,0.0,0.0,0.0,0.0,0.0,-0.9226336097703006,0.0,0.0,5.21933776192327e-05,-1.5716908826050542,-0.0003304801185853599,-0.7999789703656321,-5.614873120098262e-06,1.477938895420635e-06,0.027417303759609206,-0.020898890338287814,-0.08761803315312057,1.1100779803266767,0.007528779288194625,0.0009675957338334539,0.0,-1.5707963267948966,0.0,-1.0705010938579824,0.0,0.0
15.902,800.0,0.0,0.0,-1.5707963267948966,0.0,-0.8619374950416994,0.0,0.0,0.0,0.0,0.0,-0.6921394396927417,0.0,0.0,-0.0002543703263387613,-1.5691712658977301,0.0005886039188586783,-0.8772644378319496,-3.406484496927208e-06,-3.486738252516672e-06,-0.017758990123570767,0.08546670665741933,0.08917718913568586,-1.1821082320139409,-0.004663229398539673,-0.0008206457428082302,0.0,-1.5707963267948966,0.0,-0.9527336661952712,0.0,0.0
16.002,800.0,0.0,0.0,-1.5707963267948966,0.0,-0.941041999111528,0.0,0.0,0.0,0.0,0.0,-0.7987653387832825,0.0,0.0,4.5977635788001104e-07,-1.570373416813792,0.00011330706077325015,-0.9543090889566967,5.675832814869791e-05,-2.4109322726254573e-05,-0.0016080755730245025,0.005471386957418885,-0.07643918145091758,-1.6097847388375477,0.09863558883942722,-0.045071475607744736,0.0,-1.5707963267948966,0.0,-1.0514372292983818,0.0,0.0
16.102,800.0,0.0,0.0,-1.5707963267948966,0.0,-1.0099580560108024,0.0,0.0,0.0,0.0,0.0,-0.6088235054897341,0.0,0.0,0.00040372608614533975,-1.5718765049330328,-0.0005632168936411451,-0.995904402811399,7.561199373351462e-05,-1.4228887293443789e-06,-0.0806279343714487,-0.03915816775619758,-0.00041638500886885435,0.013340380393533278,-0.012840939901197144,0.0001268488464302798,0.0,-1.5707963267948966,0.0,-1.2510076481064263,0.0,0.0
16.202,800.0,0.0,0.0,-1.5707963267948966,0.0,-1.0800269978934303,0.0,0.0,0.0,0.0,0.0,-0.43703331323257555,0.0,0.0,0.00014850853518293884,-1.5708127052356007,5.9360229544207834e-05,-1.060117011697763,1.0313737037117392e-05,1.0747344495433889e-07,-0.028627893567375162,-0.04175412147945514,0.028611748153266555,-1.5384839269728563,-0.007701140426331044,-0.0007202157664807267,0.0,-1.5707963267948966,0.0,-1.1333985752847553,0.0,0.0
16.302,800.0,0.0,0.0,-1.5707963267948966,0.0,-1.1454058122109636,0.0,0.0,0.0,0.0,0.0,-1.0919203020465331,0.0,0.0,0.00020997266442650608,-1.5718497401640774,-0.0003257340547340201,-1.179863719847222,6.0309828971851475e-06,3.013571876571202e-06,-0.004920121454299539,0.15988748664054425,0.014506294633715854,-0.5927951575696097,0.006274204670253027,0.00034256395195726924,0.0,-1.5707963267948966,0.0,-1.3397390873772195,0.0,0.0
16.402,800.0,0.0,0.0,-1.5707963267948966,0.0,-1.2352596631317923,0.0,0.0,0.0,0.0,0.0,-0.6209037919162382,0.0,0.0,7.513787011134678e-05,-1.5708041831201123,4.177540157347552e-05,-1.1850571502889855,4.44439490466494e-06,-1.3255081492428174e-07,-0.06547446454511378,0.05648612109614981,0.06501246435263387,-2.5368034174187937,-0.011869901433483815,-0.0013243823379038117,0.0,-1.5707963267948966,0.0,-1.2910471373742796,0.0,0.0
16.502,800.0,0.0,0.0,-1.5707963267948966,0.0,-1.3076288129191358,0.0,0.0,0.0,0.0,0.0,-0.8940406574914307,0.0,0.0,1.823131178826713e-05,-1.5718986091700804,-0.0004567562813515426,-1.3433943276352105,9.34015603911652e-07,-1.1087397548897395e-07,-0.051526487069770824,-0.062229448529933465,0.03483246385720372,0.02282444319138837,-0.018437155772781037,0.0004706872601089159,0.0,-1.5707963267948966,0.0,-1.4165617612683434,0.0,0.0
16.603,866.6666870117188,0.0,0.0,-1.5707963267948966,0.0,-1.331455759123143,0.0,0.0,0.0,0.0,0.0,0.835912441386039,0.0,0.0,-0.00021638417923786494,-1.570435202151082,-5.884398607234111e-05,-1.4166063570561973,6.87469702539216e-06,-3.866029226111335e-06,-0.15135157264889273,-0.2543415713510324,0.2891920302709456,0.09050655592806935,-0.05999510630962742,0.0008709160942939596,0.0,-1.5707963267948966,0.0,-1.0453890097109575,0.0,0.0
16.702,866.6666870117188,0.0,0.0,-1.5707963267948966,0.0,-1.251121499830747,0.0,0.0,0.0,0.0,0.0,0.7807238059718863,0.0,0.0,0.00011289416027269966,-1.5714236343896648,-0.00021919288442218593,-1.3548416592648072,6.126536337686947e-06,2.448541102676251e-06,-0.01683155675751828,0.16196476893556289,0.05564995509289218,-0.11857450115090394,0.00023007780766419984,-0.0005057645246463522,0.0,-1.5707963267948966,0.0,-0.9881349055782369,0.0,0.0
16.804,866.6666870117188,0.0,0.0,-1.5707963267948966,0.0,-1.1678812342692781,0.0,0.0,0.0,0.0,0.0,0.6408608387694414,0.0,0.0,-3.347859781956643e-05,-1.5706135007860627,8.209454134494454e-05,-1.1308829942365393,-5.858614066537828e-06,1.0344877731077689e-07,0.011026447107336695,-0.024635573744372596,-0.010095576599002327,3.141593186222011,0.000465205511010158,0.00410615227454934,0.0,-1.5707963267948966,0.0,-1.0079943563663163,0.0,0.0
16.902,866.6666870117188,0.0,0.0,-1.5707963267948966,0.0,-1.1028846220540576,0.0,0.0,0.0,0.0,0.0,0.7303401577570376,0.0,0.0,0.0002551431534507475,-1.5717263026475523,-0.0002823260243930984,-1.0321887742412381,1.140428151029109e-05,2.6735826035421843e-06,0.061726797680127024,0.05205153343986915,-0.004021700419520755,0.9715192348691157,0.00988283163979703,0.000652800600273218,0.0,-1.5707963267948966,0.0,-0.9270856376943032,0.0,0.0
17.003,866.6666870117188,0.0,0.0,-1.5707963267948966,0.0,-1.029490392406787,0.0,0.0,0.0,0.0,0.0,0.9241983356401211,0.0,0.0,-0.00015461360116598188,-1.5696188101189181,0.00048286644323030286,-0.986681676219373,-1.961144089523176e-05,2.3571932659261568e-07,-0.14997495139191713,-0.06340586665196234,-0.0232258960003664,0.01969843718742097,-0.020622219109947604,0.00014097712407261032,0.0,-1.5707963267948966,0.0,-0.9017539737271711,0.0,0.0
17.102,866.6666870117188,0.0,0.0,-1.5707963267948966,0.0,-0.9535951281014281,0.0,0.0,0.0,0.0,0.0,1.1091921507531464,0.0,0.0,-0.00013659935797504866,-1.5717384200305122,-0.00015952152877546995,-0.9679013971072704,-5.796869780354758e-05,1.7308903842464204e-06,0.11281078805121357,0.006435800291771991,-0.0025688037842266447,-0.018597856738621302,0.017066044970607857,-0.00021271032055611067,0.0,-1.5707963267948966,0.0,-0.6829716013235723,0.0,0.0
17.202,866.6666870117188,0.0,0.0,-1.5707963267948966,0.0,-0.8655019609826526,0.0,0.0,0.0,0.0,0.0,0.9161504250881733,0.0,0.0,-3.677350890710852e-06,-1.5709185658889313,-5.955679697012537e-05,-0.8413450526295059,-7.315514879288668e-07,3.1718197380710953e-07,-0.024697646203717456,0.1990073256829907,0.0592241503023739,0.7848155303299662,0.0010785212696288516,-0.00026648156504268896,0.0,-1.5707963267948966,0.0,-0.7233330296519069,0.0,0.0
17.302,866.6666870117188,0.0,0.0,-1.5707963267948966,0.0,-0.7853305161724302,0.0,0.0,0.0,0.0,0.0,0.45305623007058893,0.0,0.0,5.0397454684849686e-05,-1.5716527994014662,-0.0003963176414268963,-0.7608933529431932,-1.6137826173489807e-07,2.095702786496503e-06,-0.04622997148787522,0.13894197433842326,-1.995824391239803e-05,0.40398226273663096,0.0009370329044514734,0.00010137631365101346,0.0,-1.5707963267948966,0.0,-0.5652077741270496,0.0,0.0
17.402,866.6666870117188,0.0,0.0,-1.5707963267948966,0.0,-0.7149044575579264,0.0,0.0,0.0,0.0,0.0,0.599279687487405,0.0,0.0,-7.125194519935742e-05,-1.5700374590422785,0.00029945009818744286,-0.6542956032018368,1.4959230096105427e-06,-1.150936957017028e-06,-0.02938343236863064,-0.13195619487114438,-0.01090066268010089,-0.02731426439255836,-0.005182163501847076,-0.0002475742103643631,0.0,-1.5707963267948966,0.0,-0.626643423475152,0.0,0.0
17.502,866.6666870117188,0.0,0.0,-1.5707963267948966,0.0,-0.6528267486243191,0.0,0.0,0.0,0.0,0.0,0.7119187422561057,0.0,0.0,7.998380250356457e-05,-1.570222815054148,0.00026447084916131754,-0.5223770171587114,7.251632091330004e-06,-5.533900985379075e-07,-0.01298762910269277,-0.19401120218848844,0.015289004960171248,1.364532769313551,-0.005834094933725466,-0.0003932048768471223,0.0,-1.5707963267948966,0.0,-0.5793245786871469,0.0,0.0
17.602,866.6666870117188,0.0,0.0,-1.5707963267948966,0.0,-0.5891543272948718,0.0,0.0,0.0,0.0,0.0,0.8003359230119816,0.0,0.0,5.991996638330344e-05,-1.5711609135481284,-0.0001316968837990672,-0.49836455861098466,2.909600879095161e-07,4.37268531449807e-07,0.026211732346022365,0.022818565511638782,0.000460015272720662,2.6057462664543287,0.0020402898431503874,0.00010172986844148168,0.0,-1.5707963267948966,0.0,-0.34631138718474824,0.0,0.0
17.702,866.6666870117188,0.0,0.0,-1.5707963267948966,0.0,-0.5058397064188904,0.0,0.0,0.0,0.0,0.0,0.7826054830262866,0.0,0.0,-8.257986441774143e-05,-1.5699001730880848,0.0003089371219314904,-0.4451207778853575,3.1370777194979992e-06,-6.328132798480791e-07,0.012603541976557197,-0.07240068075013735,0.015559401115192958,-0.46232439905310585,-0.0012462242815451405,-0.00012215238362914981,0.0,-1.5707963267948966,0.0,-0.4502524282502222,0.0,0.0
17.802,866.6666870117188,0.0,0.0,-1.5707963267948966,0.0,-0.43231930900482674,0.0,0.0,0.0,0.0,0.0,0.9500528347516692,0.0,0.0,-0.0001366014385696503,-1.5692449023018709,0.00061909483768974,-0.39667211857095885,2.9022209526439828e-06,-1.359585267104257e-06,-0.003662696161679391,-0.1285899426085274,0.024275570541048126,0.9121729536636265,-0.0030453462926746007,-0.00023632654845727225,0.0,-1.5707963267948966,0.0,-0.3771309238132938,0.0,0.0
17.902,866.6666870117188,0.0,0.0,-1.5707963267948966,0.0,-0.3574879770244861,0.0,0.0,0.0,0.0,0.0,0.6968193288874379,0.0,0.0,0.0002589054374030708,-1.5721681210723963,-0.0005324230857490938,-0.3496853016684183,2.8599520173699904e-06,1.3808554864276018e-06,-0.03286220526789806,-0.13047387108602787,-0.12727843564020425,2.4945409151319993,7.03812407405456e-05,0.00034167137687317236,0.0,-1.5707963267948966,0.0,-0.2932329053552834,0.0,0.0
18.004,866.6666870117188,0.0,0.0,-1.5707963267948966,0.0,-0.2599811980113369,0.0,0.0,0.0,0.0,0.0,0.8563281083692663,0.0,0.0,0.0001811423201618658,-1.5712706357850397,-0.0001719693524201463,-0.24570377480292854,3.3318843101649117e-06,4.4768131439036164e-07,0.0038630449382482113,0.01459416854671546,0.022618901250693896,2.777718295949542,-0.00013091464524743774,-4.9729583817728256e-05,0.0,-1.5707963267948966,0.0,-0.1778817600461065,0.0,0.0
18.103,866.6666870117188,0.0,0.0,-1.5707963267948966,0.0,-0.183307089585389,0.0,0.0,0.0,0.0,0.0,0.6033652809793046,0.0,0.0,-5.5431022575378814e-05,-1.570267689318516,0.0006870759256288906,-0.05262270659228549,-0.000644239473636184,3.732122238824015e-05,0.01808467183834684,-0.13127862011080096,0.3112698354447842,-0.30725585247078957,-0.1787171008118405,-0.036319824761850764,0.0,-1.5707963267948966,0.0,-0.07670876237718612,0.0,0.0
18.202,866.6666870117188,0.0,0.0,-1.5707963267948966,0.0,-0.11854105311439955,0.0,0.0,0.0,0.0,0.0,0.8447364605242512,0.0,0.0,0.000135997180257009,-1.5704028447438374,0.00020005698943058794,0.03469744783172051,-4.6775789669234604e-07,2.4286579093820757e-08,-0.006712019510934997,-0.05935865242099052,0.03134957762240889,-0.20202207397123084,0.0002594648735312279,2.0636972882596695e-05,0.0,-1.5707963267948966,0.0,0.08509150751899403,0.0,0.0
18.302,866.6666870117188,0.0,0.0,-1.5707963267948966,0.0,-0.036034731146173726,0.0,0.0,0.0,0.0,0.0,0.9388879490592524,0.0,0.0,9.635080806456562e-05,-1.5704498495370773,0.00016498673064528686,0.0006937524236683407,3.370997161594391e-08,1.7280078911631404e-08,0.008352047165368134,-0.036259508324349675,0.04093841604350989,-0.5386583190619381,8.468654772511276e-05,6.647015668533883e-06,0.0,-1.5707963267948966,0.0,0.15815618942322945,0.0,0.0
18.402,866.6666870117188,0.0,0.0,-1.5707963267948966,0.0,0.04434772323656966,0.0,0.0,0.0,0.0,0.0,0.7730342643568684,0.0,0.0,7.044399586248482e-06,-1.5710429355118378,-0.00010876248137803873,0.1042411434598805,9.765490898877825e-08,-3.627003063363022e-08,-0.02376983625004208,-0.005888138378502659,-0.025000083515604184,2.3377534312240913,5.345102797367202e-05,-7.955211874442549e-06,0.0,-1.5707963267948966,0.0,0.17849021052719707,0.0,0.0
18.502,866.6666870117188,0.0,0.0,-1.5707963267948966,0.0,0.1169333150393785,0.0,0.0,0.0,0.0,0.0,0.8139079498508839,0.0,0.0,-5.619204475119759e-05,-1.57062761553984,7.612968793247661e-05,0.16605531779089736,4.769941226880734e-07,6.441693719225154e-08,-0.0241235040428046,0.018372723919157934,-0.0007603061586921956,2.356867737315917,0.0002073700681449085,4.8503739740529e-06,0.0,-1.5707963267948966,0.0,0.2858816734837013,0.0,0.0
18.602,866.6666870117188,0.0,0.0,-1.5707963267948966,0.0,0.20208488880536618,0.0,0.0,0.0,0.0,0.0,1.0395026754553072,0.0,0.0,-5.8619834513306734e-05,-1.5705800781143822,9.067883897888963e-05,0.16973758740636585,3.982931301901232e-07,9.032102413795733e-08,-0.013338559873256856,0.004524414207313894,0.0042378931840552705,2.355724708576055,0.0001799161347371147,1.3643268487371483e-05,0.0,-1.5707963267948966,0.0,0.39959662514501937,0.0,0.0
18.702,866.6666870117188,0.0,0.0,-1.5707963267948966,0.0,0.2909732125308717,0.0,0.0,0.0,0.0,0.0,0.7585282789616495,0.0,0.0,5.17623897620966e-05,-1.5707101735336326,5.062917684494427e-05,0.3236754723031322,-1.4842491265210574e-06,4.964933991969225e-09,0.0107223827704715,-0.03206784257137627,0.0033247579241794736,3.0575518117023806,0.00015350729375050408,1.7139107309439597e-05,0.0,-1.5707963267948966,0.0,0.44047724772025787,0.0,0.0
18.802,866.6666870117188,0.0,0.0,-1.5707963267948966,0.0,0.3782568673682054,0.0,0.0,0.0,0.0,0.0,0.9489888503538136,0.0,0.0,0.00015107033230477018,-1.5709035190287723,-0.00010180437973565235,0.4269664747874781,0.00014132227521144542,-7.992381168724597e-06,-0.1319628860633832,0.02985284155848693,-0.1431349716719417,0.2457452202473929,-0.14862699240617355,0.005337116825100355,0.0,-1.5707963267948966,0.0,0.6601066317772901,0.0,0.0
18.902,866.6666870117188,0.0,0.0,-1.5707963267948966,0.0,0.46950215847261384,0.0,0.0,0.0,0.0,0.0,0.7931877103584367,0.0,0.0,0.00017683992685467705,-1.5714658454929424,-0.0002466394544756474,0.48593645133093916,-4.154119448447685e-06,-9.710060970951217e-07,-0.04350360193379863,0.037279886012445924,0.012957881801376045,-1.4986249275698582,0.002068420652498813,0.00014279736802006116,0.0,-1.5707963267948966,0.0,0.5971834309381452,0.0,0.0
19.002,866.6666870117188,0.0,0.0,-1.5707963267948966,0.0,0.5673539861112052,0.0,0.0,0.0,0.0,0.0,1.1576274123351107,0.0,0.0,-0.0003050680287047353,-1.569432788316776,0.0004875826635528256,0.6089327819320266,5.940358169920545e-06,1.999651039523953e-06,0.04711076208414849,-0.0716975646104644,0.003106324359259009,1.6916267417709363,-0.0009469898499918722,-1.2198366650616632e-05,0.0,-1.5707963267948966,0.0,0.8154108199767676,0.0,0.0
19.102,866.6666870117188,0.0,0.0,-1.5707963267948966,0.0,0.6583226548269703,0.0,0.0,0.0,0.0,0.0,0.8444551376143086,0.0,0.0,0.00010198328648942406,-1.571081018715426,-8.576155682101692e-05,0.7393426539281085,-3.582242675103663e-06,-5.190372707793455e-07,0.017452693308698027,-0.12081714910485966,-0.028814941102655797,2.7439707186160573,0.0007997348568017668,-6.547477198547545e-05,0.0,-1.5707963267948966,0.0,0.8018595504729523,0.0,0.0
19.202,866.6666870117188,0.0,0.0,-1.5707963267948966,0.0,0.7300851692241898,0.0,0.0,0.0,0.0,0.0,0.5440518892501279,0.0,0.0,-8.57395480312466e-05,-1.570560237564261,6.39141512968199e-05,0.8493734846306861,3.2011581029888985e-06,4.871287353115591e-07,-0.02453693275430958,0.05954293484604559,0.039847256527066374,2.76855675548356,0.002639606158445598,0.00037141214382247655,0.0,-1.5707963267948966,0.0,0.7877689947262488,0.0,0.0
19.302,866.6666870117188,0.0,0.0,-1.5707963267948966,0.0,0.7916300763882157,0.0,0.0,0.0,0.0,0.0,0.9956209375032592,0.0,0.0,-4.8111588294736114e-05,-1.570404842114655,0.00014506271292045168,0.8607375258971904,-2.1393272068033165e-07,7.642435163497399e-07,-0.061845008743012915,0.05821801220373117,0.025145552448365957,2.6805701741250862,0.005023472390391979,0.00040562053254870005,0.0,-1.5707963267948966,0.0,0.9538417672374869,0.0,0.0
19.402,866.6666870117188,0.0,0.0,-1.5707963267948966,0.0,0.8660558037072992,0.0,0.0,0.0,0.0,0.0,0.5524071296371182,0.0,0.0,0.0001280565828325868,-1.5716890183922911,-0.00032526969202637,0.8525168136653065,-2.8211800150588797e-05,6.918007527861131e-07,0.05690906436676802,-0.15116648295313223,0.05007935446174619,0.019659444763991927,-0.006931177382851152,0.0013774468629209414,0.0,-1.5707963267948966,0.0,1.1063128357958587,0.0,0.0
19.503,866.6666870117188,0.0,0.0,-1.5707963267948966,0.0,0.9405329711875844,0.0,0.0,0.0,0.0,0.0,0.6989644526886956,0.0,0.0,-0.00023194466993444333,-1.5706675629561913,-0.00014284645704894323,1.0393078698882108,9.592263429290145e-06,-1.3404993927359012e-06,0.009270787287026381,0.03866629022523835,0.13160997560705567,0.02268580277010913,-0.0064729285024379786,0.0025120358008186234,0.0,-1.5707963267948966,0.0,1.1601818929336423,0.0,0.0
19.602,866.6666870117188,0.0,0.0,-1.5707963267948966,0.0,1.0318888634779502,0.0,0.0,0.0,0.0,0.0,0.9814541503693544,0.0,0.0,2.7484341785535878e-05,-1.570608840254155,7.860518101495385e-05,1.093045733575075,-4.698921824193102e-06,3.374652313846154e-07,0.024230673390139672,0.11116230798121134,0.033791721309146774,-1.0876216068038833,-0.005063181058512631,-5.4889161782479593e-05,0.0,-1.5707963267948966,0.0,1.2238255290822062,0.0,0.0
19.702,866.6666870117188,0.0,0.0,-1.5707963267948966,0.0,1.1027169909079013,0.0,0.0,0.0,0.0,0.0,1.0145825883801718,0.0,0.0,0.0003661155676432632,-1.5720040703492475,-0.0003730433299901501,1.2239104069063151,-2.364854416789873e-05,-4.663521238505503e-06,-0.0013799109371150776,-0.013472230794330119,-0.03823197442452766,-0.4233813273280134,-0.0035159268572916022,-0.0006079001984356999,0.0,-1.5707963267948966,0.0,1.302906451030922,0.0,0.0
19.802,866.6666870117188,0.0,0.0,-1.5707963267948966,0.0,1.1803073194323233,0.0,0.0,0.0,0.0,0.0,0.8011831850012137,0.0,0.0,5.32378035999575e-05,-1.571365577477901,-0.00019615880038870073,1.2746533462103034,1.9641320997000796e-06,-1.5443334070502919e-06,0.005929772116778464,-0.039815527459391604,0.006142983129174526,2.6038474325971026,0.002127319554890385,0.00022323133479858423,0.0,-1.5707963267948966,0.0,1.474774408364015,0.0,0.0
19.902,866.6666870117188,0.0,0.0,-1.5707963267948966,0.0,1.2577317091076436,0.0,0.0,0.0,0.0,0.0,1.028479338560418,0.0,0.0,-7.09587276523363e-05,-1.5705759502146925,7.032611311092521e-05,1.32905427042957,5.888769989319722e-06,9.747366651866696e-07,-0.010045941934185976,0.1342119422487119,0.07343627590714989,3.1084634622614256,0.002313612094404956,0.0008843855386519695,0.0,-1.5707963267948966,0.0,1.343400703655509,0.0,0.0
20.002,933.3333129882812,0.0,0.0,-1.5707963267948966,0.0,1.286229790703203,0.0,0.0,0.0,0.0,0.0,-1.018772490914224,0.0,0.0,0.00045460836000898124,-1.5725632010201096,-0.0005493082487664485,1.3722492785720557,-2.785702016622919e-05,-6.9301152067977325e-06,-0.003461983020980961,0.060188655703038135,0.00673747454558857,0.06299541111014308,-0.00226494542622701,-0.00011121789184621671,0.0,-1.5707963267948966,0.0,1.036476547083044,0.0,0.0
20.101,933.3333129882812,0.0,0.0,-1.5707963267948966,0.0,1.2057308997805487,0.0,0.0,0.0,0.0,0.0,-0.7374082606269929,0.0,0.0,-0.00020219223214979563,-1.569392041952098,0.0004551596525598304,1.4185790936336735,2.6406230084205283e-06,4.446338350696633e-06,-0.05993798566543442,0.17411857062333025,0.03764974915358749,-0.7169356154645088,0.002742220043900413,0.0005038396820562337,0.0,-1.5707963267948966,0.0,1.0574511515538243,0.0,0.0
20.202,933.3333129882812,0.0,0.0,-1.5707963267948966,0.0,1.1215930848790459,0.0,0.0,0.0,0.0,0.0,-0.989856143868433,0.0,0.0,-9.04311547570857e-06,-1.5706533150443593,5.945693655657006e-05,1.2433448249611683,2.1703751032474298e-06,8.159174783014792e-08,0.012393736897523995,-0.09067986945838466,-0.03585149123940352,-3.1415953167508834,-0.0014520771410953958,-0.0018928815361455747,0.0,-1.5707963267948966,0.0,0.8498745466199185,0.0,0.0
20.302,933.3333129882812,0.0,0.0,-1.5707963267948966,0.0,1.040132255152928,0.0,0.0,0.0,0.0,0.0,-1.1121990275459372,0.0,0.0,-1.6918198552147593e-05,-1.570593793393996,8.457106659739995e-05,1.0170823258529,3.0794527160106993e-07,6.412288684863635e-07,-0.014715767857910098,0.02100085403792962,0.0048446010717470775,-2.6341275741913033,0.0011105215298062294,9.719627718651008e-05,0.0,-1.5707963267948966,0.0,0.8359163932812916,0.0,0.0
20.402,933.3333129882812,0.0,0.0,-1.5707963267948966,0.0,0.9569846843065006,0.0,0.0,0.0,0.0,0.0,-0.7074463725624541,0.0,0.0,-0.00010174523720863664,-1.5701053696500755,0.0002583407997884097,0.8923756133312227,2.114203493633152e-06,1.7481211972170388e-06,-0.003118994660234251,-0.06487470818406033,-0.031289026077717816,-3.077802488631343,0.0004708380707082431,-0.00018020486600202608,0.0,-1.5707963267948966,0.0,0.758694185825832,0.0,0.0
20.502,933.3333129882812,0.0,0.0,-1.5707963267948966,0.0,0.8794740640782477,0.0,0.0,0.0,0.0,0.0,-0.9413642313812597,0.0,0.0,-8.382153239216476e-05,-1.570793530475752,-2.9191707380356584e-05,0.8274895575842052,5.154643156022145e-06,9.073299367909471e-08,0.040528031241907084,-0.14984953314933122,-0.03038445428514798,1.4509668609145632,-0.00013613881510905006,-0.0001388721962669341,0.0,-1.5707963267948966,0.0,0.6390229403468416,0.0,0.0
20.602,933.3333129882812,0.0,0.0,-1.5707963267948966,0.0,0.8012319665609287,0.0,0.0,0.0,0.0,0.0,-0.6172639790195792,0.0,0.0,0.00023878850954751627,-1.571281554745509,-0.00010964412521315442,0.7877052598497839,-1.046141048989675e-05,-1.050238794280389e-06,-0.021077836038189725,0.059731336848411885,0.01526330233476008,-0.43400347849384896,0.0006271466087608639,0.00010639952733247044,0.0,-1.5707963267948966,0.0,0.7467351272341083,0.0,0.0
20.702,933.3333129882812,0.0,0.0,-1.5707963267948966,0.0,0.7183572552145137,0.0,0.0,0.0,0.0,0.0,-0.9298918420468965,0.0,0.0,1.7512700013932448e-05,-1.5705643654639507,0.00011641029200354094,0.7269149461222265,-2.01179364055012e-06,4.867877687279799e-07,-0.07213671987421848,0.13790300861815608,0.035473247463206604,-1.183173096975809,0.0033408778510042093,0.00033032173332131124,0.0,-1.5707963267948966,0.0,0.5119705840308106,0.0,0.0
20.802,933.3333129882812,0.0,0.0,-1.5707963267948966,0.0,0.6395799263810114,0.0,0.0,0.0,0.0,0.0,-0.9006541351909085,0.0,0.0,0.00023403366818770086,-1.5713940733015648,-0.0001657676688252903,0.5764852266846646,-7.042715706584326e-06,-9.348782430186365e-07,0.006696232479246521,-0.11392135951529024,-0.037068880430327585,-1.744775314487593,0.0007901038494094288,-9.677016978663288e-05,0.0,-1.5707963267948966,0.0,0.5566381965666727,0.0,0.0
20.902,933.3333129882812,0.0,0.0,-1.5707963267948966,0.0,0.5694373761767686,0.0,0.0,0.0,0.0,0.0,-0.6152785801258746,0.0,0.0,0.0002594773570988377,-1.571798341155039,-0.0003427311797483748,0.5289448051705239,-5.612127100953638e-06,-1.4279468447970949e-06,-0.061006063065367516,0.08882032554961525,0.02903346595366441,-1.1936157510841732,0.002649546979377834,0.0002237582941453816,0.0,-1.5707963267948966,0.0,0.2780956862968055,0.0,0.0
21.002,933.3333129882812,0.0,0.0,-1.5707963267948966,0.0,0.4882111037112917,0.0,0.0,0.0,0.0,0.0,-0.926522304577287,0.0,0.0,-7.407957891815959e-05,-1.5702502456133758,0.00022267324780598914,0.4231283270244559,4.1214758029945373e-07,6.574416073040751e-07,0.0014059026351387078,-0.11877507879287894,-0.03656784828312121,-2.674451561520629,0.0010155309429717664,-4.983546251371521e-05,0.0,-1.5707963267948966,0.0,0.3832643228205933,0.0,0.0
21.101,933.3333129882812,0.0,0.0,-1.5707963267948966,0.0,0.42338611205267274,0.0,0.0,0.0,0.0,0.0,-0.42676573243603466,0.0,0.0,0.0001863050718461169,-1.5713756974900432,-0.00018713111666689776,0.36739056251699675,-3.3377141403023246e-06,-5.745926959969111e-07,-0.03815522961205214,-0.04701148859332658,-0.016046898994515765,-1.7067572251881125,0.001894531707738988,5.344019831622411e-05,0.0,-1.5707963267948966,0.0,0.19882512565950228,0.0,0.0
21.202,933.3333129882812,0.0,0.0,-1.5707963267948966,0.0,0.3496346667730439,0.0,0.0,0.0,0.0,0.0,-0.9816881840849445,0.0,0.0,-4.9658315325299954e-05,-1.5709004563935187,2.061986486839193e-05,0.34325340145122707,-6.174574097382616e-05,3.6961707222514245e-06,0.07649660586192242,-0.011239449019975294,0.12378485931034627,-0.1934500408572951,0.1109609147461525,-0.004310518159145247,0.0,-1.5707963267948966,0.0,0.1826770483069015,0.0,0.0
21.302,933.3333129882812,0.0,0.0,-1.5707963267948966,0.0,0.2611044396994133,0.0,0.0,0.0,0.0,0.0,-1.1022749991119565,0.0,0.0,-2.4686338253330856e-05,-1.570725087235737,-4.338649293586579e-06,0.284608663455892,-2.949515367090624e-06,2.4334757687954175e-08,0.008226721509241986,0.00952997631922644,0.01754393154316846,-0.0025516594246349344,0.0016752665551636862,-1.3888552101243944e-05,0.0,-1.5707963267948966,0.0,0.18965120758453963,0.0,0.0
21.402,933.3333129882812,0.0,0.0,-1.5707963267948966,0.0,0.18384113373880684,0.0,0.0,0.0,0.0,0.0,-0.7246770785800704,0.0,0.0,3.535739709497058e-05,-1.5707482567372206,3.505249245796066e-05,0.1255369197019958,-4.954805435153544e-07,3.219612284378039e-08,-0.01856485434705034,-0.0234172482858778,0.004261055143383529,-2.1532142108609036,0.0004947350976073974,2.998102483002518e-05,0.0,-1.5707963267948966,0.0,0.03244824074906022,0.0,0.0
21.502,933.3333129882812,0.0,0.0,-1.5707963267948966,0.0,0.12380080593122411,0.0,0.0,0.0,0.0,0.0,-0.7208140154263178,0.0,0.0,-9.899062748395789e-06,-1.5708261541991055,6.339971209058429e-05,0.12868530874268747,1.7095240085368237e-05,-4.421276544867062e-07,-0.12741864274921852,-0.03128133828066482,0.024958101277732604,-0.004092605783172489,0.0044807128781527246,8.740031765341198e-05,0.0,-1.5707963267948966,0.0,0.06356149925286524,0.0,0.0
21.602,933.3333129882812,0.0,0.0,-1.5707963267948966,0.0,0.06320238878756967,0.0,0.0,0.0,0.0,0.0,-0.6735888038376632,0.0,0.0,0.00010774398968393027,-1.570711371956123,9.494374094663582e-05,0.046113757795806884,-4.943143044606261e-07,2.5507622018651792e-08,-0.049623675115666024,-0.015474453558500535,0.028569595306637646,-1.3099575412009388,0.00047581043173180017,3.554248061396587e-05,0.0,-1.5707963267948966,0.0,0.010373562704365444,0.0,0.0
21.703,933.3333129882812,0.0,0.0,-1.5707963267948966,0.0,-0.009475308877828326,0.0,0.0,0.0,0.0,0.0,-0.9884039351677842,0.0,0.0,0.00013058365190468088,-1.570523485941218,0.00017797326574533066,-0.005160031696920947,-1.275542575912639e-07,1.2235311237126e-08,-0.00697262230716686,-0.04794712782448787,-0.00013965368710487864,-1.1804879648067366,-4.7123613681310364e-06,-8.355396289761496e-07,0.0,-1.5707963267948966,0.0,-0.15772098870488999,0.0,0.0
21.802,933.3333129882812,0.0,0.0,-1.5707963267948966,0.0,-0.08800462297719136,0.0,0.0,0.0,0.0,0.0,-0.9619369890466656,0.0,0.0,7.461491753462209e-05,-1.570979552277894,-5.84818894657545e-05,-0.07221187095122915,2.095236957569049e-07,1.3869168976398674e-08,-0.022245544791216203,-0.04837045392451278,-0.0028492156615862485,-1.913725455093893,-0.00019940204100650003,-1.4400511458152148e-05,0.0,-1.5707963267948966,0.0,-0.28037360365610303,0.0,0.0
21.902,933.3333129882812,0.0,0.0,-1.5707963267948966,0.0,-0.17400992485271516,0.0,0.0,0.0,0.0,0.0,-1.0851787369348127,0.0,0.0,7.00820658660128e-05,-1.5702371961240345,0.0002938718940233252,-0.1624215343520251,1.5610551194497486e-06,-1.7517269347120657e-07,-0.008540371665585515,0.007004573998464006,0.030611680182780585,-1.1900023741171537,-0.00043735181085523646,-5.001184573380019e-05,0.0,-1.5707963267948966,0.0,-0.2763425434076671,0.0,0.0
22.002,933.3333129882812,0.0,0.0,-1.5707963267948966,0.0,-0.2550896559829461,0.0,0.0,0.0,0.0,0.0,-0.9069875423292848,0.0,0.0,-0.00011917005445078779,-1.5701134922914002,0.0002632456065059953,-0.2572599631420821,-4.5848151029361803e-07,-3.624139531387008e-07,-0.0159082263240202,-0.044179462284190306,0.005480139498759268,-1.5189102255929918,-0.0009363227064879252,-5.512151381008053e-05,0.0,-1.5707963267948966,0.0,-0.43339345522218475,0.0,0.0
22.102,933.3333129882812,0.0,0.0,-1.5707963267948966,0.0,-0.33542629669399915,0.0,0.0,0.0,0.0,0.0,-1.0472172007996665,0.0,0.0,0.000276409983680542,-1.5718245732917762,-0.0003626883732043187,-0.32480625050197987,3.36895785442684e-06,7.6297920971804e-07,-0.0376716578147426,-0.01864237522131226,0.016199752997816005,-2.0716104276870224,-0.0017924442127183842,-0.00011872010961354119,0.0,-1.5707963267948966,0.0,-0.5479696290715558,0.0,0.0
22.202,933.3333129882812,0.0,0.0,-1.5707963267948966,0.0,-0.4274647484591192,0.0,0.0,0.0,0.0,0.0,-0.8945210440779235,0.0,0.0,0.00012894578507777869,-1.5711191019190143,-0.00010814442287151634,-0.4448284959557213,3.2482379053214806e-06,4.1030191611854494e-07,-0.09340970112187835,0.08659768459334874,0.03692333867675475,-2.1893563694885323,-0.0037484798573273405,-0.0002689918999574207,0.0,-1.5707963267948966,0.0,-0.48902720178937403,0.0,0.0
22.302,933.3333129882812,0.0,0.0,-1.5707963267948966,0.0,-0.4928389092427423,0.0,0.0,0.0,0.0,0.0,-0.48879049854411566,0.0,0.0,-7.106229412502576e-05,-1.5698527688206816,0.0004134451612060497,-0.49884509274017586,1.2107337335070733e-06,-1.2047638340431472e-06,-0.021501328585782763,-0.04757753932183372,0.03156002560517399,-0.10730386193725569,-0.0033541010699948332,-0.00028398289290038574,0.0,-1.5707963267948966,0.0,-0.5419447072044083,0.0,0.0
22.402,933.3333129882812,0.0,0.0,-1.5707963267948966,0.0,-0.551774871918397,0.0,0.0,0.0,0.0,0.0,-0.9951353213551863,0.0,0.0,0.00024317261495675476,-1.5703217514886445,1.9818590095255993e-05,-0.5730949560379666,5.9779440910805836e-05,-2.0330432875879754e-06,-0.11336050611209796,-0.09110723191193672,-0.05942763245441277,-0.004988450781760137,-0.0018751062362409217,-0.0003570123160753434,0.0,-1.5707963267948966,0.0,-0.6972502407216123,0.0,0.0
22.502,933.3333129882812,0.0,0.0,-1.5707963267948966,0.0,-0.6312553188334533,0.0,0.0,0.0,0.0,0.0,-1.0148887449354176,0.0,0.0,-5.101484268725241e-05,-1.570395920525003,0.00016131890243694822,-0.6425064548463285,-2.2198667520748456e-07,-6.241023773214845e-07,-0.10234687858839916,0.1287868167921115,0.04960722593474558,-2.4070233164414883,-0.005626219606185269,-0.00045946804383114416,0.0,-1.5707963267948966,0.0,-0.9211610447921635,0.0,0.0
22.602,933.3333129882812,0.0,0.0,-1.5707963267948966,0.0,-0.7079446076410729,0.0,0.0,0.0,0.0,0.0,-0.7467335048271388,0.0,0.0,-6.709394190659234e-05,-1.5698023019180245,0.0004683302064996007,-0.6656590452570958,-3.0148506599963946e-07,-2.064649683486309e-06,0.03454340268801084,-0.21011961500269852,-0.028240686589634453,1.1941570385757319,-0.0022595837339386238,-3.88802460579925e-05,0.0,-1.5707963267948966,0.0,-0.9061088556655579,0.0,0.0
22.702,933.3333129882812,0.0,0.0,-1.5707963267948966,0.0,-0.7931969898347511,0.0,0.0,0.0,0.0,0.0,-1.067598592785187,0.0,0.0,0.00016827498037599162,-1.5713799585477874,-0.00017048948074580494,-0.7803946829204347,4.571319810644357e-06,1.0217957047496373e-06,-0.0052930357874243885,-0.10102116532013614,-0.015433453361280925,-1.5166533297272042,-0.002897892992811528,-9.712482176566055e-05,0.0,-1.5707963267948966,0.0,-1.0514404515381564,0.0,0.0
22.802,933.3333129882812,0.0,0.0,-1.5707963267948966,0.0,-0.8916176423940705,0.0,0.0,0.0,0.0,0.0,-1.0555057902076463,0.0,0.0,4.960300076725833e-05,-1.5707864730988632,5.5803132043485745e-05,-0.867725061386313,9.015957773052675e-07,-3.1478552477903917e-07,-0.024102906156248518,-0.07850709274785048,-0.009615708260083674,-0.9850887729923693,-0.004520125061542646,-0.00021274417898232303,0.0,-1.5707963267948966,0.0,-0.9700145279721215,0.0,0.0
22.902,933.3333129882812,0.0,0.0,-1.5707963267948966,0.0,-0.9827456404367325,0.0,0.0,0.0,0.0,0.0,-0.9688888039289121,0.0,0.0,-0.00011869854782651731,-1.5700776727747388,0.00030363927788994166,-1.0168983014215756,-7.03652522650376e-06,-2.4896102419421777e-06,-0.020726785633436044,0.06265843800846399,0.05962797290860319,-1.607414791783486,-0.004653775696818542,-0.0007173582648511396,0.0,-1.5707963267948966,0.0,-1.180890687498894,0.0,0.0
23.002,933.3333129882812,0.0,0.0,-1.5707963267948966,0.0,-1.0671064340883198,0.0,0.0,0.0,0.0,0.0,-0.9715189259351129,0.0,0.0,0.00010584171666884587,-1.5711963335906265,-8.548812930467922e-05,-1.0447246063873774,9.055699745925682e-07,5.721517689256756e-07,-0.02454511573287777,-0.026493374114865857,0.008187486696541854,-1.7924669369726232,-0.004674990479674005,-0.00035631031045303907,0.0,-1.5707963267948966,0.0,-1.2590516291531269,0.0,0.0
23.102,933.3333129882812,0.0,0.0,-1.5707963267948966,0.0,-1.1561867657588891,0.0,0.0,0.0,0.0,0.0,-0.7035452173030406,0.0,0.0,-1.04086763568005e-05,-1.5707169645944121,4.0082017005465145e-05,-1.2450701538733762,-1.5129710848106693e-06,-4.4035872366077986e-07,-0.001491030943487146,-0.0277620957358012,-0.008314244321902569,-2.25038896429626,-0.0007649711118633628,1.913722380885332e-05,0.0,-1.5707963267948966,0.0,-1.372760280303603,0.0,0.0
23.202,933.3333129882812,0.0,0.0,-1.5707963267948966,0.0,-1.2352524989871814,0.0,0.0,0.0,0.0,0.0,-0.6639814818506482,0.0,0.0,3.7073944532569355e-05,-1.5709692991076973,-8.02738016308113e-05,-1.2365432446951603,4.547493040385959e-06,1.0090987314252895e-06,-0.017055144735489945,0.17854720777905028,0.061090589301653106,-0.30155202720611235,0.0006123313447885095,-0.0004857655242426319,0.0,-1.5707963267948966,0.0,-1.3884157110485196,0.0,0.0
23.302,1000.0,0.0,0.0,-1.5707963267948966,0.0,-1.3025691256531111,0.0,0.0,0.0,0.0,0.0,-0.9895345865848781,0.0,0.0,-0.00013853629402128904,-1.5701558365527326,0.0002147176392166091,-1.31265505706908,-7.568509798494932e-06,-2.360718777857245e-06,0.007409897233549709,-0.06280359693263013,-0.022819909575751432,-1.2390929551228023,0.00013585918644552078,0.0002105309627294904,0.0,-1.5707963267948966,0.0,-1.1728849059919155,0.0,0.0
23.402,1000.0,0.0,0.0,-1.5707963267948966,0.0,-1.2787286420465378,0.0,0.0,0.0,0.0,0.0,0.941751331001569,0.0,0.0,-3.032656354055975e-06,-1.570625218694859,9.983820970979463e-05,-1.3765577405835858,-2.8440669112471146e-06,-1.1613564386493085e-06,-0.01755098892005717,0.04398253816633576,0.016831752333410832,-2.6242618939331046,-0.0019082265715183676,-0.0002785605707849367,0.0,-1.5707963267948966,0.0,-1.1310594421788678,0.0,0.0
23.502,1000.0,0.0,0.0,-1.5707963267948966,0.0,-1.1907788885769905,0.0,0.0,0.0,0.0,0.0,0.7564322722053245,0.0,0.0,5.522219914688609e-05,-1.5710457318309825,-8.670246509298824e-05,-1.2849009237688191,3.66881186835963e-06,1.0354579246295851e-06,-0.00280971661337171,0.022632121348792618,0.009998053928537688,2.2508864427878867,-0.00030367747630645584,-0.00011249013480849672,0.0,-1.5707963267948966,0.0,-1.0678770226786185,0.0,0.0
23.602,1000.0,0.0,0.0,-1.5707963267948966,0.0,-1.1126050020170952,0.0,0.0,0.0,0.0,0.0,0.7956028272900052,0.0,0.0,-0.00017415348911249215,-1.5706844740291133,0.000923998499420947,-1.0413816068500281,-0.00012720293762404376,-3.968036776722569e-06,0.08125294498977668,0.18291199564763563,-0.034679205178253465,-0.15979958567981484,0.13188110205078254,-0.0041388459578962904,0.0,-1.5707963267948966,0.0,-0.878347676488993,0.0,0.0
23.702,1000.0,0.0,0.0,-1.5707963267948966,0.0,-1.0263159114120768,0.0,0.0,0.0,0.0,0.0,0.7660927348365363,0.0,0.0,3.949272922116835e-05,-1.5709558501441923,4.353843323304301e-06,-0.9566911533937181,-3.2456856720265924e-06,-2.964795559127511e-07,-0.009451139468878988,-0.15514273226343184,-0.05221112336819215,0.6206506907283752,-0.0033121029675894187,0.00014257163976043023,0.0,-1.5707963267948966,0.0,-0.9591950894745934,0.0,0.0
23.802,1000.0,0.0,0.0,-1.5707963267948966,0.0,-0.9622072148457921,0.0,0.0,0.0,0.0,0.0,0.7527798179921231,0.0,0.0,-7.4458734775015e-05,-1.571848009109369,-0.0002705943154028687,-0.9543965072194786,-2.7137839479308125e-05,4.260297498173772e-09,0.18798811384338115,0.2669079299811667,0.007744759572005449,-0.1848514926457563,0.03110311662768427,0.0018387678713005758,0.0,-1.5707963267948966,0.0,-0.767725690584458,0.0,0.0
23.902,1000.0,0.0,0.0,-1.5707963267948966,0.0,-0.88663882068938,0.0,0.0,0.0,0.0,0.0,0.9223089634669203,0.0,0.0,-0.00014350023513856773,-1.5702626293124446,0.00018982399124863145,-0.8522935076079035,-1.4108378908706489e-05,1.9014949191815195e-07,0.05740568149222975,-0.10868985419231698,-0.049445501316361315,3.1415945178025564,0.00329726000570143,0.012608032940004805,0.0,-1.5707963267948966,0.0,-0.5990207677552133,0.0,0.0
24.002,1000.0,0.0,0.0,-1.5707963267948966,0.0,-0.7940967495131215,0.0,0.0,0.0,0.0,0.0,0.6364765395148843,0.0,0.0,-1.7910304893231938e-05,-1.5702810051239662,0.00027976816089543576,-0.8294206822696488,-1.820445479654975e-06,-1.6570080686561814e-06,-0.07026247864518317,0.11354165932287219,0.05970376896994036,-1.599584032914217,-0.0060931071153843865,-0.0006563373510216542,0.0,-1.5707963267948966,0.0,-0.6660628407155357,0.0,0.0
24.102,1000.0,0.0,0.0,-1.5707963267948966,0.0,-0.7196463708927956,0.0,0.0,0.0,0.0,0.0,0.8579956994414377,0.0,0.0,-0.00015985990172720445,-1.5692820533990774,0.0006077011765583382,-0.7462151408581397,-1.6506641091667092e-05,2.711026258458802e-07,-0.07269319570636894,-0.07938036823642268,-0.0034291712638903687,0.01726131189486221,-0.012938988962095995,0.00027516601567380516,0.0,-1.5707963267948966,0.0,-0.5204736288394178,0.0,0.0
24.202,1000.0,0.0,0.0,-1.5707963267948966,0.0,-0.6358152835553517,0.0,0.0,0.0,0.0,0.0,0.9075432342998645,0.0,0.0,3.186926602253261e-05,-1.5705129664549122,0.0002057567133231567,-0.6052080182524145,-1.8781499785170683e-07,-8.820436612938537e-07,-0.03394604109134385,-0.196609715043106,-0.04098626555815804,1.6729069829946057,-0.005686837729903595,-0.00014982720953959027,0.0,-1.5707963267948966,0.0,-0.41103762206626954,0.0,0.0
24.302,1000.0,0.0,0.0,-1.5707963267948966,0.0,-0.5491484613181603,0.0,0.0,0.0,0.0,0.0,0.6196901024336604,0.0,0.0,-0.00042590317651334495,-1.5695489021403035,0.0006377987329725304,-0.47492175022042593,-7.008152946271706e-05,2.3173973542984465e-06,0.10903465032969818,0.13304560252693332,0.020564497173914738,-0.015463977764681357,0.011768415230303081,-0.00020528537737266216,0.0,-1.5707963267948966,0.0,-0.28043243115277255,0.0,0.0
24.402,1000.0,0.0,0.0,-1.5707963267948966,0.0,-0.4574576144795772,0.0,0.0,0.0,0.0,0.0,0.9978373178872583,0.0,0.0,-7.315776985444537e-05,-1.5703286757074786,0.00021055815675111945,-0.39767473214234644,-1.1657337638396158e-06,-5.504064187001105e-07,-0.012809304460279445,-0.1690307844530588,-0.043469987847414786,-0.1652862634471097,-0.002148436809873897,-9.960909642027473e-06,0.0,-1.5707963267948966,0.0,-0.2247124987338952,0.0,0.0
24.502,1000.0,0.0,0.0,-1.5707963267948966,0.0,-0.37669945138235317,0.0,0.0,0.0,0.0,0.0,0.8411112644659847,0.0,0.0,3.730314722263854e-05,-1.570793530475752,1.245072814661288e-05,-0.30048792790305756,1.1268551920100918e-06,2.587890534123533e-08,-0.014904106402141043,-0.008825791794225555,0.00933863339639075,3.0499769826138685,-0.0009379352973413467,-6.62508256445587e-05,0.0,-1.5707963267948966,0.0,-0.26613476396601227,0.0,0.0
24.602,1000.0,0.0,0.0,-1.5707963267948966,0.0,-0.3132087605686191,0.0,0.0,0.0,0.0,0.0,0.5247871964681999,0.0,0.0,-4.856847386553657e-05,-1.5704654290294542,0.00011388737599332744,-0.23889600268738623,2.1759103179383236e-07,-1.303162218445105e-07,-0.010052334561099467,0.0151080899774789,0.04110593303726508,-1.27684605989382,-0.0007892188164807627,-9.611930127852159e-05,0.0,-1.5707963267948966,0.0,-0.0510351981495456,0.0,0.0
24.702,1000.0,0.0,0.0,-1.5707963267948966,0.0,-0.2429742665252519,0.0,0.0,0.0,0.0,0.0,1.0917421548961463,0.0,0.0,3.294582337340398e-05,-1.5703975184216572,0.00022487814168041525,-0.2195707575924694,9.941885865483836e-07,-2.5394660964164106e-07,-0.03521082622729292,-0.08882216479524307,-0.00016951282038144087,0.0741723819548262,-0.0017107529166146668,-8.523822226012708e-05,0.0,-1.5707963267948966,0.0,-0.1433404795547552,0.0,0.0
24.802,1000.0,0.0,0.0,-1.5707963267948966,0.0,-0.1517300351106048,0.0,0.0,0.0,0.0,0.0,0.9858962823707587,0.0,0.0,0.00022076501746339305,-1.5714705060248502,-0.0002259163421319805,-0.00618487069999173,6.112465402369663e-07,1.0254750167379088e-07,-0.01681234558726418,0.07444965863619547,0.04039737822330348,2.814160725990077,-8.409775570749839e-05,-2.080566562361219e-05,0.0,-1.5707963267948966,0.0,-0.09334250061874298,0.0,0.0
24.902,1000.0,0.0,0.0,-1.5707963267948966,0.0,-0.08055319313600862,0.0,0.0,0.0,0.0,0.0,0.4590120500441596,0.0,0.0,-1.238218230727655e-05,-1.5707196277555022,1.978582885760307e-05,-0.009461753622239177,2.6265609941097603e-08,-2.4167551814428237e-09,0.010033236783251156,0.10667771947546444,0.06476008406626763,2.4931289071220393,6.319513518818276e-05,-1.844568008264641e-05,0.0,-1.5707963267948966,0.0,0.03380737201140076,0.0,0.0
25.002,1000.0,0.0,0.0,-1.5707963267948966,0.0,-0.004282391442441025,0.0,0.0,0.0,0.0,0.0,0.784194101700452,0.0,0.0,2.4870082795917475e-05,-1.570762904123216,4.0266588503132684e-05,0.06075214730018527,-7.401765456098379e-08,1.8551044550864515e-08,-0.02161369109724349,-0.14298668353349472,-0.042497954855481884,-1.165340703474693,0.00038070511961063195,-1.2475366633222205e-06,0.0,-1.5707963267948966,0.0,0.13033151468148113,0.0,0.0
25.102,1000.0,0.0,0.0,-1.5707963267948966,0.0,0.05938768354597757,0.0,0.0,0.0,0.0,0.0,0.6180438338514614,0.0,0.0,0.0002508189626641777,-1.5713702380098087,-0.00014200046777834835,0.13012031148418463,-1.521175998006809e-06,-1.6105189893422825e-07,-0.05071542135978719,-0.09019670545761704,-0.013696892359116222,0.015611285943070966,0.0009768407259086094,3.5179408728659746e-05,0.0,-1.5707963267948966,0.0,0.20477468027790757,0.0,0.0
25.202,1000.0,0.0,0.0,-1.5707963267948966,0.0,0.13486543758161787,0.0,0.0,0.0,0.0,0.0,0.9304448298542408,0.0,0.0,0.00016640049467709064,-1.571345204295562,-0.0001857701477231102,0.20409804133046125,-1.099351697172786e-06,-2.0206046424843523e-07,-0.016657814624715033,0.021736017576251394,0.01683238587446703,3.0755129690422023,0.0003073082114141624,3.316043142380181e-05,0.0,-1.5707963267948966,0.0,0.3487628702967368,0.0,0.0
25.302,1000.0,0.0,0.0,-1.5707963267948966,0.0,0.23057281913285488,0.0,0.0,0.0,0.0,0.0,0.9024201680338273,0.0,0.0,-0.00026332831014140985,-1.5700610280179257,0.0002276411225474365,0.3004902248794977,3.38064316656382e-06,4.994491215209705e-07,0.01731179128108682,-0.024371798041373256,-0.00882287896178328,1.86214215530793,-0.00035287980006644827,-2.9354294470221804e-05,0.0,-1.5707963267948966,0.0,0.343512012301034,0.0,0.0
25.402,1000.0,0.0,0.0,-1.5707963267948966,0.0,0.32060437993702445,0.0,0.0,0.0,0.0,0.0,0.9257766793531315,0.0,0.0,0.0001713027981792962,-1.57083161367934,7.286679544847913e-05,0.40921710533334527,-4.6730251264440755e-06,2.149522869588834e-08,-0.03214278142773758,-0.08202726739909562,-0.028539420443130285,-0.6069907382861136,0.0019476067657662884,2.1137195369664776e-05,0.0,-1.5707963267948966,0.0,0.3801847597282727,0.0,0.0
25.503,1000.0,0.0,0.0,-1.5707963267948966,0.0,0.4084486304759148,0.0,0.0,0.0,0.0,0.0,0.7767659923922692,0.0,0.0,6.791900738499237e-05,-1.5708882058525042,-5.37337988633257e-06,0.4813179640790101,-4.3595075592424635e-06,1.822312414563165e-07,-0.029761613726989503,0.05646258541001624,0.028103685676901292,3.14159345253812,-0.00160550421817122,0.005179046250985192,0.0,-1.5707963267948966,0.0,0.6641596318348304,0.0,0.0
25.602,1000.0,0.0,0.0,-1.5707963267948966,0.0,0.49179741821832335,0.0,0.0,0.0,0.0,0.0,0.8648131465960295,0.0,0.0,-0.00017655109806189375,-1.570306571470431,0.00015468378872449606,0.5558410344151293,4.71817697545379e-06,6.841711016471851e-07,-0.01837622972106167,0.042188029483623914,0.018802622617529373,2.456447591531724,0.0008077325974318297,0.00010021688605461293,0.0,-1.5707963267948966,0.0,0.6687623012630597,0.0,0.0
25.702,1000.0,0.0,0.0,-1.5707963267948966,0.0,0.57113898886271,0.0,0.0,0.0,0.0,0.0,0.6266166590716185,0.0,0.0,5.51409340475828e-05,-1.571000191776342,-6.322123202125236e-05,0.5774220601771273,-9.59362437486788e-07,-2.6521331704046583e-07,0.05373744756794381,-0.08582569244998361,-0.006720812103721462,2.4371577831240616,-0.0013268456318749724,-7.020683652352895e-05,0.0,-1.5707963267948966,0.0,0.796541236356802,0.0,0.0
25.802,1000.0,0.0,0.0,-1.5707963267948966,0.0,0.6689914832553543,0.0,0.0,0.0,0.0,0.0,0.7927599290562485,0.0,0.0,0.0003114702783682588,-1.5717773021824273,-0.00030317654064682413,0.7250450741418546,-1.0547895362180093e-05,-1.905341206378947e-06,-0.055931584378168066,0.04597610149577421,-0.004395143743823067,0.22171180595083861,0.0025631658930048928,9.085160147672841e-05,0.0,-1.5707963267948966,0.0,0.8111645953591111,0.0,0.0
25.902,1000.0,0.0,0.0,-1.5707963267948966,0.0,0.7461442651180336,0.0,0.0,0.0,0.0,0.0,0.6517410356920695,0.0,0.0,6.138823630454391e-05,-1.5705735533697114,0.00012145021546039221,0.8150442729151286,-5.2476974448051965e-06,4.3093566448587526e-07,-0.05020835548823611,0.008467288699608857,-0.023924853031430705,-0.5908336062687118,0.002417780184027184,-2.748282807168997e-05,0.0,-1.5707963267948966,0.0,1.007259409910041,0.0,0.0
26.002,1000.0,0.0,0.0,-1.5707963267948966,0.0,0.8275072792654106,0.0,0.0,0.0,0.0,0.0,0.6499152892670281,0.0,0.0,0.00025568384797284465,-1.5715204402952891,-0.00021776587285444213,0.8951301208466917,-1.2257414697506386e-05,-1.9301713200179252e-06,-0.060604753817417,0.0718367896788267,-0.0031026965824967516,0.3944863956853036,0.002652037971264629,9.424645729879844e-05,0.0,-1.5707963267948966,0.0,1.1149422518444538,0.0,0.0
26.102,1000.0,0.0,0.0,-1.5707963267948966,0.0,0.9063147739729827,0.0,0.0,0.0,0.0,0.0,0.682421051584462,0.0,0.0,0.00012737754502412696,-1.5709204301016944,-1.6255134996381084e-05,0.9756949383003055,-9.366029243823474e-06,-6.157282507277211e-07,-0.0475334515222253,0.017710370788920005,-0.022015872114332088,-0.45778600637096095,0.0022650817051734166,-5.2280994221196806e-05,0.0,-1.5707963267948966,0.0,1.0061288081206756,0.0,0.0
26.202,1000.0,0.0,0.0,-1.5707963267948966,0.0,0.9914087888944983,0.0,0.0,0.0,0.0,0.0,0.8916230943518866,0.0,0.0,0.00022980170625870616,-1.571434819666243,-0.0001962493225085167,1.0440838498291043,-1.399223540419667e-05,-2.1821612449811924e-06,-0.06709022934560008,0.12269269694730478,0.015316962950130577,0.775993875798106,0.0030930246784167752,0.0002539840021833175,0.0,-1.5707963267948966,0.0,1.0610996796523235,0.0,0.0
26.302,1000.0,0.0,0.0,-1.5707963267948966,0.0,1.068742820352992,0.0,0.0,0.0,0.0,0.0,0.8969850113584654,0.0,0.0,0.00022811278359083755,-1.5715334897846305,-0.00030409408286614047,1.1114968459764436,-4.293032256945964e-05,-1.3769202510806824e-08,-0.02362476054966001,-0.15660450809626272,-0.0743604094501642,0.00027061068383071115,0.002449226550910461,-0.00026598355521921573,0.0,-1.5707963267948966,0.0,1.3097802764201238,0.0,0.0
26.402,1000.0,0.0,0.0,-1.5707963267948966,0.0,1.1404503888705446,0.0,0.0,0.0,0.0,0.0,0.7719948665764482,0.0,0.0,-0.00014738073912634115,-1.5702439871848142,0.00019493281001969353,1.14405259214309,9.559499143891224e-06,2.0801992835705195e-06,-0.0004809023944356601,-0.0675486717213112,-0.014909715685187022,1.2815203070810726,0.0019533182580220724,1.3344441055882514e-05,0.0,-1.5707963267948966,0.0,1.2063203953394834,0.0,0.0
26.502,1000.0,0.0,0.0,-1.5707963267948966,0.0,1.2025177216142566,0.0,0.0,0.0,0.0,0.0,0.675752293190084,0.0,0.0,-0.0002648360422778386,-1.5695475705597584,0.0004315064128312634,1.217036388658657,1.3675213945012148e-05,4.336081567582865e-06,-0.029448132618957356,0.08270998538929425,0.03691554893056627,2.2876127658006244,0.0033006534554966796,0.0005164236058462179,0.0,-1.5707963267948966,0.0,1.254174416565448,0.0,0.0
26.602,1000.0,0.0,0.0,-1.5707963267948966,0.0,1.2824350683107302,0.0,0.0,0.0,0.0,0.0,1.0285383309560305,0.0,0.0,0.0001314448636506228,-1.571433221769589,-0.0002464205694216984,1.262490822669966,-2.1680645054144538e-05,-3.477771212336789e-07,0.04555607105759828,-0.1819573356206263,-0.05965425914080011,0.008705833031874298,-0.004655001687187549,-0.0001470537606809796,0.0,-1.5707963267948966,0.0,1.5213289125393308,0.0,0.0
26.702,1066.6666259765625,0.0,0.0,-1.5707963267948966,0.0,1.3359751193217493,0.0,0.0,0.0,0.0,0.0,-0.28898926534386354,0.0,0.0,-0.00022400318663185091,-1.569915486264353,0.0002878772133366856,1.3909487973241015,1.4857492524993892e-05,3.593782965326882e-06,0.003294520122685416,0.03829243650365086,0.017463127490625174,1.9497943767915447,-0.0005036268762396364,0.00013642354773121143,0.0,-1.5707963267948966,0.0,1.2100282876957764,0.0,0.0
26.802,1066.6666259765625,0.0,0.0,-1.5707963267948966,0.0,1.276814863267635,0.0,0.0,0.0,0.0,0.0,-0.7940796215560337,0.0,0.0,-0.0001350318656350819,-1.570064223811234,0.00022463020957527014,1.4152722465081222,3.9279980295829584e-06,2.3603327300307715e-06,-0.018615225542355663,0.007097794519441137,-0.0007538953915945218,-2.5905321597789244,0.00208322707394411,0.00012707841078620746,0.0,-1.5707963267948966,0.0,1.0698787202917859,0.0,0.0
26.902,1066.6666259765625,0.0,0.0,-1.5707963267948966,0.0,1.2134714713432055,0.0,0.0,0.0,0.0,0.0,-0.8116421965881377,0.0,0.0,-3.057842774600058e-05,-1.5702503787714304,0.00031565679230892424,1.2479849836864678,1.2428990606236436e-05,2.1524820404692264e-06,-0.046134176751227225,-0.013019727475909331,0.15383643510399117,-0.02603269301936338,0.026591765433576674,0.0019178298159764902,0.0,-1.5707963267948966,0.0,1.0656215233365696,0.0,0.0
27.002,1066.6666259765625,0.0,0.0,-1.5707963267948966,0.0,1.1322273786256023,0.0,0.0,0.0,0.0,0.0,-0.833359219518541,0.0,0.0,0.00036892108691710044,-1.5722677232971654,-0.00046948080782358964,1.1607829695851313,-1.9303970056091123e-05,-4.989235377235338e-06,-0.04793950036467832,0.0199383755180695,-0.013934711604162996,-0.5269020940354059,0.0033479856823120085,6.364280843874517e-05,0.0,-1.5707963267948966,0.0,0.9119854854738689,0.0,0.0
27.102,1066.6666259765625,0.0,0.0,-1.5707963267948966,0.0,1.0396128036457215,0.0,0.0,0.0,0.0,0.0,-1.200708128008567,0.0,0.0,-9.181342947723326e-05,-1.5702606319416272,0.00019117317557455825,1.0142888030274613,2.9701701957011103e-06,1.5423159261887192e-06,-0.027203069094669144,0.055838665023259515,0.01159483538387876,-2.307137465016431,0.0014875118777928236,0.00015778751572146924,0.0,-1.5707963267948966,0.0,0.7476122001177674,0.0,0.0
27.202,1066.6666259765625,0.0,0.0,-1.5707963267948966,0.0,0.93694450834783,0.0,0.0,0.0,0.0,0.0,-0.8293354291552685,0.0,0.0,4.2579364458582116e-05,-1.5710184344298093,-7.884795227020824e-05,0.9580235328870847,-1.491627719583361e-06,-6.043332998918044e-07,-0.04553100821502711,0.13871823551734297,0.04061011069894117,-0.856311152428397,0.00215931467859984,0.00038049507708373984,0.0,-1.5707963267948966,0.0,0.6448017025476338,0.0,0.0
27.302,1066.6666259765625,0.0,0.0,-1.5707963267948966,0.0,0.8447714362850762,0.0,0.0,0.0,0.0,0.0,-0.9655377563394597,0.0,0.0,-7.968921956633614e-05,-1.5703300072880237,0.00017809276989776146,0.7877264985594773,2.228888016735618e-06,1.0961149909224076e-06,-0.010704036087274377,-0.036118360786575474,-0.02022268044800307,-2.913836720321236,0.0008721219289027635,-7.206766019303412e-05,0.0,-1.5707963267948966,0.0,0.7646778550453627,0.0,0.0
27.402,1066.6666259765625,0.0,0.0,-1.5707963267948966,0.0,0.7685660275736108,0.0,0.0,0.0,0.0,0.0,-0.5540032147043471,0.0,0.0,1.7527287542196474e-06,-1.571129355089211,-0.0001682521751086004,0.7109999620269402,8.739297868104767e-06,-1.1597091319371338e-06,-0.06172742601969671,-0.009890040900091657,-0.018402815558881225,0.00516652991401047,-0.00041761064163566437,0.0002836199591795649,0.0,-1.5707963267948966,0.0,0.5869822763910526,0.0,0.0
