7cmdehdrb/project_th/tune/rtde_tune/data/rtde_log_wrist1_2.csv
Time,Stiffness,Damping,R_shoulder_pan_p,R_shoulder_lift_p,R_elbow_p,R_wrist_1_p,R_wrist_2_p,R_wrist_3_p,R_shoulder_pan_v,R_shoulder_lift_v,R_elbow_v,R_wrist_1_v,R_wrist_2_v,R_wrist_3_v,S_shoulder_pan_p,S_shoulder_lift_p,S_elbow_p,S_wrist_1_p,S_wrist_2_p,S_wrist_3_p,S_shoulder_pan_v,S_shoulder_lift_v,S_elbow_v,S_wrist_1_v,S_wrist_2_v,S_wrist_3_v,C_shoulder_pan_p,C_shoulder_lift_p,C_elbow_p,C_wrist_1_p,C_wrist_2_p,C_wrist_3_p
5.303,600.0,0.0,0.0,-1.5707963267948966,0.0,-1.5702841813193604,0.0,0.0,0.0,0.0,0.0,0.04647724688968901,0.0,0.0,0.0009803112227227,-1.5708808821595066,1.1473855382473241,-1.4867416364698156,5.1101831453540834e-06,4.0602307122081344e-07,-0.16666335075727606,-0.3252675765818088,-1.0323268591437589,2.142971027518186,-0.002142088525632853,-0.00026959140378630443,0.0,-1.5707963267948966,0.0,-1.5085576026205239,0.0,0.0
5.403,600.0,0.0,0.0,-1.5707963267948966,0.0,-1.544458832305402,0.0,0.0,0.0,0.0,0.0,0.37163389634556976,0.0,0.0,6.444013130123642e-05,-1.570662236634011,1.0214945179888888,-1.380463000006078,4.1839279281857523e-07,1.6768941350859072e-07,-0.06865051301043945,-0.2077693919854604,-1.861568510409127,2.299536803265345,-0.0014939643218011111,-0.00028963619352590577,0.0,-1.5707963267948966,0.0,-1.2879204040959058,0.0,0.0
5.503,600.0,0.0,0.0,-1.5707963267948966,0.0,-1.4844965311691194,0.0,0.0,0.0,0.0,0.0,0.6079453726081757,0.0,0.0,-0.001184612673904538,-1.5703262788624976,0.8452112967420284,-1.344562523247374,-1.1670171950774562e-05,-3.16277015477042e-07,-0.01612693842854296,-0.2683984679537704,-1.8723708244227064,1.4024284863609426,-0.0020163479209208447,-0.0004546140166255544,0.0,-1.5707963267948966,0.0,-1.3004985393773303,0.0,0.0
5.603,600.0,0.0,0.0,-1.5707963267948966,0.0,-1.4113323645008453,0.0,0.0,0.0,0.0,0.0,0.6977155814140487,0.0,0.0,6.382625023856261e-05,-1.5714298928182264,0.7009324807371409,-1.3147831890961623,-6.33076427317164e-06,-1.3942282339324028e-06,-0.2302922280222081,-0.044453942646415,-1.940278769058637,-1.4723421907718663,-0.0038264454586853618,-0.00036205740038208544,0.0,-1.5707963267948966,0.0,-1.128038691346797,0.0,0.0
5.703,600.0,0.0,0.0,-1.5707963267948966,0.0,-1.3317556257913985,0.0,0.0,0.0,0.0,0.0,0.81283841079522,0.0,0.0,-0.0006014130995235789,-1.570564498622005,0.5167563490990719,-1.32001310484486,-1.5562784633399914e-05,-6.841598630838157e-07,-0.10376304778756243,0.006445592610264536,-1.9322368215149246,-2.4952490496658513,-0.0024656601273713914,-0.00017327373894355686,0.0,-1.5707963267948966,0.0,-1.1401853739843617,0.0,0.0
5.803,600.0,0.0,0.0,-1.5707963267948966,0.0,-1.2408340324727476,0.0,0.0,0.0,0.0,0.0,1.0825736371304981,0.0,0.0,-0.0004613279978771244,-1.5709788864876215,0.36414606665046684,-1.2602807984393636,-2.6324562682430195e-05,-2.1141218394382764e-06,0.17403539677353572,0.11433315079884374,-2.706942126819596,2.9207465580855554,0.010974828595567695,0.0009321452626393512,0.0,-1.5707963267948966,0.0,-1.0291425044664773,0.0,0.0
5.903,600.0,0.0,0.0,-1.5707963267948966,0.0,-1.1516371513704504,0.0,0.0,0.0,0.0,0.0,0.6161340924176679,0.0,0.0,0.0002969896650338594,-1.5705069743424596,0.1695596383112781,-1.1172721105373622,3.078635310533909e-05,2.426266397067576e-06,0.06660462272677013,-0.0268267082565867,-2.3896184934533844,2.8166963216639416,0.004453706240074989,0.0002505914301389157,0.0,-1.5707963267948966,0.0,-0.8815927850248537,0.0,0.0
6.003,600.0,0.0,0.0,-1.5707963267948966,0.0,-1.0761910697157493,0.0,0.0,0.0,0.0,0.0,0.777426525285781,0.0,0.0,4.60821104889981e-05,-1.5704130979140343,0.008082702750917544,-1.0754468327225315,1.819209136092811e-05,1.4141006807471977e-06,0.11673712805820942,-0.24008435510005002,-1.806182216586531,-2.0733452108211003,0.003437241110127094,4.016343296819536e-06,0.0,-1.5707963267948966,0.0,-0.9278338671183808,0.0,0.0
6.103,600.0,0.0,0.0,-1.5707963267948966,0.0,-0.9985253694026728,0.0,0.0,0.0,0.0,0.0,0.6496336383851531,0.0,0.0,-0.00044172050686070666,-1.5687661990959292,0.0007921614924518539,-1.086453677507829,-5.814943320491838e-05,9.333296705778705e-07,0.13245441405444935,-0.3226927991504066,-0.18943873768914732,3.141596914647537,0.020635432966262524,0.028127215121251062,0.0,-1.5707963267948966,0.0,-0.8145798588300502,0.0,0.0
6.203,600.0,0.0,0.0,-1.5707963267948966,0.0,-0.9235975433623489,0.0,0.0,0.0,0.0,0.0,0.7195516991228427,0.0,0.0,-0.0003500652107005195,-1.5693704703472682,0.0005259317606291882,-0.9761352919865501,-3.840294058900227e-05,6.559502594691659e-08,-0.01811486334661101,-0.16001526843859762,-0.05366791409635752,3.141596914647537,-0.010362606351958608,0.018922593863448238,0.0,-1.5707963267948966,0.0,-0.7535053103990439,0.0,0.0
6.303,600.0,0.0,0.0,-1.5707963267948966,0.0,-0.8527404401797138,0.0,0.0,0.0,0.0,0.0,0.70011597039815,0.0,0.0,-2.716729289663737e-05,-1.5694580883471319,0.00020792505050024648,-0.8217919907480896,3.0396450896093075e-05,8.584132166735245e-07,0.17331005156113902,-0.013850829311906607,-0.03562997449335777,0.5535973877757648,0.017861430279376346,0.001188621329516055,0.0,-1.5707963267948966,0.0,-0.6136060909452763,0.0,0.0
6.403,600.0,0.0,0.0,-1.5707963267948966,0.0,-0.7746852583234025,0.0,0.0,0.0,0.0,0.0,0.8556809298921475,0.0,0.0,-0.000163908462492995,-1.5699419847171991,0.00036920499055235025,-0.685895074800063,-2.2197447279444318e-05,1.798725400323314e-07,0.014229723273916525,-0.15852761000892254,0.014732250328344167,3.141593186222011,-0.015687393053301087,0.012820227581937974,0.0,-1.5707963267948966,0.0,-0.5200382116134558,0.0,0.0
6.502,600.0,0.0,0.0,-1.5707963267948966,0.0,-0.6846316534768642,0.0,0.0,0.0,0.0,0.0,1.1615091828781583,0.0,0.0,-1.3421473851909256e-05,-1.5713614495782113,0.0005986298491138371,-0.6531780742294123,-7.524584972024203e-05,-4.942887795878889e-06,-0.031371448832861165,0.13944184967503112,0.10744603312757389,-0.26768142847502335,0.2634930417391421,-0.00486107626010004,0.0,-1.5707963267948966,0.0,-0.5104527871029505,0.0,0.0
6.603,600.0,0.0,0.0,-1.5707963267948966,0.0,-0.592348753839719,0.0,0.0,0.0,0.0,0.0,0.8805242392810161,0.0,0.0,-0.0002623196931443365,-1.5697956440152994,0.00038345602327617657,-0.5059506395551027,-7.477417242219565e-06,-1.6854388402135225e-06,-0.026928253756713583,0.13060015485596804,0.06759557248482101,2.8301058703847084,-0.001170285049291939,-0.00030286126554609675,0.0,-1.5707963267948966,0.0,-0.4246735290014322,0.0,0.0
6.703,600.0,0.0,0.0,-1.5707963267948966,0.0,-0.517468551975762,0.0,0.0,0.0,0.0,0.0,0.5025039982809952,0.0,0.0,0.000337084738583182,-1.5718677165014354,-0.00030857230267181183,-0.47160744624382234,6.482346460194039e-06,1.1937768367080678e-06,-0.07823425189417187,0.26736381322551783,0.1280154737942621,0.724000449204271,-0.003138400626157927,-0.0005584233987347463,0.0,-1.5707963267948966,0.0,-0.4172730229303858,0.0,0.0
6.804,600.0,0.0,0.0,-1.5707963267948966,0.0,-0.44914286026079164,0.0,0.0,0.0,0.0,0.0,0.7308638088141249,0.0,0.0,-3.766319168025284e-05,-1.5691182689920378,0.0006652802667680863,-0.43519374505354624,-6.511323921189857e-07,1.6932514831017756e-07,0.08906656808190669,0.2349144936339337,0.014113500219172483,-0.11929525241042026,0.08341842785114736,-0.0035104476114082243,0.0,-1.5707963267948966,0.0,-0.3236241713200165,0.0,0.0
6.903,600.0,0.0,0.0,-1.5707963267948966,0.0,-0.3646672393781314,0.0,0.0,0.0,0.0,0.0,0.8254116727366239,0.0,0.0,-0.00024246958529179494,-1.5712991316087035,-2.618799318423861e-05,-0.40095804358176423,-7.97847481169123e-05,3.0214406487815934e-06,0.013744734591683273,0.23957554152903357,0.10097038216709968,0.038130736852401814,-0.023478582134139083,0.0010923073544777963,0.0,-1.5707963267948966,0.0,-0.10493189132841152,0.0,0.0
7.004,600.0,0.0,0.0,-1.5707963267948966,0.0,-0.2771476458900093,0.0,0.0,0.0,0.0,0.0,0.9092198243107429,0.0,0.0,0.0003505058416259948,-1.5709706306882423,-4.641962600819169e-05,-0.2992647713038978,7.667465031488694e-06,4.0822243267431585e-07,0.04322178539500861,0.07585749713457383,0.10011881976379003,-2.188317603505347,0.0002303391661063836,-0.00016862117181212752,0.0,-1.5707963267948966,0.0,-0.008065543096377525,0.0,0.0
7.103,600.0,0.0,0.0,-1.5707963267948966,0.0,-0.20314501882129843,0.0,0.0,0.0,0.0,0.0,0.596212343535474,0.0,0.0,-3.8770966077471245e-05,-1.570407771591854,0.00016226035523953794,-0.1400033439013607,-6.708502451927436e-08,-1.926249918580577e-07,0.018858917265665524,0.08867762172707902,0.016361721045768662,3.022036694353411,0.000612117238600286,1.0100456788059568e-05,0.0,-1.5707963267948966,0.0,-0.15159491149417093,0.0,0.0
7.204,600.0,0.0,0.0,-1.5707963267948966,0.0,-0.13408772472454977,0.0,0.0,0.0,0.0,0.0,0.6766888829072498,0.0,0.0,0.00024727255665641827,-1.5717168484256825,-0.00022933970047462826,-0.07178507441940873,1.0073218955081795e-06,1.649701573835154e-07,-0.016714137360878307,0.02152106510617377,0.06495253906691789,1.6816500076952814,-0.000656449052944329,-7.337624041493859e-05,0.0,-1.5707963267948966,0.0,-0.06228065450986282,0.0,0.0
7.303,600.0,0.0,0.0,-1.5707963267948966,0.0,-0.053251362886486575,0.0,0.0,0.0,0.0,0.0,1.0066820384111808,0.0,0.0,-2.6359191172464848e-05,-1.5704635648166911,0.00010228589109412048,-0.08328120847598103,-8.493302986509913e-07,-7.140961735433714e-08,0.05743993640175089,0.04839203385172083,0.016276137867425444,-1.8302454749320511,0.0005684545954949906,2.2599138170212425e-05,0.0,-1.5707963267948966,0.0,0.0876876018656601,0.0,0.0
7.403,600.0,0.0,0.0,-1.5707963267948966,0.0,0.024557763933858088,0.0,0.0,0.0,0.0,0.0,0.7672322243802031,0.0,0.0,-2.276256440614256e-05,-1.5701896586985766,0.00011629456705614825,0.01791639750815666,-3.1505865996573985e-06,-1.33514370933273e-07,0.1719620925753954,0.07430421675116353,-0.03078171885719294,-0.7979511729326185,-0.0006138582411517766,-3.2299752017494294e-05,0.0,-1.5707963267948966,0.0,0.1424204351148457,0.0,0.0
7.503,600.0,0.0,0.0,-1.5707963267948966,0.0,0.09845208249332979,0.0,0.0,0.0,0.0,0.0,0.48769467784331716,0.0,0.0,3.2700826247655377e-06,-1.570535869640287,9.079409254156789e-05,0.17977482517303592,-7.593657258686002e-07,3.371530120302197e-08,0.03440507643651644,-0.018721945481256785,-0.012781832289159597,3.0756602418504833,-0.0006449469408193176,-3.7928715375301165e-05,0.0,-1.5707963267948966,0.0,0.3175289076832071,0.0,0.0
7.603,600.0,0.0,0.0,-1.5707963267948966,0.0,0.17820997104220165,0.0,0.0,0.0,0.0,0.0,0.9322385028056989,0.0,0.0,-3.635157590333389e-05,-1.5705321412147608,0.00016683277071486875,0.200594386600353,-1.3227398466303145e-05,1.0067395855383464e-06,0.11313556054614873,0.014488655352683283,-0.010069390235346283,0.04754672155459446,-0.032703518317632164,0.0011473549462245993,0.0,-1.5707963267948966,0.0,0.3720131816222111,0.0,0.0
7.703,600.0,0.0,0.0,-1.5707963267948966,0.0,0.25130712822677936,0.0,0.0,0.0,0.0,0.0,0.8686260762327346,0.0,0.0,0.00022846180333526006,-1.5707329435609527,2.0660810319966087e-05,0.3150149723067354,-6.0732422320592445e-05,2.1609375037843243e-06,0.08485661806357421,-0.006269563903994103,0.0522159253805327,-0.05762269999274679,0.03719465653518498,-0.001486799664253255,0.0,-1.5707963267948966,0.0,0.4354238552467051,0.0,0.0
7.803,600.0,0.0,0.0,-1.5707963267948966,0.0,0.32474450163863483,0.0,0.0,0.0,0.0,0.0,0.4438314559778508,0.0,0.0,6.070160351305588e-05,-1.570697124044291,8.402518684344407e-05,0.4449405484585864,-1.4949379527059527e-06,1.593681938805196e-07,0.016543399606679804,0.03820719038163311,0.01808212727114905,2.4706917749381216,-0.0009860703735985778,1.7081729935314672e-06,0.0,-1.5707963267948966,0.0,0.4494044139329465,0.0,0.0
7.904,600.0,0.0,0.0,-1.5707963267948966,0.0,0.3909062906550303,0.0,0.0,0.0,0.0,0.0,0.8488631649279609,0.0,0.0,3.649122768864526e-05,-1.570578480217728,5.031157732993537e-05,0.4502574497063887,-5.969556084543586e-06,-1.6018814866984844e-07,0.11103765539743882,-0.011712508613060132,0.00831890693440481,-0.8148512603151251,-0.004104626418483374,-0.0001628484157981127,0.0,-1.5707963267948966,0.0,0.5338631279557173,0.0,0.0
8.003,600.0,0.0,0.0,-1.5707963267948966,0.0,0.4608515175686352,0.0,0.0,0.0,0.0,0.0,0.603258057125088,0.0,0.0,0.00026208887718071874,-1.5713883475052213,-0.00020433238377189154,0.5363919689742807,-1.118814349140203e-05,-1.213379177033748e-06,0.13901277281152732,-0.01934550176395822,0.02485489754370823,-0.2951758203452174,-0.005496898168126702,-0.00016338873646336736,0.0,-1.5707963267948966,0.0,0.5633224494644793,0.0,0.0
8.103,600.0,0.0,0.0,-1.5707963267948966,0.0,0.5318039374944079,0.0,0.0,0.0,0.0,0.0,0.5287775030219174,0.0,0.0,9.564128466879838e-05,-1.5700390569389326,0.00035738978144908497,0.649591195715239,0.0002436483234068418,-1.2380945938316504e-05,-0.16197017848152712,-0.06015060162777442,-0.07527257541302997,0.3023043369245461,-0.21076879380791896,0.007878177700834614,0.0,-1.5707963267948966,0.0,0.8213495339171054,0.0,0.0
8.203,600.0,0.0,0.0,-1.5707963267948966,0.0,0.6146207498090596,0.0,0.0,0.0,0.0,0.0,1.145150946227423,0.0,0.0,0.0001567142702545829,-1.5709318816943816,-1.936686131068495e-05,0.6180285423190832,-8.726761472897713e-06,-4.882785927315455e-07,0.09293743111444483,-0.010586926699230044,0.024032195068117712,-1.8445920568823624,-0.004326280743847153,-9.84872698821727e-05,0.0,-1.5707963267948966,0.0,0.8745979175820275,0.0,0.0
8.303,600.0,0.0,0.0,-1.5707963267948966,0.0,0.7077023583861313,0.0,0.0,0.0,0.0,0.0,0.9039686166876009,0.0,0.0,-9.569365713603614e-05,-1.5698891209695611,0.000304037874302606,0.7540054196788395,-3.524495507797591e-06,1.1720946637172626e-06,-0.006386847541836322,0.12689897679676,0.03377719251704363,2.364677723528683,-0.0018508033308479975,4.520733017787098e-05,0.0,-1.5707963267948966,0.0,0.8555984234378065,0.0,0.0
8.403,600.0,0.0,0.0,-1.5707963267948966,0.0,0.7977831318977564,0.0,0.0,0.0,0.0,0.0,0.7890675692950627,0.0,0.0,-6.769446165080885e-05,-1.570134797580121,0.00021857964541800246,0.9193281351433696,-3.4013470130891148e-06,1.0690790711170344e-06,0.053972280119439955,-0.14447820354675042,-0.05158131073752363,2.096663050377507,-0.0030565315692529333,-0.0004760040245576232,0.0,-1.5707963267948966,0.0,1.0270634545747246,0.0,0.0
8.503,600.0,0.0,0.0,-1.5707963267948966,0.0,0.8888703804593212,0.0,0.0,0.0,0.0,0.0,0.739790584595914,0.0,0.0,-0.0001294607810056167,-1.5698347924833236,0.0002987015717702178,0.9588074343539496,-3.006683208678153e-06,1.6462525730275693e-06,0.04592392850554388,-0.285646397464155,-0.1264271312306252,0.8020558365417304,-0.002752477375286421,-0.0009819443594478127,0.0,-1.5707963267948966,0.0,1.0153251344726497,0.0,0.0
8.603,600.0,0.0,0.0,-1.5707963267948966,0.0,0.9550237204551292,0.0,0.0,0.0,0.0,0.0,0.8352508031323057,0.0,0.0,0.00027476748427972215,-1.5717662500639034,-0.0004451905160354377,1.0548871625280924,-2.4789994126569597e-05,-4.7180657327248455e-06,-0.05077051966602741,0.12772265091002946,0.02952594893765271,3.095631286864988,0.0018566035084486758,0.00030287735764496866,0.0,-1.5707963267948966,0.0,1.0601886260199938,0.0,0.0
8.703,600.0,0.0,0.0,-1.5707963267948966,0.0,1.040436656932675,0.0,0.0,0.0,0.0,0.0,0.8429714974243849,0.0,0.0,0.0005240086410314743,-1.5732359155114637,-0.0007744401579696807,1.0475174634225435,-1.731362327714284e-05,-6.667782501809813e-06,0.07944832877849015,0.060785636550893016,0.05742478967305107,-0.36870722935993194,-0.005882627403551607,0.00010176903400939272,0.0,-1.5707963267948966,0.0,1.2435511045007583,0.0,0.0
8.803,600.0,0.0,0.0,-1.5707963267948966,0.0,1.1155858185567322,0.0,0.0,0.0,0.0,0.0,0.7857438948012249,0.0,0.0,-0.0002755520309909878,-1.5698984420333764,0.00018866399473964454,1.172725516019428,6.99577025905451e-06,1.726066183299087e-06,-0.041376372884773416,0.2635913290281229,0.04168738432701344,2.950829093126872,-0.0028641759169949037,4.8032249370903854e-05,0.0,-1.5707963267948966,0.0,1.3438317036152387,0.0,0.0
8.903,600.0,0.0,0.0,-1.5707963267948966,0.0,1.206044564357118,0.0,0.0,0.0,0.0,0.0,0.7960750434815158,0.0,0.0,0.00019647427054517202,-1.5716924805017083,-0.00010268876247850533,1.2837202112995325,1.1395948972731265e-05,1.7835692134517396e-07,0.0607888198606335,0.2061231090233575,0.08114475407049221,0.3491620238037314,-0.009291129260446463,0.00010357570532799701,0.0,-1.5707963267948966,0.0,1.3909696040277124,0.0,0.0
9.002,600.0,0.0,0.0,-1.5707963267948966,0.0,1.2893852136077308,0.0,0.0,0.0,0.0,0.0,0.6816641230762137,0.0,0.0,-0.0003721716258706508,-1.569686987042824,0.0006025269978584236,1.3190961784815456,2.4490861920480776e-05,7.731609925603227e-06,-0.0475444745124247,-0.030363602566050498,-0.1319407235696867,-0.02206434372676613,0.015205685468754598,-0.002584988729632681,0.0,-1.5707963267948966,0.0,1.522785575806287,0.0,0.0
9.103,600.0,11.11111068725586,0.0,-1.5707963267948966,0.0,1.3587571420697928,0.0,0.0,0.0,0.0,0.0,0.31315547220950124,0.0,0.0,-0.000296408919065681,-1.5691974980344676,0.0004989186532026136,1.3952736377763357,9.42018972204701e-06,5.216194418291977e-06,0.03884671106671281,-0.20758688222700591,-0.06849081073000796,0.10523740705654393,-0.001682606632843892,-0.0007514871033431416,0.0,-1.5707963267948966,0.0,1.1548274755674592,0.0,0.0
9.203,600.0,11.11111068725586,0.0,-1.5707963267948966,0.0,1.3070831284802935,0.0,0.0,0.0,0.0,0.0,-0.5460381483508856,0.0,0.0,0.0004723796937801748,-1.571361316420157,-0.00015155462320758892,1.4424288996178236,2.6526203589519853e-05,-4.082445595880541e-09,-0.004787744142919837,-0.00949741709430562,0.020856548157550156,-0.8631308421898174,-0.0026702686613127124,-9.792130751391756e-05,0.0,-1.5707963267948966,0.0,1.138823036732598,0.0,0.0
9.303,600.0,11.11111068725586,0.0,-1.5707963267948966,0.0,1.2231605111191026,0.0,0.0,0.0,0.0,0.0,-0.9720375131909288,0.0,0.0,1.776423658667844e-05,-1.570723489339083,-7.12426627809614e-06,1.2447425850592964,-4.605430691816936e-06,3.5904007450787534e-08,-0.011498160555714282,0.0016887413960639441,0.010593194490467438,-3.0503210630267064,-0.0007506360101139145,-0.0002866363987311418,0.0,-1.5707963267948966,0.0,1.0758839434525798,0.0,0.0
9.403,600.0,11.11111068725586,0.0,-1.5707963267948966,0.0,1.140667325211088,0.0,0.0,0.0,0.0,0.0,-0.7308447650194042,0.0,0.0,0.0002953753836973241,-1.5711535898551308,-0.00019145813576175414,1.0872068860431305,-1.6511316334028753e-05,1.6055729103023642e-06,0.00471890402948454,-0.028100094570618888,-0.0011441943929875692,-2.2406780136973947,-0.00043818430877021143,-0.00018799162133576803,0.0,-1.5707963267948966,0.0,0.8856907329249595,0.0,0.0
9.503,600.0,11.11111068725586,0.0,-1.5707963267948966,0.0,1.0667450098681996,0.0,0.0,0.0,0.0,0.0,-1.0858197938052498,0.0,0.0,-0.00014904739293011422,-1.5704237505583944,0.00010859249029722789,0.9946432628771921,-1.2648111352542668e-05,-1.756746953339801e-06,-0.011271431920191465,0.016220311353074657,0.005747252995648264,-0.6542295568068028,0.001243727307948866,2.5992453864637897e-05,0.0,-1.5707963267948966,0.0,0.9119261079462282,0.0,0.0
9.603,600.0,11.11111068725586,0.0,-1.5707963267948966,0.0,0.9868894517807396,0.0,0.0,0.0,0.0,0.0,-0.7388603713580296,0.0,0.0,0.0004003205428939684,-1.5714036606814892,-0.0002192939720614633,0.930139171009519,-2.4996956398172585e-05,1.3764476837773098e-06,-0.02066308198792351,0.014597194771563524,0.011969243583927576,-2.4891064686115834,0.00016048565680828832,-0.000366835941014785,0.0,-1.5707963267948966,0.0,0.72568366235231,0.0,0.0
9.703,600.0,11.11111068725586,0.0,-1.5707963267948966,0.0,0.9076339246650376,0.0,0.0,0.0,0.0,0.0,-1.158675114312546,0.0,0.0,0.000405821017344141,-1.571365577477901,-0.00021009873545564827,0.8879688806754686,-2.202378671245131e-05,2.49570065436246e-06,-0.005304158646164673,-0.008659526798271895,0.0016734232783838095,-2.3655978456853055,0.0002439531630252704,-0.00020451713407065766,0.0,-1.5707963267948966,0.0,0.8020773696774068,0.0,0.0
9.803,600.0,11.11111068725586,0.0,-1.5707963267948966,0.0,0.8326778230680194,0.0,0.0,0.0,0.0,0.0,-1.1591686629126121,0.0,0.0,0.00019016350202553868,-1.5709988601957972,-6.532012935351293e-05,0.7402776897868353,-2.0982843289487434e-05,1.0411083822160461e-06,-0.010406596363620754,0.010971905360152414,0.0035356147437837983,-3.0822784634754394,0.0011439061005980816,-5.433215166013729e-05,0.0,-1.5707963267948966,0.0,0.5991233219159956,0.0,0.0
9.903,600.0,11.11111068725586,0.0,-1.5707963267948966,0.0,0.7555664853685418,0.0,0.0,0.0,0.0,0.0,-0.6352287102908573,0.0,0.0,0.0002486131260203227,-1.571073295548265,-7.468078135747976e-05,0.7041209503522383,-2.04065287439908e-05,2.260969099073214e-06,-0.003157577206526774,-0.010187814559178842,-0.0022534106097556045,-2.657508530665545,0.0006159894852282343,-0.00015472029665789642,0.0,-1.5707963267948966,0.0,0.6480829239923886,0.0,0.0
10.003,600.0,11.11111068725586,0.0,-1.5707963267948966,0.0,0.688414498189478,0.0,0.0,0.0,0.0,0.0,-0.7989822102723393,0.0,0.0,-2.5666414125043893e-05,-1.5706333413361837,4.173056313434598e-05,0.6564226699644831,-2.2424158945117414e-05,-1.108953620940976e-06,-0.005187236511634487,0.0061650233879381846,0.0014302184142107298,-0.013479201826542862,0.0014410476490378595,6.194019123219008e-05,0.0,-1.5707963267948966,0.0,0.561095490850513,0.0,0.0
10.103,600.0,11.11111068725586,0.0,-1.5707963267948966,0.0,0.6183213680726602,0.0,0.0,0.0,0.0,0.0,-0.9443814996332298,0.0,0.0,-2.7765813319478876e-05,-1.5706474560899613,4.18944221502079e-05,0.5550126581580601,-2.4088533034883654e-05,-1.3622252500860179e-06,-0.009494347176970922,0.013072985496224411,0.001962584186080407,-0.770557232169791,0.0014266611175906025,-1.0343267664011934e-05,0.0,-1.5707963267948966,0.0,0.414278586152615,0.0,0.0
10.203,600.0,11.11111068725586,0.0,-1.5707963267948966,0.0,0.5279346134639207,0.0,0.0,0.0,0.0,0.0,-0.9271988571290414,0.0,0.0,-8.41472511025136e-06,-1.5706796803391512,4.6024942901389405e-05,0.4805117586380159,-2.4376803074233915e-05,-9.289797751015496e-07,-0.009017342776521406,0.008739023717256711,-0.0009546423419552281,-1.2410130942687494,0.0012652588613324266,-9.02906943031694e-05,0.0,-1.5707963267948966,0.0,0.25551822569794885,0.0,0.0
10.303,600.0,11.11111068725586,0.0,-1.5707963267948966,0.0,0.4304298798980035,0.0,0.0,0.0,0.0,0.0,-0.7315337627503857,0.0,0.0,-1.460166167813605e-05,-1.5706688945367362,5.9404405606540375e-05,0.39378192299795034,-2.5118270911726482e-05,-7.990190601288194e-07,-0.003190685188273773,-0.0014456332795398396,-0.0036591313229038325,-0.7033229341315961,0.0013007068618204397,-3.710720560056603e-05,0.0,-1.5707963267948966,0.0,0.22403833818811336,0.0,0.0
10.402,600.0,11.11111068725586,0.0,-1.5707963267948966,0.0,0.3670090243249948,0.0,0.0,0.0,0.0,0.0,-0.7689442570941001,0.0,0.0,3.503176372150971e-05,-1.5707350740898247,8.37672662587466e-05,0.31493507747403304,-2.491161341472334e-05,4.84204232541899e-07,-0.004317631452013876,-0.0034541654468396824,-0.007718300650456591,-1.0215534404280067,0.0012016981266615896,-0.00014478233654323746,0.0,-1.5707963267948966,0.0,0.17992022786221173,0.0,0.0
10.503,600.0,11.11111068725586,0.0,-1.5707963267948966,0.0,0.2918063585088486,0.0,0.0,0.0,0.0,0.0,-0.9119416602243859,0.0,0.0,4.221887604596736e-06,-1.5707012519439807,7.894765826463296e-05,0.2119093924132863,-2.612022350421656e-05,-2.786217961923635e-07,-0.0066362333324221775,0.0006016393641865056,-0.00964207459517276,-1.8454542552852755,0.0012168007727632933,-0.00019691730715815542,0.0,-1.5707963267948966,0.0,0.06648584091975429,0.0,0.0
10.603,600.0,11.11111068725586,0.0,-1.5707963267948966,0.0,0.21992337817271945,0.0,0.0,0.0,0.0,0.0,-0.718367109537599,0.0,0.0,9.003075001512895e-05,-1.570779815196138,0.00015987131248822273,0.21368200907959983,-2.3110450389053622e-05,2.897239411809478e-06,-0.004797420988411991,-0.0017125788984519174,-0.008914848525256185,-3.1161304367236546,0.0012459242858110188,-0.000158397568815169,0.0,-1.5707963267948966,0.0,-0.05220735023609496,0.0,0.0
10.703,600.0,11.11111068725586,0.0,-1.5707963267948966,0.0,0.13266513012456382,0.0,0.0,0.0,0.0,0.0,-1.0310962230843057,0.0,0.0,1.2853571085368411e-05,-1.570659307156812,0.00018323469938135098,0.08708476011196742,-2.459878057445605e-05,1.7965892478519258e-06,-0.0027341777655421587,-0.0027682246156031406,-0.008764187468666057,-3.0071179322428963,0.0013475069765664035,-9.469415899499017e-05,0.0,-1.5707963267948966,0.0,0.07876540243987036,0.0,0.0
10.803,600.0,11.11111068725586,0.0,-1.5707963267948966,0.0,0.07839007666871645,0.0,0.0,0.0,0.0,0.0,-0.39859673419118696,0.0,0.0,3.485369306605691e-06,-1.5705810102207638,0.0002707432729726287,0.062467406134521244,-2.3210006028009082e-05,3.244780491465046e-06,-0.004867367458026702,-0.0005159045625116939,-0.011842509365256128,-2.72028536282922,0.0012863948416673534,-0.0001728369928783143,0.0,-1.5707963267948966,0.0,0.023665886264323574,0.0,0.0
10.903,600.0,11.11111068725586,0.0,-1.5707963267948966,0.0,0.01851595757555291,0.0,0.0,0.0,0.0,0.0,-0.6161069490782176,0.0,0.0,-1.0140671796509422e-05,-1.5707498546338747,3.468544631187253e-05,0.013051367078016234,-2.827757863655851e-05,-1.4633740982621812e-06,0.0027196781017634385,-0.006255480879284359,-0.0006494441460507287,0.4169270232681519,0.001577135700889559,0.00012559144395918168,0.0,-1.5707963267948966,0.0,-0.03534545727753284,0.0,0.0
11.003,600.0,11.11111068725586,0.0,-1.5707963267948966,0.0,-0.05544750203328164,0.0,0.0,0.0,0.0,0.0,-0.831525341595697,0.0,0.0,-2.4964607622144792e-05,-1.5707001866795447,6.762266894606881e-05,-0.08304006756165276,-2.8000475538546657e-05,-1.1342821680401212e-06,0.001137171345909786,-0.008789646664508835,-0.009966500671106753,-0.9150487681667486,0.0014068178366890974,-4.371078936474867e-05,0.0,-1.5707963267948966,0.0,-0.170765001426264,0.0,0.0
11.103,600.0,11.11111068725586,0.0,-1.5707963267948966,0.0,-0.14606185318356601,0.0,0.0,0.0,0.0,0.0,-0.70444600555378,0.0,0.0,-7.299252513006948e-05,-1.5705310759503246,0.00022201998986501505,-0.21877780137789832,-2.623418482259147e-05,7.343316037318491e-07,0.0016398853937772502,-0.008940453362721076,-0.010663395832920848,-3.105022658133043,0.001397106141237365,-4.0630936378096835e-05,0.0,-1.5707963267948966,0.0,-0.26474764646472787,0.0,0.0
11.203,600.0,11.11111068725586,0.0,-1.5707963267948966,0.0,-0.20551721972237758,0.0,0.0,0.0,0.0,0.0,-0.4782956594162214,0.0,0.0,0.00016464432654151172,-1.571265708937023,-0.00016954389926330263,-0.2344188127760427,-2.6073056587144187e-05,-2.429553391126929e-06,-0.0007402502020112559,0.010892458895586685,0.023561639470635932,2.7669503367140242,0.001963744247607975,0.0004293510143518524,0.0,-1.5707963267948966,0.0,-0.4838489748401948,0.0,0.0
11.303,600.0,11.11111068725586,0.0,-1.5707963267948966,0.0,-0.28856021138459376,0.0,0.0,0.0,0.0,0.0,-0.6920667392798485,0.0,0.0,6.253900423864744e-05,-1.570964505417735,-7.40242897580013e-06,-0.2862390173857248,-2.6117452087188612e-05,-1.2511255112248393e-06,0.0032636682857095536,-0.006354800143187501,-0.0005797517690517421,0.5315457481596362,0.001607818619591202,0.000122700953526907,0.0,-1.5707963267948966,0.0,-0.45164306297548523,0.0,0.0
11.403,600.0,11.11111068725586,0.0,-1.5707963267948966,0.0,-0.3661718883990215,0.0,0.0,0.0,0.0,0.0,-1.099417177667545,0.0,0.0,-0.00013651379352205687,-1.5704169594976147,0.0002317610737154953,-0.42620148176435285,-2.7866608375140383e-05,-1.383453023196863e-07,0.004395138022187913,-0.020185271357065864,-0.030516511705107684,-2.401638404717348,0.0010053247812092418,-0.0002613709094967051,0.0,-1.5707963267948966,0.0,-0.4314228644571382,0.0,0.0
11.503,600.0,11.11111068725586,0.0,-1.5707963267948966,0.0,-0.4273694549082059,0.0,0.0,0.0,0.0,0.0,-0.603509508089632,0.0,0.0,-0.00010918531346688292,-1.5705298775278342,0.00016507301030267298,-0.5677723622833342,-2.7665390088829182e-05,-7.8948253591018e-07,0.007969386286831973,-0.02450248851067969,-0.02926450766179639,-2.0536649829976326,0.0010587716154844197,-0.00018567278239761228,0.0,-1.5707963267948966,0.0,-0.6035384215158359,0.0,0.0
11.603,600.0,11.11111068725586,0.0,-1.5707963267948966,0.0,-0.49091204516375875,0.0,0.0,0.0,0.0,0.0,-0.8066487363748892,0.0,0.0,-0.0001803888360778166,-1.5703329367652228,0.0003185392285644403,-0.5125483881291786,-2.6923475248590176e-05,4.838726631751485e-07,0.008646133490672588,-0.025136967915039655,-0.025446127628084226,-1.0102305450003441,0.0012037844428983684,-0.00013791977157874989,0.0,-1.5707963267948966,0.0,-0.7296351971936483,0.0,0.0
11.703,600.0,11.11111068725586,0.0,-1.5707963267948966,0.0,-0.5497019860999153,0.0,0.0,0.0,0.0,0.0,-0.531966067307891,0.0,0.0,-9.97298156074436e-05,-1.5705675612572587,0.0002523856829084915,-0.6959013699638177,-2.2815792274090562e-05,4.1917501587749585e-07,0.002616193747542169,-0.006064637299153059,-0.012116526795181966,-3.0572807019034105,0.0011317402137765707,-2.9460959484676368e-05,0.0,-1.5707963267948966,0.0,-0.7223159763460758,0.0,0.0
11.803,600.0,11.11111068725586,0.0,-1.5707963267948966,0.0,-0.6177807854151496,0.0,0.0,0.0,0.0,0.0,-0.763396024417482,0.0,0.0,-0.0003255736213846604,-1.5699932505681833,0.0005669832250001543,-0.6920708787889295,-2.6260746944883498e-05,1.8641313628394242e-06,0.009976849548655232,-0.025686733829599878,-0.026306064424665414,-2.7816658996333663,0.001128170303551671,-0.00012009148965765952,0.0,-1.5707963267948966,0.0,-0.8330772707061396,0.0,0.0
11.903,600.0,11.11111068725586,0.0,-1.5707963267948966,0.0,-0.696687885492679,0.0,0.0,0.0,0.0,0.0,-0.7299909533081096,0.0,0.0,-0.00030662834461879095,-1.5700543701152005,0.0005014489813310954,-0.7724980108141862,-2.7252751694434558e-05,1.0481203568326168e-06,0.006128943796951416,-0.015386867807853253,-0.042063842953042156,-2.746741737730285,0.00023431750680436933,-0.0003439772608590039,0.0,-1.5707963267948966,0.0,-0.7459805659708286,0.0,0.0
12.005,600.0,11.11111068725586,0.0,-1.5707963267948966,0.0,-0.7499642947718641,0.0,0.0,0.0,0.0,0.0,-0.5044002485841845,0.0,0.0,9.702920991002712e-06,-1.5708840779528146,4.528649842792732e-05,-0.7751694277036447,-1.9041746054043816e-05,-7.137201420071327e-07,0.0033468314724567575,-0.0037662829851847902,0.004383848715879499,1.087912224257838,0.0015662033465924862,0.00015377029391186567,0.0,-1.5707963267948966,0.0,-0.9364948171973231,0.0,0.0
12.103,600.0,11.11111068725586,0.0,-1.5707963267948966,0.0,-0.8252962781264195,0.0,0.0,0.0,0.0,0.0,-0.7473272672129727,0.0,0.0,0.00015875307416307624,-1.571245335754684,-9.56368065140113e-05,-0.8341855435129913,-1.2693194627267418e-05,-7.60389514545254e-07,-0.004550091345441191,0.0147322940208308,0.00524483933362641,0.42845321775552847,0.001002081069206728,8.440636640364246e-05,0.0,-1.5707963267948966,0.0,-1.0345807509371445,0.0,0.0
12.203,600.0,11.11111068725586,0.0,-1.5707963267948966,0.0,-0.881490821546631,0.0,0.0,0.0,0.0,0.0,-0.4393193752380605,0.0,0.0,-0.00018880292319323894,-1.570392991047804,0.00039208028295565365,-0.8984064747777617,-1.9709572220890602e-05,9.983869201559888e-07,-0.006531279298189185,0.017086193448729987,-0.016855850820384148,-1.2080636663139621,-2.3703895298892338e-05,-0.00017469879995386166,0.0,-1.5707963267948966,0.0,-1.1082696272505208,0.0,0.0
12.303,600.0,11.11111068725586,0.0,-1.5707963267948966,0.0,-0.9590252757547404,0.0,0.0,0.0,0.0,0.0,-0.8334717033128677,0.0,0.0,-9.442871250950715e-05,-1.5706409313452905,0.0001769179654068833,-0.9432410580453546,-1.9616581426815853e-05,-3.286246409163149e-07,0.005253187719465428,-0.009112883680627999,-0.013757277456239166,-0.3795467943392588,0.0009221133506747127,-2.3302173930664245e-05,0.0,-1.5707963267948966,0.0,-1.1075876853626236,0.0,0.0
12.403,600.0,11.11111068725586,0.0,-1.5707963267948966,0.0,-1.0478372329638646,0.0,0.0,0.0,0.0,0.0,-0.9633783954545925,0.0,0.0,-0.0002513501482187596,-1.570285399339765,0.0004298210661853663,-1.0678863847039055,-2.0565771440580362e-05,7.434556663253618e-07,0.009844595512505676,-0.01968762849846553,-0.02138031288137388,-2.7704907430671755,0.0009135691288688168,-5.327077614799965e-05,0.0,-1.5707963267948966,0.0,-1.3456856308046143,0.0,0.0
12.504,600.0,11.11111068725586,0.0,-1.5707963267948966,0.0,-1.1430176479709857,0.0,0.0,0.0,0.0,0.0,-0.66323712792355,0.0,0.0,0.00010894745924183941,-1.5711107129615804,-0.00010312363925953548,-1.1854181417747458,-6.847379570050178e-06,-7.238007523812079e-07,-0.005945967465157509,0.01718758810574825,0.0025916112622496514,-0.2663758969743961,0.000254458085168872,1.0401580188200722e-05,0.0,-1.5707963267948966,0.0,-1.3279093054955884,0.0,0.0
12.603,600.0,11.11111068725586,0.0,-1.5707963267948966,0.0,-1.2202896167711366,0.0,0.0,0.0,0.0,0.0,-0.8275811509897412,0.0,0.0,0.0001882134484805209,-1.5712943379187414,-0.00014568684253700302,-1.1950164406595003,8.359087237155064e-07,-1.000846292439986e-07,-0.017485731070377222,0.042638586405794876,0.02579821000776031,0.8804832009044467,2.3866673380840127e-05,0.00010204184384920806,0.0,-1.5707963267948966,0.0,-1.3789549014216091,0.0,0.0
12.703,600.0,22.22222137451172,0.0,-1.5707963267948966,0.0,-1.3021339456061387,0.0,0.0,0.0,0.0,0.0,-0.13896534655549098,0.0,0.0,0.00013839354572604321,-1.5711593156514745,-0.00015091007775650913,-1.2953343899714227,-2.5520560176625624e-06,-6.061141994702456e-07,-0.0012072801019034228,0.006041465196926118,-0.005061799023548502,-0.5061521076915672,0.00019591467187056168,-2.473095928657917e-05,0.0,-1.5707963267948966,0.0,-1.181470423805696,0.0,0.0
12.803,600.0,22.22222137451172,0.0,-1.5707963267948966,0.0,-1.2354896618994875,0.0,0.0,0.0,0.0,0.0,0.7922218128297599,0.0,0.0,0.0003459058745268378,-1.5715713066721098,-0.000609566299581532,-1.404644902178161,2.6628210124215752e-06,-2.327296687280321e-06,0.01612142485284865,-0.03364067638285265,-0.00767182952973201,0.13686698901984481,0.0014490246487404875,0.00012072407981710264,0.0,-1.5707963267948966,0.0,-1.0100820649256361,0.0,0.0
12.905,600.0,22.22222137451172,0.0,-1.5707963267948966,0.0,-1.143573306895381,0.0,0.0,0.0,0.0,0.0,1.1080226133340587,0.0,0.0,-0.0002943253661186074,-1.5704165600234512,0.0006338562662767773,-1.1930965678296623,2.67144892736442e-06,9.970488961679508e-07,-0.011076398022532494,0.023083090228694706,0.005412421866111548,0.78121200705898,-0.00019534371119886903,3.954312530449449e-09,0.0,-1.5707963267948966,0.0,-0.9774282484723469,0.0,0.0
13.003,600.0,22.22222137451172,0.0,-1.5707963267948966,0.0,-1.0515626548194827,0.0,0.0,0.0,0.0,0.0,0.987540849255461,0.0,0.0,8.231900174224011e-05,-1.5711099140132534,-6.764007462346609e-06,-1.0630869689454192,-2.0544036947949917e-05,-8.465185624832747e-07,0.0031664613454757103,-0.0010227366922630047,-0.001675053554291345,2.8712205502416785,0.0009249044033142105,3.9048306899670976e-05,0.0,-1.5707963267948966,0.0,-0.9248888467766703,0.0,0.0
13.103,600.0,22.22222137451172,0.0,-1.5707963267948966,0.0,-0.9662881151994434,0.0,0.0,0.0,0.0,0.0,0.9588187986524648,0.0,0.0,3.1061014450848497e-06,-1.5709775549070766,0.00021871325860257552,-0.9362490617614061,-1.6615944438241005e-05,-1.5800089883195453e-07,-0.006157538969007491,0.01622109885813137,0.00934106561148005,2.2839285487486087,0.0012247554060739539,6.810584640568276e-05,0.0,-1.5707963267948966,0.0,-0.7058804587509933,0.0,0.0
13.203,600.0,22.22222137451172,0.0,-1.5707963267948966,0.0,-0.8886940639227436,0.0,0.0,0.0,0.0,0.0,0.6401877962524368,0.0,0.0,2.7976138270833515e-05,-1.5710168365331552,0.0001505587661070958,-0.7900304657975321,-2.945106040567333e-05,-7.308282832013125e-07,0.003818716049740327,-0.0022709721285649404,0.003074397635097082,2.587303609589421,0.0019011334344099422,8.703561217625069e-05,0.0,-1.5707963267948966,0.0,-0.7364682653677461,0.0,0.0
13.303,600.0,22.22222137451172,0.0,-1.5707963267948966,0.0,-0.8083128808690807,0.0,0.0,0.0,0.0,0.0,0.8538062454650184,0.0,0.0,0.0001778440413149954,-1.5712875468579617,-7.413288602750356e-05,-0.7746029733397849,-3.84245755219301e-05,-1.47026352809173e-06,0.004058551911104727,-0.0032474542119790947,0.004279078034045775,2.2272522196939786,0.0020745128935666943,9.525047423124482e-05,0.0,-1.5707963267948966,0.0,-0.6283869805488771,0.0,0.0
13.403,600.0,22.22222137451172,0.0,-1.5707963267948966,0.0,-0.7260922966235182,0.0,0.0,0.0,0.0,0.0,0.6787637153851724,0.0,0.0,-0.0002145250216695056,-1.5704638311328003,0.0005889899991944422,-0.680230131687301,-1.2796375052130397e-05,1.0296162209817197e-06,-0.0043644279257192865,0.01098780942528723,-0.008220915089857502,0.14164476659447423,0.00024743968691965187,-1.976269646547466e-05,0.0,-1.5707963267948966,0.0,-0.45054927688153773,0.0,0.0
13.503,600.0,22.22222137451172,0.0,-1.5707963267948966,0.0,-0.6281550499156507,0.0,0.0,0.0,0.0,0.0,0.9593606844391371,0.0,0.0,0.00013029786273057337,-1.5711854146301572,-2.9494649268943492e-05,-0.6095229384295882,-4.7278590549417395e-05,-1.7355026398574433e-06,0.0043899526602920146,-0.005247603923703318,-0.0047730561853296695,3.136916675347832,0.001393875107858205,4.4409145819177494e-05,0.0,-1.5707963267948966,0.0,-0.5775328413507144,0.0,0.0
13.603,600.0,22.22222137451172,0.0,-1.5707963267948966,0.0,-0.5590665837020818,0.0,0.0,0.0,0.0,0.0,0.8626271791072273,0.0,0.0,-0.00018261994869515227,-1.570458238494511,0.0005402049971985288,-0.5014072867354274,-1.7353217561324338e-05,9.631632942204255e-07,3.4587398291270976e-05,0.0007619822076809667,-0.01094722014550144,0.17970508364198948,0.0004838501093468021,-1.925360503755102e-05,0.0,-1.5707963267948966,0.0,-0.4364720344493362,0.0,0.0
13.703,600.0,22.22222137451172,0.0,-1.5707963267948966,0.0,-0.4951795014789315,0.0,0.0,0.0,0.0,0.0,0.7610751656086525,0.0,0.0,-0.00016814682875224783,-1.5704374658380085,0.0005558203798323704,-0.44240302199293163,-1.3381781023940474e-05,1.3019370245537188e-06,-0.004787999535907186,0.008971568654988368,-0.010403931121936072,-0.24629145123172497,0.0001820531004487269,-3.819149609895086e-05,0.0,-1.5707963267948966,0.0,-0.3904375127681904,0.0,0.0
13.803,600.0,22.22222137451172,0.0,-1.5707963267948966,0.0,-0.42857686036535547,0.0,0.0,0.0,0.0,0.0,0.77223489415052,0.0,0.0,-0.00021710424377112555,-1.5702911251361085,0.0006441433761730215,-0.41489506464593506,-6.7941908148424895e-06,1.9058645297647683e-06,-0.00406153418339183,0.005217155982154496,-0.016601473163200344,-1.3981258833038106,-0.0004185565644657185,-8.629078369083714e-05,0.0,-1.5707963267948966,0.0,-0.1936968182934296,0.0,0.0
13.903,600.0,22.22222137451172,0.0,-1.5707963267948966,0.0,-0.3498095165527051,0.0,0.0,0.0,0.0,0.0,0.7022322964994288,0.0,0.0,-2.118907816571212e-05,-1.570743862521422,0.0003081361580284463,-0.32350732696980733,-2.986937979860911e-05,7.802491671763262e-08,-0.005309115142654392,0.011912657652547197,-0.000389236305190977,1.3887528878472766,0.001286626307816784,3.870140025914076e-05,0.0,-1.5707963267948966,0.0,-0.22545536569597224,0.0,0.0
14.003,600.0,22.22222137451172,0.0,-1.5707963267948966,0.0,-0.2735710159878719,0.0,0.0,0.0,0.0,0.0,0.6533540900582221,0.0,0.0,-7.420882773046286e-05,-1.5706003181386667,0.0003057099571579177,-0.2515243630366489,-3.307965396385827e-05,-2.277438713670198e-08,0.0055246470583285665,-0.011901541035590718,-0.0078032206392705415,0.7363396734829352,0.001179599741286249,1.980620202368753e-05,0.0,-1.5707963267948966,0.0,-0.08240313394426824,0.0,0.0
14.102,600.0,22.22222137451172,0.0,-1.5707963267948966,0.0,-0.20526566881397912,0.0,0.0,0.0,0.0,0.0,0.5903001898317424,0.0,0.0,5.2517450546742356e-05,-1.5709321480104905,4.263667021067608e-05,-0.19717335644306447,-5.669879957385573e-05,-1.8400997586520461e-06,0.0024738321828179214,-0.004211097986403925,-0.002700239886623437,3.038943772533779,0.0016009202781523536,5.253678544735667e-05,0.0,-1.5707963267948966,0.0,-0.132647655520365,0.0,0.0
14.203,600.0,22.22222137451172,0.0,-1.5707963267948966,0.0,-0.12543520087187154,0.0,0.0,0.0,0.0,0.0,0.787037477851678,0.0,0.0,-6.968411963916147e-05,-1.5705389322755405,0.0003439368843200161,-0.1320155417515611,-2.6450530088208428e-05,5.533100317107392e-07,0.0026691747887009083,-0.009074854572499508,-0.010475470286718325,-0.26207131319120336,0.0006161377275936001,-2.3136862155876388e-05,0.0,-1.5707963267948966,0.0,-0.04391331330171276,0.0,0.0
14.303,600.0,22.22222137451172,0.0,-1.5707963267948966,0.0,-0.053052119543177234,0.0,0.0,0.0,0.0,0.0,0.7986669555878151,0.0,0.0,-1.8008919794589202e-05,-1.5706655655853736,0.00024228244556016601,-0.035022494965143085,-3.5691417865419256e-05,-1.3942453775036442e-07,0.00015082769921400107,-0.000900803575671969,-0.002321690263020088,1.4994814001764278,0.0015156800078069156,4.581354311161264e-05,0.0,-1.5707963267948966,0.0,0.23717711173308587,0.0,0.0
14.403,600.0,22.22222137451172,0.0,-1.5707963267948966,0.0,0.027420520073589735,0.0,0.0,0.0,0.0,0.0,0.8826373601813611,0.0,0.0,-4.0085574486981863e-07,-1.5706834087646773,0.00021718140457248423,0.048992152236234966,-3.6603624497407625e-05,-1.9685946982836356e-07,-0.0009165582931255381,0.0013247757003206813,-0.0009966768547661712,1.7746381387389787,0.0016482644683866422,5.5723886583864105e-05,0.0,-1.5707963267948966,0.0,0.09267616128766112,0.0,0.0
14.503,600.0,22.22222137451172,0.0,-1.5707963267948966,0.0,0.11166001578334599,0.0,0.0,0.0,0.0,0.0,1.099236843072552,0.0,0.0,-1.0235214909212728e-05,-1.5706507850413238,0.0001806684484867005,0.11279797158846756,-4.002422361401143e-05,-4.7034181384667664e-07,0.0014285423652219587,-0.004157546602250016,-0.001985622610104194,1.4500299608430733,0.0016103155931874763,5.2880810952003e-05,0.0,-1.5707963267948966,0.0,0.2750721038565834,0.0,0.0
14.603,600.0,22.22222137451172,0.0,-1.5707963267948966,0.0,0.1958698140881725,0.0,0.0,0.0,0.0,0.0,0.845291303515353,0.0,0.0,-3.430277132430422e-05,-1.5706186939501883,0.00012595842508668852,0.24452922089366272,-4.896505470218057e-05,-1.180644226190063e-06,0.000316461787364009,-0.0036289788257884413,-0.003174438085104013,3.141382530179786,0.0013310760008487252,3.313348528551397e-05,0.0,-1.5707963267948966,0.0,0.47027181019403386,0.0,0.0
14.703,600.0,22.22222137451172,0.0,-1.5707963267948966,0.0,0.2672766215640974,0.0,0.0,0.0,0.0,0.0,0.4661489195096197,0.0,0.0,-4.088704863350187e-05,-1.5705810102207638,0.00010723912852745251,0.3130670364169106,-4.8382000574365986e-05,-1.2103479396594332e-06,0.0027840860285486243,-0.005151630776068237,0.0008164065313074206,2.409869703014565,0.0022075402607222416,0.00010074113900296364,0.0,-1.5707963267948966,0.0,0.32212552225329266,0.0,0.0
14.803,600.0,22.22222137451172,0.0,-1.5707963267948966,0.0,0.339156232198585,0.0,0.0,0.0,0.0,0.0,0.9186920315515814,0.0,0.0,7.59793080812506e-05,-1.5706723566461533,0.0001509512182638272,0.3515447873205389,-2.3667799827117086e-05,6.328782349346717e-07,-0.00340101379692361,-0.0019809676697945472,-0.004612600729652395,-0.66047027534724,0.00040158769002493895,-3.591426905282762e-05,0.0,-1.5707963267948966,0.0,0.4249382721566921,0.0,0.0
14.903,600.0,22.22222137451172,0.0,-1.5707963267948966,0.0,0.42496804285052864,0.0,0.0,0.0,0.0,0.0,1.157141044621337,0.0,0.0,8.908785054910529e-05,-1.5706847403452222,0.00014559189915365857,0.4039084598849222,-2.1816214891648627e-05,7.659404124290982e-07,-0.0018544298072386287,-0.0043416243488111576,-0.004261069447471415,-0.07728882970719374,0.0005467392996006741,-2.2886833201484306e-05,0.0,-1.5707963267948966,0.0,0.5360580981666733,0.0,0.0
15.003,600.0,22.22222137451172,0.0,-1.5707963267948966,0.0,0.5133937296067178,0.0,0.0,0.0,0.0,0.0,0.7365575841688909,0.0,0.0,2.618659731657131e-05,-1.570571822315003,0.00010498677921599948,0.5769510801383467,-2.830833852100577e-05,1.0470762339756294e-07,0.004270549416699391,-0.011772101003639858,-0.0026412961214107673,2.0331562457590415,0.0014878424322601566,5.4834091044117846e-05,0.0,-1.5707963267948966,0.0,0.6263621390129488,0.0,0.0
15.103,600.0,22.22222137451172,0.0,-1.5707963267948966,0.0,0.5832222066673884,0.0,0.0,0.0,0.0,0.0,0.6865918503151325,0.0,0.0,2.928826606908021e-05,-1.5705836733818537,7.635942296218019e-05,0.6226471960185804,-2.9662844211445902e-05,-1.1996354458220184e-07,0.0011377168518068993,-0.006943793588366752,-0.0017643330389815115,1.309913998517116,0.001300171238747684,3.987561145546454e-05,0.0,-1.5707963267948966,0.0,0.7302197959366253,0.0,0.0
15.203,600.0,22.22222137451172,0.0,-1.5707963267948966,0.0,0.6587221353017254,0.0,0.0,0.0,0.0,0.0,0.999883909688791,0.0,0.0,3.985703645951918e-05,-1.570589532336252,4.307533838772832e-05,0.7217411564935022,-2.927552852263726e-05,-2.349333890932594e-07,-0.0011025728782050484,-0.0030953544242219443,-0.0006135211198077321,1.32319278602836,0.0013528602164392205,4.454559137569848e-05,0.0,-1.5707963267948966,0.0,0.8509229603540224,0.0,0.0
15.303,600.0,22.22222137451172,0.0,-1.5707963267948966,0.0,0.7425163134579497,0.0,0.0,0.0,0.0,0.0,0.7066748760200923,0.0,0.0,-0.00012641904109859112,-1.5703627641694318,7.904820137329192e-05,0.7922153231558331,-3.986154712359692e-05,-1.2932887913042179e-06,0.0042574346487023774,-0.008176706615762187,-0.001739797237030368,2.660161838059591,0.002192496001306546,0.00011317728368497383,0.0,-1.5707963267948966,0.0,0.8591471080907919,0.0,0.0
15.403,600.0,22.22222137451172,0.0,-1.5707963267948966,0.0,0.8163962759725159,0.0,0.0,0.0,0.0,0.0,0.6688830729016614,0.0,0.0,0.00018199653428299523,-1.5707549146399458,-4.1503567012379695e-05,0.8583966072990108,-1.6452219523203022e-05,6.276268415898856e-07,-0.000909686609305023,-0.007074416438348634,-0.00038293080317642903,0.5190418406570643,0.0005591497213064572,-2.606885730111596e-06,0.0,-1.5707963267948966,0.0,0.9411091421455262,0.0,0.0
15.504,600.0,22.22222137451172,0.0,-1.5707963267948966,0.0,0.8830109389739804,0.0,0.0,0.0,0.0,0.0,0.6833887740070993,0.0,0.0,7.2255572020316e-05,-1.5706121692055177,-7.0918194662387275e-06,0.8970183020595579,-2.1393336070699132e-05,2.7377914209543005e-08,0.0011148160071011448,-0.008403835765745816,-0.0011047775282597948,0.9583723404108578,0.0009083876030692152,2.6562177151455164e-05,0.0,-1.5707963267948966,0.0,0.9557711063006722,0.0,0.0
15.605,600.0,22.22222137451172,0.0,-1.5707963267948966,0.0,0.9460417930859717,0.0,0.0,0.0,0.0,0.0,0.9381514859405299,0.0,0.0,-3.375509136837858e-05,-1.5704728858805064,2.861238572547479e-05,0.9587748106305961,-2.5575957023809205e-05,-5.246287735291486e-07,0.004306620945382079,-0.011123587988691938,-0.0025919046260884804,1.736184089969052,0.001348899284466378,6.426746633126958e-05,0.0,-1.5707963267948966,0.0,1.0276880275863765,0.0,0.0
15.703,600.0,22.22222137451172,0.0,-1.5707963267948966,0.0,1.0333579948400797,0.0,0.0,0.0,0.0,0.0,0.948705047934058,0.0,0.0,0.0001501117308513624,-1.570707110898379,-7.202939675793862e-05,1.0306959392921942,-1.4084018274940693e-05,4.303975150856657e-07,0.00301095510420705,-0.012285599033401868,-0.001367655194614209,0.887577129679118,0.0005595691561744284,1.270286004574391e-05,0.0,-1.5707963267948966,0.0,1.2997409458937796,0.0,0.0
15.803,600.0,22.22222137451172,0.0,-1.5707963267948966,0.0,1.1184477481022617,0.0,0.0,0.0,0.0,0.0,0.95596121762697,0.0,0.0,-4.5483720103319196e-05,-1.5704688911388713,1.5023996984382482e-05,1.1526094618835692,-1.776491521812077e-05,-3.879541915953233e-07,0.00625201148778615,-0.013199251581110493,-0.004095344365816877,1.844879411963982,0.0011205835453740101,6.401730327605357e-05,0.0,-1.5707963267948966,0.0,1.1848931552113462,0.0,0.0
15.903,600.0,22.22222137451172,0.0,-1.5707963267948966,0.0,1.1805295117389336,0.0,0.0,0.0,0.0,0.0,0.9149202037996786,0.0,0.0,0.00020487181043165332,-1.5708350757887573,-0.000132417281552557,1.2210084934245102,-1.1897003494456931e-05,2.673752959844557e-07,-0.011021537944374164,0.010178838874067434,0.005671738854879607,0.34529884232646246,0.0006345794029380045,4.060169376319915e-06,0.0,-1.5707963267948966,0.0,1.430205674856162,0.0,0.0
16.003,600.0,22.22222137451172,0.0,-1.5707963267948966,0.0,1.2627089219711676,0.0,0.0,0.0,0.0,0.0,0.911336590706781,0.0,0.0,0.00023877969952975002,-1.5708711616215278,-0.00016345490912448622,1.2244727333704852,-6.066089375383894e-06,6.886198583843316e-07,-0.001730433911137245,-0.006149061066154522,0.002788644351246458,-0.4552628942647063,-0.000165904711740027,-3.311092993329461e-05,0.0,-1.5707963267948966,0.0,1.3771847406702709,0.0,0.0
16.103,600.0,33.33333206176758,0.0,-1.5707963267948966,0.0,1.333568331593508,0.0,0.0,0.0,0.0,0.0,0.38951168502580213,0.0,0.0,-0.00018239142463652541,-1.5703923252575316,0.00011065123865553523,1.3589646321064133,-1.9258005982772814e-05,-1.1801325858305695e-06,-0.002314558244800045,0.0013616611316040917,-0.0005411408096391906,2.7929406584243255,0.001035158427201934,5.415621137913743e-05,0.0,-1.5707963267948966,0.0,1.175253593702128,0.0,0.0
16.204,600.0,33.33333206176758,0.0,-1.5707963267948966,0.0,1.2609796686870611,0.0,0.0,0.0,0.0,0.0,-0.7852403676488632,0.0,0.0,-0.0002555426926328407,-1.570342257829038,0.0001630736889276745,1.4425098597149622,-1.4219137046037005e-05,-1.1582389754611203e-06,0.0032964836838406987,-0.0062389874857286315,-0.003195328555275948,2.855024003440144,0.0006397651549453906,4.262836815057623e-05,0.0,-1.5707963267948966,0.0,1.145725346883853,0.0,0.0
16.303,600.0,33.33333206176758,0.0,-1.5707963267948966,0.0,1.1863978897726506,0.0,0.0,0.0,0.0,0.0,-0.8112821074963639,0.0,0.0,0.00045495920027368013,-1.5710637081683405,-0.0003203090018381564,1.2478390424587316,1.17199345315223e-05,9.632740289917034e-07,-0.009019217392257469,0.005898369702456148,0.006133844117386891,-3.14159345253812,1.7335288687530653e-05,-0.0005361442617033897,0.0,-1.5707963267948966,0.0,1.1340310066565082,0.0,0.0
16.403,600.0,33.33333206176758,0.0,-1.5707963267948966,0.0,1.113980749873261,0.0,0.0,0.0,0.0,0.0,-0.8277555008387015,0.0,0.0,0.00034842394665274436,-1.5708671668798928,-0.0002389200909014237,1.108580151950589,4.3042239866184905e-06,7.723655689515463e-07,-0.00040233303053168026,-0.006797138196533403,0.002162850519088138,-3.138156376835264,-0.00020881577255477628,-1.6950771845463942e-05,0.0,-1.5707963267948966,0.0,1.0293822103945933,0.0,0.0
16.503,600.0,33.33333206176758,0.0,-1.5707963267948966,0.0,1.0363850859287638,0.0,0.0,0.0,0.0,0.0,-0.5786439140725971,0.0,0.0,0.00015192335983679086,-1.5706120360474631,-0.00011449241452894436,1.045640001433065,-1.643618431558972e-05,-4.004238221165975e-08,-0.002604476879043121,-0.004759795515636216,0.002665311644674342,-1.1939156230229162,-9.776422262149491e-05,-1.5174475379395768e-05,0.0,-1.5707963267948966,0.0,0.9317889308135343,0.0,0.0
16.609,600.0,33.33333206176758,0.0,-1.5707963267948966,0.0,0.9556024013904425,0.0,0.0,0.0,0.0,0.0,-1.0559131895325857,0.0,0.0,-1.2730296871137499e-05,-1.5704044426404915,-2.0595029802165705e-05,0.959780153942101,-3.3931541638875526e-05,-6.904198063752632e-07,-0.0002489031739115054,-0.0061798179760016855,0.00045323318450517946,0.1879939395082657,0.000683965631755206,1.4707923374203484e-05,0.0,-1.5707963267948966,0.0,0.7999130429884309,0.0,0.0
16.702,600.0,33.33333206176758,0.0,-1.5707963267948966,0.0,0.8807723828979617,0.0,0.0,0.0,0.0,0.0,-0.9340110492052417,0.0,0.0,0.00016997500496661734,-1.5706145660504987,-8.517521112752398e-05,0.9246609820681988,-2.1456651977902082e-05,-3.566700551521355e-08,-0.005093350720533486,-0.0010405539291525965,0.002360953943970318,-0.7173886857449585,0.0001913831855921597,-8.481928417475361e-06,0.0,-1.5707963267948966,0.0,0.727880201211225,0.0,0.0
16.804,600.0,33.33333206176758,0.0,-1.5707963267948966,0.0,0.7895574642766414,0.0,0.0,0.0,0.0,0.0,-0.5827163508560554,0.0,0.0,0.00025641551832286745,-1.5707104398497416,-9.639866986772564e-05,0.8176656223760936,-1.5098150676356002e-05,3.505464111888958e-07,-0.008749403803724215,0.0026998700609329983,0.003162423951651258,-1.9324766391710864,-0.0002895776117841538,-2.9154874354049702e-05,0.0,-1.5707963267948966,0.0,0.6000937387725375,0.0,0.0
16.904,600.0,33.33333206176758,0.0,-1.5707963267948966,0.0,0.7276419894573785,0.0,0.0,0.0,0.0,0.0,-0.4991452097109189,0.0,0.0,-5.1025253787583193e-05,-1.5703466520448368,1.481849051945143e-05,0.725520514975461,-4.887697890648603e-05,-9.968422208924292e-07,-0.00042507191395141467,-0.00570355842841955,0.00010980941870146627,0.285172787553798,0.0010026091501240527,2.1825024909414882e-05,0.0,-1.5707963267948966,0.0,0.5084826337952268,0.0,0.0
17.003,600.0,33.33333206176758,0.0,-1.5707963267948966,0.0,0.6410412374371433,0.0,0.0,0.0,0.0,0.0,-0.8371988751980983,0.0,0.0,5.781969959717422e-05,-1.5704866011601204,9.974164289374834e-06,0.6538324129092448,-4.0223087008581144e-05,-5.243299039371733e-07,-0.00466186816952156,-0.00017919982502692422,0.0006169834892991603,-0.3875516240752781,0.0006643937384120505,4.957421480630275e-06,0.0,-1.5707963267948966,0.0,0.5890717808345992,0.0,0.0
17.103,600.0,33.33333206176758,0.0,-1.5707963267948966,0.0,0.5916435007068497,0.0,0.0,0.0,0.0,0.0,-0.7734361813167747,0.0,0.0,-7.54668966420193e-05,-1.570361033114723,5.165473930976919e-05,0.5434066687065221,-6.231207313526246e-05,-1.32856441940588e-06,0.0007416309366037589,-0.005873850415224654,-0.0002689466957887714,0.9651132671830391,0.001452372715565989,3.602998587289765e-05,0.0,-1.5707963267948966,0.0,0.3770529226662421,0.0,0.0
17.204,600.0,33.33333206176758,0.0,-1.5707963267948966,0.0,0.5032430474967686,0.0,0.0,0.0,0.0,0.0,-0.8207671609728343,0.0,0.0,0.00022365418314207374,-1.5707093745853056,8.406373473483276e-05,0.5008793483388329,-1.2221778419461571e-05,7.758958112384028e-07,-0.00674546662960206,0.0007871906268556668,-0.001941116610980846,-2.140406137072331,-0.00044321473138687016,-4.130820649387756e-05,0.0,-1.5707963267948966,0.0,0.21687937650197875,0.0,0.0
17.304,600.0,33.33333206176758,0.0,-1.5707963267948966,0.0,0.42238228838974656,0.0,0.0,0.0,0.0,0.0,-0.9031067744166373,0.0,0.0,6.87264040639239e-05,-1.5705482533393558,0.00010705623938557613,0.40685381618200894,-3.822393630735861e-05,-2.3704885816341842e-07,-0.00376181880939268,-0.0010470744476155061,-0.0019909802712405394,-0.8997583619261131,0.0004326474564238011,-6.683754214714812e-06,0.0,-1.5707963267948966,0.0,0.15856523454991867,0.0,0.0
17.403,600.0,33.33333206176758,0.0,-1.5707963267948966,0.0,0.34202397394559725,0.0,0.0,0.0,0.0,0.0,-0.9239214581898584,0.0,0.0,0.00011548732073268596,-1.570608573938046,0.00017737433082903336,0.322097749094342,-2.1956283202246462e-05,4.5304061699190607e-07,-0.004446159403306248,-0.0013418792282433346,-0.004470492997469546,-2.1237748292228407,-0.0002621487918033874,-3.568530611877699e-05,0.0,-1.5707963267948966,0.0,0.26841263676297955,0.0,0.0
17.503,600.0,33.33333206176758,0.0,-1.5707963267948966,0.0,0.2795014175539299,0.0,0.0,0.0,0.0,0.0,-0.9376866835385974,0.0,0.0,5.6744788029142026e-05,-1.5705699581022399,0.0002030801584053295,0.25649640156804276,-3.2777364292915036e-05,6.738456874252535e-08,-0.0023191769047413257,-0.002945911295696743,-0.004582107535170988,-1.201407627801527,0.00021899113176440966,-1.6373506403215786e-05,0.0,-1.5707963267948966,0.0,0.18525654147871845,0.0,0.0
17.604,600.0,33.33333206176758,0.0,-1.5707963267948966,0.0,0.197901181148449,0.0,0.0,0.0,0.0,0.0,-1.0245035021918925,0.0,0.0,4.5676431114633326e-05,-1.5705767491630196,0.0002329244186814192,0.21556226738822304,-3.315388283356642e-05,8.461832628024114e-08,-0.0018528590883515649,-0.0030373583698503144,-0.005002378802172061,-0.9464618184886693,0.00030490005319994476,-1.3294205058589678e-05,0.0,-1.5707963267948966,0.0,-0.020148210292871338,0.0,0.0
17.703,600.0,33.33333206176758,0.0,-1.5707963267948966,0.0,0.1185565347145765,0.0,0.0,0.0,0.0,0.0,-0.5489159771736472,0.0,0.0,1.1382622195395275e-05,-1.570558905983716,0.00025582342661225206,0.07981870790709292,-3.8964632049198225e-05,-1.2967671107933608e-07,-0.0009517829547867831,-0.004075357393850698,-0.006165121175884461,-1.2830918384403285,0.00030155777302817905,-1.3403761368081462e-05,0.0,-1.5707963267948966,0.0,0.055290895309555596,0.0,0.0
17.804,600.0,33.33333206176758,0.0,-1.5707963267948966,0.0,0.06133020511662046,0.0,0.0,0.0,0.0,0.0,-0.7069496182413254,0.0,0.0,-3.2097814463127453e-06,-1.5706178950018612,0.000206611821449779,0.03896158069466849,-5.7303387043064865e-05,-8.289442431407452e-07,0.0006568050946955319,-0.004020420853840756,-0.0033190893441873482,0.39854162436668084,0.0011515361611508885,2.035593412858548e-05,0.0,-1.5707963267948966,0.0,-0.1383572105883038,0.0,0.0
17.903,600.0,33.33333206176758,0.0,-1.5707963267948966,0.0,-0.016364025903307322,0.0,0.0,0.0,0.0,0.0,-0.6898152172969829,0.0,0.0,-1.586846035014745e-05,-1.570572354947221,0.00032559530508152425,-0.05907195064607588,-3.831137004456281e-05,-6.800463425328243e-08,-4.944205946023229e-05,-0.004428662122855236,-0.007745648506048993,-1.2188780977105014,0.0003090579914741285,-1.4182098804832894e-05,0.0,-1.5707963267948966,0.0,-0.15034560345170472,0.0,0.0
18.004,600.0,33.33333206176758,0.0,-1.5707963267948966,0.0,-0.09048349246007703,0.0,0.0,0.0,0.0,0.0,-0.6097129935372724,0.0,0.0,-2.405851070496803e-05,-1.570621756585442,0.0003283225094741847,-0.13195669421384876,-4.479689631974859e-05,-3.299613315154786e-07,0.0006941517027761087,-0.004049140601498604,-0.006909409681980307,-0.5018217078905575,0.0006479597718396323,-3.958234717633812e-07,0.0,-1.5707963267948966,0.0,-0.1760098485233914,0.0,0.0
18.103,600.0,33.33333206176758,0.0,-1.5707963267948966,0.0,-0.16288275030054322,0.0,0.0,0.0,0.0,0.0,-0.8260063535973435,0.0,0.0,9.819541975718957e-06,-1.5707533167432919,0.000252571652305657,-0.19273859401683727,-5.861535229485831e-05,-9.013294170039426e-07,-6.0265727071338235e-05,-0.0006137616235399637,-0.00341028700706305,0.6347221015590542,0.0012519281016083311,2.4257378163199074e-05,0.0,-1.5707963267948966,0.0,-0.37042958806699955,0.0,0.0
18.203,600.0,33.33333206176758,0.0,-1.5707963267948966,0.0,-0.23696768048095507,0.0,0.0,0.0,0.0,0.0,-1.0324481600619473,0.0,0.0,-5.549140451910057e-05,-1.570610704466918,0.00039774073562511675,-0.2502878074082547,-4.008037122262597e-05,-1.656350104741407e-07,0.0023510133831124067,-0.006337514563237206,-0.009013444782535263,-0.6606018355050899,0.0005131014164160741,-5.608483012654796e-06,0.0,-1.5707963267948966,0.0,-0.49055697286300654,0.0,0.0
18.303,600.0,33.33333206176758,0.0,-1.5707963267948966,0.0,-0.3251931628554061,0.0,0.0,0.0,0.0,0.0,-0.699961302752276,0.0,0.0,-0.00013916362580296946,-1.570454776385094,0.000586165787078481,-0.3653742166766705,-1.959117541617258e-05,6.473455677158827e-07,0.0015104041400458464,-0.005819979139650744,-0.015085154542887894,-2.4056627074405665,-0.0003969419173352556,-4.0530791508248334e-05,0.0,-1.5707963267948966,0.0,-0.408838467915276,0.0,0.0
18.403,600.0,33.33333206176758,0.0,-1.5707963267948966,0.0,-0.38846012616145487,0.0,0.0,0.0,0.0,0.0,-0.7391125955443167,0.0,0.0,-0.00010460372224426604,-1.570593793393996,0.0004944271696063569,-0.43524814011881113,-3.382574827977652e-05,2.889825134721109e-08,0.0020327093267565313,-0.0046233095500669555,-0.011655408774813152,-1.2204554880241552,0.00022854694516747338,-1.5213793334606738e-05,0.0,-1.5707963267948966,0.0,-0.5443937427783784,0.0,0.0
18.504,600.0,33.33333206176758,0.0,-1.5707963267948966,0.0,-0.46626988980440487,0.0,0.0,0.0,0.0,0.0,-0.9241003122464491,0.0,0.0,-0.0001428744312935479,-1.570540663330249,0.0005863204662833955,-0.4445120791287063,-2.48752924097442e-05,3.6882190259519915e-07,0.000496262221535699,-0.0014463500443800993,-0.011967502126246015,-1.0911413736585864,0.00010209146928138587,-1.9381419377404324e-05,0.0,-1.5707963267948966,0.0,-0.6698635920430851,0.0,0.0
18.603,600.0,33.33333206176758,0.0,-1.5707963267948966,0.0,-0.5617811963646631,0.0,0.0,0.0,0.0,0.0,-0.9228912670284964,0.0,0.0,-0.00018693051808893956,-1.5705119011904762,0.0006394298541216227,-0.6145213589005306,-2.2503312972359096e-05,4.009804484769228e-07,0.001307192075193703,-0.0023494440946341317,-0.015523064570772889,-2.168537373982947,-0.0002820178688270234,-3.3600546264288e-05,0.0,-1.5707963267948966,0.0,-0.745747633453746,0.0,0.0
18.704,600.0,33.33333206176758,0.0,-1.5707963267948966,0.0,-0.6458196437110857,0.0,0.0,0.0,0.0,0.0,-1.0603551549293688,0.0,0.0,-5.361977252636948e-06,-1.5709194979953127,0.0003078981250023042,-0.6714762546051832,-4.958437294371566e-05,-8.150451879988328e-07,0.0036641250100220564,-0.004086034485197583,-0.007314253860158985,0.1836342116457515,0.000974484517540851,1.576007742286508e-05,0.0,-1.5707963267948966,0.0,-0.9011324637633162,0.0,0.0
18.804,600.0,33.33333206176758,0.0,-1.5707963267948966,0.0,-0.7339884249890396,0.0,0.0,0.0,0.0,0.0,-0.8966689989605232,0.0,0.0,-0.00029639965391784563,-1.5704024452696739,0.0007439403966115621,-0.7730586728026752,-1.8353886036833728e-05,4.857591227061409e-07,0.008965804367644568,-0.01411153717816585,-0.021429745728513874,-2.2295425382314464,-0.00033292462218652465,-3.653652938516657e-05,0.0,-1.5707963267948966,0.0,-0.7960570869628181,0.0,0.0
18.903,600.0,33.33333206176758,0.0,-1.5707963267948966,0.0,-0.8173384936021861,0.0,0.0,0.0,0.0,0.0,-0.8553417363942565,0.0,0.0,-0.0002287038837680881,-1.5705770154791285,0.0006644298237246724,-0.8359058789981553,-2.1390509794243214e-05,2.4737633596336993e-07,0.002789823008088278,-0.002030897909081492,-0.014992831278332713,-1.4944066135612273,-8.807943673509845e-05,-2.1193275927867352e-05,0.0,-1.5707963267948966,0.0,-1.0253989637189829,0.0,0.0
19.003,600.0,33.33333206176758,0.0,-1.5707963267948966,0.0,-0.8938064155546286,0.0,0.0,0.0,0.0,0.0,-0.7850155712350637,0.0,0.0,-0.00030149168164028683,-1.5704868674762293,0.0007850366262757538,-0.9034892508762324,-1.2597702649643254e-05,5.685275544705328e-07,0.0006395416210628786,0.002211287411599767,-0.015627307561800776,-1.8430146665687086,-0.00038510388670995376,-2.9369840006644683e-05,0.0,-1.5707963267948966,0.0,-1.152430358848982,0.0,0.0
19.103,600.0,33.33333206176758,0.0,-1.5707963267948966,0.0,-0.9695648735620832,0.0,0.0,0.0,0.0,0.0,-0.9505910180769037,0.0,0.0,-4.206778606992372e-05,-1.570961309624427,0.00035226287125777594,-0.9652704602663811,-3.281010927592263e-05,-4.886378140437613e-07,0.0006696119346915058,0.0030536517662499603,-0.00653175835509621,-0.07601987505966301,0.0005665372625510124,7.98110806423391e-06,0.0,-1.5707963267948966,0.0,-1.2061892512255374,0.0,0.0
19.204,600.0,33.33333206176758,0.0,-1.5707963267948966,0.0,-1.0404033389924532,0.0,0.0,0.0,0.0,0.0,-0.6339137705017418,0.0,0.0,-0.0005233712638789829,-1.570172348151491,0.0011341078003960566,-1.0308440776278298,7.1170349927570955e-06,1.3558813667901957e-06,0.0002706119029291105,0.003815823763169744,-0.01322627226320179,-3.135465518869848,-0.00022863697964792962,-2.127974454550537e-05,0.0,-1.5707963267948966,0.0,-1.2929427765097163,0.0,0.0
19.303,600.0,33.33333206176758,0.0,-1.5707963267948966,0.0,-1.109703930393236,0.0,0.0,0.0,0.0,0.0,-0.5724065428242213,0.0,0.0,-0.0003694492653622972,-1.570445854795442,0.0008296423639028167,-1.1074736085176609,-8.099964570640037e-06,5.680537569571868e-07,0.0046125429931522,-0.0030676593694053964,-0.019222800777922024,-2.0863598127522085,-0.0004935262396345628,-3.459376604857712e-05,0.0,-1.5707963267948966,0.0,-1.2349757881858412,0.0,0.0
19.403,600.0,33.33333206176758,0.0,-1.5707963267948966,0.0,-1.1977751014832823,0.0,0.0,0.0,0.0,0.0,-0.8313682072377675,0.0,0.0,3.273441748813522e-05,-1.5710956661014215,0.00016674358147596944,-1.1594431332407125,-2.7989036331899053e-05,-6.357172738269578e-07,0.00014187067443542672,0.004167359466614252,-0.003212332474732049,0.17028198746744846,0.0005617437676446137,1.3161208534623636e-05,0.0,-1.5707963267948966,0.0,-1.3376254909950516,0.0,0.0
19.504,600.0,33.33333206176758,0.0,-1.5707963267948966,0.0,-1.2774320151882002,0.0,0.0,0.0,0.0,0.0,-1.0836068941357608,0.0,0.0,-0.0002940253053659044,-1.570574485476093,0.0006792469732358845,-1.2670614728908145,-5.452550168219577e-06,4.370285531997814e-07,9.580398554118089e-06,0.0044194461290673415,-0.012790051678133314,-1.8387155256209937,-0.00048726959908386246,-2.7624208944897813e-05,0.0,-1.5707963267948966,0.0,-1.3868007053052218,0.0,0.0
19.604,600.0,44.44444274902344,0.0,-1.5707963267948966,0.0,-1.3341599795596686,0.0,0.0,0.0,0.0,0.0,-0.3216767506011209,0.0,0.0,-0.000274259331557566,-1.5705702244183488,0.0005316926019881796,-1.4046564869289029,-9.488788388980647e-06,1.4872117896104065e-07,0.013136057681275355,-0.01631696953648232,-0.024276841784349718,-2.0736208479939235,-0.0002774753456444457,-2.9739986726328592e-05,0.0,-1.5707963267948966,0.0,-1.0609909245205682,0.0,0.0
19.703,600.0,44.44444274902344,0.0,-1.5707963267948966,0.0,-1.2732529521636904,0.0,0.0,0.0,0.0,0.0,1.0189270867446965,0.0,0.0,-0.000502672240919688,-1.5702121624097878,0.0010123558905911062,-1.4361028267644496,1.542018466179268e-05,1.3178063839889358e-06,-0.008710274581200116,0.01648338485539595,-0.00028080354929335975,-3.131292611757803,-0.0005196658224213618,-1.9170143529298162e-05,0.0,-1.5707963267948966,0.0,-1.0370014122318048,0.0,0.0
19.803,600.0,44.44444274902344,0.0,-1.5707963267948966,0.0,-1.1792914750115129,0.0,0.0,0.0,0.0,0.0,0.9209075417688255,0.0,0.0,0.0002866893563656113,-1.5713579874687944,-0.00034893196933773787,-1.253704388443522,-3.012387878046562e-05,-7.006655664856306e-07,-0.010233613647847098,0.016470572553839147,0.016825447091470613,2.7366486235149936,0.0009488848815624643,2.9644210292411237e-05,0.0,-1.5707963267948966,0.0,-0.899922307212708,0.0,0.0
19.903,600.0,44.44444274902344,0.0,-1.5707963267948966,0.0,-1.0786456855358661,0.0,0.0,0.0,0.0,0.0,1.0124978597426335,0.0,0.0,-0.00023486501202285773,-1.5707136356430496,0.0005924642670862484,-1.1014990063491499,-7.933276738533871e-06,1.7690927374325333e-07,-0.002186594134644713,0.006805233269979672,-0.0007143334704118654,1.3061232550214972,0.00037037672291526195,7.600515195140233e-06,0.0,-1.5707963267948966,0.0,-0.9177200995145139,0.0,0.0
20.004,600.0,44.44444274902344,0.0,-1.5707963267948966,0.0,-0.9956135090421379,0.0,0.0,0.0,0.0,0.0,1.0630113806304822,0.0,0.0,-0.0002501222235469587,-1.5707321446126257,0.0006663663371501344,-1.0036964792658347,-1.60240071467562e-05,3.842907294736116e-08,0.0034319186890618136,-0.000959423548349761,-0.006111752884055494,1.4402604207002268,0.0005585856200950918,9.163398835199649e-06,0.0,-1.5707963267948966,0.0,-0.8308348398828382,0.0,0.0
20.103,600.0,44.44444274902344,0.0,-1.5707963267948966,0.0,-0.9142372311547655,0.0,0.0,0.0,0.0,0.0,1.107841575031014,0.0,0.0,-0.00023235576616936272,-1.5707651678101426,0.00070406378549541,-0.8977725758592956,-2.2086517452422553e-05,-3.813278679632989e-08,0.002866066917413455,6.495322949923273e-05,-0.006405064708019495,1.4821119972308219,0.0006572810957292349,1.0117391080742417e-05,0.0,-1.5707963267948966,0.0,-0.8565970574972097,0.0,0.0
20.203,600.0,44.44444274902344,0.0,-1.5707963267948966,0.0,-0.8290192542085055,0.0,0.0,0.0,0.0,0.0,0.9463281503693447,0.0,0.0,-0.0001577726914849327,-1.5708642374026935,0.0006470534128162997,-0.814678687476488,-2.8628469697024067e-05,-1.6852289267078777e-07,-0.0022411998601129957,0.008018712503498636,-0.002452387754333304,1.7622266096367187,0.0008011622097170624,1.533416406281644e-05,0.0,-1.5707963267948966,0.0,-0.7538672092266419,0.0,0.0
20.303,600.0,44.44444274902344,0.0,-1.5707963267948966,0.0,-0.7543469903157449,0.0,0.0,0.0,0.0,0.0,0.7569877023674492,0.0,0.0,-0.0001852596218227366,-1.5707751546642306,0.0007006700756258354,-0.6950991592644586,-3.221352518770549e-05,-1.5563956237757492e-07,0.002032018049200142,0.0007505151405712764,-0.005978953732120313,1.7576076230420854,0.0008739431643835792,1.432176887662026e-05,0.0,-1.5707963267948966,0.0,-0.6107853155358383,0.0,0.0
20.403,600.0,44.44444274902344,0.0,-1.5707963267948966,0.0,-0.6715606661313354,0.0,0.0,0.0,0.0,0.0,0.7152511922810767,0.0,0.0,-6.290536362597058e-05,-1.5709573148827918,0.0005153927037304036,-0.6636433652070421,-5.024950083943847e-05,-6.312433096906157e-07,0.0028864211143268216,-0.0007622539853508039,-0.0040810652450659285,2.243375263249427,0.0012479420724631066,2.274332906523086e-05,0.0,-1.5707963267948966,0.0,-0.6204189917369196,0.0,0.0
20.503,600.0,44.44444274902344,0.0,-1.5707963267948966,0.0,-0.5978054944642874,0.0,0.0,0.0,0.0,0.0,0.5738564587731605,0.0,0.0,-0.00022946660049068203,-1.5706011170869938,0.0008293355412176585,-0.5815148061403611,-2.08643936571721e-05,2.5097205716816243e-07,-0.0008085660056069429,0.003954908391396433,-0.008251890462137836,0.5542097816684285,0.0004160321530281351,1.264301552123322e-06,0.0,-1.5707963267948966,0.0,-0.47174197828160414,0.0,0.0
20.603,600.0,44.44444274902344,0.0,-1.5707963267948966,0.0,-0.5211793183980431,0.0,0.0,0.0,0.0,0.0,0.8228950993015356,0.0,0.0,-0.0002111131878703934,-1.5705889997040339,0.0008151768998978605,-0.5251665785320285,-2.1050724720196093e-05,2.771041774218946e-07,-0.0015454527964075104,0.004655137966133956,-0.008123471481987724,0.46406271087562784,0.00039913213326495307,-8.888112289044948e-08,0.0,-1.5707963267948966,0.0,-0.4483762054689033,0.0,0.0
20.703,600.0,44.44444274902344,0.0,-1.5707963267948966,0.0,-0.4459986850957156,0.0,0.0,0.0,0.0,0.0,0.7451751054272059,0.0,0.0,-0.00019016036487899094,-1.570561569144806,0.0007764223144392157,-0.4145767170271297,-2.4173786617783616e-05,2.60257602678563e-07,0.0006973439850808136,0.00018962462802371796,-0.008587746284515852,0.7016251023576433,0.0005069667832331846,2.0097905094926238e-06,0.0,-1.5707963267948966,0.0,-0.21387690000286258,0.0,0.0
20.803,600.0,44.44444274902344,0.0,-1.5707963267948966,0.0,-0.36566032553591654,0.0,0.0,0.0,0.0,0.0,0.4844596884529333,0.0,0.0,-0.00017475494349881486,-1.5705329401630879,0.0007731968076394662,-0.3563940374809233,-2.115905786762716e-05,3.601899557383774e-07,-0.00037347264768247907,0.001187895852185901,-0.008834467873714329,0.3508397820009677,0.0003803073684395246,-1.8678866938672095e-06,0.0,-1.5707963267948966,0.0,-0.1934113413536962,0.0,0.0
20.904,600.0,44.44444274902344,0.0,-1.5707963267948966,0.0,-0.2988286455960161,0.0,0.0,0.0,0.0,0.0,0.7340657111511224,0.0,0.0,-0.00015197755282430505,-1.5705128332968576,0.0007303860379863733,-0.2965561034486918,-2.2868833213617322e-05,3.4937353693715003e-07,0.0016299124536658515,-0.003153159584038875,-0.00968635276918723,0.026786608956829595,0.00031595662549659267,-4.641456573391889e-06,0.0,-1.5707963267948966,0.0,-0.08182715760074677,0.0,0.0
21.002,600.0,44.44444274902344,0.0,-1.5707963267948966,0.0,-0.22678527602103582,0.0,0.0,0.0,0.0,0.0,1.0367549905565054,0.0,0.0,-7.30132091662458e-05,-1.5706517171477052,0.0005587824963592705,-0.24003816589989396,-4.562371729984373e-05,-2.631516597355924e-07,0.001265557036546272,-0.0019476713942361012,-0.005882372010564257,1.2481576896831594,0.0009351304607626131,1.1924709537413719e-05,0.0,-1.5707963267948966,0.0,0.02431040757448355,0.0,0.0
21.103,600.0,44.44444274902344,0.0,-1.5707963267948966,0.0,-0.1442308971283266,0.0,0.0,0.0,0.0,0.0,0.9063557593721008,0.0,0.0,-4.4325068666232944e-05,-1.5706796803391512,0.0004897210271639357,-0.13462876024882295,-5.439837308519212e-05,-4.6802857463383545e-07,-0.0003135767828745315,0.0010152477870502014,-0.0033197166434597376,2.267024133729331,0.001323390154353162,2.201432650887205e-05,0.0,-1.5707963267948966,0.0,0.0874276875500472,0.0,0.0
21.203,600.0,44.44444274902344,0.0,-1.5707963267948966,0.0,-0.04897834534417722,0.0,0.0,0.0,0.0,0.0,0.9380671974151811,0.0,0.0,-5.476444801622207e-05,-1.5705585065095524,0.0005554182399070251,-0.049138655224513744,-3.411704981047993e-05,9.562472124870672e-08,-0.0006616448178132355,-0.00031114066667035456,-0.005837269921087544,1.064811232593191,0.0007453836790792764,6.77608415586556e-06,0.0,-1.5707963267948966,0.0,0.10142907045266186,0.0,0.0
21.303,600.0,44.44444274902344,0.0,-1.5707963267948966,0.0,0.022203771672466368,0.0,0.0,0.0,0.0,0.0,0.7426915479359022,0.0,0.0,-3.664533391731207e-05,-1.570488598530938,0.0006015489233399162,0.024956742649457745,-1.2239185112774184e-05,7.03812935681429e-07,-0.00038984754487378544,-0.0028572410351133644,-0.008205102050736508,-0.26949673894256226,0.00010111232195628703,-1.110771652224832e-05,0.0,-1.5707963267948966,0.0,0.28157888223484023,0.0,0.0
21.402,600.0,44.44444274902344,0.0,-1.5707963267948966,0.0,0.11024651962287706,0.0,0.0,0.0,0.0,0.0,0.8974078024430999,0.0,0.0,-1.613327392037813e-05,-1.570543859123557,0.0004428788453958704,0.11763408903572652,-4.104754293778147e-05,-8.419346731331856e-08,9.212557555873556e-05,-0.002395257487390275,-0.004488694039044556,1.4741511429423027,0.0009407602896802836,1.15138571221742e-05,0.0,-1.5707963267948966,0.0,0.2943382223819032,0.0,0.0
21.504,600.0,44.44444274902344,0.0,-1.5707963267948966,0.0,0.19320159899636366,0.0,0.0,0.0,0.0,0.0,0.9400025003567531,0.0,0.0,1.1302314088335504e-05,-1.5705270812086896,0.00039368910273135973,0.20362887557017334,-3.81822837787128e-05,-8.663203119087953e-09,5.746190640793746e-05,-0.003314573153530197,-0.004329600332534045,1.1921191877096031,0.0008268599587346319,8.392450658621516e-06,0.0,-1.5707963267948966,0.0,0.4392189393428012,0.0,0.0
21.603,600.0,44.44444274902344,0.0,-1.5707963267948966,0.0,0.2730654295093807,0.0,0.0,0.0,0.0,0.0,1.0457698338233388,0.0,0.0,-3.9740225498635695e-06,-1.5705156296160023,0.00030348411104566737,0.26890603316802586,-5.693570696580905e-05,-5.284384877745943e-07,0.0008209172604037423,-0.003756905485240944,-0.0024872671023092605,2.2032783104030305,0.0013428671205676186,2.2248143486382922e-05,0.0,-1.5707963267948966,0.0,0.3784797673490293,0.0,0.0
21.703,600.0,44.44444274902344,0.0,-1.5707963267948966,0.0,0.343541320853695,0.0,0.0,0.0,0.0,0.0,1.1375569088561388,0.0,0.0,9.827251350813629e-05,-1.5705494517618463,0.0003407174567576182,0.32665448429849486,-1.96980679956617e-05,4.6496101828637214e-07,-0.0014492843329542027,-0.0031586281668749194,-0.004563928859987945,0.03128480663186572,0.00027458653756796215,-5.898618272556121e-06,0.0,-1.5707963267948966,0.0,0.4168078408956693,0.0,0.0
21.802,600.0,44.44444274902344,0.0,-1.5707963267948966,0.0,0.4289306180582664,0.0,0.0,0.0,0.0,0.0,0.8443967719792853,0.0,0.0,-2.066617841658473e-05,-1.570442659002134,0.00020774390873274257,0.4189685359807794,-6.645466702425926e-05,-8.338991796924714e-07,0.001527644337026394,-0.005039448756189203,-0.0013735085574143914,2.791676455854865,0.0016278747713278855,3.0985628961533926e-05,0.0,-1.5707963267948966,0.0,0.5771461110660994,0.0,0.0
21.903,600.0,44.44444274902344,0.0,-1.5707963267948966,0.0,0.5063485563001543,0.0,0.0,0.0,0.0,0.0,0.5695870221145185,0.0,0.0,0.00016566128217163694,-1.5705687596797493,0.00021719715532380433,0.5039757058697272,-1.819101245884465e-05,4.671575542253551e-07,-0.0013806305627729145,-0.004209177077437976,-0.0029482353198667572,0.36158044383531174,0.00032980701372244375,-3.877032351102323e-06,0.0,-1.5707963267948966,0.0,0.6134257806473689,0.0,0.0
22.003,600.0,44.44444274902344,0.0,-1.5707963267948966,0.0,0.5956585704046452,0.0,0.0,0.0,0.0,0.0,0.9017842714981978,0.0,0.0,0.00032003260784904685,-1.5706980561506727,0.00012592606208784607,0.6052408417128498,2.420965350860898e-06,9.930073309951421e-07,-0.003859340179485694,-0.0026062284796233635,-0.0019705684678641405,-0.827466787556885,-0.000265750138512346,-1.9243409311270792e-05,0.0,-1.5707963267948966,0.0,0.8024065950419561,0.0,0.0
22.103,600.0,44.44444274902344,0.0,-1.5707963267948966,0.0,0.6752818162236238,0.0,0.0,0.0,0.0,0.0,0.8012956578986136,0.0,0.0,0.00017878978534395095,-1.5705302770019978,6.912121314422746e-05,0.7059748433660696,-2.6275918624463896e-05,1.4149571926148312e-07,-0.0008444993698043662,-0.005292091197475251,-0.001138714887029866,0.9617218646928778,0.0005896917447424213,4.680288413116103e-06,0.0,-1.5707963267948966,0.0,0.9020460229128999,0.0,0.0
22.203,600.0,44.44444274902344,0.0,-1.5707963267948966,0.0,0.764461234677199,0.0,0.0,0.0,0.0,0.0,0.6952433903512889,0.0,0.0,0.00030648663662084596,-1.5706457250352526,-8.48927348533168e-06,0.7779844555548857,-1.0436125373178083e-05,5.503026683467457e-07,-0.0025884906304215398,-0.004246370046610939,-0.0002185654226033429,0.04782140165390091,0.00012687838112083568,-7.4770215431974295e-06,0.0,-1.5707963267948966,0.0,0.8874508648319495,0.0,0.0
22.304,600.0,44.44444274902344,0.0,-1.5707963267948966,0.0,0.8323601615398306,0.0,0.0,0.0,0.0,0.0,0.6262875828737015,0.0,0.0,0.00011667419429771807,-1.5704312074094466,-1.2411869385132346e-05,0.8869273183731387,-3.591585794440816e-05,-2.661545625963277e-07,-0.00017696827353416478,-0.00571571274193359,-0.00039611699408500215,1.767257986726151,0.0009368009181533923,1.679729040472683e-05,0.0,-1.5707963267948966,0.0,0.966619369657514,0.0,0.0
22.403,600.0,44.44444274902344,0.0,-1.5707963267948966,0.0,0.9003652192494798,0.0,0.0,0.0,0.0,0.0,0.8062068229571963,0.0,0.0,0.00010377831948197552,-1.5704107010690531,-3.8842397116352794e-05,0.9462318545285409,-3.6282672461800405e-05,-3.3967557742265396e-07,-0.00022062724308961673,-0.005657669874183423,-0.00015411305561783796,1.7535605502915466,0.0009384648086674601,1.78535477354177e-05,0.0,-1.5707963267948966,0.0,1.0694930996289826,0.0,0.0
22.504,600.0,44.44444274902344,0.0,-1.5707963267948966,0.0,0.9815068715303727,0.0,0.0,0.0,0.0,0.0,0.6268695317306229,0.0,0.0,0.0002730024248531503,-1.5705868691751619,-0.00013589930291018335,1.018725030192288,-1.722040491803354e-05,1.5543526815361478e-07,-0.001985892177142267,-0.0046576279177234494,0.0011424437026674647,0.6512733814177877,0.0003739182200201332,1.955068992026536e-06,0.0,-1.5707963267948966,0.0,1.0377112815230853,0.0,0.0
22.603,600.0,44.44444274902344,0.0,-1.5707963267948966,0.0,1.0557076482139107,0.0,0.0,0.0,0.0,0.0,1.228729784374802,0.0,0.0,0.0002766627109060581,-1.5705888665459795,-0.00016797352172379063,1.1006354097866644,-1.5534484279973423e-05,1.5576418661629374e-07,-7.17584318203677e-05,-0.0069657012092245564,0.0007786957541529782,0.8705956161462822,0.0003692396129468929,3.923658039281133e-06,0.0,-1.5707963267948966,0.0,1.3457452606684308,0.0,0.0
22.703,600.0,44.44444274902344,0.0,-1.5707963267948966,0.0,1.1364472277168993,0.0,0.0,0.0,0.0,0.0,0.9311130561564462,0.0,0.0,6.098009435141237e-05,-1.5703880641997874,-7.42097704998917e-05,1.1574947645872105,-3.14529357918185e-05,-4.3958215163089803e-07,0.0013703379913158412,-0.006983564674325453,-0.0006513295548712882,1.9731449732293593,0.0008917815973306752,2.0154882452388862e-05,0.0,-1.5707963267948966,0.0,1.3512304399314192,0.0,0.0
22.803,600.0,44.44444274902344,0.0,-1.5707963267948966,0.0,1.226315260898804,0.0,0.0,0.0,0.0,0.0,0.6783621780437917,0.0,0.0,0.000228438607956381,-1.570588733387925,-0.00017668311829122495,1.242660392561018,-1.4552307495352105e-05,4.204123531318448e-08,4.7687362370055294e-05,-0.005961209381060359,0.0006464868408988448,1.0852840171570661,0.000410852805351007,7.509704555369724e-06,0.0,-1.5707963267948966,0.0,1.3032864788804606,0.0,0.0
22.903,600.0,44.44444274902344,0.0,-1.5707963267948966,0.0,1.3053240143886462,0.0,0.0,0.0,0.0,0.0,0.8339750511791878,0.0,0.0,0.00016584769044422623,-1.5705796786402186,-0.00014240834559349337,1.31292350370696,-1.6083563151312365e-05,-1.0513553804732254e-07,-0.0027869978206935975,-0.0013809972675714508,0.0012885602204989939,1.2677437747620928,0.0005378997959078009,1.0816128503421057e-05,0.0,-1.5707963267948966,0.0,1.4253588286990464,0.0,0.0
23.003,600.0,55.55555725097656,0.0,-1.5707963267948966,0.0,1.3542874634208975,0.0,0.0,0.0,0.0,0.0,-0.1633102064375297,0.0,0.0,0.00020303677475695656,-1.5706768840200065,-0.00016895374185548094,1.3878141235630237,-7.298579062732819e-06,9.599537954525542e-08,3.725743509632277e-05,-0.00438436314289475,0.0006011398264263718,0.8222901350299889,0.00024515984287563127,4.429082012853277e-06,0.0,-1.5707963267948966,0.0,1.105038505159678,0.0,0.0
23.103,600.0,55.55555725097656,0.0,-1.5707963267948966,0.0,1.2781627700341787,0.0,0.0,0.0,0.0,0.0,-0.8209235145476286,0.0,0.0,0.0008519623326032304,-1.5713273611162584,-0.0005723661133460445,1.3768313803855914,3.839607706501371e-05,1.3551659084170542e-06,-0.007355468878771214,0.0021431111378795516,0.008738147786929428,-2.9418324023323668,-0.0010143383721535478,-2.8838124144259042e-05,0.0,-1.5707963267948966,0.0,1.1259585158277468,0.0,0.0
23.203,600.0,55.55555725097656,0.0,-1.5707963267948966,0.0,1.20483406204381,0.0,0.0,0.0,0.0,0.0,-0.8480121157925132,0.0,0.0,0.0002951367980132409,-1.5707348077737158,-0.00023614498406898988,1.231773123708665,-4.512751783749363e-06,1.6507636815682677e-07,-0.007417450832250905,0.0036011352685322027,0.004664448626976225,-1.3354795460335496,-0.00015743474115397665,-7.852912248173129e-06,0.0,-1.5707963267948966,0.0,1.1187095985086482,0.0,0.0
23.303,600.0,55.55555725097656,0.0,-1.5707963267948966,0.0,1.1067255038719361,0.0,0.0,0.0,0.0,0.0,-0.9908159557429821,0.0,0.0,0.00018992717573715576,-1.5705590391417705,-0.00017883255131580152,1.1830560510459,-1.619966906695487e-05,-9.969025567389928e-08,-0.003158303594117066,-0.0015346470983068114,0.002544451724786257,-0.5623742679117981,7.553732802021335e-05,-1.3697962321144751e-06,0.0,-1.5707963267948966,0.0,0.9560231360618326,0.0,0.0
23.403,600.0,55.55555725097656,0.0,-1.5707963267948966,0.0,1.0415673256819513,0.0,0.0,0.0,0.0,0.0,-0.7339233442050769,0.0,0.0,0.00031514831449386163,-1.5706142997343897,-0.0002406521696526307,1.071967945390561,-1.1369782041503706e-05,7.846559380376083e-08,-0.006576680993288533,0.0011904968555122568,0.004039432026938774,-1.4390794419148312,-0.00013496767604069272,-7.3337612266238615e-06,0.0,-1.5707963267948966,0.0,0.9485182230448331,0.0,0.0
23.503,600.0,55.55555725097656,0.0,-1.5707963267948966,0.0,0.9737181914328961,0.0,0.0,0.0,0.0,0.0,-0.6434185812875355,0.0,0.0,0.0003747380068024638,-1.5706182944760247,-0.0002471664300770901,1.0063289474243506,-9.004558441081886e-06,1.986636084700431e-07,-0.005289466527385302,-0.0011106540376749202,0.0034551441065254216,-1.4726218226863246,-0.0002027325528150503,-8.462813970488269e-06,0.0,-1.5707963267948966,0.0,0.778772124065569,0.0,0.0
23.603,600.0,55.55555725097656,0.0,-1.5707963267948966,0.0,0.8895196046809772,0.0,0.0,0.0,0.0,0.0,-0.8764557833690864,0.0,0.0,0.00028110448779691035,-1.570493658537009,-0.00019325937802881982,0.9376908971755751,-2.1652878056267783e-05,-4.524850382942677e-08,-0.0036113965010330894,-0.0029728646185378112,0.0024266042458069986,-0.8842780722997551,4.7699939401875656e-05,-3.6615041353917907e-06,0.0,-1.5707963267948966,0.0,0.7511542392038515,0.0,0.0
23.702,600.0,55.55555725097656,0.0,-1.5707963267948966,0.0,0.8024367689350456,0.0,0.0,0.0,0.0,0.0,-0.7460616741100049,0.0,0.0,0.00033630497073764196,-1.5705312091083792,-0.0001702732939629799,0.805464749316059,-1.705168982688072e-05,1.2896764186121732e-07,-0.005761332379317457,-0.0008545268605054764,0.0024255501645669506,-1.674227644579176,-0.00015940701479915398,-8.869869402171357e-06,0.0,-1.5707963267948966,0.0,0.6045918622212586,0.0,0.0
23.802,600.0,55.55555725097656,0.0,-1.5707963267948966,0.0,0.7393012565356836,0.0,0.0,0.0,0.0,0.0,-0.6834688449708994,0.0,0.0,0.00033976532465304984,-1.570538000169159,-0.00011893430520231388,0.7329866870914982,-1.511509106453085e-05,2.211005748057826e-07,-0.005062503824969803,-0.0017706325592865798,0.0015668461202872255,-1.781930273277779,-0.00021851963326746185,-1.0381894796796583e-05,0.0,-1.5707963267948966,0.0,0.4605052690914419,0.0,0.0
23.903,600.0,55.55555725097656,0.0,-1.5707963267948966,0.0,0.6408539857327584,0.0,0.0,0.0,0.0,0.0,-1.0312079148302917,0.0,0.0,0.00023146933534119878,-1.57044372426657,-4.1370534931377005e-05,0.6708403583158996,-3.156195772984522e-05,-7.774333355999242e-08,-0.0036152996965057365,-0.002619748443419044,0.0005712190555347364,-0.7451155882230732,0.00018778534988659134,-2.258451914857308e-06,0.0,-1.5707963267948966,0.0,0.5463752992255412,0.0,0.0
24.003,600.0,55.55555725097656,0.0,-1.5707963267948966,0.0,0.5610631271302484,0.0,0.0,0.0,0.0,0.0,-0.8250308171628893,0.0,0.0,0.0002527636521762382,-1.5704822069443218,2.9870403841264595e-05,0.5491229442492954,-2.330443535819511e-05,1.4612761061104823e-07,-0.0036754889576618038,-0.002785610064094314,-0.0005004992874233258,-1.541602488609339,-8.585269661735525e-05,-9.208470934855737e-06,0.0,-1.5707963267948966,0.0,0.29546242829673464,0.0,0.0
24.103,600.0,55.55555725097656,0.0,-1.5707963267948966,0.0,0.4704001435367706,0.0,0.0,0.0,0.0,0.0,-0.9115111360638903,0.0,0.0,0.0002105223802767587,-1.5704639642908547,8.582191031910935e-05,0.5069413687701257,-2.895987550140605e-05,5.6697369609530074e-08,-0.002881112737275102,-0.0032233539044855034,-0.0011230729768148537,-1.056484459970895,8.067733132833182e-05,-5.712402515922405e-06,0.0,-1.5707963267948966,0.0,0.32937337515576715,0.0,0.0
24.204,600.0,55.55555725097656,0.0,-1.5707963267948966,0.0,0.39305616992582326,0.0,0.0,0.0,0.0,0.0,-0.6226605934057103,0.0,0.0,0.00020587776166689338,-1.5704820737862673,0.0001723314246447649,0.3804578617481749,-2.1766026642376434e-05,2.4582050925218056e-07,-0.0036645686968208527,-0.0021293710211675865,-0.0024101631271906373,-1.8806848138717704,-0.00017242674188495182,-1.1338550772342019e-05,0.0,-1.5707963267948966,0.0,0.3121636313355655,0.0,0.0
24.303,600.0,55.55555725097656,0.0,-1.5707963267948966,0.0,0.31777526164370595,0.0,0.0,0.0,0.0,0.0,-0.5519506358067956,0.0,0.0,0.0001586860074964645,-1.5704674264002718,0.00023285756332519668,0.33138362589371667,-2.781857386637378e-05,1.439997600727704e-07,-0.00259075145653053,-0.00287450762963792,-0.003039700599223093,-1.382377280197627,-1.2072260318416638e-06,-7.870135060810501e-06,0.0,-1.5707963267948966,0.0,0.14593345417485998,0.0,0.0
24.402,600.0,55.55555725097656,0.0,-1.5707963267948966,0.0,0.25298660616804725,0.0,0.0,0.0,0.0,0.0,-0.7676782328875402,0.0,0.0,7.902004020026603e-05,-1.5704356016252454,0.000244051113518,0.26558768451551673,-5.2079355345937815e-05,-3.299161550305221e-07,-0.001237740657057017,-0.0033932326331878597,-0.002674911248091912,-0.16744838406760418,0.0005287575982096819,2.7359044375919645e-06,0.0,-1.5707963267948966,0.0,0.12319914602416626,0.0,0.0
24.503,600.0,55.55555725097656,0.0,-1.5707963267948966,0.0,0.16929302530992452,0.0,0.0,0.0,0.0,0.0,-1.0687730215299707,0.0,0.0,7.384673112387624e-05,-1.5704611679717102,0.0003225054595516588,0.22100696707883552,-4.504042747967192e-05,-1.6144945517658116e-07,-0.001165269645967561,-0.003181257233910837,-0.003591443338729186,-0.2634171582928317,0.00043097989235988977,6.387215259502445e-07,0.0,-1.5707963267948966,0.0,0.09952337505258692,0.0,0.0
24.603,600.0,55.55555725097656,0.0,-1.5707963267948966,0.0,0.09702799042478549,0.0,0.0,0.0,0.0,0.0,-0.9829476168722336,0.0,0.0,7.534394650477956e-05,-1.5704546432270394,0.00044742052333689126,0.09291209779457546,-2.1346731970721145e-05,3.371041052311505e-07,-0.0016633715357518744,-0.003257920643122566,-0.006180602880315148,-2.0513233986091803,-0.00021786700925765544,-1.2912303182589656e-05,0.0,-1.5707963267948966,0.0,-0.17265940930969415,0.0,0.0
24.703,600.0,55.55555725097656,0.0,-1.5707963267948966,0.0,0.0027985501330105578,0.0,0.0,0.0,0.0,0.0,-0.6389747851004879,0.0,0.0,2.6913478641715182e-05,-1.5704828727345943,0.00041569724231585486,0.0223389135545587,-4.977049676001176e-05,-2.319187397114883e-07,-0.00039705443199019653,-0.0034835044314658384,-0.004963388459337619,-0.587571034196283,0.00040795798305575314,-2.4038302879103985e-07,0.0,-1.5707963267948966,0.0,-0.1872059728910591,0.0,0.0
24.803,600.0,55.55555725097656,0.0,-1.5707963267948966,0.0,-0.08306765115488446,0.0,0.0,0.0,0.0,0.0,-0.7984840185080101,0.0,0.0,-1.0731337479471074e-07,-1.5704993843333528,0.000504423516407024,-0.05093283517327853,-4.543707333489723e-05,-1.3968419935996351e-07,-0.00041241097565187975,-0.002813639834567398,-0.005928260564800384,-0.6261732213018453,0.0003555742025848425,-1.327491485825001e-06,0.0,-1.5707963267948966,0.0,-0.19923255210147123,0.0,0.0
24.903,600.0,55.55555725097656,0.0,-1.5707963267948966,0.0,-0.16490007363464976,0.0,0.0,0.0,0.0,0.0,-0.8358541918560793,0.0,0.0,-4.3944388936378314e-05,-1.5704469200598783,0.0006461486792574996,-0.1507466023177676,-2.637752844422233e-05,2.4881504668509714e-07,-0.00027967336380389925,-0.003262281569407571,-0.008594781295012595,-1.8320148791602997,-0.00011175376686597494,-1.1089927844770565e-05,0.0,-1.5707963267948966,0.0,-0.3785746132390563,0.0,0.0
25.004,600.0,55.55555725097656,0.0,-1.5707963267948966,0.0,-0.23566399764749413,0.0,0.0,0.0,0.0,0.0,-0.5575451266190148,0.0,0.0,-7.255842044469228e-05,-1.57048806589872,0.0006688066795620958,-0.24176254606096345,-3.6176639346682856e-05,5.029761097040266e-08,0.0008493054132969561,-0.003918944013335729,-0.008642874759377793,-1.2933375517860812,0.00010790624355356632,-6.364858391741228e-06,0.0,-1.5707963267948966,0.0,-0.34850613906179323,0.0,0.0
25.103,600.0,55.55555725097656,0.0,-1.5707963267948966,0.0,-0.2993354749191717,0.0,0.0,0.0,0.0,0.0,-0.6404671847778792,0.0,0.0,-5.358011830318335e-05,-1.5706089734122095,0.0006112654301666648,-0.2907301056690072,-5.468414194099296e-05,-3.4111531993339107e-07,0.0008866791991445166,-0.0025877639827569226,-0.00681191613984009,-0.08676472305034555,0.0005696736288757986,3.272609460177105e-06,0.0,-1.5707963267948966,0.0,-0.43001905313687055,0.0,0.0
25.203,600.0,55.55555725097656,0.0,-1.5707963267948966,0.0,-0.3705070861599289,0.0,0.0,0.0,0.0,0.0,-0.9815121841138529,0.0,0.0,-9.69223457761673e-05,-1.570581409694927,0.0007199899569478692,-0.3330982688720506,-4.335757185817094e-05,-1.1587931096541447e-07,0.00055405239456964,-0.0016624680375461188,-0.008017242043263937,-0.34154135505495603,0.0003959057162050653,-3.070057721496864e-07,0.0,-1.5707963267948966,0.0,-0.5323918582200604,0.0,0.0
25.303,600.0,55.55555725097656,0.0,-1.5707963267948966,0.0,-0.4341381300281295,0.0,0.0,0.0,0.0,0.0,-0.5199120843704992,0.0,0.0,-0.00016110411355362117,-1.5704971206464262,0.0008427345704521196,-0.41293078360491986,-2.8957136593668756e-05,1.6799090225728343e-07,0.0017102903744272934,-0.0036041230023801355,-0.010707032143500715,-1.3187309259380413,2.768525529724723e-05,-7.942218825293392e-06,0.0,-1.5707963267948966,0.0,-0.7216792926196018,0.0,0.0
25.403,600.0,55.55555725097656,0.0,-1.5707963267948966,0.0,-0.5119159673918041,0.0,0.0,0.0,0.0,0.0,-0.9055581215921931,0.0,0.0,-0.00013172425662179483,-1.570629213436494,0.0007813829070995574,-0.4738674713238908,-4.2902445852726934e-05,-1.440901606637147e-07,0.0010538508792144155,-0.0013494141015931176,-0.008803091466824531,-0.3935205670264727,0.0003793094307444298,-2.3769820267154104e-07,0.0,-1.5707963267948966,0.0,-0.7145199288403377,0.0,0.0
25.503,600.0,55.55555725097656,0.0,-1.5707963267948966,0.0,-0.6117267655027447,0.0,0.0,0.0,0.0,0.0,-1.0309911334442345,0.0,0.0,-0.0002000740568081794,-1.5705523812390454,0.0008825845239499384,-0.5675931315419719,-3.2969798975258636e-05,3.1287400468036396e-08,0.0034839026052577247,-0.005062633341983754,-0.011724171386099538,-1.1826620363626228,0.00010080273598142346,-6.915470279317402e-06,0.0,-1.5707963267948966,0.0,-0.868819939842085,0.0,0.0
25.603,600.0,55.55555725097656,0.0,-1.5707963267948966,0.0,-0.7036170850519881,0.0,0.0,0.0,0.0,0.0,-0.48369433714530713,0.0,0.0,-0.00021685219924071314,-1.570610704466918,0.0009093617114542631,-0.6837923093823637,-3.2930346919223734e-05,-7.681620565567952e-09,0.0015050845797981432,-0.0009478095392463309,-0.01111718807969734,-1.2192131233756334,9.850194782690135e-05,-5.24099748318522e-06,0.0,-1.5707963267948966,0.0,-0.9246018370648199,0.0,0.0
25.703,600.0,55.55555725097656,0.0,-1.5707963267948966,0.0,-0.7683207732863337,0.0,0.0,0.0,0.0,0.0,-0.808305007218903,0.0,0.0,-0.00016565499162389608,-1.5707691625517777,0.0008090230212149059,-0.7549587647700606,-4.3682290907832274e-05,-2.762571580131522e-07,0.001798204078798656,-0.00040756032941251767,-0.009372106002341684,-0.41622970782622826,0.00038448471476022663,1.1175988064444786e-06,0.0,-1.5707963267948966,0.0,-1.015811130787784,0.0,0.0
25.803,600.0,55.55555725097656,0.0,-1.5707963267948966,0.0,-0.8589984801242458,0.0,0.0,0.0,0.0,0.0,-1.0333489260458197,0.0,0.0,-0.00037508663643539853,-1.5704879327406653,0.0011459365008549417,-0.8032298245292646,-1.3590712139458479e-05,3.435825020665093e-07,0.0019783221937585815,-0.0004069396620354206,-0.013649030360900453,-1.67708548274494,-0.00020341766986086177,-1.092321309090808e-05,0.0,-1.5707963267948966,0.0,-0.9525225688083048,0.0,0.0
25.903,600.0,55.55555725097656,0.0,-1.5707963267948966,0.0,-0.9411978459354096,0.0,0.0,0.0,0.0,0.0,-0.9026918746230378,0.0,0.0,-0.00040812784409940137,-1.5704868674762293,0.0011540319644126997,-0.9355387301196547,-1.4047538787169634e-05,3.016680894963186e-07,0.005163200962647871,-0.004690592338442936,-0.016314295972419235,-2.1422064339692244,-0.0002822894189318261,-1.2360861292186565e-05,0.0,-1.5707963267948966,0.0,-1.1071308716773742,0.0,0.0
26.002,600.0,55.55555725097656,0.0,-1.5707963267948966,0.0,-1.0172604513266208,0.0,0.0,0.0,0.0,0.0,-0.8859980305851438,0.0,0.0,-0.00031476515999425623,-1.5706835419227316,0.000963390657087827,-1.0231241062599081,-2.5696164189650322e-05,-2.5940903955472503e-08,0.00597364769573752,-0.005085410651385037,-0.014501328254401777,-1.3454781180301432,1.7882993025424286e-05,-6.035299521434319e-06,0.0,-1.5707963267948966,0.0,-1.1051461484916583,0.0,0.0
26.103,600.0,55.55555725097656,0.0,-1.5707963267948966,0.0,-1.0901741925567023,0.0,0.0,0.0,0.0,0.0,-0.7798022934623624,0.0,0.0,-0.0002209173885086714,-1.5708692974087648,0.0007658787712583214,-1.102673793285011,-3.241323179200145e-05,-2.6346311715348844e-07,0.005690515180861967,-0.003983926184230963,-0.011752049273166703,-0.47618728437043156,0.00026990019328354705,2.0588030589985504e-07,0.0,-1.5707963267948966,0.0,-1.216246313045493,0.0,0.0
26.203,600.0,55.55555725097656,0.0,-1.5707963267948966,0.0,-1.1728858176920127,0.0,0.0,0.0,0.0,0.0,-0.8700710464432858,0.0,0.0,-0.0002886145565579269,-1.570791133630771,0.0008408204234186252,-1.1850646071400377,-2.157443923342041e-05,-7.92604364359564e-08,0.004296761527713631,-0.0017333189156267226,-0.01158338483148872,-0.8635436987378069,7.55728850568622e-05,-3.169306871495354e-06,0.0,-1.5707963267948966,0.0,-1.3734935378711577,0.0,0.0
26.303,600.0,55.55555725097656,0.0,-1.5707963267948966,0.0,-1.2567593308223728,0.0,0.0,0.0,0.0,0.0,-1.0629006910334347,0.0,0.0,-0.0002942774799334794,-1.5707858073085907,0.0008164959968752904,-1.2154263746216496,-1.8410626940002637e-05,-4.3393287663337904e-08,0.004250239172346985,-0.0016243949768566688,-0.01090240413778245,-0.6513601338902969,8.252933685274807e-05,-2.172113842339559e-06,0.0,-1.5707963267948966,0.0,-1.488500940793704,0.0,0.0
26.403,600.0,66.66666412353516,0.0,-1.5707963267948966,0.0,-1.3176210741165564,0.0,0.0,0.0,0.0,0.0,0.01583985447995838,0.0,0.0,-0.000502262721385365,-1.5704895306373194,0.0011412236940079373,-1.3021618029000044,1.8244320584103948e-06,4.2519780643343714e-07,0.0027428200353686563,0.0004581702729483809,-0.013554067862093112,-2.0937443589808344,-0.00041239007217799156,-1.3378134903810968e-05,0.0,-1.5707963267948966,0.0,-1.23742746632652,0.0,0.0
26.503,600.0,66.66666412353516,0.0,-1.5707963267948966,0.0,-1.2418390998140962,0.0,0.0,0.0,0.0,0.0,0.9898947886076773,0.0,0.0,0.00036834918347597895,-1.5715675782465834,-0.0004775654132782704,-1.3416097433887486,-6.22297474203517e-05,-1.0336363249431225e-06,0.011206417500079906,-0.01226167739696969,-0.005411144901174801,2.53176844506189,0.0009779742598550068,1.4512560823870683e-05,0.0,-1.5707963267948966,0.0,-0.9646993699486475,0.0,0.0
26.603,600.0,66.66666412353516,0.0,-1.5707963267948966,0.0,-1.1627452240323661,0.0,0.0,0.0,0.0,0.0,0.748394547596512,0.0,0.0,0.0001603640232973199,-1.5713388127089458,-4.081633686267596e-05,-1.2439700020270643,-4.277374563470341e-05,-6.582168141977284e-07,-0.0006727520720940074,0.003752003344285192,0.0029946809533074694,2.323551325762917,0.0007424064782415145,1.201051374642407e-05,0.0,-1.5707963267948966,0.0,-0.9668689197977309,0.0,0.0
26.703,600.0,66.66666412353516,0.0,-1.5707963267948966,0.0,-1.0732538633604678,0.0,0.0,0.0,0.0,0.0,0.6045730542307184,0.0,0.0,-0.00025568038573339037,-1.5708530521261153,0.0007367447902190067,-1.140909662582633,-1.3278778384260739e-05,-2.456123140720791e-08,-0.002823910689818317,0.007460520180801832,-0.0011196821277628564,0.9177572695743864,0.0002576234172716277,3.4382437880831316e-06,0.0,-1.5707963267948966,0.0,-0.8449061843967587,0.0,0.0
26.803,600.0,66.66666412353516,0.0,-1.5707963267948966,0.0,-0.9946081802695179,0.0,0.0,0.0,0.0,0.0,0.6129611829521162,0.0,0.0,-0.0004035154909605066,-1.5706955261476372,0.0010445809850226219,-1.0392875632848988,-8.365112884972878e-06,1.3659415001208438e-07,0.001001343043290383,0.0027510108161666012,-0.0065817956149679755,0.6294234096752053,0.00017734056993069292,1.2652204475418617e-06,0.0,-1.5707963267948966,0.0,-0.8892895469343913,0.0,0.0
26.903,600.0,66.66666412353516,0.0,-1.5707963267948966,0.0,-0.9072815928426019,0.0,0.0,0.0,0.0,0.0,0.8806452609057746,0.0,0.0,-0.0004459080285893823,-1.570641597135563,0.001174848963587765,-0.9493169934933432,-7.4769062368071535e-06,1.8626061564513132e-07,0.0010114787249107776,0.002881822220034256,-0.007756904002695131,0.5760699732916941,0.0001649590164750074,8.491983090261095e-08,0.0,-1.5707963267948966,0.0,-0.6892579282045792,0.0,0.0
27.003,600.0,66.66666412353516,0.0,-1.5707963267948966,0.0,-0.8253553913471254,0.0,0.0,0.0,0.0,0.0,0.8880670612636997,0.0,0.0,-0.00040177929978403235,-1.5706803461294236,0.0011724259811370106,-0.822921637103474,-1.648246129083054e-05,9.56877000625033e-08,0.0010563310780167144,0.0027615768557766253,-0.007679418498541434,1.0572912646231343,0.0003359411917752642,3.0518444549046963e-06,0.0,-1.5707963267948966,0.0,-0.6297168781546777,0.0,0.0
27.103,600.0,66.66666412353516,0.0,-1.5707963267948966,0.0,-0.733790754974315,0.0,0.0,0.0,0.0,0.0,0.8886965451029355,0.0,0.0,-0.0004235502515839423,-1.5706084407799914,0.0012446239141850036,-0.7629127614187731,-1.601104000344803e-05,1.480681041388053e-07,0.0035644762319488816,-0.001290876182364927,-0.010242653831391156,0.6906515470859718,0.000266855405630523,6.040873848865526e-07,0.0,-1.5707963267948966,0.0,-0.5657321981754013,0.0,0.0
27.203,600.0,66.66666412353516,0.0,-1.5707963267948966,0.0,-0.6587019199951074,0.0,0.0,0.0,0.0,0.0,0.7431140630451907,0.0,0.0,-0.0003177158657601381,-1.5707093745853056,0.001127615174904525,-0.6434309046397223,-3.060496954998595e-05,-4.273237918146586e-08,0.000872126350166292,0.002398379679664338,-0.00746331025816261,1.466650482890149,0.0005448294112842548,5.275813409598779e-06,0.0,-1.5707963267948966,0.0,-0.45505605256163406,0.0,0.0
27.302,600.0,66.66666412353516,0.0,-1.5707963267948966,0.0,-0.5754868107746871,0.0,0.0,0.0,0.0,0.0,0.7282805553185064,0.0,0.0,-0.00031063491963570657,-1.5706575761021035,0.0011444172766842682,-0.5794066478214543,-3.010060416019061e-05,1.493592100018802e-09,0.0011708508409864183,0.0014025089252691332,-0.00820245501425459,1.2125761264649924,0.0004964643317956724,4.4093244914605075e-06,0.0,-1.5707963267948966,0.0,-0.5138969438122708,0.0,0.0
27.403,600.0,66.66666412353516,0.0,-1.5707963267948966,0.0,-0.4962880678756969,0.0,0.0,0.0,0.0,0.0,0.8019586285835263,0.0,0.0,-0.00031647791197217157,-1.5705770154791285,0.0011685056207588998,-0.5256208139454551,-2.6520727805875927e-05,9.39549374097932e-08,0.0030289691523422394,-0.0021535233435262184,-0.009780029460530767,0.7625072951428085,0.00037721053341216925,1.3196262693182743e-06,0.0,-1.5707963267948966,0.0,-0.430046923414375,0.0,0.0
27.503,600.0,66.66666412353516,0.0,-1.5707963267948966,0.0,-0.42418219741612084,0.0,0.0,0.0,0.0,0.0,0.796273190987526,0.0,0.0,-0.000301855883223443,-1.5705193580415284,0.001178082597710177,-0.4637981591108421,-2.1777453658040043e-05,2.0432255847373955e-07,0.002002876330949652,-0.0013587780776720534,-0.01002742568252882,0.29818552527214315,0.00025357344235169384,-6.908350617675551e-07,0.0,-1.5707963267948966,0.0,-0.1388551208431189,0.0,0.0
27.603,600.0,66.66666412353516,0.0,-1.5707963267948966,0.0,-0.32808871821091756,0.0,0.0,0.0,0.0,0.0,1.045528847887922,0.0,0.0,-0.00016111615824580713,-1.5707117714302865,0.0009194325045305197,-0.37391983456154404,-5.6376977914723615e-05,-3.5375387812610154e-07,0.0018528719620306625,-0.0009714232476774672,-0.006363332661648763,2.0460315643651383,0.0008839771569428194,9.606595962805631e-06,0.0,-1.5707963267948966,0.0,-0.11567445378977459,0.0,0.0
27.703,600.0,66.66666412353516,0.0,-1.5707963267948966,0.0,-0.244154832167637,0.0,0.0,0.0,0.0,0.0,0.9439569054670803,0.0,0.0,-0.0002117339202660718,-1.570527480682853,0.0010388384138849758,-0.30281196871782884,-3.140352370186059e-05,7.856120096078584e-08,0.001551762979759912,-0.001698205240683758,-0.008488687615086563,0.8016062283706978,0.00043365134331908487,1.8198525660688553e-06,0.0,-1.5707963267948966,0.0,-0.01886596453286976,0.0,0.0
27.803,600.0,66.66666412353516,0.0,-1.5707963267948966,0.0,-0.15893492112633645,0.0,0.0,0.0,0.0,0.0,0.8383000256955173,0.0,0.0,-0.00013961335932982682,-1.570580344430491,0.00088128649299285,-0.182565368587005,-5.089611063047456e-05,-2.2140973054050276e-07,0.0012587918531619276,-0.0014520008092809486,-0.006264301039949295,1.907071280794221,0.0008156791034198276,8.31904975990962e-06,0.0,-1.5707963267948966,0.0,0.09332701299597523,0.0,0.0
