7cmdehdrb/project_th/tune/rtde_tune/data/rtde_log_wrist3_zz.csv
Time,Stiffness,Damping,R_shoulder_pan_p,R_shoulder_lift_p,R_elbow_p,R_wrist_1_p,R_wrist_2_p,R_wrist_3_p,R_shoulder_pan_v,R_shoulder_lift_v,R_elbow_v,R_wrist_1_v,R_wrist_2_v,R_wrist_3_v,S_shoulder_pan_p,S_shoulder_lift_p,S_elbow_p,S_wrist_1_p,S_wrist_2_p,S_wrist_3_p,S_shoulder_pan_v,S_shoulder_lift_v,S_elbow_v,S_wrist_1_v,S_wrist_2_v,S_wrist_3_v,C_shoulder_pan_p,C_shoulder_lift_p,C_elbow_p,C_wrist_1_p,C_wrist_2_p,C_wrist_3_p
6.802,600.0,0.0,0.0,-1.5707963267948966,8.881784197001252e-16,-1.655141228937726,-1.623404528450802,1.0390415202511578,0.0,0.0,0.0,0.0,0.0,0.018129675065776066,7.321375898026799e-05,-1.5707653009681972,3.5205282060356116e-05,-1.6551379727274336,-1.6233926930595255,1.0389141215210425,0.011553201645602954,-0.0002998462889125991,-0.002165818097175867,-0.00159950352326581,0.0021697883918244173,9.99518662535697e-06,0.0,-1.5707963267948966,8.881784197001252e-16,-1.655141228937726,-1.623404528450802,1.1444753086207373
6.902,600.0,0.0,0.0,-1.5707963267948966,8.881784197001252e-16,-1.655141228937726,-1.623404528450802,1.0593627435497903,0.0,0.0,0.0,0.0,0.0,0.546813701226938,-5.858764675985919e-07,-1.570762105174889,1.3218255228307724e-05,-1.6551401032563056,-1.6234040114941584,1.1870320173953337,0.06699118888137355,-0.0008591621652035703,0.016294092358540162,0.004196679725888994,0.012384293078627222,0.003443290438931317,0.0,-1.5707963267948966,8.881784197001252e-16,-1.655141228937726,-1.623404528450802,1.243217087813048
7.003,600.0,0.0,0.0,-1.5707963267948966,8.881784197001252e-16,-1.655141228937726,-1.623404528450802,1.1283022278177313,0.0,0.0,0.0,0.0,0.0,0.9575332529640447,-1.1835564998789043e-05,-1.5707513193724743,1.4771096037344504e-05,-1.6551403695724147,-1.6234056093908125,1.15336220436568,0.07233183803595881,-0.00045394195205993905,0.01763439995763629,0.0014730490145311193,0.01167756502672585,3.158205050329782e-05,0.0,-1.5707963267948966,8.881784197001252e-16,-1.655141228937726,-1.623404528450802,1.182599877769411
7.103,600.0,0.0,0.0,-1.5707963267948966,8.881784197001252e-16,-1.655141228937726,-1.623404528450802,1.19741504395747,0.0,0.0,0.0,0.0,0.0,0.701334726207138,-1.4086080583066326e-05,-1.5707571783268723,1.540517044908887e-05,-1.6551387716757606,-1.6234065414971939,1.3450055400947085,0.07160158262030226,-0.0009949621847401074,0.018709584668728532,0.002499879666784308,0.01173207556499111,3.0206728707688113e-05,0.0,-1.5707963267948966,8.881784197001252e-16,-1.655141228937726,-1.623404528450802,1.487180768608972
7.201,600.0,0.0,0.0,-1.5707963267948966,8.881784197001252e-16,-1.655141228937726,-1.623404528450802,1.2806138053074019,0.0,0.0,0.0,0.0,0.0,0.9690065077062675,-1.4608731432937173e-05,-1.5707495883177658,1.6527503928941977e-05,-1.6551402364143601,-1.6234066746552485,1.2657470697348059,0.07271903669132111,-0.000825816475523336,0.019655735063817233,0.003376615184179011,0.012174353801242214,-2.1900946294067513e-05,0.0,-1.5707963267948966,8.881784197001252e-16,-1.655141228937726,-1.623404528450802,1.5301695046354564
7.302,666.6666870117188,0.0,0.0,-1.5707963267948966,8.881784197001252e-16,-1.655141228937726,-1.623404528450802,1.3517875876885377,0.0,0.0,0.0,0.0,0.0,0.6772731923852977,-1.2852636443262212e-05,-1.5707491888436023,1.6063376913649145e-05,-1.6551402364143601,-1.623406008864976,1.3800496774048978,0.07122447068756864,-0.0007896975482948802,0.020298016697933286,0.002613949826264317,0.01130935075680607,3.130554916135851,0.0,-1.5707963267948966,8.881784197001252e-16,-1.655141228937726,-1.623404528450802,1.1449786123758514
7.402,666.6666870117188,0.0,0.0,-1.5707963267948966,8.881784197001252e-16,-1.655141228937726,-1.623404528450802,1.3136307706035568,0.0,0.0,0.0,0.0,0.0,-0.6095338256814711,-1.3047084669795473e-05,-1.5707477241050027,1.6702268795901763e-05,-1.6551399700982512,-1.623406275181085,1.528917985495346,0.07104156145495064,-0.0011641707019064153,0.020441573564256167,0.002745187752025305,0.011230004160781222,3.1305053813395753,0.0,-1.5707963267948966,8.881784197001252e-16,-1.655141228937726,-1.623404528450802,1.073017799730697
7.503,666.6666870117188,0.0,0.0,-1.5707963267948966,8.881784197001252e-16,-1.655141228937726,-1.623404528450802,1.2202627642073836,0.0,0.0,0.0,0.0,0.0,-0.9058658834316266,6.529073282744232e-05,-1.5707579772751994,5.293518680427709e-05,-1.6551321137730353,-1.6233954893786702,1.289075561935573,0.053332538891332486,-0.00017686263459419635,0.011646569368648151,0.0006287590695771228,0.008956063023719762,-3.1391132506149293,0.0,-1.5707963267948966,8.881784197001252e-16,-1.655141228937726,-1.623404528450802,1.1382091154115428
7.602,666.6666870117188,0.0,0.0,-1.5707963267948966,8.881784197001252e-16,-1.655141228937726,-1.623404528450802,1.1419121895451338,0.0,0.0,0.0,0.0,0.0,-0.6829212699840751,6.43832969338569e-05,-1.570758376749363,5.215453308056682e-05,-1.6551325132471988,-1.623395223062561,1.0799604912960523,0.051089196018779814,0.0005949927746944538,0.010192285756977733,0.00017850521526824285,0.008751927564975986,-3.1390192410284494,0.0,-1.5707963267948966,8.881784197001252e-16,-1.655141228937726,-1.623404528450802,1.0251171164298971
7.703,666.6666870117188,0.0,0.0,-1.5707963267948966,8.881784197001252e-16,-1.655141228937726,-1.623404528450802,1.064953841146898,0.0,0.0,0.0,0.0,0.0,-0.7887979578738227,6.447072660739976e-05,-1.5707574446429815,5.248540451348374e-05,-1.6551326464052534,-1.6233950899045066,1.0684096958581062,0.050086994405123354,2.80677342131563e-07,0.010210544014904286,-0.000649065477833233,0.007986715039120254,7.613167912652895e-05,0.0,-1.5707963267948966,8.881784197001252e-16,-1.655141228937726,-1.623404528450802,0.9669703495469418
7.803,666.6666870117188,0.0,0.0,-1.5707963267948966,8.881784197001252e-16,-1.655141228937726,-1.623404528450802,0.9855769491684061,0.0,0.0,0.0,0.0,0.0,-0.7946092144402231,6.365742542855385e-05,-1.5707569120107634,5.235475780168252e-05,-1.6551325132471988,-1.6233950899045066,0.9421281230258105,0.05097200444724872,0.0007126613875565538,0.010107986305503715,0.00010990644267941233,0.008773726994914506,-3.138932155660804,0.0,-1.5707963267948966,8.881784197001252e-16,-1.655141228937726,-1.623404528450802,0.8120497100492587
7.902,666.6666870117188,0.0,0.0,-1.5707963267948966,8.881784197001252e-16,-1.655141228937726,-1.623404528450802,0.9147377480925316,0.0,0.0,0.0,0.0,0.0,-0.7979889246176861,6.244361385255657e-05,-1.570760240962126,5.1749894003502855e-05,-1.6551334453535804,-1.623396022010888,0.7992901437496831,0.05258095738100929,0.0011854319080289275,0.008481333233318471,-3.961240811103639e-05,0.009525152460642575,0.00018571561338804417,0.0,-1.5707963267948966,8.881784197001252e-16,-1.655141228937726,-1.623404528450802,0.7310339547307569
8.002,666.6666870117188,0.0,0.0,-1.5707963267948966,8.881784197001252e-16,-1.655141228937726,-1.623404528450802,0.817997578310564,0.0,0.0,0.0,0.0,0.0,-1.2289970526694034,6.376823334573567e-05,-1.570761039910453,5.107519212168351e-05,-1.6551323800891444,-1.623394956746452,0.7847548768361396,0.050389363057388226,0.00023796665842522931,0.010643770624341025,0.00032991562726250665,0.008637135959317864,-3.1387529249194417,0.0,-1.5707963267948966,8.881784197001252e-16,-1.655141228937726,-1.623404528450802,0.7505443262844794
8.102,666.6666870117188,0.0,0.0,-1.5707963267948966,8.881784197001252e-16,-1.655141228937726,-1.623404528450802,0.734536002993611,0.0,0.0,0.0,0.0,0.0,-0.796766385951891,6.484457938621781e-05,-1.570761039910453,5.0364571537356824e-05,-1.655132779563308,-1.6233946904303431,0.7269046929520296,0.05116466750735914,0.0004464106872414185,0.009915861079097817,2.404164244678181e-05,0.00886570904195502,-3.1386818185183367,0.0,-1.5707963267948966,8.881784197001252e-16,-1.655141228937726,-1.623404528450802,0.6200255775871882
8.201,666.6666870117188,0.0,0.0,-1.5707963267948966,8.881784197001252e-16,-1.655141228937726,-1.623404528450802,0.6420331786616673,0.0,0.0,0.0,0.0,0.0,-1.0120801707616955,6.503727414288662e-05,-1.5707611730685076,4.761963332664655e-05,-1.6551334453535804,-1.623394956746452,0.6895293575816396,0.05209954107970703,0.0016012257354473046,0.008307309179946704,-0.0006924219484391832,0.00923317013662901,3.808641794424616e-05,0.0,-1.5707963267948966,8.881784197001252e-16,-1.655141228937726,-1.623404528450802,0.3908582778264004
8.302,666.6666870117188,0.0,0.0,-1.5707963267948966,8.881784197001252e-16,-1.655141228937726,-1.623404528450802,0.5459608442750348,0.0,0.0,0.0,0.0,0.0,-0.8850594563155757,6.404235981182235e-05,-1.5707622383329436,4.998482644960839e-05,-1.655132779563308,-1.623394956746452,0.47698350295733805,0.051373742297687174,0.0008176510519720985,0.009251306679771372,-0.0002063130773233473,0.009078706793404416,3.058672980610042e-05,0.0,-1.5707963267948966,8.881784197001252e-16,-1.655141228937726,-1.623404528450802,0.2794276621809266
8.402,666.6666870117188,0.0,0.0,-1.5707963267948966,8.881784197001252e-16,-1.655141228937726,-1.623404528450802,0.4566411229925631,0.0,0.0,0.0,0.0,0.0,-0.7947657170469002,6.344918716729284e-05,-1.5707637030715431,5.0380891201263315e-05,-1.6551325132471988,-1.6233957556947791,0.3941436468530104,0.05061316429630656,-0.0001501208984713258,0.011086950798351933,0.0004944768112931801,0.008725794256482282,-3.1385433341416524,0.0,-1.5707963267948966,8.881784197001252e-16,-1.655141228937726,-1.623404528450802,0.3448524877389279
8.503,666.6666870117188,0.0,0.0,-1.5707963267948966,8.881784197001252e-16,-1.655141228937726,-1.623404528450802,0.38840926242924656,0.0,0.0,0.0,0.0,0.0,-0.7970627541570866,6.349258300664976e-05,-1.5707645020198702,5.013576302243678e-05,-1.6551325132471988,-1.6233954893786702,0.31752533452927134,0.0509281746413709,3.0315015123013868e-05,0.010342496364836608,0.00025779373344534507,0.008889051232790645,-3.1386088479044685,0.0,-1.5707963267948966,8.881784197001252e-16,-1.655141228937726,-1.623404528450802,0.30559990797894787
8.602,666.6666870117188,0.0,0.0,-1.5707963267948966,8.881784197001252e-16,-1.655141228937726,-1.623404528450802,0.31196871310941,0.0,0.0,0.0,0.0,0.0,-0.7125918841282141,6.513004346741881e-05,-1.5707619720168347,4.9875509896135154e-05,-1.6551333121955258,-1.623394956746452,0.27224543743790347,0.05082418652318171,4.439806827838838e-05,0.011015354417218135,0.0006252755040281905,0.008920599288735075,3.126118177274789e-05,0.0,-1.5707963267948966,8.881784197001252e-16,-1.655141228937726,-1.623404528450802,0.13240075220243874
8.702,666.6666870117188,0.0,0.0,-1.5707963267948966,8.881784197001252e-16,-1.655141228937726,-1.623404528450802,0.21590607745930068,0.0,0.0,0.0,0.0,0.0,-0.8999384711429952,6.423118596290376e-05,-1.5707638362295977,4.817514802161894e-05,-1.655132779563308,-1.623394956746452,0.2129454785906248,0.0512212305521989,0.0003577615902062534,0.010029939040807581,0.00016659873633147667,0.009030446361322437,2.8629946837917993e-05,0.0,-1.5707963267948966,8.881784197001252e-16,-1.655141228937726,-1.623404528450802,0.04649129554089271
8.803,666.6666870117188,0.0,0.0,-1.5707963267948966,8.881784197001252e-16,-1.655141228937726,-1.623404528450802,0.14062374896853758,0.0,0.0,0.0,0.0,0.0,-0.5322171579347783,6.431120758183967e-05,-1.570765034652088,4.7722439894667054e-05,-1.6551333121955258,-1.6233953562206156,0.11838316967133855,0.051324552880115566,0.0004431960385447462,0.009883693005962101,0.00012206302371647457,0.009073464735305624,-3.1380666283065284,0.0,-1.5707963267948966,8.881784197001252e-16,-1.655141228937726,-1.623404528450802,0.05723517663784837
8.902,666.6666870117188,0.0,0.0,-1.5707963267948966,8.881784197001252e-16,-1.655141228937726,-1.623404528450802,0.07357612719520201,0.0,0.0,0.0,0.0,0.0,-0.9151297639027575,6.561014879906631e-05,-1.5707646351779248,4.713441997270562e-05,-1.655133578511635,-1.6233950899045066,0.051746422563919335,0.05107737408025338,4.543154675548666e-05,0.011035948142585014,0.0006123355059777127,0.008934508063646934,3.8986210090867415e-05,0.0,-1.5707963267948966,8.881784197001252e-16,-1.655141228937726,-1.623404528450802,-0.027815141211941938
9.002,666.6666870117188,0.0,0.0,-1.5707963267948966,8.881784197001252e-16,-1.655141228937726,-1.623404528450802,-0.006803306455481106,0.0,0.0,0.0,0.0,0.0,-0.643334377278328,6.406666457024484e-05,-1.5707623714909982,4.778572329257935e-05,-1.6551334453535804,-1.6233946904303431,0.00499991901920429,0.05182007561281684,0.001079411113932534,0.009191799593570311,-5.994019122574931e-05,0.009309525877914025,3.1335264712801614,0.0,-1.5707963267948966,8.881784197001252e-16,-1.655141228937726,-1.623404528450802,-0.25103812515202883
9.102,666.6666870117188,0.0,0.0,-1.5707963267948966,8.881784197001252e-16,-1.655141228937726,-1.623404528450802,-0.10022377229205581,0.0,0.0,0.0,0.0,0.0,-0.7378514277356324,6.29891238133313e-05,-1.5707622383329436,4.7451978851101205e-05,-1.655133578511635,-1.623395223062561,-0.06892285036022447,0.05224289820894815,0.0011252349746802667,0.008957331146129453,-0.0003256840229357091,0.009268195906450057,3.8849898635170366e-05,0.0,-1.5707963267948966,8.881784197001252e-16,-1.655141228937726,-1.623404528450802,-0.38961763728611626
9.202,666.6666870117188,0.0,0.0,-1.5707963267948966,8.881784197001252e-16,-1.655141228937726,-1.623404528450802,-0.19559680452121597,0.0,0.0,0.0,0.0,0.0,-0.8987801859760217,6.096474590256406e-05,-1.5707646351779248,5.014635292386614e-05,-1.655133578511635,-1.6233966878011605,-0.29929639634184246,0.05227374510451184,0.0006590025927063351,0.010025514656387227,-0.0014077162634455113,0.00808574458022512,0.0001484700441828088,0.0,-1.5707963267948966,8.881784197001252e-16,-1.655141228937726,-1.623404528450802,-0.35525385680082305
9.302,666.6666870117188,0.0,0.0,-1.5707963267948966,8.881784197001252e-16,-1.655141228937726,-1.623404528450802,-0.2730189091127251,0.0,0.0,0.0,0.0,0.0,-0.7566432642236188,6.413252432944118e-05,-1.5707627709651617,4.894154235771769e-05,-1.655133578511635,-1.623395223062561,-0.3231319877036743,0.05063850177736514,-0.00041234322629016436,0.011962835352554572,0.0011793508501570296,0.008800548980221347,2.1054445002144897e-05,0.0,-1.5707963267948966,8.881784197001252e-16,-1.655141228937726,-1.623404528450802,-0.4983103939625894
9.403,666.6666870117188,0.0,0.0,-1.5707963267948966,8.881784197001252e-16,-1.655141228937726,-1.623404528450802,-0.3449689913014833,0.0,0.0,0.0,0.0,0.0,-0.6838488234413337,6.512608546128213e-05,-1.5707627709651617,4.727708293106349e-05,-1.655133578511635,-1.6233946904303431,-0.3681817543873457,0.05122754723740943,5.027267590001086e-05,0.011458037329119255,0.0008252724000350112,0.008863077089783965,2.919371686088491e-05,0.0,-1.5707963267948966,8.881784197001252e-16,-1.655141228937726,-1.623404528450802,-0.42885348726437483
9.502,666.6666870117188,0.0,0.0,-1.5707963267948966,8.881784197001252e-16,-1.655141228937726,-1.623404528450802,-0.4256059582163161,0.0,0.0,0.0,0.0,0.0,-1.1790816951009946,6.411485959363403e-05,-1.5707643688618156,4.6662551682576664e-05,-1.6551339779857985,-1.623395223062561,-0.399479656281634,0.05181019694964833,0.0005311600347887452,0.010154495917228428,0.0004911633993715119,0.009211750415205288,3.0037282157495665e-05,0.0,-1.5707963267948966,8.881784197001252e-16,-1.655141228937726,-1.623404528450802,-0.6579805465726838
9.602,666.6666870117188,0.0,0.0,-1.5707963267948966,8.881784197001252e-16,-1.655141228937726,-1.623404528450802,-0.5023323464951268,0.0,0.0,0.0,0.0,0.0,-0.7326107649630617,6.38349220918436e-05,-1.5707637030715431,4.775570908998639e-05,-1.6551334453535804,-1.623395223062561,-0.5855124106736518,0.05162783699400515,0.00025916344738831755,0.010561030578520926,0.0006127585168676555,0.009047433375947399,-3.137393913815174,0.0,-1.5707963267948966,8.881784197001252e-16,-1.655141228937726,-1.623404528450802,-0.638454002556521
9.702,666.6666870117188,0.0,0.0,-1.5707963267948966,8.881784197001252e-16,-1.655141228937726,-1.623404528450802,-0.5577893288478499,0.0,0.0,0.0,0.0,0.0,-0.6676987670404899,6.334571009515267e-05,-1.5707645020198702,4.736080248181088e-05,-1.6551329127213623,-1.6233956225367245,-0.5861902517501042,0.0521815997307951,0.0006102451585888932,0.009692056719287584,0.0001226058719790773,0.009103710339029437,3.58847668715624e-05,0.0,-1.5707963267948966,8.881784197001252e-16,-1.655141228937726,-1.623404528450802,-0.8496358478613553
9.802,666.6666870117188,0.0,0.0,-1.5707963267948966,8.881784197001252e-16,-1.655141228937726,-1.623404528450802,-0.6422130938773876,0.0,0.0,0.0,0.0,0.0,-0.5926843623164205,6.328579140882269e-05,-1.5707654341262516,4.720432713858793e-05,-1.6551333121955258,-1.6233950899045066,-0.6184688960053278,0.05213081657775865,0.0005359916305837861,0.009682827201634776,0.00016156594053660047,0.009105675460630671,2.3816706601110492e-05,0.0,-1.5707963267948966,8.881784197001252e-16,-1.655141228937726,-1.623404528450802,-0.6920812031877469
9.902,666.6666870117188,0.0,0.0,-1.5707963267948966,8.881784197001252e-16,-1.655141228937726,-1.623404528450802,-0.7047353359530248,0.0,0.0,0.0,0.0,0.0,-0.7931459843847501,6.429453031573603e-05,-1.5707643688618156,4.74861257972681e-05,-1.6551337116696894,-1.623395223062561,-0.7801767697642389,0.05178208811658038,7.730466309713067e-05,0.01053024402020069,0.0006443877160015497,0.009012937117452467,-3.1372668810311777,0.0,-1.5707963267948966,8.881784197001252e-16,-1.655141228937726,-1.623404528450802,-0.821123379010725
10.002,666.6666870117188,0.0,0.0,-1.5707963267948966,8.881784197001252e-16,-1.655141228937726,-1.623404528450802,-0.7742561924073712,0.0,0.0,0.0,0.0,0.0,-0.6050799265990495,6.352805877007199e-05,-1.570765833600415,4.7739295961869275e-05,-1.655133045879417,-1.6233950899045066,-0.8253323305222138,0.0513873577087602,-8.600807477201876e-05,0.011191965689977023,0.0008817067731023781,0.008859261279284585,-3.13741388752335,0.0,-1.5707963267948966,8.881784197001252e-16,-1.655141228937726,-1.623404528450802,-0.8865054190850844
10.102,666.6666870117188,0.0,0.0,-1.5707963267948966,8.881784197001252e-16,-1.655141228937726,-1.623404528450802,-0.8582577098171775,0.0,0.0,0.0,0.0,0.0,-0.9419094532961625,6.493920174031709e-05,-1.5707659667584697,4.648869605983976e-05,-1.6551334453535804,-1.623394956746452,-0.9297958229659806,0.05183166452474789,0.00027006782744078573,0.010636288806153584,0.0006638764505792216,0.008978549049876819,-3.1371401145632896,0.0,-1.5707963267948966,8.881784197001252e-16,-1.655141228937726,-1.623404528450802,-1.0728957637687555
10.202,666.6666870117188,0.0,0.0,-1.5707963267948966,8.881784197001252e-16,-1.655141228937726,-1.623404528450802,-0.943382016937262,0.0,0.0,0.0,0.0,0.0,-0.8377153312640673,6.452972690626888e-05,-1.5707637030715431,4.851301301568702e-05,-1.655133045879417,-1.6233956225367245,-1.0083709927691962,0.05201140293119302,0.0006661835699180978,0.010163562108205007,0.000453669329148545,0.009022669098701565,2.8397056375190658e-05,0.0,-1.5707963267948966,8.881784197001252e-16,-1.655141228937726,-1.623404528450802,-1.0354781650487217
10.302,666.6666870117188,0.0,0.0,-1.5707963267948966,8.881784197001252e-16,-1.655141228937726,-1.623404528450802,-1.0210776304662943,0.0,0.0,0.0,0.0,0.0,-0.9737157031852298,6.467983855584702e-05,-1.5707641025457066,4.733995996284265e-05,-1.655133578511635,-1.623395223062561,-0.9661798631996159,0.05184073591721097,0.0006161221881526692,0.010117258475345855,0.00047624504843850514,0.009008232893058193,3.1336023713712287,0.0,-1.5707963267948966,8.881784197001252e-16,-1.655141228937726,-1.623404528450802,-1.302282493180649
10.402,666.6666870117188,0.0,0.0,-1.5707963267948966,8.881784197001252e-16,-1.655141228937726,-1.623404528450802,-1.1143676836500056,0.0,0.0,0.0,0.0,0.0,-0.7044423809853129,6.473859909869757e-05,-1.5707645020198702,4.83870273234328e-05,-1.655133045879417,-1.623395223062561,-1.1339096768154142,0.051200774146075725,-0.0001898525506604678,0.011218344508633718,0.0008951649042272416,0.008723794805070122,-3.1371401145632896,0.0,-1.5707963267948966,8.881784197001252e-16,-1.655141228937726,-1.623404528450802,-1.3963112691072401
10.501,666.6666870117188,0.0,0.0,-1.5707963267948966,8.881784197001252e-16,-1.655141228937726,-1.623404528450802,-1.2031886268621577,0.0,0.0,0.0,0.0,0.0,-0.7947098162001519,6.481834032500163e-05,-1.5707667657067967,4.773898305994676e-05,-1.6551333121955258,-1.6233956225367245,-1.3440341520871022,0.05106792818076201,-0.00026715931873416807,0.01145503295051451,0.0009352979486280439,0.00862342588119046,-3.1370306586424874,0.0,-1.5707963267948966,8.881784197001252e-16,-1.655141228937726,-1.623404528450802,-1.4459416435345616
10.602,666.6666870117188,0.0,0.0,-1.5707963267948966,8.881784197001252e-16,-1.655141228937726,-1.623404528450802,-1.2840993369909306,0.0,0.0,0.0,0.0,0.0,-0.6735279156512997,6.777390216617438e-05,-1.5707633035973796,4.6881660237898906e-05,-1.6551382390435425,-1.6233972204333786,-1.2637235999385636,0.053160977221671735,0.0012808959601724227,0.008631832003529672,-0.0005678888688190927,0.00895809576464555,-0.15064325502271572,0.0,-1.5707963267948966,8.881784197001252e-16,-1.655141228937726,-1.623404528450802,-1.3616596174182631
10.702,733.3333129882812,0.0,0.0,-1.5707963267948966,8.881784197001252e-16,-1.655141228937726,-1.623404528450802,-1.2922736797619612,0.0,0.0,0.0,0.0,0.0,0.7395319250339278,6.431563697269079e-05,-1.5707678309712327,4.837991997976436e-05,-1.6551325132471988,-1.6233956225367245,-1.3858680185964483,0.05067352234569968,-0.0006220391391253638,0.0115904047576746,0.0010049399362265226,0.008501612788900504,-3.1373467758638798,0.0,-1.5707963267948966,8.881784197001252e-16,-1.655141228937726,-1.623404528450802,-1.1388716053612582
10.802,733.3333129882812,0.0,0.0,-1.5707963267948966,8.881784197001252e-16,-1.655141228937726,-1.623404528450802,-1.2175195759519317,0.0,0.0,0.0,0.0,0.0,1.0204526974551873,8.880605189042512e-05,-1.5707700946581593,5.070470405444777e-05,-1.655133578511635,-1.623391760953144,-1.3096739145448453,0.03052455320324296,0.00019642768473167001,0.0024840008288590353,-0.0010532725389337451,0.005404746032477505,3.1290102827036046,0.0,-1.5707963267948966,8.881784197001252e-16,-1.655141228937726,-1.623404528450802,-1.1045353130262654
10.902,733.3333129882812,0.0,0.0,-1.5707963267948966,8.881784197001252e-16,-1.655141228937726,-1.623404528450802,-1.1363644810501157,0.0,0.0,0.0,0.0,0.0,1.1282273160127476,8.231666107331328e-05,-1.5707683636034508,4.1585193777541474e-05,-1.6551343774599618,-1.6233908288467624,-1.0969744953941871,0.027174521256140255,0.00037851428600441214,0.002013499846985546,-0.0005021559933841599,0.005316573554152566,-0.0006598096033374401,0.0,-1.5707963267948966,8.881784197001252e-16,-1.655141228937726,-1.623404528450802,-0.999705854349511
11.002,733.3333129882812,0.0,0.0,-1.5707963267948966,8.881784197001252e-16,-1.655141228937726,-1.623404528450802,-1.0487809468558016,0.0,0.0,0.0,0.0,0.0,0.9404683329774409,8.283654152207152e-05,-1.5707667657067967,4.2549244600794536e-05,-1.655135709040507,-1.623391760953144,-1.000639236913451,0.028186872010263438,0.0008016296282980336,0.0004065572552495002,0.0020339584637404816,0.007138550766943707,0.009723028450527364,0.0,-1.5707963267948966,8.881784197001252e-16,-1.655141228937726,-1.623404528450802,-0.9529316307430339
11.102,733.3333129882812,0.0,0.0,-1.5707963267948966,8.881784197001252e-16,-1.655141228937726,-1.623404528450802,-0.9904879282473509,0.0,0.0,0.0,0.0,0.0,0.5367137578441759,8.041403045603172e-05,-1.5707651678101426,4.509652226068916e-05,-1.65513491009218,-1.623392027269253,-0.9636299530348923,0.028222889183412158,0.0010921050166527884,0.0011991565503185427,-0.0012760602682067596,0.0052407842547478435,1.9260643298976827e-05,0.0,-1.5707963267948966,8.881784197001252e-16,-1.655141228937726,-1.623404528450802,-0.9264934625134418
11.202,733.3333129882812,0.0,0.0,-1.5707963267948966,8.881784197001252e-16,-1.655141228937726,-1.623404528450802,-0.9070770435406281,0.0,0.0,0.0,0.0,0.0,0.756209898511986,7.962314443308925e-05,-1.5707637030715431,4.6032042117735185e-05,-1.655134643776071,-1.623392293585362,-0.9355644962032013,0.028457239036960725,0.00109718257774089,0.0013198169931991973,-0.0012515336988941608,0.005271586417527592,3.128851291986527,0.0,-1.5707963267948966,8.881784197001252e-16,-1.655141228937726,-1.623404528450802,-0.7981873261697058
11.302,733.3333129882812,0.0,0.0,-1.5707963267948966,8.881784197001252e-16,-1.655141228937726,-1.623404528450802,-0.8320404278640856,0.0,0.0,0.0,0.0,0.0,0.7102501576748863,7.927084937763373e-05,-1.5707641025457066,4.613638068607758e-05,-1.6551345106180164,-1.623392293585362,-0.8179977851430538,0.027953936961043976,0.00040549238092495626,0.0018994035500358541,-0.0009688869378395057,0.0051290136724512795,1.739918976196531e-05,0.0,-1.5707963267948966,8.881784197001252e-16,-1.655141228937726,-1.623404528450802,-0.7823801207678572
11.402,733.3333129882812,0.0,0.0,-1.5707963267948966,8.881784197001252e-16,-1.655141228937726,-1.623404528450802,-0.7603925207508491,0.0,0.0,0.0,0.0,0.0,0.6093406002297858,7.912512648229339e-05,-1.570763170439325,4.6825537011252354e-05,-1.6551342443019075,-1.6233924267434166,-0.6935377479173451,0.02829785716809789,0.0007362065664029989,0.001348202545349159,-0.0011956889793406104,0.005261166279614007,3.1354804325719523,0.0,-1.5707963267948966,8.881784197001252e-16,-1.655141228937726,-1.623404528450802,-0.6280401567915328
11.502,733.3333129882812,0.0,0.0,-1.5707963267948966,8.881784197001252e-16,-1.655141228937726,-1.623404528450802,-0.7028408991623714,0.0,0.0,0.0,0.0,0.0,0.5647463278876377,8.050455257584771e-05,-1.570765833600415,4.4742215692874646e-05,-1.655134643776071,-1.6233916277950895,-0.6506025977182239,0.02868254454577603,0.0008838467946873114,0.0009654752828414921,-0.0013486817322933458,0.005379102183863834,3.1353065281527703,0.0,-1.5707963267948966,8.881784197001252e-16,-1.655141228937726,-1.623404528450802,-0.5904690077372432
11.602,733.3333129882812,0.0,0.0,-1.5707963267948966,8.881784197001252e-16,-1.655141228937726,-1.623404528450802,-0.629547354596558,0.0,0.0,0.0,0.0,0.0,1.0070390427210476,7.916656770054996e-05,-1.5707667657067967,4.6533798636955826e-05,-1.655134111143853,-1.6233921604273076,-0.6502755615363622,0.028314347960910362,0.00045526680318181404,0.0013358981689494775,-0.0011861253962170814,0.005261424273344608,1.8742634166261653e-05,0.0,-1.5707963267948966,8.881784197001252e-16,-1.655141228937726,-1.623404528450802,-0.4321684214502334
11.702,733.3333129882812,0.0,0.0,-1.5707963267948966,8.881784197001252e-16,-1.655141228937726,-1.623404528450802,-0.5474464161709607,0.0,0.0,0.0,0.0,0.0,0.9907723630845864,7.952223559491046e-05,-1.5707675646551238,4.463897837675303e-05,-1.6551347769341254,-1.623392293585362,-0.4957138145094879,0.02833465456422222,0.0006757001446073466,0.0011526548708607495,-0.0012746826545061592,0.005310456085875139,3.130183405163785,0.0,-1.5707963267948966,8.881784197001252e-16,-1.655141228937726,-1.623404528450802,-0.40599915750973836
11.802,733.3333129882812,0.0,0.0,-1.5707963267948966,8.881784197001252e-16,-1.655141228937726,-1.623404528450802,-0.47744874334646603,0.0,0.0,0.0,0.0,0.0,0.5711249894720024,7.866840345794618e-05,-1.5707671651809603,4.652586637003714e-05,-1.6551342443019075,-1.6233921604273076,-0.4957897146005552,0.02815968071941481,0.00027261429643207546,0.0016985429471950341,-0.0010941909427780794,0.005212846030437231,-3.137754239510662,0.0,-1.5707963267948966,8.881784197001252e-16,-1.655141228937726,-1.623404528450802,-0.2841288412450608
11.902,733.3333129882812,0.0,0.0,-1.5707963267948966,8.881784197001252e-16,-1.655141228937726,-1.623404528450802,-0.4041527310790345,0.0,0.0,0.0,0.0,0.0,0.9392417472371036,7.905879127472128e-05,-1.5707680972873417,4.589009436377162e-05,-1.6551339779857985,-1.6233924267434166,-0.44282609842160436,0.028177091135041202,0.0004076965758496334,0.0018420428572406952,-0.0010744051383024442,0.0052183850934154055,-3.1375627582282855,0.0,-1.5707963267948966,8.881784197001252e-16,-1.655141228937726,-1.623404528450802,-0.19828441642036837
12.002,733.3333129882812,0.0,0.0,-1.5707963267948966,8.881784197001252e-16,-1.655141228937726,-1.623404528450802,-0.3288740001847863,0.0,0.0,0.0,0.0,0.0,0.8256490401553397,7.959126094628389e-05,-1.5707672983390146,4.4709653574626956e-05,-1.6551347769341254,-1.623392027269253,-0.23385031110709484,0.02832081028774301,0.0008778384926078892,0.001151453457515474,-0.001355468111735194,0.005345261312668413,3.131186884262527,0.0,-1.5707963267948966,8.881784197001252e-16,-1.655141228937726,-1.623404528450802,-0.16718887468941468
12.102,733.3333129882812,0.0,0.0,-1.5707963267948966,8.881784197001252e-16,-1.655141228937726,-1.623404528450802,-0.25600527890064306,0.0,0.0,0.0,0.0,0.0,0.8454618253114398,7.721414910463735e-05,-1.5707672983390146,4.607916839819424e-05,-1.6551353095663435,-1.623393092533689,-0.2566774299431409,0.02927878262135814,0.0015731929741194808,-3.3654156116401145e-05,-0.0010262919082885302,0.006107250477337579,9.303447030673892e-05,0.0,-1.5707963267948966,8.881784197001252e-16,-1.655141228937726,-1.623404528450802,-0.1635599373296942
12.202,733.3333129882812,0.0,0.0,-1.5707963267948966,8.881784197001252e-16,-1.655141228937726,-1.623404528450802,-0.1721120285504183,0.0,0.0,0.0,0.0,0.0,1.0367582947516383,7.969857411472079e-05,-1.5707671651809603,4.585964534941621e-05,-1.6551347769341254,-1.623392027269253,-0.24437677156601248,0.02837034508401848,0.0009438776055607487,0.0013505173368806287,-0.0013410927634839207,0.005337657259548126,-3.137794186927013,0.0,-1.5707963267948966,8.881784197001252e-16,-1.655141228937726,-1.623404528450802,0.08588431273672265
12.302,733.3333129882812,0.0,0.0,-1.5707963267948966,8.881784197001252e-16,-1.655141228937726,-1.623404528450802,-0.0705417174610572,0.0,0.0,0.0,0.0,0.0,0.878314181267913,7.900595555009176e-05,-1.5707659667584697,4.747292702526404e-05,-1.6551339779857985,-1.623392293585362,-0.06564260155606025,0.02787914166571018,0.0009305451553535395,0.0014407856241552175,-0.0013134021299309015,0.005259085164863731,1.0883284570582082e-05,0.0,-1.5707963267948966,8.881784197001252e-16,-1.655141228937726,-1.623404528450802,0.051129054514553296
12.402,733.3333129882812,0.0,0.0,-1.5707963267948966,8.881784197001252e-16,-1.655141228937726,-1.623404528450802,0.01964981699620317,0.0,0.0,0.0,0.0,0.0,0.6474215244223963,7.934272741926172e-05,-1.5707633035973796,4.565192317314427e-05,-1.6551347769341254,-1.6233918941111984,0.09372693354197723,0.028918049129328497,0.0017890615560076306,-0.0002429377678410964,-0.0021584041583873038,0.0055287437490991655,2.9521749826361918e-05,0.0,-1.5707963267948966,8.881784197001252e-16,-1.655141228937726,-1.623404528450802,0.16682176352618225
12.502,733.3333129882812,0.0,0.0,-1.5707963267948966,8.881784197001252e-16,-1.655141228937726,-1.623404528450802,0.08843103890398163,0.0,0.0,0.0,0.0,0.0,0.6405515140216242,7.863378919072619e-05,-1.5707626378071071,4.624876124019462e-05,-1.6551350432502345,-1.6233921604273076,0.147739460683391,0.02832120976190652,0.001415403280275538,0.0005269402313344537,-0.001728371521738385,0.00541995569916403,3.1313133844143053,0.0,-1.5707963267948966,8.881784197001252e-16,-1.655141228937726,-1.623404528450802,0.30238789670806426
12.603,733.3333129882812,0.0,0.0,-1.5707963267948966,8.881784197001252e-16,-1.655141228937726,-1.623404528450802,0.15019130102604186,0.0,0.0,0.0,0.0,0.0,0.8688840730281913,7.863830798212659e-05,-1.5707633035973796,4.5642397950983704e-05,-1.65513491009218,-1.6233921604273076,0.1771091174351643,0.02806658035277592,0.0009331077977169277,0.0007659008125573824,-0.001599755405249769,0.005326370553982964,3.1310129798433444,0.0,-1.5707963267948966,8.881784197001252e-16,-1.655141228937726,-1.623404528450802,0.34970157754691983
12.702,733.3333129882812,0.0,0.0,-1.5707963267948966,8.881784197001252e-16,-1.655141228937726,-1.623404528450802,0.22666703444524836,0.0,0.0,0.0,0.0,0.0,0.5622354528967524,7.974711861298447e-05,-1.5707633035973796,4.5579163317007384e-05,-1.655134111143853,-1.6233910951628714,0.20877513477112883,0.027113549431339652,0.00028028105997402684,0.001806820731304121,-0.0021016910506619006,0.004474217261806453,-2.819078492601399e-05,0.0,-1.5707963267948966,8.881784197001252e-16,-1.655141228937726,-1.623404528450802,0.3867125147072337
12.803,733.3333129882812,0.0,0.0,-1.5707963267948966,8.881784197001252e-16,-1.655141228937726,-1.623404528450802,0.30562837185141556,0.0,0.0,0.0,0.0,0.0,0.742960367036568,7.92452158019559e-05,-1.5707657004423607,4.639096500482205e-05,-1.6551347769341254,-1.6233918941111984,0.2918854515289108,0.02755893399533098,0.00025307409964730397,0.00185178017001346,-0.0012017173721616547,0.005078517641469855,2.863855367261768e-05,0.0,-1.5707963267948966,8.881784197001252e-16,-1.655141228937726,-1.623404528450802,0.48880002421881624
12.903,733.3333129882812,0.0,0.0,-1.5707963267948966,8.881784197001252e-16,-1.655141228937726,-1.623404528450802,0.3917276309892409,0.0,0.0,0.0,0.0,0.0,0.7902133164949328,7.948573578883275e-05,-1.5707651678101426,4.4670085704244114e-05,-1.6551351764082889,-1.623392027269253,0.4168248244613201,0.0280951157077372,0.0011605111960764833,0.0001459424955986776,-0.0019003733671945364,0.005353867172089382,3.130869701776698,0.0,-1.5707963267948966,8.881784197001252e-16,-1.655141228937726,-1.623404528450802,0.632472056465582
13.003,733.3333129882812,0.0,0.0,-1.5707963267948966,8.881784197001252e-16,-1.655141228937726,-1.623404528450802,0.47921009749306426,0.0,0.0,0.0,0.0,0.0,0.8574854554910443,7.840183540193572e-05,-1.5707660999165243,4.565415818687648e-05,-1.6551350432502345,-1.6233924267434166,0.551143884042502,0.02808326880207555,0.0009529171389189937,0.000493513300936884,-0.0018093980678668832,0.005280672374152886,3.1315283015142747,0.0,-1.5707963267948966,8.881784197001252e-16,-1.655141228937726,-1.623404528450802,0.6045076878625155
13.103,733.3333129882812,0.0,0.0,-1.5707963267948966,8.881784197001252e-16,-1.655141228937726,-1.623404528450802,0.5557843435895722,0.0,0.0,0.0,0.0,0.0,0.9176316688203041,7.899092813048862e-05,-1.570765833600415,4.562331906103326e-05,-1.6551351764082889,-1.6233924267434166,0.6556065442484283,0.028085846658786964,0.0008122237559351798,0.0005699757702231033,-0.0017902524363427354,0.005245273657749499,3.1354292998790227,0.0,-1.5707963267948966,8.881784197001252e-16,-1.655141228937726,-1.623404528450802,0.804874427038136
13.202,733.3333129882812,0.0,0.0,-1.5707963267948966,8.881784197001252e-16,-1.655141228937726,-1.623404528450802,0.6365584216132051,0.0,0.0,0.0,0.0,0.0,0.9521717991089053,7.90717624816908e-05,-1.57076183885878,4.6106151109434056e-05,-1.6551347769341254,-1.6233918941111984,0.6555463568077925,0.02820136335166375,0.0013060457976053707,-0.00020436302377832953,-0.0020797229625234867,0.005365039965100105,3.1311546600133364,0.0,-1.5707963267948966,8.881784197001252e-16,-1.655141228937726,-1.623404528450802,0.8147878948522894
13.303,733.3333129882812,0.0,0.0,-1.5707963267948966,8.881784197001252e-16,-1.655141228937726,-1.623404528450802,0.7177776389804253,0.0,0.0,0.0,0.0,0.0,0.8029089424162765,7.475047314931152e-05,-1.5707653009681972,4.966602409084542e-05,-1.655132779563308,-1.6233929593756344,0.7315570356393163,0.027775236771305056,0.000765882997466106,0.0019143483310221595,-0.004311125692768921,0.003286157952907162,-0.009989202038805076,0.0,-1.5707963267948966,8.881784197001252e-16,-1.655141228937726,-1.623404528450802,0.7821431994752603
13.403,733.3333129882812,0.0,0.0,-1.5707963267948966,8.881784197001252e-16,-1.655141228937726,-1.623404528450802,0.7967360216447483,0.0,0.0,0.0,0.0,0.0,1.0150296953756635,7.744912625745832e-05,-1.5707662330745786,4.7565094927919207e-05,-1.6551342443019075,-1.6233929593756344,0.9051790931669149,0.027873049684716624,0.0010727753825435593,6.65240215322005e-05,-0.0016399729087876811,0.0054323960944357924,1.0147605418655949e-05,0.0,-1.5707963267948966,8.881784197001252e-16,-1.655141228937726,-1.623404528450802,0.9401824533532174
13.502,733.3333129882812,0.0,0.0,-1.5707963267948966,8.881784197001252e-16,-1.655141228937726,-1.623404528450802,0.8666949963339509,0.0,0.0,0.0,0.0,0.0,0.670960498449483,8.020102958369042e-05,-1.5707674314970692,4.445061954672472e-05,-1.655135442724398,-1.623392293585362,0.9139322378797329,0.027790963985898736,0.001085265907141505,0.00038652425012775956,-0.0018571352304065534,0.0051790264853364765,3.1314486729976814,0.0,-1.5707963267948966,8.881784197001252e-16,-1.655141228937726,-1.623404528450802,1.0986631317563926
13.603,733.3333129882812,0.0,0.0,-1.5707963267948966,8.881784197001252e-16,-1.655141228937726,-1.623404528450802,0.9386981935277678,0.0,0.0,0.0,0.0,0.0,0.771431976031118,8.024426694025544e-05,-1.5707684967615052,4.426177307733665e-05,-1.65513491009218,-1.623391760953144,0.9362216312021783,0.02876715816703489,0.0008171440370751151,0.0010650871953790694,-0.0017472660515015493,0.005254187445171508,7.069705224456872e-05,0.0,-1.5707963267948966,8.881784197001252e-16,-1.655141228937726,-1.623404528450802,0.996826228301841
13.702,733.3333129882812,0.0,0.0,-1.5707963267948966,8.881784197001252e-16,-1.655141228937726,-1.623404528450802,1.0092292335624808,0.0,0.0,0.0,0.0,0.0,0.5482949347482204,7.949968227452176e-05,-1.570770227816214,4.5954223003240834e-05,-1.655134643776071,-1.623392559901471,1.0930282232909077,0.027843667527752483,0.0007863033182766553,0.001616349057457862,-0.0014128732772399626,0.005023936362988142,-3.1387795565303427,0.0,-1.5707963267948966,8.881784197001252e-16,-1.655141228937726,-1.623404528450802,1.2119391195277642
13.803,733.3333129882812,0.0,0.0,-1.5707963267948966,8.881784197001252e-16,-1.655141228937726,-1.623404528450802,1.0819745073437408,0.0,0.0,0.0,0.0,0.0,0.7388392244621743,7.914994732570495e-05,-1.5707695620259412,4.4971666266285036e-05,-1.6551345106180164,-1.6233926930595255,1.0708377664029587,0.02764806458746997,0.0008668664769762229,0.001111935683949521,-0.0015669925421323149,0.005040163440434861,-3.1386724974545213,0.0,-1.5707963267948966,8.881784197001252e-16,-1.655141228937726,-1.623404528450802,1.3632279627055515
13.903,733.3333129882812,0.0,0.0,-1.5707963267948966,8.881784197001252e-16,-1.655141228937726,-1.623404528450802,1.1654482939514546,0.0,0.0,0.0,0.0,0.0,0.9601753955846628,7.862228090183595e-05,-1.5707664993906878,4.638700293502403e-05,-1.655131714298872,-1.623391228320926,1.124980763470651,0.02583358219658253,0.0006906408944416114,0.0014753877329005077,0.0026488164305983387,0.006763167808324031,-0.15060663655772713,0.0,-1.5707963267948966,8.881784197001252e-16,-1.655141228937726,-1.623404528450802,1.437250103684462
14.002,733.3333129882812,0.0,0.0,-1.5707963267948966,8.881784197001252e-16,-1.655141228937726,-1.623404528450802,1.2466996078167505,0.0,0.0,0.0,0.0,0.0,0.9330720275252528,7.928768106286796e-05,-1.5707666325487422,4.572539823367546e-05,-1.6551347769341254,-1.6233921604273076,1.2428586649041744,0.02801007972577421,0.001359852184635142,0.0009407625653306291,-0.001673237195204127,0.005141480595304213,3.131493147787886,0.0,-1.5707963267948966,8.881784197001252e-16,-1.655141228937726,-1.623404528450802,1.4725136929679654
14.103,733.3333129882812,0.0,0.0,-1.5707963267948966,8.881784197001252e-16,-1.655141228937726,-1.623404528450802,1.3419330275508468,0.0,0.0,0.0,0.0,0.0,0.6171966990920162,8.404640728291611e-05,-1.5707646351779248,4.239686542819354e-05,-1.6551363748307795,-1.623391228320926,1.3388211474113265,0.028041723489070313,0.0016343783199410757,-6.860093445665875e-05,0.0006744173930168638,0.006643098774458888,0.008214933900526484,0.0,-1.5707963267948966,8.881784197001252e-16,-1.655141228937726,-1.623404528450802,1.5539694877544938
14.202,800.0,0.0,0.0,-1.5707963267948966,8.881784197001252e-16,-1.655141228937726,-1.623404528450802,1.3984650400756649,0.0,0.0,0.0,0.0,0.0,0.21685061139679074,7.867268655698937e-05,-1.5707662330745786,4.885053666220327e-05,-1.6551334453535804,-1.6233929593756344,1.4485545695991695,0.028001326664285175,0.0009096068315057671,0.0013664202316809823,-0.0014504839257792018,0.005043124646701622,2.4865539622549085e-05,0.0,-1.5707963267948966,8.881784197001252e-16,-1.655141228937726,-1.623404528450802,1.1007178557158313
14.302,800.0,0.0,0.0,-1.5707963267948966,8.881784197001252e-16,-1.655141228937726,-1.623404528450802,1.3224663046063645,0.0,0.0,0.0,0.0,0.0,-0.9061203328923251,7.994987093144825e-05,-1.5707645020198702,4.649594969531612e-05,-1.655134643776071,-1.6233924267434166,1.4400239319954278,0.028077699050327,0.0010244378384241578,0.0012055552889786761,-0.0014917278126415276,0.00510182134130535,2.095635431309937e-05,0.0,-1.5707963267948966,8.881784197001252e-16,-1.655141228937726,-1.623404528450802,1.2250762336130823
14.402,800.0,0.0,0.0,-1.5707963267948966,8.881784197001252e-16,-1.655141228937726,-1.623404528450802,1.2312466835190357,0.0,0.0,0.0,0.0,0.0,-1.1556948328520527,7.194790409360079e-05,-1.5707614393846165,3.645624362824412e-05,-1.655137839569379,-1.62339282621758,1.2375729559306397,0.0111176478911043,-0.0003528468031364381,-0.002273245178167215,-0.0015675193226780135,0.0020915493223134453,-3.1379659608173234,0.0,-1.5707963267948966,8.881784197001252e-16,-1.655141228937726,-1.623404528450802,1.0344019361572183
14.503,800.0,0.0,0.0,-1.5707963267948966,8.881784197001252e-16,-1.655141228937726,-1.623404528450802,1.1525564081082402,0.0,0.0,0.0,0.0,0.0,-0.9423124535630862,7.298763248182661e-05,-1.570761039910453,3.5411894857084615e-05,-1.6551382390435425,-1.6233926930595255,1.2250919183239286,0.011342604900323834,-0.0001273363638801956,-0.002376607297455639,-0.0016541707563120034,0.0021544373747421444,3.136271391415706,0.0,-1.5707963267948966,8.881784197001252e-16,-1.655141228937726,-1.623404528450802,0.9213193733565538
14.602,800.0,0.0,0.0,-1.5707963267948966,8.881784197001252e-16,-1.655141228937726,-1.623404528450802,1.0782601452482883,0.0,0.0,0.0,0.0,0.0,-0.5458259752730281,7.349976759208738e-05,-1.5707663662326332,3.453852057277813e-05,-1.6551381058854882,-1.6233929593756344,1.0454143651097079,0.01159049318294517,-0.0005390376535898549,-0.0021230207863691037,-0.001561599120776254,0.002155372471978412,-3.137851178574341,0.0,-1.5707963267948966,8.881784197001252e-16,-1.655141228937726,-1.623404528450802,0.8754520720774867
14.703,800.0,0.0,0.0,-1.5707963267948966,8.881784197001252e-16,-1.655141228937726,-1.623404528450802,1.0004401302551766,0.0,0.0,0.0,0.0,0.0,-0.8190619967642474,7.427314736201462e-05,-1.5707675646551238,3.258087001290147e-05,-1.6551381058854882,-1.623392293585362,0.993123197106002,0.011377058506629432,-2.7755507874342707e-05,-0.0023467289186790115,-0.001673261902265021,0.002177374499816265,3.1363579441511336,0.0,-1.5707963267948966,8.881784197001252e-16,-1.655141228937726,-1.623404528450802,0.900431921769791
14.802,800.0,0.0,0.0,-1.5707963267948966,8.881784197001252e-16,-1.655141228937726,-1.623404528450802,0.9309194384974129,0.0,0.0,0.0,0.0,0.0,-0.9441079619698427,7.387069859840823e-05,-1.5707683636034508,3.385121930900109e-05,-1.6551379727274336,-1.6233924267434166,0.8335713519865918,0.011473589773766397,-0.00019683409962873577,-0.002127080936697011,-0.0015962317882547556,0.002170083316109197,-3.1377228142097993,0.0,-1.5707963267948966,8.881784197001252e-16,-1.655141228937726,-1.623404528450802,0.8760713543422776
14.902,800.0,0.0,0.0,-1.5707963267948966,8.881784197001252e-16,-1.655141228937726,-1.623404528450802,0.8529118607723474,0.0,0.0,0.0,0.0,0.0,-0.8863957194369084,7.479594551960874e-05,-1.5707630372812706,3.4556522592475776e-05,-1.655138638517706,-1.623392027269253,0.7795709006162459,0.011623418592515877,-0.0002328447384100351,-0.0015057450385469965,-0.0017080078321121486,0.0019429100835274464,-1.817937616462248e-05,0.0,-1.5707963267948966,8.881784197001252e-16,-1.655141228937726,-1.623404528450802,0.7129534489437255
15.003,800.0,0.0,0.0,-1.5707963267948966,8.881784197001252e-16,-1.655141228937726,-1.623404528450802,0.7755945330808744,0.0,0.0,0.0,0.0,0.0,-0.5266458454587433,7.252422067092808e-05,-1.5707635699134885,3.4277007711463796e-05,-1.6551385053596515,-1.6233926930595255,0.7588303352047633,0.011443767571044015,-1.894333433575311e-05,-0.0023829445285378616,-0.0016859524890376293,0.0022114499580530187,3.1322899655860375,0.0,-1.5707963267948966,8.881784197001252e-16,-1.655141228937726,-1.623404528450802,0.492174066000762
15.103,800.0,0.0,0.0,-1.5707963267948966,8.881784197001252e-16,-1.655141228937726,-1.623404528450802,0.7052102936315148,0.0,0.0,0.0,0.0,0.0,-0.8192026775643397,7.238171619536213e-05,-1.5707667657067967,3.498708782883342e-05,-1.65513757325327,-1.6233926930595255,0.6364957002660196,0.011517528810860803,-0.00045554748839728946,-0.0021449027899058753,-0.0015756881271954788,0.002179269921498345,-3.137745983711283,0.0,-1.5707963267948966,8.881784197001252e-16,-1.655141228937726,-1.623404528450802,0.5381538611014298
15.203,800.0,0.0,0.0,-1.5707963267948966,8.881784197001252e-16,-1.655141228937726,-1.623404528450802,0.6146553837552347,0.0,0.0,0.0,0.0,0.0,-0.9526141805413774,7.28954848974781e-05,-1.5707663662326332,3.492492600144856e-05,-1.655137839569379,-1.623392293585362,0.6172343876820215,0.01158830335712696,-0.0003884350812136077,-0.002219674288438915,-0.0016086786853846484,0.002203647468222602,-3.137757701620079,0.0,-1.5707963267948966,8.881784197001252e-16,-1.655141228937726,-1.623404528450802,0.4928419742423708
15.303,800.0,0.0,0.0,-1.5707963267948966,8.881784197001252e-16,-1.655141228937726,-1.623404528450802,0.5375182322649614,0.0,0.0,0.0,0.0,0.0,-0.6320909187079605,7.34762552476245e-05,-1.5707649014940337,3.4398689986368176e-05,-1.655138372201597,-1.623392293585362,0.5361095740301913,0.010273854428037117,-0.0006985670496136622,-0.001285861039114874,-0.0020026183372190507,0.0013155738805835095,7.901922746799977e-05,0.0,-1.5707963267948966,8.881784197001252e-16,-1.655141228937726,-1.623404528450802,0.42994091019636516
15.402,800.0,0.0,0.0,-1.5707963267948966,8.881784197001252e-16,-1.655141228937726,-1.623404528450802,0.4544280839692645,0.0,0.0,0.0,0.0,0.0,-0.7736918220086721,7.26298352289285e-05,-1.5707662330745786,3.5453157274242614e-05,-1.6551379727274336,-1.623392559901471,0.46821734204469234,0.012021824370699827,-0.00016007200859405286,-0.0020957319676485234,-0.0016074603672082347,0.0022955722989115718,-3.1377654247872404,0.0,-1.5707963267948966,8.881784197001252e-16,-1.655141228937726,-1.623404528450802,0.3708348783956498
15.502,800.0,0.0,0.0,-1.5707963267948966,8.881784197001252e-16,-1.655141228937726,-1.623404528450802,0.38240048015305117,0.0,0.0,0.0,0.0,0.0,-0.7073439916241722,7.28965902133602e-05,-1.5707659667584697,3.5456639832003535e-05,-1.655137839569379,-1.623392559901471,0.3130192659648573,0.011680923106412873,-0.0002477839603076394,-0.0020056827929929182,-0.0015221139865381139,0.0022382966504207544,-3.1375310666113134,0.0,-1.5707963267948966,8.881784197001252e-16,-1.655141228937726,-1.623404528450802,0.27754835080259593
15.601,800.0,0.0,0.0,-1.5707963267948966,8.881784197001252e-16,-1.655141228937726,-1.623404528450802,0.31182140660937385,0.0,0.0,0.0,0.0,0.0,-0.9484965941059644,7.285760344654773e-05,-1.5707646351779248,3.5774446593740335e-05,-1.6551379727274336,-1.623392559901471,0.34968130692678323,0.01200884146038569,5.574734203706836e-05,-0.002902228691886988,-0.0018550926066564087,0.002382716703428984,9.741974808227147e-06,0.0,-1.5707963267948966,8.881784197001252e-16,-1.655141228937726,-1.623404528450802,0.26507391103606914
15.702,800.0,0.0,0.0,-1.5707963267948966,8.881784197001252e-16,-1.655141228937726,-1.623404528450802,0.23812880234498923,0.0,0.0,0.0,0.0,0.0,-0.934062729943368,7.308989045556737e-05,-1.5707657004423607,3.5380576219204306e-05,-1.655137839569379,-1.6233926930595255,0.23121381491743004,0.011778678803472893,-0.0004463059748162336,-0.002044554151823579,-0.0015094888084582943,0.00225223325328541,-3.1374690149579143,0.0,-1.5707963267948966,8.881784197001252e-16,-1.655141228937726,-1.623404528450802,0.022369726251019184
15.803,800.0,0.0,0.0,-1.5707963267948966,8.881784197001252e-16,-1.655141228937726,-1.623404528450802,0.16175293608631947,0.0,0.0,0.0,0.0,0.0,-0.7229712765931823,7.132864274332434e-05,-1.5707670320229057,3.674527966775533e-05,-1.6551381058854882,-1.6233936251659071,0.10611937110817252,0.012987370068664869,0.0005037812628609351,-0.0029631479816739003,-0.0019722529692684804,0.002461283076478224,0.0005056496043039031,0.0,-1.5707963267948966,8.881784197001252e-16,-1.655141228937726,-1.623404528450802,-0.09511271197204335
15.902,800.0,0.0,0.0,-1.5707963267948966,8.881784197001252e-16,-1.655141228937726,-1.623404528450802,0.06959119187509977,0.0,0.0,0.0,0.0,0.0,-1.1191317631546174,7.306188370167207e-05,-1.5707683636034508,3.502560727459279e-05,-1.6551374400952155,-1.623392293585362,0.07489870920787486,0.011863717906327786,-0.00038951939609396054,-0.0016162090074337402,-0.0013551772186024544,0.0022473435958972675,-3.1374128222589137,0.0,-1.5707963267948966,8.881784197001252e-16,-1.655141228937726,-1.623404528450802,-0.10900255111932561
16.002,800.0,0.0,0.0,-1.5707963267948966,8.881784197001252e-16,-1.655141228937726,-1.623404528450802,-0.009351102533084799,0.0,0.0,0.0,0.0,0.0,-0.9522176762110294,7.365174039855525e-05,-1.5707675646551238,3.386012888646996e-05,-1.6551379727274336,-1.623392293585362,-0.0929395699656953,0.01166169529140196,-0.00028921523072127396,-0.0018957355917903528,-0.0014026693911277836,0.0022489448735175427,-3.1370048259799135,0.0,-1.5707963267948966,8.881784197001252e-16,-1.655141228937726,-1.623404528450802,-0.08757960522986459
16.103,800.0,0.0,0.0,-1.5707963267948966,8.881784197001252e-16,-1.655141228937726,-1.623404528450802,-0.10313222878106743,0.0,0.0,0.0,0.0,0.0,-1.1170130024739602,7.365708817686725e-05,-1.570765833600415,3.559950190976663e-05,-1.6551377064113246,-1.6233924267434166,-0.14320058530329852,0.011753684620523579,-0.00010582281251633268,-0.0016041955241667982,-0.0013239979480511616,0.002254667809043636,-3.137122804016204,0.0,-1.5707963267948966,8.881784197001252e-16,-1.655141228937726,-1.623404528450802,-0.24739517373298064
16.202,800.0,0.0,0.0,-1.5707963267948966,8.881784197001252e-16,-1.655141228937726,-1.623404528450802,-0.1775237483019616,0.0,0.0,0.0,0.0,0.0,-0.7614481415087546,7.408849459112046e-05,-1.5707675646551238,3.407658387094286e-05,-1.6551377064113246,-1.623392293585362,-0.24787125503511678,0.011491236336880076,-0.00011834933302635092,-0.0014738886644900372,-0.0012433075479879882,0.002201355693268913,-3.136744901457522,0.0,-1.5707963267948966,8.881784197001252e-16,-1.655141228937726,-1.623404528450802,-0.3033659370675196
16.303,800.0,0.0,0.0,-1.5707963267948966,8.881784197001252e-16,-1.655141228937726,-1.623404528450802,-0.24964488412863162,0.0,0.0,0.0,0.0,0.0,-0.9895000127438713,7.305486169489158e-05,-1.5707651678101426,3.724387465846023e-05,-1.6551366411468884,-1.6233924267434166,-0.23625849116755582,0.011099455171907696,-0.0007407550062764751,-0.0006134855546437606,-0.0007653031617580658,0.0021220611121091043,2.534913767111083e-05,0.0,-1.5707963267948966,8.881784197001252e-16,-1.655141228937726,-1.623404528450802,-0.29386109159200885
16.403,800.0,0.0,0.0,-1.5707963267948966,8.881784197001252e-16,-1.655141228937726,-1.623404528450802,-0.31104563906669114,0.0,0.0,0.0,0.0,0.0,-0.6077480360904908,7.382977752880207e-05,-1.5707688962356687,3.4288016170010285e-05,-1.6551377064113246,-1.623392559901471,-0.30716850078703495,0.011744367717897506,-0.00038305238792346147,-0.0016493318134172754,-0.0012841697757780786,0.002240274255589598,-3.136981390162321,0.0,-1.5707963267948966,8.881784197001252e-16,-1.655141228937726,-1.623404528450802,-0.4373419546965206
16.502,800.0,0.0,0.0,-1.5707963267948966,8.881784197001252e-16,-1.655141228937726,-1.623404528450802,-0.3771165124036777,0.0,0.0,0.0,0.0,0.0,-0.5307215601135467,7.465280711287511e-05,-1.5707692957098323,3.393207601034059e-05,-1.6551374400952155,-1.623392559901471,-0.38131293619517215,0.011551986578355607,-0.0005079322766562103,-0.0014184764485392998,-0.0011755116329683823,0.002181730744763416,-3.1367723320167498,0.0,-1.5707963267948966,8.881784197001252e-16,-1.655141228937726,-1.623404528450802,-0.584094759265677
16.602,800.0,0.0,0.0,-1.5707963267948966,8.881784197001252e-16,-1.655141228937726,-1.623404528450802,-0.4563491181040362,0.0,0.0,0.0,0.0,0.0,-0.6889564516357453,7.332101525744626e-05,-1.5707691625517777,3.3932512853933705e-05,-1.6551382390435425,-1.623393358849798,-0.5489611572130731,0.012815486947138173,0.00041681936550123406,-0.0030342171921505117,-0.0009194633883566375,0.003055005453112642,8.306894231360842e-05,0.0,-1.5707963267948966,8.881784197001252e-16,-1.655141228937726,-1.623404528450802,-0.7067410910955281
16.702,800.0,0.0,0.0,-1.5707963267948966,8.881784197001252e-16,-1.655141228937726,-1.623404528450802,-0.5422677168035825,0.0,0.0,0.0,0.0,0.0,-0.8569748683537919,7.367106717184691e-05,-1.5707679641292873,3.406663399617318e-05,-1.6551374400952155,-1.623392559901471,-0.4922046670096314,0.011460906469074895,-0.0006671636600126255,-0.0011878911708480475,-0.001075779566092561,0.002124526356637704,8.949172768966964e-06,0.0,-1.5707963267948966,8.881784197001252e-16,-1.655141228937726,-1.623404528450802,-0.7319188448054044
16.802,800.0,0.0,0.0,-1.5707963267948966,8.881784197001252e-16,-1.655141228937726,-1.623404528450802,-0.6214579644279858,0.0,0.0,0.0,0.0,0.0,-0.8490644109605878,7.404562296407528e-05,-1.5707679641292873,3.4017169078617965e-05,-1.655137839569379,-1.6233921604273076,-0.7013555904553272,0.01154732916733987,-0.0005957257291614573,-0.0015408562427838717,-0.0011758429676586909,0.0021712414270793263,-3.1365004232694527,0.0,-1.5707963267948966,8.881784197001252e-16,-1.655141228937726,-1.623404528450802,-0.8088420046622031
16.902,800.0,0.0,0.0,-1.5707963267948966,8.881784197001252e-16,-1.655141228937726,-1.623404528450802,-0.7060255664377024,0.0,0.0,0.0,0.0,0.0,-0.7173542979611107,7.425731533746789e-05,-1.5707666325487422,3.4634744009441926e-05,-1.65513757325327,-1.6233924267434166,-0.7536947619376818,0.011384490390546434,-0.00021436333671245593,-0.0012174326233363741,-0.0010939529747705187,0.00213988803676731,-3.136373390485456,0.0,-1.5707963267948966,8.881784197001252e-16,-1.655141228937726,-1.623404528450802,-0.8909999304377938
17.002,800.0,0.0,0.0,-1.5707963267948966,8.881784197001252e-16,-1.655141228937726,-1.623404528450802,-0.7856046201337907,0.0,0.0,0.0,0.0,0.0,-1.0911518529431334,7.388304400153272e-05,-1.5707657004423607,3.4923654075451865e-05,-1.6551374400952155,-1.6233926930595255,-0.8582518644937649,0.011426286415201166,-8.979649619402496e-05,-0.0012911867111092194,-0.0011326892249892365,0.0021509709740986757,-3.1363933641936317,0.0,-1.5707963267948966,8.881784197001252e-16,-1.655141228937726,-1.623404528450802,-1.001839430495171
17.102,800.0,0.0,0.0,-1.5707963267948966,8.881784197001252e-16,-1.655141228937726,-1.623404528450802,-0.877294167161704,0.0,0.0,0.0,0.0,0.0,-0.6298810273627696,7.38770054007944e-05,-1.5707637030715431,3.516549475226138e-05,-1.65513757325327,-1.623392027269253,-0.9137721153191919,0.011555351940123732,0.0001750465030720128,-0.0016928313249020873,-0.0012846033196781922,0.002218064168291583,9.971151084497675e-06,0.0,-1.5707963267948966,8.881784197001252e-16,-1.655141228937726,-1.623404528450802,-0.9252792971183837
17.203,800.0,0.0,0.0,-1.5707963267948966,8.881784197001252e-16,-1.655141228937726,-1.623404528450802,-0.9639680492949125,0.0,0.0,0.0,0.0,0.0,-0.9657127211961548,7.673505156100002e-05,-1.5707615725426711,3.2360058783481414e-05,-1.6551377064113246,-1.623390962004817,-1.0280371058388864,0.010729956134821413,-0.00038762017082487457,-0.0015190516113588479,0.001069683488928383,0.003333438685006101,0.0011381926577848584,0.0,-1.5707963267948966,8.881784197001252e-16,-1.655141228937726,-1.623404528450802,-1.0629830119236927
17.303,800.0,0.0,0.0,-1.5707963267948966,8.881784197001252e-16,-1.655141228937726,-1.623404528450802,-1.0382385273878043,0.0,0.0,0.0,0.0,0.0,-0.5939402328152236,7.234232306241653e-05,-1.5707622383329436,3.6743060908668446e-05,-1.6551350432502345,-1.6233913614789806,-1.174549648208078,0.009614885384918732,-0.0010865212208906788,-0.0015450684065548602,0.004046546360104704,0.004248825408315181,-0.6674371047588873,0.0,-1.5707963267948966,8.881784197001252e-16,-1.655141228937726,-1.623404528450802,-1.1005562518112457
17.403,800.0,0.0,0.0,-1.5707963267948966,8.881784197001252e-16,-1.655141228937726,-1.623404528450802,-1.0989856895164607,0.0,0.0,0.0,0.0,0.0,-0.5817634308561821,7.298401582324174e-05,-1.5707683636034508,3.59503868747402e-05,-1.655137040621052,-1.62339282621758,-1.0968684350037745,0.011840061545707319,-3.915279988714396e-05,-0.0017200321084635864,-0.0013417075791887006,0.002215235860005,1.0036223509311079e-05,0.0,-1.5707963267948966,8.881784197001252e-16,-1.655141228937726,-1.623404528450802,-1.3177916590527343
17.502,800.0,0.0,0.0,-1.5707963267948966,8.881784197001252e-16,-1.655141228937726,-1.623404528450802,-1.1726105017106772,0.0,0.0,0.0,0.0,0.0,-0.866918943603055,7.311763713513748e-05,-1.5707678309712327,3.43565863913146e-05,-1.65513757325327,-1.6233929593756344,-1.13724888134821,0.011270111782916734,-8.33324158915151e-06,-0.0021045194889856467,-0.0010256886008726406,0.002398939879760825,1.5443303847021766e-05,0.0,-1.5707963267948966,8.881784197001252e-16,-1.655141228937726,-1.623404528450802,-1.3080003418664503
17.602,800.0,0.0,0.0,-1.5707963267948966,8.881784197001252e-16,-1.655141228937726,-1.623404528450802,-1.2515742631254838,0.0,0.0,0.0,0.0,0.0,-0.5840414445029162,7.403706489331156e-05,-1.5707672983390146,3.454751345530429e-05,-1.655137839569379,-1.6233924267434166,-1.2994355248920901,0.011417903699551223,-0.00033266038667211835,-0.0015058153886519639,-0.0012297146333440881,0.002110001465649439,-3.1362668640418527,0.0,-1.5707963267948966,8.881784197001252e-16,-1.655141228937726,-1.623404528450802,-1.3495750308119354
17.703,800.0,0.0,0.0,-1.5707963267948966,8.881784197001252e-16,-1.655141228937726,-1.623404528450802,-1.3133540923305667,0.0,0.0,0.0,0.0,0.0,-0.6566819851702875,7.279595770415195e-05,-1.5707637030715431,3.5989491487731275e-05,-1.6551371737791065,-1.6233929593756344,-1.3254633971737615,0.011501165974616328,-0.00045895797306083966,-0.0018894905570564146,-0.0013506031614079457,0.0021454827556510784,9.896133864491255e-06,0.0,-1.5707963267948966,8.881784197001252e-16,-1.655141228937726,-1.623404528450802,-1.402736162449282
17.802,866.6666870117188,0.0,0.0,-1.5707963267948966,8.881784197001252e-16,-1.655141228937726,-1.623404528450802,-1.350663750645304,0.0,0.0,0.0,0.0,0.0,0.7139917452893516,7.260103199741227e-05,-1.570765034652088,3.696563170344495e-05,-1.655137040621052,-1.6233926930595255,-1.3927231284003667,0.0115719592462339,-0.0007501921282593743,-0.0015525077025901309,-0.0012391827691902678,0.002103935492088403,-3.1366884424424124,0.0,-1.5707963267948966,8.881784197001252e-16,-1.655141228937726,-1.623404528450802,-1.1312195179476305
17.902,866.6666870117188,0.0,0.0,-1.5707963267948966,8.881784197001252e-16,-1.655141228937726,-1.623404528450802,-1.2646561841372241,0.0,0.0,0.0,0.0,0.0,0.989340586816725,6.905726736951817e-05,-1.5707662330745786,3.272235450947326e-05,-1.6551377064113246,-1.6233932256917436,-1.4021483218142663,-0.0014898646401757729,-0.002852313146799417,-0.0017325056632118126,-0.0003266675590150458,-0.0003604982222932025,3.122130804975712,0.0,-1.5707963267948966,8.881784197001252e-16,-1.655141228937726,-1.623404528450802,-1.0333982985945034
18.002,866.6666870117188,0.0,0.0,-1.5707963267948966,8.881784197001252e-16,-1.655141228937726,-1.623404528450802,-1.1818626938653,0.0,0.0,0.0,0.0,0.0,0.6267667482059055,6.299340284871315e-05,-1.5707699615001047,2.58483909749514e-05,-1.6551395706240877,-1.6233940246400707,-1.1409946174214065,-0.000568588273698145,-0.002887240088376886,-0.0008067311812426354,-7.716461307300883e-05,-0.0002672250850291538,3.132098484303661,0.0,-1.5707963267948966,8.881784197001252e-16,-1.655141228937726,-1.623404528450802,-0.9587504694760064
18.103,866.6666870117188,0.0,0.0,-1.5707963267948966,8.881784197001252e-16,-1.655141228937726,-1.623404528450802,-1.104011688610659,0.0,0.0,0.0,0.0,0.0,0.6728446596994977,6.21776553457458e-05,-1.5707711599225953,2.732832766787403e-05,-1.6551387716757606,-1.623394424114234,-1.0318079422053568,-0.00044198614027461094,-0.0027323996373807453,-0.0007657673944285533,-0.00010067282885598453,-0.0002487943328064079,-1.7410657922199899e-06,0.0,-1.5707963267948966,8.881784197001252e-16,-1.655141228937726,-1.623404528450802,-0.8967607553320205
18.203,866.6666870117188,0.0,0.0,-1.5707963267948966,8.881784197001252e-16,-1.655141228937726,-1.623404528450802,-1.0382709031038555,0.0,0.0,0.0,0.0,0.0,0.8277531751980844,6.208796627650273e-05,-1.5707655672843062,2.738831950010798e-05,-1.6551393043079785,-1.6233940246400707,-0.9294280404194407,-0.00048216245454126884,-0.002642447210374116,-0.0006909836073836478,-6.106891786079188e-05,-0.00024412013074205077,3.1321488180482633,0.0,-1.5707963267948966,8.881784197001252e-16,-1.655141228937726,-1.623404528450802,-0.9584418732410053
18.302,866.6666870117188,0.0,0.0,-1.5707963267948966,8.881784197001252e-16,-1.655141228937726,-1.623404528450802,-0.9705353791710554,0.0,0.0,0.0,0.0,0.0,0.7764279170894914,6.257534556193324e-05,-1.5707649014940337,2.6444404118751496e-05,-1.6551395706240877,-1.6233937583239615,-0.9549547723629864,-0.0008125342846794723,-0.002814673369935755,-0.0005348360878476183,2.1071872013764168e-05,-0.0003237933801193549,3.1372706094567038,0.0,-1.5707963267948966,8.881784197001252e-16,-1.655141228937726,-1.623404528450802,-0.8057725305948016
18.403,866.6666870117188,0.0,0.0,-1.5707963267948966,8.881784197001252e-16,-1.655141228937726,-1.623404528450802,-0.9027495835489887,0.0,0.0,0.0,0.0,0.0,0.8616755603771782,6.226238674816468e-05,-1.570763969387652,2.7210180778327883e-05,-1.6551391711499241,-1.623393891482016,-0.8928363401998064,-0.0005265288262612731,-0.0028218233332842372,-0.0007116604915160098,-5.028268876153118e-05,-0.00026204996355981027,3.1319914252278394,0.0,-1.5707963267948966,8.881784197001252e-16,-1.655141228937726,-1.623404528450802,-0.849062323324206
18.502,866.6666870117188,0.0,0.0,-1.5707963267948966,8.881784197001252e-16,-1.655141228937726,-1.623404528450802,-0.8170885668316634,0.0,0.0,0.0,0.0,0.0,1.0008102930315583,6.277153506734697e-05,-1.5707691625517777,2.6478729866016965e-05,-1.6551387716757606,-1.623394157798125,-0.7873003927850647,-0.000359704735527008,-0.0027961724626637857,-0.0008052256109740349,-8.366157855484222e-05,-0.0002203800261888659,2.1704818378520846e-07,0.0,-1.5707963267948966,8.881784197001252e-16,-1.655141228937726,-1.623404528450802,-0.5349296416733629
18.602,866.6666870117188,0.0,0.0,-1.5707963267948966,8.881784197001252e-16,-1.655141228937726,-1.623404528450802,-0.7173918615544741,0.0,0.0,0.0,0.0,0.0,0.6864281692812186,6.248488439703722e-05,-1.5707694288678868,2.580419662614287e-05,-1.655139437466033,-1.6233937583239615,-0.6605699441510362,-0.0005371458729483279,-0.0027107331054224046,-0.0006954934262198313,-4.6055765772587294e-05,-0.0002551958997748278,-7.830321719885362e-07,0.0,-1.5707963267948966,8.881784197001252e-16,-1.655141228937726,-1.623404528450802,-0.4893632891827115
18.702,866.6666870117188,0.0,0.0,-1.5707963267948966,8.881784197001252e-16,-1.655141228937726,-1.623404528450802,-0.6338982233640209,0.0,0.0,0.0,0.0,0.0,0.7047429380721374,6.227731663989588e-05,-1.5707655672843062,2.722872123315193e-05,-1.6551391711499241,-1.6233940246400707,-0.5853954979017972,-0.0005239127386240557,-0.0026006709513680996,-0.0006954876395660955,-5.971570644648576e-05,-0.0002491150532133193,3.1325610753850075,0.0,-1.5707963267948966,8.881784197001252e-16,-1.655141228937726,-1.623404528450802,-0.3691715395949033
18.803,866.6666870117188,0.0,0.0,-1.5707963267948966,8.881784197001252e-16,-1.655141228937726,-1.623404528450802,-0.551645627428778,0.0,0.0,0.0,0.0,0.0,0.5265390732999243,6.290703379077775e-05,-1.5707675646551238,2.5259385615117125e-05,-1.6551395706240877,-1.623394157798125,-0.5149816851276704,-3.461353576095388e-05,-0.002616601284009762,-0.001061587830314881,-0.0002504213577848782,-0.0001800069656951919,5.157417049343713e-07,0.0,-1.5707963267948966,8.881784197001252e-16,-1.655141228937726,-1.623404528450802,-0.2965933895052473
18.902,866.6666870117188,0.0,0.0,-1.5707963267948966,8.881784197001252e-16,-1.655141228937726,-1.623404528450802,-0.46324390634295476,0.0,0.0,0.0,0.0,0.0,0.8702314872433081,6.455862766565707e-05,-1.5707672983390146,2.456541588309543e-05,-1.6551391711499241,-1.623392559901471,-0.41788592770814853,-0.0017626602409218056,-0.003576351485711978,0.0005553960685708016,0.00020869381395090136,-0.0006708565853933463,-0.00035857828860597226,0.0,-1.5707963267948966,8.881784197001252e-16,-1.655141228937726,-1.623404528450802,-0.3971453007814991
19.002,866.6666870117188,0.0,0.0,-1.5707963267948966,8.881784197001252e-16,-1.655141228937726,-1.623404528450802,-0.3933709200953004,0.0,0.0,0.0,0.0,0.0,1.110414355875388,6.303990738898852e-05,-1.5707680972873417,2.5580020685140503e-05,-1.6551391711499241,-1.6233934920078525,-0.38339626053691384,-0.0007674340157230357,-0.002826211567373388,-0.0006848798580268761,-2.442963879886345e-05,-0.00030953600808385174,3.131874246139876,0.0,-1.5707963267948966,8.881784197001252e-16,-1.655141228937726,-1.623404528450802,-0.13379984525689348
19.103,866.6666870117188,0.0,0.0,-1.5707963267948966,8.881784197001252e-16,-1.655141228937726,-1.623404528450802,-0.3012817619448862,0.0,0.0,0.0,0.0,0.0,1.0399972679778469,6.348845026307583e-05,-1.5707675646551238,2.5717825536376805e-05,-1.655139437466033,-1.6233934920078525,-0.34268325195135474,0.0007327469276919853,-0.0023009007016863317,-0.0013718455121418806,-0.0003942998547748084,8.129444706542535e-05,8.578659303847904e-06,0.0,-1.5707963267948966,8.881784197001252e-16,-1.655141228937726,-1.623404528450802,-0.06868918358265341
19.202,866.6666870117188,0.0,0.0,-1.5707963267948966,8.881784197001252e-16,-1.655141228937726,-1.623404528450802,-0.21453644425855067,0.0,0.0,0.0,0.0,0.0,0.8793599926159232,6.279800575725904e-05,-1.5707686299195598,2.6182828270686532e-05,-1.655139437466033,-1.623393891482016,-0.25225064035542716,-0.0003545209665863514,-0.002515811039723271,-0.0009723022988966535,-0.00017153564597357954,-0.0002009267917565842,-3.136141162838401,0.0,-1.5707963267948966,8.881784197001252e-16,-1.655141228937726,-1.623404528450802,-0.1292688667094944
19.303,866.6666870117188,0.0,0.0,-1.5707963267948966,8.881784197001252e-16,-1.655141228937726,-1.623404528450802,-0.12371638801153928,0.0,0.0,0.0,0.0,0.0,0.7298051974954138,6.191451295623762e-05,-1.5707643688618156,2.7479347545759714e-05,-1.6551391711499241,-1.6233936251659071,-0.0360748513922663,-0.00017826724726068206,-0.002602459482502521,-0.0010190997478807839,-0.000196706500662933,-0.00017650192775978504,3.1375553013772333,0.0,-1.5707963267948966,8.881784197001252e-16,-1.655141228937726,-1.623404528450802,-0.025838357807255644
19.402,866.6666870117188,0.0,0.0,-1.5707963267948966,8.881784197001252e-16,-1.655141228937726,-1.623404528450802,-0.04390472489983743,0.0,0.0,0.0,0.0,0.0,0.9930873939848192,6.169101971033891e-05,-1.570765833600415,2.8155965443896764e-05,-1.6551391711499241,-1.6233940246400707,-0.036059255255132525,7.768720804753638e-05,-0.002664032859217319,-0.001207828598655276,-0.00026779435521773263,-0.00012076902391142679,-3.1365520885946,0.0,-1.5707963267948966,8.881784197001252e-16,-1.655141228937726,-1.623404528450802,0.1514012082063062
19.502,866.6666870117188,0.0,0.0,-1.5707963267948966,8.881784197001252e-16,-1.655141228937726,-1.623404528450802,0.04455461056422585,0.0,0.0,0.0,0.0,0.0,0.5838802933193086,6.216996689850699e-05,-1.5707637030715431,2.6877348628818614e-05,-1.6551398369401966,-1.6233936251659071,0.02854343391011682,-0.0003619818162813233,-0.0027358516038991656,-0.0010543660214340615,-0.00018775090629314728,-0.00021662307376020925,3.1374708791706776,0.0,-1.5707963267948966,8.881784197001252e-16,-1.655141228937726,-1.623404528450802,0.2607886412903141
19.603,866.6666870117188,0.0,0.0,-1.5707963267948966,8.881784197001252e-16,-1.655141228937726,-1.623404528450802,0.11410856314344447,0.0,0.0,0.0,0.0,0.0,0.852557695272374,6.262185416586995e-05,-1.5707700946581593,2.649212978925692e-05,-1.655139703782142,-1.623394157798125,0.1223839200636669,2.3695639970897805e-05,-0.0026440438066565376,-0.0012611625606733159,-0.00028895167790197134,-0.00012746570209304811,-3.1365992265458944,0.0,-1.5707963267948966,8.881784197001252e-16,-1.655141228937726,-1.623404528450802,0.3047340499695364
19.703,866.6666870117188,0.0,0.0,-1.5707963267948966,8.881784197001252e-16,-1.655141228937726,-1.623404528450802,0.19549289119199392,0.0,0.0,0.0,0.0,0.0,0.7426050850216538,6.277850424653014e-05,-1.5707687630776144,2.4711181446879742e-05,-1.6551403695724147,-1.6233937583239615,0.20670867156803868,-0.00042372755725514946,-0.0025522503135017955,-0.0011783825934442986,-0.00024572947066640725,-0.00021023373028507397,3.1375347950368395,0.0,-1.5707963267948966,8.881784197001252e-16,-1.655141228937726,-1.623404528450802,0.384252439789862
19.803,866.6666870117188,0.0,0.0,-1.5707963267948966,8.881784197001252e-16,-1.655141228937726,-1.623404528450802,0.26483978889663834,0.0,0.0,0.0,0.0,0.0,0.6861961458182366,6.320505052183113e-05,-1.5707659667584697,2.6306574885547205e-05,-1.6551399700982512,-1.6233934920078525,0.2531812487088417,0.0002152919808545294,-0.0024279847203251765,-0.0008505862143299998,-0.0005205819667411802,-0.0003457456037239314,5.811959678750866e-06,0.0,-1.5707963267948966,8.881784197001252e-16,-1.655141228937726,-1.623404528450802,0.4717207110590771
19.902,866.6666870117188,0.0,0.0,-1.5707963267948966,8.881784197001252e-16,-1.655141228937726,-1.623404528450802,0.3495151198984861,0.0,0.0,0.0,0.0,0.0,0.9905038981930673,6.520095029398863e-05,-1.5707649014940337,2.470282859101326e-05,-1.6551414348368507,-1.6233936251659071,0.4553355985624654,6.334390582952157e-05,-0.0021258497448415,-0.002187923894669476,0.002427571722296754,0.0018677531548444558,0.008346308365308202,0.0,-1.5707963267948966,8.881784197001252e-16,-1.655141228937726,-1.623404528450802,0.425943458257508
20.002,866.6666870117188,0.0,0.0,-1.5707963267948966,8.881784197001252e-16,-1.655141228937726,-1.623404528450802,0.41309054110657417,0.0,0.0,0.0,0.0,0.0,0.6116106545008312,6.239739783223572e-05,-1.5707690293937233,2.700099771580734e-05,-1.655139703782142,-1.6233937583239615,0.4552772420450791,4.929769789143794e-05,-0.0023995718603710683,-0.0013118520869526912,-0.00034123227388435765,-0.00010817218580573177,-3.136846634211163,0.0,-1.5707963267948966,8.881784197001252e-16,-1.655141228937726,-1.623404528450802,0.6551915251795801
20.102,866.6666870117188,0.0,0.0,-1.5707963267948966,8.881784197001252e-16,-1.655141228937726,-1.623404528450802,0.5034970633554873,0.0,0.0,0.0,0.0,0.0,1.0104603261848975,6.219117514699503e-05,-1.5707690293937233,2.6821633800135858e-05,-1.655139437466033,-1.6233936251659071,0.45518220048367686,0.00010643713245443027,-0.002347994700419775,-0.001382448742380409,-0.0003724916798371038,-8.97443431644991e-05,-3.1368951037430026,0.0,-1.5707963267948966,8.881784197001252e-16,-1.655141228937726,-1.623404528450802,0.6851717039481975
20.202,866.6666870117188,0.0,0.0,-1.5707963267948966,8.881784197001252e-16,-1.655141228937726,-1.623404528450802,0.5896909160785447,0.0,0.0,0.0,0.0,0.0,0.6459266152789135,6.230411242271445e-05,-1.570765034652088,2.639079426663835e-05,-1.6551402364143601,-1.6233937583239615,0.6613333392775075,-0.0004235822732352329,-0.002320645284381422,-0.0012978482548749704,-0.00031939334515769773,-0.00019100750822940388,3.1326889071173314,0.0,-1.5707963267948966,8.881784197001252e-16,-1.655141228937726,-1.623404528450802,0.8092232124252883
20.302,866.6666870117188,0.0,0.0,-1.5707963267948966,8.881784197001252e-16,-1.655141228937726,-1.623404528450802,0.6738594025437445,0.0,0.0,0.0,0.0,0.0,0.9321800062744948,6.237163421939529e-05,-1.5707641025457066,2.7054686809316446e-05,-1.6551399700982512,-1.623394157798125,0.7086576452691883,-0.00030186771660523976,-0.0022985678349892605,-0.0014359384889192457,-0.0003756390668114205,-0.00015862100516980906,3.1331293939616303,0.0,-1.5707963267948966,8.881784197001252e-16,-1.655141228937726,-1.623404528450802,0.769901548226782
20.402,866.6666870117188,0.0,0.0,-1.5707963267948966,8.881784197001252e-16,-1.655141228937726,-1.623404528450802,0.7618099072399522,0.0,0.0,0.0,0.0,0.0,0.8181146399342715,6.218832245674045e-05,-1.5707668988648513,2.6319229126932867e-05,-1.6551399700982512,-1.623394157798125,0.7776324522378045,-7.21709828460437e-05,-0.002847300994404104,-0.001585283699461008,-0.0003901338216872527,-0.00014012469796246667,3.1333954437545293,0.0,-1.5707963267948966,8.881784197001252e-16,-1.655141228937726,-1.623404528450802,0.9203548912202673
20.502,866.6666870117188,0.0,0.0,-1.5707963267948966,8.881784197001252e-16,-1.655141228937726,-1.623404528450802,0.8332322768381609,0.0,0.0,0.0,0.0,0.0,0.6387347556514658,6.200780649308155e-05,-1.5707667657067967,2.623730368266324e-05,-1.6551402364143601,-1.623393891482016,0.8742779689855348,-3.278348619871063e-05,-0.0029486493581924807,-0.001615498614414448,-0.0003955101106471408,-0.00013753050533250224,3.132306477184796,0.0,-1.5707963267948966,8.881784197001252e-16,-1.655141228937726,-1.623404528450802,1.0846910421716474
20.602,866.6666870117188,0.0,0.0,-1.5707963267948966,8.881784197001252e-16,-1.655141228937726,-1.623404528450802,0.9199023680256341,0.0,0.0,0.0,0.0,0.0,0.9564924484349411,6.312891376312793e-05,-1.5707722251870313,2.406948868605453e-05,-1.6551401032563056,-1.623394157798125,1.031689564694903,-0.0003039240917853297,-0.002438352323225071,-0.0013278305333445162,-0.00032990158324894573,-0.00017282436301889662,3.137479933918384,0.0,-1.5707963267948966,8.881784197001252e-16,-1.655141228937726,-1.623404528450802,1.1666582659649618
20.703,866.6666870117188,0.0,0.0,-1.5707963267948966,8.881784197001252e-16,-1.655141228937726,-1.623404528450802,1.0044897724810935,0.0,0.0,0.0,0.0,0.0,0.6997957934981853,6.291987902424598e-05,-1.5707704941323228,2.457347005985406e-05,-1.6551399700982512,-1.623394424114234,1.0899219787744665,-0.00024643540991288026,-0.0025110992731735672,-0.0013117475370739596,-0.00032279570249858536,-0.000168360772394018,3.133715023085339,0.0,-1.5707963267948966,8.881784197001252e-16,-1.655141228937726,-1.623404528450802,1.1524457567891178
20.802,866.6666870117188,0.0,0.0,-1.5707963267948966,8.881784197001252e-16,-1.655141228937726,-1.623404528450802,1.0809588002131507,0.0,0.0,0.0,0.0,0.0,1.035384240923703,6.304435303448496e-05,-1.5707698283420504,2.5468304539651134e-05,-1.6551398369401966,-1.623394157798125,1.0899417527455602,-0.0006223646871619367,-0.0024114338503435796,-0.0012230226608822886,-0.0002744493483614175,-0.00023094192086433232,-3.1367845825577643,0.0,-1.5707963267948966,8.881784197001252e-16,-1.655141228937726,-1.623404528450802,1.1583417721654587
20.903,866.6666870117188,0.0,0.0,-1.5707963267948966,8.881784197001252e-16,-1.655141228937726,-1.623404528450802,1.1556992048101975,0.0,0.0,0.0,0.0,0.0,0.9487990379981237,6.27982739589069e-05,-1.5707711599225953,2.6502102014163926e-05,-1.655139437466033,-1.6233942909561796,1.1524352911482778,-0.0001342687750556455,-0.002263421130606995,-0.0011870560721898204,-0.00030712830499970316,-0.0001390564751809858,-3.1371070913657726,0.0,-1.5707963267948966,8.881784197001252e-16,-1.655141228937726,-1.623404528450802,1.3044785807002892
21.002,866.6666870117188,0.0,0.0,-1.5707963267948966,8.881784197001252e-16,-1.655141228937726,-1.623404528450802,1.2451211123518415,0.0,0.0,0.0,0.0,0.0,1.0521335718562037,6.164889986064001e-05,-1.5707649014940337,2.9080779585165485e-05,-1.6551391711499241,-1.623393891482016,1.2352976842533303,-0.0002372860926801089,-0.002351993603244097,-0.001213844898020198,-0.00029829751379672424,-0.00015889887833164318,-3.137159023007029,0.0,-1.5707963267948966,8.881784197001252e-16,-1.655141228937726,-1.623404528450802,1.5049848538007349
21.102,933.3333129882812,0.0,0.0,-1.5707963267948966,8.881784197001252e-16,-1.655141228937726,-1.623404528450802,1.2938751627600693,0.0,0.0,0.0,0.0,0.0,-0.9160217926948023,6.207474718619202e-05,-1.5707664993906878,2.8888448526185833e-05,-1.6551390379918696,-1.6233942909561796,1.339825824932559,-0.00022942758934190157,-0.0024035377337560896,-0.0010458360386974704,-0.00023766828815564013,-0.00017147313060765886,-3.1371046945207914,0.0,-1.5707963267948966,8.881784197001252e-16,-1.655141228937726,-1.623404528450802,1.0104480593984244
21.202,933.3333129882812,0.0,0.0,-1.5707963267948966,8.881784197001252e-16,-1.655141228937726,-1.623404528450802,1.199216928154617,0.0,0.0,0.0,0.0,0.0,-0.6501448401690767,5.324028649703092e-05,-1.570771026764541,2.701823170351337e-05,-1.6551385053596515,-1.6233961551689426,1.4441761996090248,-0.009775844344489599,-0.004056256235036159,-0.0011014524780120737,0.0005747626982527906,-0.0018836872585638337,-3.1364215937011863,0.0,-1.5707963267948966,8.881784197001252e-16,-1.655141228937726,-1.623404528450802,1.120875694242659
21.302,933.3333129882812,0.0,0.0,-1.5707963267948966,8.881784197001252e-16,-1.655141228937726,-1.623404528450802,1.1166622761971823,0.0,0.0,0.0,0.0,0.0,-0.8097331099556345,4.9620982468649325e-05,-1.5707696951839958,2.2356452251846e-05,-1.655139703782142,-1.6233962883269972,1.1826772163808361,-0.009012122564665931,-0.0048132928043304836,0.0005534771101622909,0.0011304382817046042,-0.0019354714376779887,-3.1358090666504683,0.0,-1.5707963267948966,8.881784197001252e-16,-1.655141228937726,-1.623404528450802,0.8708066790892062
21.403,933.3333129882812,0.0,0.0,-1.5707963267948966,8.881784197001252e-16,-1.655141228937726,-1.623404528450802,1.0300894513388519,0.0,0.0,0.0,0.0,0.0,-0.8742951086559407,4.9754945128096884e-05,-1.5707703609742683,2.1953643854211782e-05,-1.6551398369401966,-1.6233958888528337,1.0162757875167694,-0.008982695674917857,-0.00468798483325845,0.0005404959878591403,0.0011204137168396525,-0.001931707381969325,-3.1357795055623683,0.0,-1.5707963267948966,8.881784197001252e-16,-1.655141228937726,-1.623404528450802,0.9727302090441188
21.502,933.3333129882812,0.0,0.0,-1.5707963267948966,8.881784197001252e-16,-1.655141228937726,-1.623404528450802,0.9577017312181981,0.0,0.0,0.0,0.0,0.0,-0.6119976376264387,5.028029120134571e-05,-1.5707724915031405,2.2503142298583183e-05,-1.655139703782142,-1.6233961551689426,0.9860976449923186,-0.00850178391780649,-0.004471431345634878,0.0003710593530003386,0.0010172241568660008,-0.0018234726401610592,-3.1360551427351915,0.0,-1.5707963267948966,8.881784197001252e-16,-1.655141228937726,-1.623404528450802,0.8087894513672996
21.602,933.3333129882812,0.0,0.0,-1.5707963267948966,8.881784197001252e-16,-1.655141228937726,-1.623404528450802,0.8958475811111777,0.0,0.0,0.0,0.0,0.0,-0.8105157915847769,5.1817090707277195e-05,-1.5707643688618156,2.0932084095798195e-05,-1.6551428995754502,-1.6233962883269972,0.9280056460812294,-0.008468288945463589,-0.004297546171952769,-0.00032713939885954543,0.0032607861420376532,-0.0003901088220427426,-0.020061887936000333,0.0,-1.5707963267948966,8.881784197001252e-16,-1.655141228937726,-1.623404528450802,0.7768912616052938
21.703,933.3333129882812,0.0,0.0,-1.5707963267948966,8.881784197001252e-16,-1.655141228937726,-1.623404528450802,0.8295731542534321,0.0,0.0,0.0,0.0,0.0,-0.45817030364621963,5.114870375516668e-05,-1.5707649014940337,2.1878283254822866e-05,-1.6551439648398862,-1.6233972204333786,0.8200882334407115,-0.007158287807483367,-0.00415389437850119,-0.0002204445571308069,-0.0008905609384853347,-0.0025841713160285676,-0.20812037997237604,0.0,-1.5707963267948966,8.881784197001252e-16,-1.655141228937726,-1.623404528450802,0.5992981764504136
21.802,933.3333129882812,0.0,0.0,-1.5707963267948966,8.881784197001252e-16,-1.655141228937726,-1.623404528450802,0.7615643493159228,0.0,0.0,0.0,0.0,0.0,-0.7271009853527103,4.9923432654215144e-05,-1.5707724915031405,2.0811635142107864e-05,-1.6551402364143601,-1.6233958888528337,0.7465115506874656,-0.008586854749729056,-0.004922127667644155,0.0005962416516040788,0.0011292121612984343,-0.0019065879732324258,-8.77493008248825e-06,0.0,-1.5707963267948966,8.881784197001252e-16,-1.655141228937726,-1.623404528450802,0.5160988910065007
21.902,933.3333129882812,0.0,0.0,-1.5707963267948966,8.881784197001252e-16,-1.655141228937726,-1.623404528450802,0.6752858140849147,0.0,0.0,0.0,0.0,0.0,-0.8550486127839991,4.9802441201737086e-05,-1.5707723583450859,1.9931826050083268e-05,-1.6551406358885237,-1.6233957556947791,0.7357166269459111,-0.008692812150708683,-0.004854105227887298,0.0006237164884857608,0.001136647556218827,-0.0019268607668820035,3.138061035668239,0.0,-1.5707963267948966,8.881784197001252e-16,-1.655141228937726,-1.623404528450802,0.4532368079477523
22.003,933.3333129882812,0.0,0.0,-1.5707963267948966,8.881784197001252e-16,-1.655141228937726,-1.623404528450802,0.6048176093835469,0.0,0.0,0.0,0.0,0.0,-0.42968775840467455,4.9770139157814605e-05,-1.5707698283420504,2.1740632822717156e-05,-1.6551402364143601,-1.6233961551689426,0.5049310483317658,-0.008807655251083195,-0.004434159573941379,0.0006389971554630661,0.0011094173842585797,-0.001926695489648337,-3.1356210474775086,0.0,-1.5707963267948966,8.881784197001252e-16,-1.655141228937726,-1.623404528450802,0.36054367997718895
22.102,933.3333129882812,0.0,0.0,-1.5707963267948966,8.881784197001252e-16,-1.655141228937726,-1.623404528450802,0.5204841682987986,0.0,0.0,0.0,0.0,0.0,-0.9637382534694815,4.9500182008253836e-05,-1.5707668988648513,2.2496534785258492e-05,-1.6551401032563056,-1.6233957556947791,0.48787330181272653,-0.008845194379183003,-0.004550019564927435,0.0006158660149423442,0.0011043363121670878,-0.0019466109411750859,3.133889460136739,0.0,-1.5707963267948966,8.881784197001252e-16,-1.655141228937726,-1.623404528450802,0.458406520112635
22.203,933.3333129882812,0.0,0.0,-1.5707963267948966,8.881784197001252e-16,-1.655141228937726,-1.623404528450802,0.4553865271651274,0.0,0.0,0.0,0.0,0.0,-0.8904497224379475,4.624488044362323e-05,-1.5707679641292873,2.4841265341586578e-05,-1.6551377064113246,-1.6233956225367245,0.3733452242668458,-0.009287059617405686,-0.0050282015819214715,0.001622707354560426,-0.0014304744573838922,-0.0038919945916095385,0.00445605055004237,0.0,-1.5707963267948966,8.881784197001252e-16,-1.655141228937726,-1.623404528450802,0.24358317511881594
22.302,933.3333129882812,0.0,0.0,-1.5707963267948966,8.881784197001252e-16,-1.655141228937726,-1.623404528450802,0.3696601339984751,0.0,0.0,0.0,0.0,0.0,-1.0741362965627579,4.998233542521231e-05,-1.570770227816214,2.028000055294885e-05,-1.655140502730469,-1.6233957556947791,0.3813144675127989,-0.008859838644286536,-0.0050393816570133,0.0007692277483439612,0.001214691830060222,-0.001977670057388135,-1.1368868733619498e-05,0.0,-1.5707963267948966,8.881784197001252e-16,-1.655141228937726,-1.623404528450802,0.2745802034566509
22.402,933.3333129882812,0.0,0.0,-1.5707963267948966,8.881784197001252e-16,-1.655141228937726,-1.623404528450802,0.28460937532914077,0.0,0.0,0.0,0.0,0.0,-0.6811790542509043,4.993974012713764e-05,-1.5707724915031405,2.1063872696433508e-05,-1.6551401032563056,-1.6233957556947791,0.256761352806992,-0.008604776471478798,-0.004912054468880391,0.0005491228157725788,0.0010937415343441285,-0.001922754973510023,-3.1355558000308017,0.0,-1.5707963267948966,8.881784197001252e-16,-1.655141228937726,-1.623404528450802,0.10815417772709279
22.501,933.3333129882812,0.0,0.0,-1.5707963267948966,8.881784197001252e-16,-1.655141228937726,-1.623404528450802,0.20625696735849175,0.0,0.0,0.0,0.0,0.0,-0.9054793029258638,4.9884543415274624e-05,-1.5707708936064864,2.1997691911212383e-05,-1.6551401032563056,-1.6233957556947791,0.19225925831013663,-0.008509551297603004,-0.004465356529546785,0.0006348997494880734,0.0010664179306825521,-0.0018863173902146121,-7.541289363067235e-06,0.0,-1.5707963267948966,8.881784197001252e-16,-1.655141228937726,-1.623404528450802,-0.08364847198565167
22.602,933.3333129882812,0.0,0.0,-1.5707963267948966,8.881784197001252e-16,-1.655141228937726,-1.623404528450802,0.14289763704547997,0.0,0.0,0.0,0.0,0.0,-0.3534739902371375,4.94488904749302e-05,-1.5707696951839958,2.2778997852566327e-05,-1.6551398369401966,-1.6233961551689426,0.04265646703580124,-0.008771032624905402,-0.004414381441658337,0.000431721981937566,0.0009778186053713727,-0.0019353495928566312,-9.909806053040406e-06,0.0,-1.5707963267948966,8.881784197001252e-16,-1.655141228937726,-1.623404528450802,0.05417105146842256
22.702,933.3333129882812,0.0,0.0,-1.5707963267948966,8.881784197001252e-16,-1.655141228937726,-1.623404528450802,0.07671351241298119,0.0,0.0,0.0,0.0,0.0,-1.020010889169619,4.9517952399255605e-05,-1.5707679641292873,2.1784085553332722e-05,-1.6551398369401966,-1.6233957556947791,0.1013921769494978,-0.009232327495815354,-0.005035724491852295,0.0009312409842106202,0.0012369586135611314,-0.0020758524063786525,3.138022419832433,0.0,-1.5707963267948966,8.881784197001252e-16,-1.655141228937726,-1.623404528450802,-0.14679418131383387
22.803,933.3333129882812,0.0,0.0,-1.5707963267948966,8.881784197001252e-16,-1.655141228937726,-1.623404528450802,-0.003919535289686138,0.0,0.0,0.0,0.0,0.0,-0.9089490794448913,5.003448845473818e-05,-1.5707724915031405,2.102496110735567e-05,-1.6551395706240877,-1.6233964214850516,-0.015577930890715025,-0.00872188273863123,-0.0048474223580268795,0.0007552061011749638,0.0011379650927503056,-0.001955979468554713,-3.135345143988576,0.0,-1.5707963267948966,8.881784197001252e-16,-1.655141228937726,-1.623404528450802,-0.06278700625350302
22.902,933.3333129882812,0.0,0.0,-1.5707963267948966,8.881784197001252e-16,-1.655141228937726,-1.623404528450802,-0.07090141670446926,0.0,0.0,0.0,0.0,0.0,-0.5865567272043467,5.032657224024786e-05,-1.5707730241353584,2.090860222879529e-05,-1.6551402364143601,-1.6233961551689426,-0.12014618231297101,-0.008964914913452374,-0.004663949804420486,0.0008642363453254445,0.0011609042984190277,-0.001994788149473,-3.1351158458187203,0.0,-1.5707963267948966,8.881784197001252e-16,-1.655141228937726,-1.623404528450802,-0.2826957424414279
23.002,933.3333129882812,0.0,0.0,-1.5707963267948966,8.881784197001252e-16,-1.655141228937726,-1.623404528450802,-0.13158367052919218,0.0,0.0,0.0,0.0,0.0,-0.6159470615448946,5.078428273429857e-05,-1.5707716925548134,1.9759289085448364e-05,-1.6551402364143601,-1.6233954893786702,-0.09206884944729389,-0.009085767291185027,-0.00476026208897563,0.0013705508621510197,0.0013602948311366376,-0.002037091189024715,-1.2848613418544227e-05,0.0,-1.5707963267948966,8.881784197001252e-16,-1.655141228937726,-1.623404528450802,-0.3361490195611417
23.102,933.3333129882812,0.0,0.0,-1.5707963267948966,8.881784197001252e-16,-1.655141228937726,-1.623404528450802,-0.22096876686622835,0.0,0.0,0.0,0.0,0.0,-1.1417901959946861,5.0798850960171276e-05,-1.5707645020198702,2.1657791022817323e-05,-1.6551391711499241,-1.6233948235883975,-0.17649043182442525,-0.010423749825813846,-0.005583630874987318,0.002190742320131702,0.0020302327689947853,-0.002075772953672303,-0.0002895244590939404,0.0,-1.5707963267948966,8.881784197001252e-16,-1.655141228937726,-1.623404528450802,-0.3232739241071905
23.203,933.3333129882812,0.0,0.0,-1.5707963267948966,8.881784197001252e-16,-1.655141228937726,-1.623404528450802,-0.30715085675165454,0.0,0.0,0.0,0.0,0.0,-1.1007249280427285,4.9346567482608124e-05,-1.5707680972873417,2.4009626890983182e-05,-1.6551391711499241,-1.6233958888528337,-0.28104046035886293,-0.008426070560104726,-0.004905026220316104,0.0006245266200087683,0.001064197741186875,-0.0018890308756866181,-3.1354460777938904,0.0,-1.5707963267948966,8.881784197001252e-16,-1.655141228937726,-1.623404528450802,-0.40081123809210834
23.302,933.3333129882812,0.0,0.0,-1.5707963267948966,8.881784197001252e-16,-1.655141228937726,-1.623404528450802,-0.39261859467561777,0.0,0.0,0.0,0.0,0.0,-0.7139684453765205,5.022087234535948e-05,-1.5707708936064864,1.9959211063794883e-05,-1.6551402364143601,-1.6233957556947791,-0.4700613813624904,-0.00888943094130544,-0.004962132300346888,0.0008623717424509012,0.001088036023797824,-0.00203475364098979,-3.999310714328235e-06,0.0,-1.5707963267948966,8.881784197001252e-16,-1.655141228937726,-1.623404528450802,-0.5266258764638776
23.402,933.3333129882812,0.0,0.0,-1.5707963267948966,8.881784197001252e-16,-1.655141228937726,-1.623404528450802,-0.46774064718858455,0.0,0.0,0.0,0.0,0.0,-0.6256923684605691,5.048711937212477e-05,-1.570771026764541,1.99808703786907e-05,-1.6551401032563056,-1.6233957556947791,-0.507192438281893,-0.009461587174671045,-0.005182313824807043,0.0015393794107282062,0.0014496308819925358,-0.002117583282414921,-1.5313564347612757e-05,0.0,-1.5707963267948966,8.881784197001252e-16,-1.655141228937726,-1.623404528450802,-0.6509082259939756
23.503,933.3333129882812,0.0,0.0,-1.5707963267948966,8.881784197001252e-16,-1.655141228937726,-1.623404528450802,-0.5324555538601778,0.0,0.0,0.0,0.0,0.0,-0.4443640356651405,4.950638721910673e-05,-1.5707691625517777,2.3041057276329714e-05,-1.6551395706240877,-1.6233961551689426,-0.6372318645703449,-0.009101781627833731,-0.004955018747403935,0.0010184814861911948,0.0012166200211072772,-0.0020190114721224117,-3.13476963487701,0.0,-1.5707963267948966,8.881784197001252e-16,-1.655141228937726,-1.623404528450802,-0.7676773359798088
23.602,933.3333129882812,0.0,0.0,-1.5707963267948966,8.881784197001252e-16,-1.655141228937726,-1.623404528450802,-0.626245072426574,0.0,0.0,0.0,0.0,0.0,-1.0642860487726586,4.924171282927665e-05,-1.5707682304453963,2.304546838070484e-05,-1.6551393043079785,-1.6233961551689426,-0.5800773649419908,-0.009525743349509435,-0.005120940965396977,0.0015752480814372352,0.0014211626262071594,-0.0021510725331226675,-9.19504155007113e-06,0.0,-1.5707963267948966,8.881784197001252e-16,-1.655141228937726,-1.623404528450802,-0.7029948673263815
23.703,933.3333129882812,0.0,0.0,-1.5707963267948966,8.881784197001252e-16,-1.655141228937726,-1.623404528450802,-0.7070432341753836,0.0,0.0,0.0,0.0,0.0,-0.9350762095077857,4.976642903501913e-05,-1.5707691625517777,2.33357316459381e-05,-1.6551393043079785,-1.623396022010888,-0.7554650982723119,-0.00967756745848187,-0.005469591404277683,0.001821852767226532,0.0016390548464197143,-0.002139246823518522,-1.2292668991386058e-05,0.0,-1.5707963267948966,8.881784197001252e-16,-1.655141228937726,-1.623404528450802,-0.9763693131858042
23.802,933.3333129882812,0.0,0.0,-1.5707963267948966,8.881784197001252e-16,-1.655141228937726,-1.623404528450802,-0.8000264955684457,0.0,0.0,0.0,0.0,0.0,-1.0099536405063372,4.824797289633712e-05,-1.5707708936064864,2.3737056807186393e-05,-1.6551403695724147,-1.623397087275324,-0.8483001641323569,-0.007926950479337242,-0.004128985239856216,-0.00020084543725673164,0.0009178116563172729,-0.0016671154357003348,0.00033388046035022717,0.0,-1.5707963267948966,8.881784197001252e-16,-1.655141228937726,-1.623404528450802,-0.963417098010782
23.902,933.3333129882812,0.0,0.0,-1.5707963267948966,8.881784197001252e-16,-1.655141228937726,-1.623404528450802,-0.8735420704240937,0.0,0.0,0.0,0.0,0.0,-0.8352693042222381,4.987907779078403e-05,-1.5707675646551238,2.3582832732340984e-05,-1.655139703782142,-1.6233961551689426,-0.9964946258879879,-0.009739310143582376,-0.005371753523730896,0.001932140405720788,0.0016020679861494746,-0.0021984376593401347,4.442787218650745e-06,0.0,-1.5707963267948966,8.881784197001252e-16,-1.655141228937726,-1.623404528450802,-0.9713231868542321
24.002,933.3333129882812,0.0,0.0,-1.5707963267948966,8.881784197001252e-16,-1.655141228937726,-1.623404528450802,-0.958416067741604,0.0,0.0,0.0,0.0,0.0,-1.0436432096544113,4.9897827524166636e-05,-1.5707684967615052,2.1327606348665394e-05,-1.6551402364143601,-1.623396022010888,-0.9447846262131646,-0.009132492244451009,-0.004923468610864902,0.0009212920359557215,0.0011269371611387206,-0.002041652372540126,-2.1911172497807726e-05,0.0,-1.5707963267948966,8.881784197001252e-16,-1.655141228937726,-1.623404528450802,-1.2103682714102688
24.102,933.3333129882812,0.0,0.0,-1.5707963267948966,8.881784197001252e-16,-1.655141228937726,-1.623404528450802,-1.0451502313180292,0.0,0.0,0.0,0.0,0.0,-0.4965987949472498,4.9432684593540985e-05,-1.5707692957098323,2.307476941073416e-05,-1.6551393043079785,-1.6233964214850516,-1.1165177701585973,-0.009120737925249131,-0.0050358519282716445,0.0010188338218832637,0.0012393994111031621,-0.0019962606903022994,-3.134527819850031,0.0,-1.5707963267948966,8.881784197001252e-16,-1.655141228937726,-1.623404528450802,-1.2626953560184468
24.202,933.3333129882812,0.0,0.0,-1.5707963267948966,8.881784197001252e-16,-1.655141228937726,-1.623404528450802,-1.1201266601825228,0.0,0.0,0.0,0.0,0.0,-0.9896293258037387,4.957673732407415e-05,-1.5707682304453963,2.2693821479231662e-05,-1.6551398369401966,-1.6233962883269972,-1.1057570014580231,-0.009227627432610285,-0.005072571302098413,0.0011923506653023041,0.0013081392658860925,-0.0020269826201527227,3.1378442543555067,0.0,-1.5707963267948966,8.881784197001252e-16,-1.655141228937726,-1.623404528450802,-1.242746614924768
24.302,933.3333129882812,0.0,0.0,-1.5707963267948966,8.881784197001252e-16,-1.655141228937726,-1.623404528450802,-1.204142197536683,0.0,0.0,0.0,0.0,0.0,-0.7870865567682465,4.9417604346340534e-05,-1.5707691625517777,2.3728705983150575e-05,-1.6551391711499241,-1.623396022010888,-1.2431781110769293,-0.009083164467338397,-0.00505340590492555,0.0008176080746898586,0.0011866742830804224,-0.001969434543806255,-3.1346391399835962,0.0,-1.5707963267948966,8.881784197001252e-16,-1.655141228937726,-1.623404528450802,-1.287064929948236
24.402,933.3333129882812,0.0,0.0,-1.5707963267948966,8.881784197001252e-16,-1.655141228937726,-1.623404528450802,-1.2683292038245604,0.0,0.0,0.0,0.0,0.0,-0.9917208204048654,5.011594048246271e-05,-1.57077395624174,2.2254958246435506e-05,-1.6551395706240877,-1.6233962883269972,-1.3399379440144512,-0.00871332941422395,-0.004801959805535435,0.0006212297878253318,0.0010878121648224054,-0.0018743045571334833,-3.134829556001537,0.0,-1.5707963267948966,8.881784197001252e-16,-1.655141228937726,-1.623404528450802,-1.4029734412362667
24.502,1000.0,0.0,0.0,-1.5707963267948966,8.881784197001252e-16,-1.655141228937726,-1.623404528450802,-1.3134177631003432,0.0,0.0,0.0,0.0,0.0,0.5440238871031297,5.0609069848677016e-05,-1.5707755541383939,2.075409776131802e-05,-1.6551398369401966,-1.623396022010888,-1.3541183447127416,-0.009081289851602333,-0.004795432460121489,0.0008585911070040057,0.0011861924953929838,-0.0019536719591043486,-3.1345797514912874,0.0,-1.5707963267948966,8.881784197001252e-16,-1.655141228937726,-1.623404528450802,-1.1303957871154242
24.602,1000.0,0.0,0.0,-1.5707963267948966,8.881784197001252e-16,-1.655141228937726,-1.623404528450802,-1.2419260402884342,0.0,0.0,0.0,0.0,0.0,0.8143643567158403,3.776612828543594e-05,-1.5707695620259412,2.3373930062452297e-05,-1.6551390379918696,-1.6233980193817057,-1.4490840060238772,-0.016093895465377258,-0.005821520340101897,0.0008910711392928017,0.0018003158823193049,-0.003159850776277699,3.1227156351510934,0.0,-1.5707963267948966,8.881784197001252e-16,-1.655141228937726,-1.623404528450802,-1.0179457337861586
24.703,1000.0,0.0,0.0,-1.5707963267948966,8.881784197001252e-16,-1.655141228937726,-1.623404528450802,-1.1760898797375532,0.0,0.0,0.0,0.0,0.0,0.5170506240016369,3.688567510309034e-05,-1.570775820454503,2.084776312317377e-05,-1.6551387716757606,-1.6233981525397603,-1.1884373675025686,-0.014495194661516188,-0.006594085167131121,0.0019250826387205904,0.002048879447926031,-0.003017874381629077,3.1383771528896314,0.0,-1.5707963267948966,8.881784197001252e-16,-1.655141228937726,-1.623404528450802,-0.9611950909980845
24.802,1000.0,0.0,0.0,-1.5707963267948966,8.881784197001252e-16,-1.655141228937726,-1.623404528450802,-1.085871106333193,0.0,0.0,0.0,0.0,0.0,0.6835862221929944,3.7023217848170765e-05,-1.570776353086721,2.0401749878265196e-05,-1.655138638517706,-1.6233984188558692,-1.049544728223339,-0.014443493966260424,-0.006566253573293841,0.0020583765820594707,0.002064573633080409,-0.003025478174675039,3.134191196288245,0.0,-1.5707963267948966,8.881784197001252e-16,-1.655141228937726,-1.623404528450802,-1.0244416885446979
24.902,1000.0,0.0,0.0,-1.5707963267948966,8.881784197001252e-16,-1.655141228937726,-1.623404528450802,-1.0101094577440568,0.0,0.0,0.0,0.0,0.0,1.060077406845886,3.7709866894304125e-05,-1.5707780841414296,1.923899414323434e-05,-1.6551391711499241,-1.6233985520139236,-0.9513253498503992,-0.01463707456859016,-0.0064161932883949335,0.0021211407090722108,0.00206799113975074,-0.0030637049392906843,3.1384221603120537,0.0,-1.5707963267948966,8.881784197001252e-16,-1.655141228937726,-1.623404528450802,-0.8796889453479071
25.002,1000.0,0.0,0.0,-1.5707963267948966,8.881784197001252e-16,-1.655141228937726,-1.623404528450802,-0.9272829238958398,0.0,0.0,0.0,0.0,0.0,0.46313245250594853,3.809740608448599e-05,-1.5707730241353584,2.1680531271627262e-05,-1.6551421006271232,-1.6234000167525233,-0.8691816773445319,-0.012432455722762924,-0.005345845439602819,0.0020503993222825176,-0.002972385041482137,-0.005122998153309333,0.1189398785300844,0.0,-1.5707963267948966,8.881784197001252e-16,-1.655141228937726,-1.623404528450802,-0.8357348305258452
25.103,1000.0,0.0,0.0,-1.5707963267948966,8.881784197001252e-16,-1.655141228937726,-1.623404528450802,-0.8666969059560916,0.0,0.0,0.0,0.0,0.0,0.8737991477757108,3.662446295271452e-05,-1.5707724915031405,2.1648544161457953e-05,-1.655138638517706,-1.6233986851719782,-0.8829053459158738,-0.014370128039417944,-0.006310707142092576,0.001708049183929856,0.0019122781393935433,-0.002985749480831346,-1.3353219580273449e-05,0.0,-1.5707963267948966,8.881784197001252e-16,-1.655141228937726,-1.623404528450802,-0.6521877655646895
25.203,1000.0,0.0,0.0,-1.5707963267948966,8.881784197001252e-16,-1.655141228937726,-1.623404528450802,-0.7771256233207513,0.0,0.0,0.0,0.0,0.0,0.6054339969103358,3.6667102951063825e-05,-1.5707727578192494,2.117020449065891e-05,-1.6551387716757606,-1.6233984188558692,-0.766123335270918,-0.014721790138984501,-0.006731229120743145,0.002330873747517333,0.0021505439320566922,-0.003129400233985625,3.133051895973909,0.0,-1.5707963267948966,8.881784197001252e-16,-1.655141228937726,-1.623404528450802,-0.5653877948699417
25.302,1000.0,0.0,0.0,-1.5707963267948966,8.881784197001252e-16,-1.655141228937726,-1.623404528450802,-0.7041483326184803,0.0,0.0,0.0,0.0,0.0,0.9585493234821757,3.7894885394718107e-05,-1.5707762199286666,2.092522057180963e-05,-1.655138638517706,-1.6233985520139236,-0.6314792368786919,-0.014611250228394797,-0.006468581620166535,0.0026444203942794318,0.002195158642247975,-0.0031682943493197414,-1.7495344116386476e-05,0.0,-1.5707963267948966,8.881784197001252e-16,-1.655141228937726,-1.623404528450802,-0.6575966769379159
25.402,1000.0,0.0,0.0,-1.5707963267948966,8.881784197001252e-16,-1.655141228937726,-1.623404528450802,-0.6239369182944614,0.0,0.0,0.0,0.0,0.0,0.9747508018588261,3.7707091413614854e-05,-1.5707762199286666,1.930882206772069e-05,-1.655139437466033,-1.6233982856978146,-0.6109647072647298,-0.014297831538200698,-0.006245760341305569,0.002235992391899455,0.002055395480106831,-0.003038504517401484,-3.477038089735798e-05,0.0,-1.5707963267948966,8.881784197001252e-16,-1.655141228937726,-1.623404528450802,-0.5029424711762777
25.502,1000.0,0.0,0.0,-1.5707963267948966,8.881784197001252e-16,-1.655141228937726,-1.623404528450802,-0.536761739336014,0.0,0.0,0.0,0.0,0.0,0.7447444812709134,3.6161225879253244e-05,-1.570773157293413,2.290532895603371e-05,-1.6551385053596515,-1.6233986851719782,-0.5168777892447796,-0.015598513172811595,-0.006766014581887703,0.0033490990604982027,0.0018119506973687512,-0.003888308038049785,1.938217725024261e-05,0.0,-1.5707963267948966,8.881784197001252e-16,-1.655141228937726,-1.623404528450802,-0.2587896425948571
25.602,1000.0,0.0,0.0,-1.5707963267948966,8.881784197001252e-16,-1.655141228937726,-1.623404528450802,-0.4408459899217494,0.0,0.0,0.0,0.0,0.0,0.7198310266914756,3.6563764043408926e-05,-1.570771026764541,2.18982439592822e-05,-1.6551390379918696,-1.6233981525397603,-0.3579611080453532,-0.014556108229667946,-0.006282856822903882,0.0024214256458435553,0.002131265402552366,-0.003124717075611694,3.1384495908712817,0.0,-1.5707963267948966,8.881784197001252e-16,-1.655141228937726,-1.623404528450802,-0.17469766068297204
