7cmdehdrb/project_th/tune/rtde_tune/data/rtde_log_wrist1_zz.csv
Time,Stiffness,Damping,R_shoulder_pan_p,R_shoulder_lift_p,R_elbow_p,R_wrist_1_p,R_wrist_2_p,R_wrist_3_p,R_shoulder_pan_v,R_shoulder_lift_v,R_elbow_v,R_wrist_1_v,R_wrist_2_v,R_wrist_3_v,S_shoulder_pan_p,S_shoulder_lift_p,S_elbow_p,S_wrist_1_p,S_wrist_2_p,S_wrist_3_p,S_shoulder_pan_v,S_shoulder_lift_v,S_elbow_v,S_wrist_1_v,S_wrist_2_v,S_wrist_3_v,C_shoulder_pan_p,C_shoulder_lift_p,C_elbow_p,C_wrist_1_p,C_wrist_2_p,C_wrist_3_p
6.302,600.0,0.0,0.0,-1.5707963267948966,8.881784197001252e-16,1.0970593515999454,0.0,0.0,0.0,0.0,0.0,0.24627931545560888,0.0,0.0,-1.776956201485311e-05,-1.5707015182600899,-3.514522520954087e-05,1.169310411395565,-5.952117897855654e-06,-7.469992425009618e-07,0.007878988092431946,-0.06466426852367363,-0.021613967816325505,2.3737958544688964,0.00013327982617941558,-0.00015976196748912017,0.0,-1.5707963267948966,8.881784197001252e-16,1.2103216263470624,0.0,0.0
6.402,600.0,0.0,0.0,-1.5707963267948966,8.881784197001252e-16,1.13253995620741,0.0,0.0,0.0,0.0,0.0,0.441391531396191,0.0,0.0,5.764455579379529e-05,-1.5714774302436842,-0.00020080912437907516,1.3000102350553293,6.864700926474835e-06,-1.3059787167159442e-06,0.03229534726868549,0.13296896174418787,0.005955737417258087,-0.641385197448378,-0.010663634061002732,-0.0007359117071368,0.0,-1.5707963267948966,8.881784197001252e-16,1.3436032124451902,0.0,0.0
6.503,600.0,0.0,0.0,-1.5707963267948966,8.881784197001252e-16,1.1912424079636588,0.0,0.0,0.0,0.0,0.0,0.7003151715867117,0.0,0.0,-0.00021424326364743873,-1.569612418532302,0.0003186691031805886,1.3206730361629815,-1.6214788109422087e-07,2.7120487137465816e-06,0.02939827324992403,-0.287264634011028,-0.10462103506700189,-0.2561400040351629,-0.00018587312090124526,-0.000960961887983337,0.0,-1.5707963267948966,8.881784197001252e-16,1.301863830298344,0.0,0.0
6.602,600.0,0.0,0.0,-1.5707963267948966,8.881784197001252e-16,1.2786161093940012,0.0,0.0,0.0,0.0,0.0,0.8384022384501446,0.0,0.0,0.0004616903789400042,-1.573158284365688,-0.0006962041443320299,1.3377713293096174,-1.2401658420122128e-05,-7.1970352774710205e-06,0.08952329188647687,-0.20322583942870348,-0.06322869153806641,-1.9182134141628944,-0.007988497588545196,-0.0011373081450048428,0.0,-1.5707963267948966,8.881784197001252e-16,1.3779033213254823,0.0,0.0
6.702,666.6666870117188,0.0,0.0,-1.5707963267948966,8.881784197001252e-16,1.2629471027936496,0.0,0.0,0.0,0.0,0.0,-0.8423450664079063,0.0,0.0,0.00032567911403282094,-1.5727110064606091,-0.0004306911448403331,1.3918504105111478,1.269486072841325e-05,-2.8399003884883685e-06,0.047758705016175566,0.2998970057466826,0.10222979104659816,1.2069500655041454,-0.010735612231245929,0.00021541829570335144,0.0,-1.5707963267948966,8.881784197001252e-16,1.0711401344526548,0.0,0.0
6.802,666.6666870117188,0.0,0.0,-1.5707963267948966,8.881784197001252e-16,1.1870217019280318,0.0,0.0,0.0,0.0,0.0,-0.7251301520134862,0.0,0.0,7.733911481789742e-05,-1.5709012553418458,-1.6177941177774087e-06,1.2428400227765437,-4.540135273587979e-06,-2.504679091842483e-07,-0.030506148263396992,0.17581222456332296,0.05598689490505765,-1.108718636327273,0.0008236087695952686,0.0005382428014334531,0.0,-1.5707963267948966,8.881784197001252e-16,0.9892294418543868,0.0,0.0
6.902,666.6666870117188,0.0,0.0,-1.5707963267948966,8.881784197001252e-16,1.1084932857086915,0.0,0.0,0.0,0.0,0.0,-0.9554971202627417,0.0,0.0,-2.8503991623123757e-05,-1.5703126967409382,0.00020421596800207254,1.015470847077293,6.8290489017423604e-06,3.7138423154870723e-07,0.017264332918223768,-0.04482750924594746,-0.005314487237915787,-3.141594251486447,-0.0011250332870410718,-0.004127496314344429,0.0,-1.5707963267948966,8.881784197001252e-16,0.9305678871848042,0.0,0.0
7.003,666.6666870117188,0.0,0.0,-1.5707963267948966,8.881784197001252e-16,1.0359219447225563,0.0,0.0,0.0,0.0,0.0,-0.6761256965111241,0.0,0.0,0.000390948341964498,-1.5723461533912682,-0.0004610890545908441,0.985384383873368,-1.2986755553671027e-05,-3.8105843769282766e-06,0.0854191359424478,-0.03147307755677211,0.0055833078626754155,-0.6234959454579887,-0.006777083345168345,-0.000348841203398242,0.0,-1.5707963267948966,8.881784197001252e-16,0.9663623912554132,0.0,0.0
7.102,666.6666870117188,0.0,0.0,-1.5707963267948966,8.881784197001252e-16,0.9527479808074153,0.0,0.0,0.0,0.0,0.0,-0.7781358381327549,0.0,0.0,0.0005802005923184612,-1.5734718715840448,-0.0009040103571203039,0.9923159264005718,-2.1643887205572286e-05,-7.438852080270217e-06,0.06490499748027077,0.08168386109890831,0.04500143447107565,0.4093679401195846,-0.006316043347097092,-4.738767141053342e-05,0.0,-1.5707963267948966,8.881784197001252e-16,0.8700630985064197,0.0,0.0
7.202,666.6666870117188,0.0,0.0,-1.5707963267948966,8.881784197001252e-16,0.8878783142842215,0.0,0.0,0.0,0.0,0.0,-0.9652240985777321,0.0,0.0,-7.264000250957941e-05,-1.5699310657567298,0.00034155726926298955,0.82020940727031,-1.933866966019907e-06,1.8614337266625255e-06,-0.0008517736486802956,0.11156320527143074,0.049002667561351576,-2.0378695082562635,-0.00027224200003554726,0.0002677643166331717,0.0,-1.5707963267948966,8.881784197001252e-16,0.8272844420865525,0.0,0.0
7.302,666.6666870117188,0.0,0.0,-1.5707963267948966,8.881784197001252e-16,0.8155001857389301,0.0,0.0,0.0,0.0,0.0,-0.8381908510207486,0.0,0.0,0.00010483200248321302,-1.5704647632391817,0.00019534120798348896,0.7745357951012876,-8.054138661806993e-06,6.604731621519315e-07,0.012309048374859475,0.1885205962585857,0.09056561152524185,-0.9571751163428127,-0.0012389124219292194,0.00042210271039915274,0.0,-1.5707963267948966,8.881784197001252e-16,0.5386394202139402,0.0,0.0
7.402,666.6666870117188,0.0,0.0,-1.5707963267948966,8.881784197001252e-16,0.7368624294074673,0.0,0.0,0.0,0.0,0.0,-0.9589425618574392,0.0,0.0,-0.00024385958503213328,-1.5689986930590931,0.000688318170643223,0.6637208631947635,1.9178386666308698e-05,8.42451726416562e-07,0.04290202713306336,-0.117073701685725,-0.03575760648859982,-3.1415950504347743,0.0007318067590063763,-0.012304437777222276,0.0,-1.5707963267948966,8.881784197001252e-16,0.4895227151996745,0.0,0.0
7.502,666.6666870117188,0.0,0.0,-1.5707963267948966,8.881784197001252e-16,0.648463808979038,0.0,0.0,0.0,0.0,0.0,-0.714760704687145,0.0,0.0,8.795079747199489e-05,-1.570387398409515,0.00019736456997892336,0.5983782084788518,-7.697758610798185e-06,4.3615699308628053e-07,0.06574720136906231,-0.04892090435469694,0.004090700738740376,-2.151471171927447,-0.002244330374765465,-8.063424026357474e-05,0.0,-1.5707963267948966,8.881784197001252e-16,0.5018525290833862,0.0,0.0
7.603,666.6666870117188,0.0,0.0,-1.5707963267948966,8.881784197001252e-16,0.5714120805414451,0.0,0.0,0.0,0.0,0.0,-0.9520172260636397,0.0,0.0,0.00028646432705572934,-1.5706688945367362,0.00015138307168082685,0.5473885605893813,-1.4200506174748339e-05,-7.73330386917865e-08,0.02435570672272429,0.029530592824803536,0.018075413192369612,-1.3221052841972263,-0.0005420568564311371,3.9670152738554136e-05,0.0,-1.5707963267948966,8.881784197001252e-16,0.5128558946332055,0.0,0.0
7.702,666.6666870117188,0.0,0.0,-1.5707963267948966,8.881784197001252e-16,0.4973801077697937,0.0,0.0,0.0,0.0,0.0,-0.7029909807487019,0.0,0.0,1.8541812086930255e-05,-1.5704425258440795,0.00017065688733800907,0.46303030318954497,-4.944448241830107e-06,5.367732159018565e-07,0.0805136681159275,0.004181866152399753,-0.013010161942228362,0.1052478766085793,-0.06705310321552868,0.0028215250280332295,0.0,-1.5707963267948966,8.881784197001252e-16,0.38066177003294155,0.0,0.0
7.803,666.6666870117188,0.0,0.0,-1.5707963267948966,8.881784197001252e-16,0.40431470963697347,0.0,0.0,0.0,0.0,0.0,-1.0954874270950552,0.0,0.0,-6.408315084426591e-05,-1.5706443934547076,6.409895442318333e-05,0.36114088909739417,1.8734311787855154e-06,2.1290564615252324e-07,-0.04907969949588212,-0.038049585340560056,-0.0411874257666215,1.5204371490039887,0.0006546304832253467,-6.542394777320492e-05,0.0,-1.5707963267948966,8.881784197001252e-16,0.28530442521917504,0.0,0.0
7.902,666.6666870117188,0.0,0.0,-1.5707963267948966,8.881784197001252e-16,0.3269182800790045,0.0,0.0,0.0,0.0,0.0,-1.0843320594719128,0.0,0.0,5.853703741368154e-05,-1.5703061719962674,0.00020741915717379058,0.28978514953521983,-4.1840818393586754e-06,2.2484034963003419e-07,0.062233680459353166,-0.026929970247259922,-2.2090040646796787e-05,-2.19376350161845,-0.0011975009171643002,-4.666413651049587e-05,0.0,-1.5707963267948966,8.881784197001252e-16,0.19637636612098242,0.0,0.0
8.003,666.6666870117188,0.0,0.0,-1.5707963267948966,8.881784197001252e-16,0.2532154986010884,0.0,0.0,0.0,0.0,0.0,-0.8032240922431172,0.0,0.0,0.0001542430277618582,-1.5709466622384316,-6.139844015814681e-05,0.2646018655037534,-4.439455016359081e-06,-3.1016384020383353e-07,0.09463033604038096,-0.024452056978130916,0.035494070053979664,-1.3137942242253613,-0.0009220986564753387,3.652479759490311e-05,0.0,-1.5707963267948966,8.881784197001252e-16,0.14626651249444161,0.0,0.0
8.102,666.6666870117188,0.0,0.0,-1.5707963267948966,8.881784197001252e-16,0.18299221183469871,0.0,0.0,0.0,0.0,0.0,-0.5480782113715827,0.0,0.0,0.0001705717780150864,-1.5708960621777202,-6.0761168660850046e-05,0.17979411644618218,-4.002361000115041e-06,-2.6725652913257774e-07,0.05717208897511618,-0.02557498301295203,-0.003715879280588813,-1.3308282020316717,-0.00012828386341084627,-8.972164964779446e-06,0.0,-1.5707963267948966,8.881784197001252e-16,0.03655576926254078,0.0,0.0
8.202,666.6666870117188,0.0,0.0,-1.5707963267948966,8.881784197001252e-16,0.09456075319603219,0.0,0.0,0.0,0.0,0.0,-0.8835432151557338,0.0,0.0,0.0002720171820360546,-1.5709196311533673,-9.231995673485685e-05,0.114681858454076,-4.321082085651379e-06,-2.665979302707201e-07,0.12336289808038003,0.00861690841860087,0.03651326180315299,-1.374256902559812,-0.0005623931082160645,1.3924792848911789e-05,0.0,-1.5707963267948966,8.881784197001252e-16,-0.07230422038926193,0.0,0.0
8.302,666.6666870117188,0.0,0.0,-1.5707963267948966,8.881784197001252e-16,0.014587082312337962,0.0,0.0,0.0,0.0,0.0,-0.6548371398282753,0.0,0.0,0.0001737402310097445,-1.5709169679922772,-3.5301952499766356e-05,-0.01740957090498476,-5.278505585230763e-07,-2.6073209069686173e-08,0.032622628960710214,-0.0005030720401761063,-0.006276222847016602,-2.110791519434541,0.0004674987488819265,2.1291480399430156e-05,0.0,-1.5707963267948966,8.881784197001252e-16,-0.07980854265615452,0.0,0.0
8.403,666.6666870117188,0.0,0.0,-1.5707963267948966,8.881784197001252e-16,-0.07092671636295123,0.0,0.0,0.0,0.0,0.0,-0.6964096142072143,0.0,0.0,0.00010903904604092419,-1.5715947424897023,0.00024102622155085398,-0.05639672626849642,-0.000440915316749878,1.2884668253706166e-05,-0.04501531619825769,-0.03946716934405242,0.18897531436995993,-0.4345227616169008,0.11973573093234095,-0.024517982698677988,0.0,-1.5707963267948966,8.881784197001252e-16,-0.12364908293610523,0.0,0.0
8.503,666.6666870117188,0.0,0.0,-1.5707963267948966,8.881784197001252e-16,-0.12897449494349544,0.0,0.0,0.0,0.0,0.0,-0.7256092089563745,0.0,0.0,0.0002815587401151681,-1.5713812901283324,-0.00021362665993167297,-0.17446817709543042,2.4903561777753037e-06,2.809298923338323e-07,0.030964869438784733,0.028409412408853182,0.00493226536484057,-2.2105316959479704,0.0011262327498289082,5.1460187459871985e-05,0.0,-1.5707963267948966,8.881784197001252e-16,-0.24349726341920908,0.0,0.0
8.602,666.6666870117188,0.0,0.0,-1.5707963267948966,8.881784197001252e-16,-0.20967346370024842,0.0,0.0,0.0,0.0,0.0,-0.8471664471929808,0.0,0.0,0.0003201404736754248,-1.5713846190796952,-0.00021221487896659884,-0.21230675269268293,3.995848728852803e-06,3.986052066814252e-07,0.06710009552520098,-0.04048020253320494,-0.01764369605431635,-1.762586802174152,0.0018646906496280274,0.00010276387519455304,0.0,-1.5707963267948966,8.881784197001252e-16,-0.4970103665057999,0.0,0.0
8.702,666.6666870117188,0.0,0.0,-1.5707963267948966,8.881784197001252e-16,-0.29812686873504113,0.0,0.0,0.0,0.0,0.0,-0.9336639608800383,0.0,0.0,-1.2759955503363974e-05,-1.570789269418008,-0.00023225539373447968,-0.32485784924810013,4.1613385428027345e-06,7.008476693090394e-07,0.04233664219482874,0.0840077854003819,0.04596118779366977,-1.4330167556932656,0.002298141833244578,2.1095912634200126e-05,0.0,-1.5707963267948966,8.881784197001252e-16,-0.4208300934766155,0.0,0.0
8.802,666.6666870117188,0.0,0.0,-1.5707963267948966,8.881784197001252e-16,-0.3877365304223712,0.0,0.0,0.0,0.0,0.0,-0.9125489309667497,0.0,0.0,0.000186026012095174,-1.5709461296062135,-4.5563132173055416e-05,-0.4506890815400633,6.665221379255762e-06,4.3067698704425484e-07,0.01641433928324374,0.06996524490039512,0.022043687583561202,-2.5092138674738997,0.0017511964247411804,3.356569833654146e-05,0.0,-1.5707963267948966,8.881784197001252e-16,-0.6438540460371227,0.0,0.0
8.902,666.6666870117188,0.0,0.0,-1.5707963267948966,8.881784197001252e-16,-0.48329672992231565,0.0,0.0,0.0,0.0,0.0,-0.9761294979459516,0.0,0.0,0.00025687809301953174,-1.5711625114447825,-0.00013064373720112545,-0.5113300585094945,9.875403096209641e-06,8.429693987733443e-07,0.026256321568929777,0.04622157420806306,0.013313606261902275,-2.3523725877119723,0.0023131873930318995,7.048638391383158e-05,0.0,-1.5707963267948966,8.881784197001252e-16,-0.5890387593571885,0.0,0.0
9.002,666.6666870117188,0.0,0.0,-1.5707963267948966,8.881784197001252e-16,-0.5699220401972553,0.0,0.0,0.0,0.0,0.0,-0.8938370466331661,0.0,0.0,0.00017329277313323267,-1.5710228286456078,-9.18027095386413e-05,-0.6539738933421553,9.516847970473256e-06,8.383581590776543e-07,0.017432205693655833,0.03164037816868873,0.012030668978351334,-2.497525253449542,0.001822517907313239,4.09516080210722e-05,0.0,-1.5707963267948966,8.881784197001252e-16,-0.844638442351312,0.0,0.0
9.103,666.6666870117188,0.0,0.0,-1.5707963267948966,8.881784197001252e-16,-0.6672404482886094,0.0,0.0,0.0,0.0,0.0,-0.5314007157217848,0.0,0.0,0.00028354733342425195,-1.5713357500736922,-0.0001922182192318054,-0.7444476674216813,1.5322588723514237e-05,1.6410115928149448e-06,0.01731706766899654,0.04758949857960386,0.016819037819800306,-2.770949073090778,0.002222101562116035,3.257342944900386e-05,0.0,-1.5707963267948966,8.881784197001252e-16,-0.7452237700593864,0.0,0.0
9.202,666.6666870117188,0.0,0.0,-1.5707963267948966,8.881784197001252e-16,-0.7368645527922091,0.0,0.0,0.0,0.0,0.0,-0.9832412881849614,0.0,0.0,-6.301011668776878e-06,-1.5711992630678255,-3.0604646488910115e-05,-0.7589973819841386,-1.234190735982206e-05,-6.276279844946351e-07,-0.005945569031291297,-0.02527200474646888,-0.046687082283041303,1.8334605761580494,0.001370763212837548,0.00035533968056209066,0.0,-1.5707963267948966,8.881784197001252e-16,-0.883261828743469,0.0,0.0
9.303,666.6666870117188,0.0,0.0,-1.5707963267948966,8.881784197001252e-16,-0.819731322005758,0.0,0.0,0.0,0.0,0.0,-0.884938884972378,0.0,0.0,0.0001233061464816545,-1.5706051118286288,7.933775349779221e-05,-0.8395197220183656,1.2150184834126768e-05,2.3613786783606227e-07,0.0023280233329131075,0.05729374966385156,0.021775228462113605,-2.5415622199706562,0.0011026172208774957,-6.047921558303929e-05,0.0,-1.5707963267948966,8.881784197001252e-16,-1.0980597332725135,0.0,0.0
9.402,666.6666870117188,0.0,0.0,-1.5707963267948966,8.881784197001252e-16,-0.9106892789390724,0.0,0.0,0.0,0.0,0.0,-0.836106737893267,0.0,0.0,-0.0001587299600574238,-1.5697174802373055,0.00033483477057726915,-0.9120513803598644,2.3633873334577415e-06,-1.7886673940653941e-06,0.050999934349180924,-0.06940881900251508,-0.009456899595033586,-0.6347406105286302,0.003107784676595024,0.00020974235235689346,0.0,-1.5707963267948966,8.881784197001252e-16,-0.991623530177197,0.0,0.0
9.502,666.6666870117188,0.0,0.0,-1.5707963267948966,8.881784197001252e-16,-0.9825149363017402,0.0,0.0,0.0,0.0,0.0,-0.6157470148021655,0.0,0.0,-2.7599054373299415e-06,-1.5703783436618086,0.00013721939142097807,-1.053331277240241,6.460115184965843e-06,-5.407976375034238e-07,0.012348883439102176,-0.06421142294744087,-0.012352852173304774,-1.7350240169982134,-0.0002951823435294421,5.606091852735928e-05,0.0,-1.5707963267948966,8.881784197001252e-16,-1.1924463058884238,0.0,0.0
9.603,666.6666870117188,0.0,0.0,-1.5707963267948966,8.881784197001252e-16,-1.0513705734443306,0.0,0.0,0.0,0.0,0.0,-0.7519800642142118,0.0,0.0,0.00040769075668660703,-1.5730598805634095,-0.0007042496736193489,-1.0468164528446073,5.4749114806103745e-06,5.389677708059405e-06,-0.03893306406505863,0.07045695598378621,-0.034115110208671855,-0.20434631452308388,0.002002304947657181,0.0004599989530567555,0.0,-1.5707963267948966,8.881784197001252e-16,-1.2124778645682182,0.0,0.0
9.702,666.6666870117188,0.0,0.0,-1.5707963267948966,8.881784197001252e-16,-1.1400177518086316,0.0,0.0,0.0,0.0,0.0,-1.1847372742894344,0.0,0.0,0.00037450332223325873,-1.5711619788125644,-0.00015110807559121528,-1.076041450014919,3.957927301654099e-05,3.5628000874640695e-06,0.036717205847193415,-0.16512958635122899,0.009222096171861866,0.07205143214030868,-0.004178275306191675,-0.00042517565109788006,0.0,-1.5707963267948966,8.881784197001252e-16,-1.3922325139059823,0.0,0.0
9.803,666.6666870117188,0.0,0.0,-1.5707963267948966,8.881784197001252e-16,-1.2264837589171051,0.0,0.0,0.0,0.0,0.0,-0.8465745486308439,0.0,0.0,0.00010005942730534782,-1.5707519851627467,-1.8782260959733803e-05,-1.1967649390731918,1.6512248944304285e-05,1.2500840710192777e-06,0.020178496941042973,-0.0022622622394138903,0.03963486526894335,-1.981328867259173,-0.0016010841249772315,-0.0004863152888568205,0.0,-1.5707963267948966,8.881784197001252e-16,-1.4494780827520077,0.0,0.0
9.902,733.3333129882812,0.0,0.0,-1.5707963267948966,8.881784197001252e-16,-1.3191146582295907,0.0,0.0,0.0,0.0,0.0,-0.6534330799591282,0.0,0.0,6.283737450823665e-05,-1.5706490539866151,2.276751800930541e-05,-1.312386077798982,1.6776334103241326e-05,-3.208972714213109e-07,-0.09156720144408544,-0.10204599964186906,-0.04013434945376612,0.009037398668183766,-0.01439334539457747,5.939608729179521e-05,0.0,-1.5707963267948966,8.881784197001252e-16,-1.0612107914379874,0.0,0.0
10.003,733.3333129882812,0.0,0.0,-1.5707963267948966,8.881784197001252e-16,-1.2784342385936425,0.0,0.0,0.0,0.0,0.0,0.5707263309004572,0.0,0.0,0.00013438478445933138,-1.5711491956393322,-0.00013300947079104435,-1.4269459468303756,1.4529796843407382e-05,2.2604062819788294e-06,-0.005650842402998193,-0.06152610352485433,0.016055078852192053,-1.9996238518416356,-0.006304148067610955,-0.0006406970012525933,0.0,-1.5707963267948966,8.881784197001252e-16,-1.1605156366641107,0.0,0.0
10.102,733.3333129882812,0.0,0.0,-1.5707963267948966,8.881784197001252e-16,-1.2154403788352797,0.0,0.0,0.0,0.0,0.0,0.858730949429692,0.0,0.0,9.677158394077617e-05,-1.571381423286387,-0.00019656241948677052,-1.3565829671435554,3.6559712065103956e-06,2.10264986952119e-06,0.024579451785588378,0.004818583236253764,-0.003632260963772504,2.2182934789450064,0.0041501084765492085,0.00032147943382944205,0.0,-1.5707963267948966,8.881784197001252e-16,-1.1235497824741334,0.0,0.0
10.203,733.3333129882812,0.0,0.0,-1.5707963267948966,8.881784197001252e-16,-1.1499034372407326,0.0,0.0,0.0,0.0,0.0,0.5919965332569036,0.0,0.0,7.985450086366401e-06,-1.570723223022974,2.8575060996146824e-05,-1.1154814010203928,1.7874886783004846e-06,-1.2760191036984418e-07,-0.003161655432020283,0.011416597086141402,0.004122424084779994,3.101053749160498,-0.00022345350329088892,-4.52439600211113e-05,0.0,-1.5707963267948966,8.881784197001252e-16,-0.882851922438936,0.0,0.0
10.302,733.3333129882812,0.0,0.0,-1.5707963267948966,8.881784197001252e-16,-1.0783053088700543,0.0,0.0,0.0,0.0,0.0,0.7485557767806179,0.0,0.0,-0.000218929217820366,-1.5706844740291133,4.788946856636738e-05,-1.1218672618402394,-2.5609628521600337e-05,-1.977726697715686e-06,-0.045886486125093044,0.28674644944192584,-0.013436797227967154,-0.25963452079378085,0.010163893963043966,0.0009093951310050518,0.0,-1.5707963267948966,8.881784197001252e-16,-0.796416732684417,0.0,0.0
10.402,733.3333129882812,0.0,0.0,-1.5707963267948966,8.881784197001252e-16,-0.9995542498476571,0.0,0.0,0.0,0.0,0.0,0.604235657472697,0.0,0.0,0.00011913280693102512,-1.5715216387177797,-0.00022401983138866388,-0.9520430051851483,4.5618622420954905e-08,1.4725001926863596e-06,0.002313701559972826,-0.14510045113544742,-0.09369318629753888,2.9837044852033556,0.0015441535951159586,0.0007940583445427224,0.0,-1.5707963267948966,8.881784197001252e-16,-0.7151668030975477,0.0,0.0
10.502,733.3333129882812,0.0,0.0,-1.5707963267948966,8.881784197001252e-16,-0.9413303129267634,0.0,0.0,0.0,0.0,0.0,0.3729948366621363,0.0,0.0,0.0002544991769122541,-1.570758909381581,-5.744362805926928e-05,-0.9041122308342292,2.996396557975639e-05,2.0885925220714815e-06,-0.025227093031398216,0.012200931316683363,0.12433060759673076,-1.5823676285732364,-0.010738641576985895,-0.0014790437277270496,0.0,-1.5707963267948966,8.881784197001252e-16,-0.8446601200292642,0.0,0.0
10.602,733.3333129882812,0.0,0.0,-1.5707963267948966,8.881784197001252e-16,-0.8773828999029867,0.0,0.0,0.0,0.0,0.0,0.8170289371337393,0.0,0.0,0.00019303959896937794,-1.570322683595026,9.075457749878235e-05,-0.8723604930006778,5.895596838764768e-05,-7.669475019974687e-06,0.04809703050434571,-0.18361079247291562,-0.04726100598152099,-0.09917819958915246,0.03761717952569366,-0.0068961427705030495,0.0,-1.5707963267948966,8.881784197001252e-16,-0.6948637079184229,0.0,0.0
10.702,733.3333129882812,0.0,0.0,-1.5707963267948966,8.881784197001252e-16,-0.7955982521410938,0.0,0.0,0.0,0.0,0.0,1.1570552016703906,0.0,0.0,0.00027647828570019845,-1.5717413495077113,-0.00034057054727316917,-0.7013314222684348,1.1508178155463711e-05,2.232786845804165e-06,0.02844099375431124,-0.03219674164873071,-0.008038720021336506,2.4900092802211202,0.0017994716810596958,0.00012970066706132586,0.0,-1.5707963267948966,8.881784197001252e-16,-0.6609424757842609,0.0,0.0
10.803,733.3333129882812,0.0,0.0,-1.5707963267948966,8.881784197001252e-16,-0.6997768844609027,0.0,0.0,0.0,0.0,0.0,0.7779977095264056,0.0,0.0,-0.00033675743504491397,-1.569482988903324,0.0005017634436995565,-0.5973355809120858,-1.1204238638019969e-05,-2.584449493965002e-06,-0.021175332701221843,0.10593355736549064,0.02267965669365593,2.926251578374858,0.0003785372375636113,-5.8218044062836005e-05,0.0,-1.5707963267948966,8.881784197001252e-16,-0.5606905073019393,0.0,0.0
10.902,733.3333129882812,0.0,0.0,-1.5707963267948966,8.881784197001252e-16,-0.6184197232507298,0.0,0.0,0.0,0.0,0.0,0.7763663781850166,0.0,0.0,-0.0002072897864516474,-1.568975390399555,0.0006702253199874972,-0.5757506602769935,3.5230049060255044e-06,-2.0812425016279136e-06,-0.00961335926877844,0.020441105430470802,0.009985473613278966,-0.9745461171850726,-0.00022586796830749274,-4.6898268421759914e-05,0.0,-1.5707963267948966,8.881784197001252e-16,-0.4548386858795,0.0,0.0
11.002,733.3333129882812,0.0,0.0,-1.5707963267948966,8.881784197001252e-16,-0.5469930336045934,0.0,0.0,0.0,0.0,0.0,0.6433515358785226,0.0,0.0,-0.0002066741580146011,-1.568761671722076,0.0006778142237783409,-0.5546084568836134,8.14966264076414e-06,-1.7752752171798528e-06,0.025680789570823037,0.025522383500828364,0.06764988016511261,-0.5374310678526023,-4.379544355760226e-05,-0.00026646142553713104,0.0,-1.5707963267948966,8.881784197001252e-16,-0.36770769956895766,0.0,0.0
11.102,733.3333129882812,0.0,0.0,-1.5707963267948966,8.881784197001252e-16,-0.472539346245445,0.0,0.0,0.0,0.0,0.0,0.8826690184640528,0.0,0.0,5.40477400672211e-05,-1.5698060303435506,0.0002757048896756259,-0.42830774258098286,1.2179572216959381e-05,-1.0046739121931728e-07,0.05440583858371565,-0.07014218698769566,0.0397194622454454,0.716152512945971,0.0006947747758407139,-0.00010965946147101872,0.0,-1.5707963267948966,8.881784197001252e-16,-0.22673883230884978,0.0,0.0
11.202,733.3333129882812,0.0,0.0,-1.5707963267948966,8.881784197001252e-16,-0.3923841322325643,0.0,0.0,0.0,0.0,0.0,0.6162407964398439,0.0,0.0,3.0608490204571855e-06,-1.570571555998894,0.00019983708033398343,-0.28722139093282784,-1.402864911144993e-06,-5.048290916500672e-07,0.016517600233619662,-0.1440998016453638,-0.08525193103788285,3.1081284365962936,0.00043349575385403215,0.00020179784569027053,0.0,-1.5707963267948966,8.881784197001252e-16,-0.22737829283834166,0.0,0.0
11.302,733.3333129882812,0.0,0.0,-1.5707963267948966,8.881784197001252e-16,-0.3248270845039771,0.0,0.0,0.0,0.0,0.0,0.9310722601046008,0.0,0.0,0.0002804910699916283,-1.572524984658467,-0.0004042274119164593,-0.28265460229555994,-3.3504966917945216e-05,2.633827296780433e-06,0.012128571357330769,-0.1370200042692267,0.2772507654829234,-0.1643931224412812,0.12018115294703512,-0.003816814126200117,0.0,-1.5707963267948966,8.881784197001252e-16,-0.25997102041757314,0.0,0.0
11.403,733.3333129882812,0.0,0.0,-1.5707963267948966,8.881784197001252e-16,-0.250531718921688,0.0,0.0,0.0,0.0,0.0,0.7215881122729872,0.0,0.0,2.4633996263553076e-05,-1.5708201620866529,0.0003244821219510739,-0.11320437829319206,-0.0005891824541950925,5.12480968476689e-05,-0.029868052785619405,0.08531955868481406,0.3487287274943755,0.10733998105953989,-0.39179533798280575,-0.016892672143346395,0.0,-1.5707963267948966,8.881784197001252e-16,-0.13032439056364842,0.0,0.0
11.502,733.3333129882812,0.0,0.0,-1.5707963267948966,8.881784197001252e-16,-0.1839719945660434,0.0,0.0,0.0,0.0,0.0,0.9588251719688184,0.0,0.0,5.807896119011101e-05,-1.5703437225676375,0.00010835454667163508,-0.14696599547904793,2.43182777157829e-06,4.4863241749968726e-08,-0.01447425659774274,0.22040003266640648,0.12032500525779143,-1.1566136577405577,0.0007057612906160103,-6.123651138141725e-05,0.0,-1.5707963267948966,8.881784197001252e-16,0.001076712186289408,0.0,0.0
11.602,733.3333129882812,0.0,0.0,-1.5707963267948966,8.881784197001252e-16,-0.10148953953941309,0.0,0.0,0.0,0.0,0.0,0.827732947464986,0.0,0.0,-0.00013811515241555868,-1.5700293364009539,0.0002763291330746945,-0.10911519430791627,-1.8621939170576656e-07,-2.4886531862039487e-07,0.025570574232991188,-0.03141298166229879,0.013500259524505901,2.765624881439492,-0.00011385164015558001,-2.4191737841714623e-05,0.0,-1.5707963267948966,8.881784197001252e-16,0.1793087043472707,0.0,0.0
11.702,733.3333129882812,0.0,0.0,-1.5707963267948966,8.881784197001252e-16,-0.019402295693065952,0.0,0.0,0.0,0.0,0.0,0.6808929280497773,0.0,0.0,0.00015507071430181688,-1.5703814062970622,0.0007496035150428585,0.06093882657022142,0.00021671348209750796,-5.314944944346176e-06,0.08755859472654136,0.06895193707275518,-0.17468775472730744,-0.5537416978173335,0.40414707911859327,-0.009171460741042133,0.0,-1.5707963267948966,8.881784197001252e-16,0.09663428480116583,0.0,0.0
11.802,733.3333129882812,0.0,0.0,-1.5707963267948966,8.881784197001252e-16,0.04425655791850825,0.0,0.0,0.0,0.0,0.0,0.5981027357070401,0.0,0.0,8.604140492225806e-05,-1.5706823435002413,-3.234882072806971e-05,0.10796523302684165,-2.026850775676744e-06,-1.2276843125826027e-07,0.09245021411539324,-0.07680044757516523,0.0263936574573938,-1.3447373597729375,-2.9299786548954442e-05,3.159365632006001e-05,0.0,-1.5707963267948966,8.881784197001252e-16,0.11502354745584539,0.0,0.0
11.902,733.3333129882812,0.0,0.0,-1.5707963267948966,8.881784197001252e-16,0.1308891430838198,0.0,0.0,0.0,0.0,0.0,0.8066579748258746,0.0,0.0,7.553844146341812e-05,-1.571263312092042,-0.00031197355469681734,0.12373137970670613,-1.360719663562772e-06,-3.5107278232071543e-07,0.08453496646054148,-0.007153906075252346,0.04046532212061412,-1.3970813915242815,-0.0002611979438157997,3.434231481271908e-05,0.0,-1.5707963267948966,8.881784197001252e-16,0.22979938150721363,0.0,0.0
12.003,733.3333129882812,0.0,0.0,-1.5707963267948966,8.881784197001252e-16,0.21561870590695906,0.0,0.0,0.0,0.0,0.0,0.50221703817435,0.0,0.0,0.00036437901886459176,-1.570960244359991,-3.078116787348035e-05,0.29532888552886966,-1.035703230085637e-05,-5.064293805307446e-07,0.06096367303095402,0.036251589581295894,0.05287355139983573,-0.9588550383584348,-0.00018526927708205977,0.00010635702956226773,0.0,-1.5707963267948966,8.881784197001252e-16,0.33171040629850285,0.0,0.0
12.102,733.3333129882812,0.0,0.0,-1.5707963267948966,8.881784197001252e-16,0.2851189975807187,0.0,0.0,0.0,0.0,0.0,1.0939112598201355,0.0,0.0,0.0001875402623443781,-1.5712344167942147,-0.00019265581053860487,0.37832084142095446,-5.897034968509914e-06,-7.47568917023843e-07,0.053526317150149376,0.06710443148435076,0.07244549675785635,-1.2914359216097102,-0.0008388878761266226,0.0001595644735484191,0.0,-1.5707963267948966,8.881784197001252e-16,0.35434184825210907,0.0,0.0
12.202,733.3333129882812,0.0,0.0,-1.5707963267948966,8.881784197001252e-16,0.36010015181325017,0.0,0.0,0.0,0.0,0.0,1.191946643931269,0.0,0.0,-0.00026251440754068695,-1.5703254799141706,-3.851743018335025e-05,0.3799690718196045,-0.00014616177076411444,6.301614106569243e-06,-0.11851532904043374,-0.055273579690647535,0.06194906344022935,-0.03280623311192516,0.02510173720665035,-0.0003458045105585899,0.0,-1.5707963267948966,8.881784197001252e-16,0.6289591870382034,0.0,0.0
12.302,733.3333129882812,0.0,0.0,-1.5707963267948966,8.881784197001252e-16,0.4616903994897479,0.0,0.0,0.0,0.0,0.0,0.8472056181561847,0.0,0.0,-0.00021202336673537746,-1.5699708800150265,0.00027380998814219645,0.48854025721822325,3.1664524033889507e-06,8.706819816850869e-07,-0.00886300738986481,0.02799883411195243,0.006111487608243787,2.3353075840789623,-5.177035047464461e-05,1.7042703039846558e-05,0.0,-1.5707963267948966,8.881784197001252e-16,0.7176244243429417,0.0,0.0
12.403,733.3333129882812,0.0,0.0,-1.5707963267948966,8.881784197001252e-16,0.5462458565699492,0.0,0.0,0.0,0.0,0.0,0.8197066533307463,0.0,0.0,0.0003249717443775593,-1.570594592342323,0.0002220423725116278,0.5922448819093721,-6.436144256321717e-05,3.2439677591987866e-06,-0.005867008379877212,-0.030591138472278748,-0.02257527118189783,-0.09686029236726677,0.05645100065927439,-0.003101684113148736,0.0,-1.5707963267948966,8.881784197001252e-16,0.7390272714372645,0.0,0.0
12.502,733.3333129882812,0.0,0.0,-1.5707963267948966,8.881784197001252e-16,0.613119430889662,0.0,0.0,0.0,0.0,0.0,0.68693711371018,0.0,0.0,0.000255516116287734,-1.570571555998894,0.00019875203399459098,0.6693404659899669,-1.0617890912696362e-05,3.628445742504018e-07,-0.034477585158383055,0.09311162681687124,-0.008031651721326137,-0.08959220950206108,0.0506716206822338,-0.003080987398349077,0.0,-1.5707963267948966,8.881784197001252e-16,0.8898238276737687,0.0,0.0
12.602,733.3333129882812,0.0,0.0,-1.5707963267948966,8.881784197001252e-16,0.6931452743679422,0.0,0.0,0.0,0.0,0.0,1.0948012007001862,0.0,0.0,-0.00011557779408856598,-1.570159698136313,0.00019563965952630477,0.7122850038319307,-6.674620088210034e-08,8.246859070337951e-07,0.006040790043977891,-0.20347457867451688,-0.08243798509583469,0.9365117160239151,0.001013913215650422,-0.0003149181487160569,0.0,-1.5707963267948966,8.881784197001252e-16,0.9232420895949247,0.0,0.0
12.702,733.3333129882812,0.0,0.0,-1.5707963267948966,8.881784197001252e-16,0.7833202243753444,0.0,0.0,0.0,0.0,0.0,0.8706135064686255,0.0,0.0,-0.00022130550067510097,-1.5703909936769864,4.6216377923045505e-05,0.8229942748222059,7.690375446116885e-06,5.461496699608678e-07,-0.02603173178465743,-0.2007315560412489,-0.0691153802622804,1.3375339084984368,0.004720764601207043,-9.922588909307203e-05,0.0,-1.5707963267948966,8.881784197001252e-16,1.0279957572417457,0.0,0.0
12.803,733.3333129882812,0.0,0.0,-1.5707963267948966,8.881784197001252e-16,0.8635223254856463,0.0,0.0,0.0,0.0,0.0,0.761467984651387,0.0,0.0,0.000330780081810191,-1.572169053178778,-0.0003753793175791239,0.8669670591610492,0.00020694708976425638,-1.686934826336873e-05,-0.10356248679034424,0.11960153258053619,0.07549676364254419,0.26557809713559244,0.011439949679950033,0.023073854469258095,0.0,-1.5707963267948966,8.881784197001252e-16,1.0116083320103972,0.0,0.0
12.902,733.3333129882812,0.0,0.0,-1.5707963267948966,8.881784197001252e-16,0.9342187700189365,0.0,0.0,0.0,0.0,0.0,0.642934585735435,0.0,0.0,0.0002757627562129836,-1.5706648997951012,-0.00013861802237798412,0.9910398061852331,-0.0005593328786499814,2.906289744347711e-05,0.207791412998724,0.033677615259409883,-0.08136083630343852,-0.75172821720974,0.09286060723937445,-0.05751177933334498,0.0,-1.5707963267948966,8.881784197001252e-16,1.0202736078292038,0.0,0.0
13.002,733.3333129882812,0.0,0.0,-1.5707963267948966,8.881784197001252e-16,1.001188443292644,0.0,0.0,0.0,0.0,0.0,1.036747407080954,0.0,0.0,-1.4695680578527617e-05,-1.5702015097654274,0.0002671919743166264,1.0109056563366792,-1.4777743171367174e-06,1.9065109058952778e-06,0.0214838307851831,0.059791029107532485,0.025804274941024045,-2.0301459416208703,-0.002732748917199493,2.5088986136342484e-05,0.0,-1.5707963267948966,8.881784197001252e-16,1.2556384464759023,0.0,0.0
13.102,733.3333129882812,0.0,0.0,-1.5707963267948966,8.881784197001252e-16,1.0876581206685696,0.0,0.0,0.0,0.0,0.0,0.5488166586315818,0.0,0.0,-0.00035175543374001416,-1.568797624396792,0.0006892558686227426,1.1002565751216007,9.708677167278495e-06,5.556971533661601e-06,-0.052942244311202966,0.11272738117482366,0.05268348908297734,2.271875880603237,0.00552550946479094,0.0007343517813342321,0.0,-1.5707963267948966,8.881784197001252e-16,1.3749182851275785,0.0,0.0
13.202,733.3333129882812,0.0,0.0,-1.5707963267948966,8.881784197001252e-16,1.1524981370828506,0.0,0.0,0.0,0.0,0.0,0.5030026902685745,0.0,0.0,0.0006010784488856239,-1.5733736009398207,-0.0008066819621765906,1.1794376140728093,-2.7208075801758273e-05,-8.380530924021489e-06,0.05167710547417162,-0.07284234937217018,-0.03797016488342685,-0.5772379025877483,-0.006785806758184305,-0.0007749352094477047,0.0,-1.5707963267948966,8.881784197001252e-16,1.296939821454339,0.0,0.0
13.302,733.3333129882812,0.0,0.0,-1.5707963267948966,8.881784197001252e-16,1.2249009650323552,0.0,0.0,0.0,0.0,0.0,0.7964018295020665,0.0,0.0,0.00038073821406851404,-1.570959179095555,-0.0003450241250365275,1.2551403649032928,2.77345637638412e-05,-1.7854264971642676e-05,-0.025658414856477168,-0.20044628155423097,0.12615077001088063,-0.3042206144869126,0.25487854785057645,-0.007221983650766146,0.0,-1.5707963267948966,8.881784197001252e-16,1.2884300543828973,0.0,0.0
13.402,800.0,0.0,0.0,-1.5707963267948966,8.881784197001252e-16,1.2937671943385647,0.0,0.0,0.0,0.0,0.0,0.73369316181131,0.0,0.0,-0.00010955558616006809,-1.5702278750602192,0.00018923227339485852,1.3250371582412943,4.846729377796392e-06,1.9852313912686764e-06,0.030334931972440117,-0.08850760385861269,-0.008872576044437681,1.9862880726830638,-0.00011907706975220503,-4.9760849628011254e-05,0.0,-1.5707963267948966,8.881784197001252e-16,1.0446939632947934,0.0,0.0
13.502,800.0,0.0,0.0,-1.5707963267948966,8.881784197001252e-16,1.2687097046873275,0.0,0.0,0.0,0.0,0.0,-0.9504796716048168,0.0,0.0,0.00017666154837687843,-1.571838022255281,-0.00037807817387033724,1.4025326159595646,-1.0294718086171586e-05,-4.2318534800329105e-06,0.004181215966586746,-0.022562042761420705,0.043156350694787515,3.002274973800587,0.006019683452041712,0.0008880204024395887,0.0,-1.5707963267948966,8.881784197001252e-16,1.0856355635709725,0.0,0.0
13.602,800.0,0.0,0.0,-1.5707963267948966,8.881784197001252e-16,1.1844075847776283,0.0,0.0,0.0,0.0,0.0,-0.8087348624584388,0.0,0.0,-3.85468063911142e-05,-1.5704196226587048,0.0001402845461445946,1.2461886815312093,4.877120611967251e-07,1.2961629427701946e-06,-0.004355783575298188,0.036335050553145454,0.008928237151517637,-2.6624087470712907,-0.0004307270350972111,4.0537268984410424e-05,0.0,-1.5707963267948966,8.881784197001252e-16,0.9715565084899569,0.0,0.0
13.702,800.0,0.0,0.0,-1.5707963267948966,8.881784197001252e-16,1.098652156275528,0.0,0.0,0.0,0.0,0.0,-0.8667612317415556,0.0,0.0,-0.00035237694635866814,-1.5695190747360945,0.00039052003206017927,1.1158324722310926,1.702956827050847e-05,3.928835651774873e-06,-0.019071002676382107,-0.09884005303211806,0.01041185610677366,-0.09782673688209971,0.008142096964861466,0.0006429812340508517,0.0,-1.5707963267948966,8.881784197001252e-16,1.0435360728986793,0.0,0.0
13.802,800.0,0.0,0.0,-1.5707963267948966,8.881784197001252e-16,1.0265930652063853,0.0,0.0,0.0,0.0,0.0,-0.8544028741622569,0.0,0.0,9.2598455700536e-05,-1.5711587830192564,-7.39192674786399e-05,0.9572271811421238,-8.141932794975513e-08,-4.267372356362076e-07,0.04087846162946948,0.025899322744210054,0.021276328924373894,-0.9855153448199727,-0.003625030377383209,-5.2219124977427796e-05,0.0,-1.5707963267948966,8.881784197001252e-16,0.8130972635426981,0.0,0.0
13.903,800.0,0.0,0.0,-1.5707963267948966,8.881784197001252e-16,0.9446305417097474,0.0,0.0,0.0,0.0,0.0,-0.4270528088086946,0.0,0.0,4.3724853696616284e-05,-1.5708621068738216,-9.39591036150784e-06,0.9530401592763013,-2.4508170070006106e-06,-1.8651453098362912e-07,0.04868310487529888,0.016936859811495696,0.00830757341546111,-1.7466475167339188,-0.005179353658837582,-0.00024205096315608996,0.0,-1.5707963267948966,8.881784197001252e-16,0.8381034193894642,0.0,0.0
14.002,800.0,0.0,0.0,-1.5707963267948966,8.881784197001252e-16,0.8670988293800166,0.0,0.0,0.0,0.0,0.0,-0.6160273907725466,0.0,0.0,0.00024326944387895692,-1.5703755473426642,5.517102545974106e-05,0.9010478645259296,0.00012672612385807461,-1.2888491143103585e-05,-0.04112096741385641,-0.03346939767405772,0.09240555623286398,-0.46705973249786215,0.3309622139407253,-0.01075463302709398,0.0,-1.5707963267948966,8.881784197001252e-16,0.7420966998056523,0.0,0.0
14.104,800.0,0.0,0.0,-1.5707963267948966,8.881784197001252e-16,0.7912715407073714,0.0,0.0,0.0,0.0,0.0,-0.7227194743872483,0.0,0.0,-0.0001958036363883453,-1.5702747466954046,0.00012146599872100298,0.7849651999832287,5.865612199307989e-06,8.317282956156422e-07,-0.04032571838403433,-0.002500090326987722,0.01581772045884954,1.3767886366500957,0.004284401495408357,0.00031757620584750405,0.0,-1.5707963267948966,8.881784197001252e-16,0.7113313983920022,0.0,0.0
14.202,800.0,0.0,0.0,-1.5707963267948966,8.881784197001252e-16,0.7109338499025633,0.0,0.0,0.0,0.0,0.0,-0.8144444065912049,0.0,0.0,0.0001465941443297645,-1.5705956576067592,0.00015249510073145914,0.6770607036739976,-8.716207128505e-06,3.166177598291422e-07,0.050068377244628016,-0.09000842829092684,-0.020612725356780392,-2.22908527347228,-0.002123398674363624,-0.00019118731711599115,0.0,-1.5707963267948966,8.881784197001252e-16,0.4483962843420616,0.0,0.0
14.302,800.0,0.0,0.0,-1.5707963267948966,8.881784197001252e-16,0.6320539361411539,0.0,0.0,0.0,0.0,0.0,-1.0564719276289378,0.0,0.0,-1.1048844228711146e-05,-1.5702899267136181,0.0002145090270985056,0.6293531022224271,-2.720278135900126e-06,7.8957561915255e-07,-0.01723624801199374,-0.02578366873208956,-0.006674173495131449,-2.3860911365895743,0.0016859328534260763,6.10708033996496e-05,0.0,-1.5707963267948966,8.881784197001252e-16,0.4655225926242547,0.0,0.0
14.402,800.0,0.0,0.0,-1.5707963267948966,8.881784197001252e-16,0.5566909464392689,0.0,0.0,0.0,0.0,0.0,-0.8036568600940018,0.0,0.0,7.310279664395557e-05,-1.5708190968222169,2.881282429676805e-06,0.5449523341136905,-3.7918351515033353e-06,-1.569706178213769e-07,0.0033044255735094246,-0.10849513550474017,-0.0326171008208537,-2.7271392742106477,0.0011576667631817375,-5.4594066823923415e-05,0.0,-1.5707963267948966,8.881784197001252e-16,0.426353041260519,0.0,0.0
14.503,800.0,0.0,0.0,-1.5707963267948966,8.881784197001252e-16,0.46817358506662465,0.0,0.0,0.0,0.0,0.0,-0.8012635708581761,0.0,0.0,3.2497538541811214e-05,-1.5705350706919599,0.00010980351826521324,0.43676544286037017,-2.993389702569312e-06,1.8590185466955063e-07,-0.03658108918716595,0.065549033055636,0.030858546893452524,-1.9907520633022546,0.0016658607071183928,0.00017219712876508818,0.0,-1.5707963267948966,8.881784197001252e-16,0.17542264599199575,0.0,0.0
14.602,800.0,0.0,0.0,-1.5707963267948966,8.881784197001252e-16,0.3821241897754559,0.0,0.0,0.0,0.0,0.0,-0.7704471975216253,0.0,0.0,-0.0005184584273666066,-1.5702334676985084,0.0001915896033331443,0.33495921926277067,8.271037296505738e-05,-2.620719703177499e-06,-0.0028221793750354404,0.032466405434452644,-0.00025995634898728036,-0.047662539933688484,0.027197692838218546,-0.0013081722953253933,0.0,-1.5707963267948966,8.881784197001252e-16,0.16877864799452957,0.0,0.0
14.702,800.0,0.0,0.0,-1.5707963267948966,8.881784197001252e-16,0.3033881324405705,0.0,0.0,0.0,0.0,0.0,-0.44651439132031046,0.0,0.0,0.0002794746670194441,-1.5710277554936245,-4.822989773073551e-05,0.28576837024208057,-6.538854718751732e-06,-3.6764779019664147e-07,0.0242337838790691,-0.08055788491240122,0.00827879307048549,-0.4913184335778803,0.0007384252604713061,6.169913890567884e-05,0.0,-1.5707963267948966,8.881784197001252e-16,0.17662739141227207,0.0,0.0
14.803,800.0,0.0,0.0,-1.5707963267948966,8.881784197001252e-16,0.23471244452054396,0.0,0.0,0.0,0.0,0.0,-0.582230010781423,0.0,0.0,-4.161872711084734e-05,-1.5711385429949718,-0.00015717573963536507,0.22204922846095165,1.425367054798804e-06,-1.2107989266988218e-07,-0.014390971436137016,-0.04662961626014444,-0.04383101678387786,1.6106183082587424,-7.915451488104133e-05,-5.724863733394829e-05,0.0,-1.5707963267948966,8.881784197001252e-16,0.01279143236251179,0.0,0.0
14.903,800.0,0.0,0.0,-1.5707963267948966,8.881784197001252e-16,0.1463996069650495,0.0,0.0,0.0,0.0,0.0,-0.7772639087130253,0.0,0.0,-8.717430493748787e-05,-1.570928819059128,-0.00026490265381438124,0.1957503795383647,-9.559456881813378e-05,3.3689868080138255e-06,-0.16413885713620588,-0.0046366825718688965,0.05585494775661183,0.02351870432043681,-0.00936376281798917,0.0009955251806355908,0.0,-1.5707963267948966,8.881784197001252e-16,-0.052703602199053845,0.0,0.0
15.002,800.0,0.0,0.0,-1.5707963267948966,8.881784197001252e-16,0.07033657499558732,0.0,0.0,0.0,0.0,0.0,-0.8243180663556056,0.0,0.0,8.780885378169267e-05,-1.5707630372812706,1.3576254648357055e-05,0.07517649355432694,-9.62651018913849e-07,-3.414001730685088e-08,-0.022099790816994005,0.02908709536011588,0.020027397919289203,-2.11316199912082,0.0004213194640595131,2.918832844595961e-05,0.0,-1.5707963267948966,8.881784197001252e-16,0.005482743663278403,0.0,0.0
15.102,800.0,0.0,0.0,-1.5707963267948966,8.881784197001252e-16,-0.008027562304516067,0.0,0.0,0.0,0.0,0.0,-0.8788394813448677,0.0,0.0,1.946640272682575e-05,-1.5704812748379402,0.00011529657246979485,-0.019398856531922276,-1.7821857431262348e-08,7.953719697208014e-09,-0.008852860329992688,-0.010310645582377641,0.007084383006639066,-2.064777155804043,0.0001785030534004146,4.495016949784247e-06,0.0,-1.5707963267948966,8.881784197001252e-16,-0.08635848886986515,0.0,0.0
15.203,800.0,0.0,0.0,-1.5707963267948966,8.881784197001252e-16,-0.08286608426007902,0.0,0.0,0.0,0.0,0.0,-0.5249681781228193,0.0,0.0,0.00012074307337016512,-1.5709112421959335,-4.5584868697516525e-05,-0.11926686477767569,1.0245430572831361e-06,7.205072342405765e-08,-0.01035584650009793,-0.004547077084012088,0.01039291333322317,-2.0999488585304467,-1.7548882854426323e-05,-5.864032450965447e-06,0.0,-1.5707963267948966,8.881784197001252e-16,-0.23110824492382487,0.0,0.0
15.302,800.0,0.0,0.0,-1.5707963267948966,8.881784197001252e-16,-0.154010050138762,0.0,0.0,0.0,0.0,0.0,-0.8788248290206937,0.0,0.0,0.0002013414965227658,-1.5711233629767583,-0.0001231752559501734,-0.157382850214352,2.1372118171015428e-06,1.8252933323811507e-07,-0.01478166757102465,-0.03887737070876234,-0.00343040297589453,-1.7919737195387404,-0.000195697103442884,-7.599428673691777e-06,0.0,-1.5707963267948966,8.881784197001252e-16,-0.25148718807096837,0.0,0.0
15.403,800.0,0.0,0.0,-1.5707963267948966,8.881784197001252e-16,-0.22254583385547555,0.0,0.0,0.0,0.0,0.0,-0.7496295637185276,0.0,0.0,1.9614405336172943e-05,-1.5703309393944052,0.00017387738770699847,-0.25705108808883587,2.252137747084971e-06,-1.236969619987847e-07,-0.01783509203231438,-0.041933406316277115,-0.0007434152415303958,-1.6804784831317554,-0.0006648139535029973,-3.3170832364979265e-05,0.0,-1.5707963267948966,8.881784197001252e-16,-0.36416627140353947,0.0,0.0
15.502,800.0,0.0,0.0,-1.5707963267948966,8.881784197001252e-16,-0.297395475649747,0.0,0.0,0.0,0.0,0.0,-0.960486238881101,0.0,0.0,0.00010041345348053046,-1.5707815462508468,-1.578909704434721e-05,-0.2792662291511385,3.2336508850151213e-06,1.6674754887932294e-07,-0.008402256594443184,-0.09203507723572033,-0.021978698130584864,-1.3186442400445593,-0.0006388082764843874,-2.200875421327151e-06,0.0,-1.5707963267948966,8.881784197001252e-16,-0.5163492822996141,0.0,0.0
15.602,800.0,0.0,0.0,-1.5707963267948966,8.881784197001252e-16,-0.38673020477931885,0.0,0.0,0.0,0.0,0.0,-0.8893370102553582,0.0,0.0,0.000140729533315017,-1.570705246685616,6.736607717862668e-05,-0.40055370914926297,5.380462848033022e-06,8.776970357950102e-08,0.028251894752753404,0.044983191817608605,0.08707637115453366,-1.6794963093217343,-0.00032367745198889566,-0.00024053047112308098,0.0,-1.5707963267948966,8.881784197001252e-16,-0.5022773213046746,0.0,0.0
15.703,800.0,0.0,0.0,-1.5707963267948966,8.881784197001252e-16,-0.45113988438238195,0.0,0.0,0.0,0.0,0.0,-0.7086634662579592,0.0,0.0,-2.5677036535763904e-05,-1.5711505272198771,-0.0001080997388515174,-0.49154300463680123,-8.982452123439625e-06,3.114690691750339e-07,-0.03347945318776737,0.03959187186209538,0.014957383147807538,0.001953890161463194,-0.0016635680219045652,-2.3738058499704557e-05,0.0,-1.5707963267948966,8.881784197001252e-16,-0.7124786899861347,0.0,0.0
15.802,800.0,0.0,0.0,-1.5707963267948966,8.881784197001252e-16,-0.525195161239953,0.0,0.0,0.0,0.0,0.0,-0.5895589714643792,0.0,0.0,3.3442323546692594e-05,-1.571512717128128,-0.000297792254401436,-0.5088506555346308,-2.7763668214253618e-06,8.689779741983988e-07,-0.045278602961525645,0.13237652491494295,-0.0010373278371856153,1.2235041416820234,0.000494834153416009,6.249832292505983e-05,0.0,-1.5707963267948966,8.881784197001252e-16,-0.6998108449391873,0.0,0.0
15.902,800.0,0.0,0.0,-1.5707963267948966,8.881784197001252e-16,-0.5994641691285381,0.0,0.0,0.0,0.0,0.0,-0.9401446792184942,0.0,0.0,-0.0006466991265667918,-1.5704176252878874,0.00039476044640474305,-0.5846780423041299,-0.0001166965037984269,3.2604017135802204e-06,0.028734960965574752,0.006808020226448548,0.03338849167237895,-0.004281532095378391,0.00456374316691975,-0.00014103191848200154,0.0,-1.5707963267948966,8.881784197001252e-16,-0.6924001745995011,0.0,0.0
16.003,800.0,0.0,0.0,-1.5707963267948966,8.881784197001252e-16,-0.6808170503923545,0.0,0.0,0.0,0.0,0.0,-0.514560232816701,0.0,0.0,-2.0100283098741546e-05,-1.5715433434806638,-0.00026408998656670296,-0.6331977747301201,-9.425506006983681e-06,6.095147220680421e-07,-0.006505495009439905,0.05087490309719091,-0.06913190434460649,1.28361222011733,0.004442514201564202,0.0005901984345464982,0.0,-1.5707963267948966,8.881784197001252e-16,-0.9547012873882148,0.0,0.0
16.102,800.0,0.0,0.0,-1.5707963267948966,8.881784197001252e-16,-0.7459378250099373,0.0,0.0,0.0,0.0,0.0,-0.47860122220013107,0.0,0.0,-0.0005820539469784395,-1.5710671702777577,0.00014929020482198194,-0.7155111571764526,-0.00011814917332381652,3.0140224350213097e-06,-0.016601979787985843,0.0010755174111727564,0.09806048752440301,0.025316410877051353,-0.013647426222462601,0.0005024560866461536,0.0,-1.5707963267948966,8.881784197001252e-16,-1.0404885115243627,0.0,0.0
16.203,800.0,0.0,0.0,-1.5707963267948966,8.881784197001252e-16,-0.8346360749222583,0.0,0.0,0.0,0.0,0.0,-0.7207709220537822,0.0,0.0,-0.00017089735856094996,-1.5710526560498168,2.9613208620114767e-05,-0.8089054868654142,-1.0423610312193019e-05,-6.297321991277476e-07,-0.09724067499471416,-0.1992336277966202,0.3215353893406582,0.026973904082867824,0.0032001027396637003,0.0002776996597499333,0.0,-1.5707963267948966,8.881784197001252e-16,-1.100395128377365,0.0,0.0
16.302,800.0,0.0,0.0,-1.5707963267948966,8.881784197001252e-16,-0.9124580809741936,0.0,0.0,0.0,0.0,0.0,-0.46708851693836834,0.0,0.0,-0.00014637886780707768,-1.5716259014744562,-0.00018171198046193244,-0.9119790089572415,-4.6859054089912894e-05,1.2479790944496654e-06,0.05058366562604472,0.04098832950800286,0.010116595805965238,-0.005928292814016709,0.006597831797859995,-1.6424485034616916e-05,0.0,-1.5707963267948966,8.881784197001252e-16,-1.2066376329177573,0.0,0.0
16.403,800.0,0.0,0.0,-1.5707963267948966,8.881784197001252e-16,-0.9853940987996062,0.0,0.0,0.0,0.0,0.0,-1.0053898788787834,0.0,0.0,0.0001612744297273385,-1.572184100038937,-0.0005837645858524625,-0.9581213374781179,5.769899260098936e-06,4.333105443615356e-06,0.0035458114778520343,0.1600153683071385,-0.014901213335347484,-0.03488244182012934,0.008633859542968955,0.0006958248909473025,0.0,-1.5707963267948966,8.881784197001252e-16,-1.0777772300617456,0.0,0.0
16.502,800.0,0.0,0.0,-1.5707963267948966,8.881784197001252e-16,-1.0639909863673331,0.0,0.0,0.0,0.0,0.0,-0.9604436334390136,0.0,0.0,-0.000124054396569909,-1.5701056359661845,0.00024159713345861064,-1.0910780570036698,-4.031214773419086e-06,-2.0035154544606003e-06,0.007327332997973447,-0.10066547518942083,-0.02840588372040883,-0.9105455625005063,-0.0012731685017848269,0.00011806168269535368,0.0,-1.5707963267948966,8.881784197001252e-16,-1.1495485370956837,0.0,0.0
16.602,800.0,0.0,0.0,-1.5707963267948966,8.881784197001252e-16,-1.1496441661087076,0.0,0.0,0.0,0.0,0.0,-0.7963949803878246,0.0,0.0,6.437975342117601e-05,-1.570741465676441,6.0182714597662484e-05,-1.1627406593024485,4.409485006083094e-06,-2.656480653082064e-07,0.01975296124955114,-0.21276163725162525,-0.0357970379174898,0.5270046590268875,-0.0047746494006458634,-7.011115355382223e-05,0.0,-1.5707963267948966,8.881784197001252e-16,-1.4105658885550503,0.0,0.0
16.702,800.0,0.0,0.0,-1.5707963267948966,8.881784197001252e-16,-1.2327090108998568,0.0,0.0,0.0,0.0,0.0,-0.6249122941560443,0.0,0.0,-1.6832685910837762e-05,-1.5704720869321795,0.00012420185058497648,-1.2565879261138053,1.4030231399580804e-06,-9.494507230367948e-07,-0.04125387995819738,0.10243665208427007,0.04089713704661366,-3.0978089536883453,-0.004161407665681981,-0.0006192179178641424,0.0,-1.5707963267948966,8.881784197001252e-16,-1.4215961693032981,0.0,0.0
16.802,866.6666870117188,0.0,0.0,-1.5707963267948966,8.881784197001252e-16,-1.304120965599207,0.0,0.0,0.0,0.0,0.0,-0.06769672934526037,0.0,0.0,0.0001486806718769326,-1.5712390773261222,-9.652174191480533e-05,-1.3049000651328237,6.153912208160567e-06,1.1592491762701975e-06,-0.03530639625972394,-0.020482082741149796,0.03554511952312512,-2.1056819785671146,-0.00996621562964633,-0.0010302625930485678,0.0,-1.5707963267948966,8.881784197001252e-16,-1.0933977473669931,0.0,0.0
16.902,866.6666870117188,0.0,0.0,-1.5707963267948966,8.881784197001252e-16,-1.2255381817623219,0.0,0.0,0.0,0.0,0.0,1.0537827638210864,0.0,0.0,0.0001412607026149536,-1.5720333651212384,-0.0004914856964790198,-1.4435450304306758,8.956493454855296e-06,5.442396602425663e-06,0.01808947593128199,0.047836481803573486,-0.04659082565439175,-0.7422150729008407,0.011433417653198235,0.001329334413130003,0.0,-1.5707963267948966,8.881784197001252e-16,-1.0336054630899643,0.0,0.0
17.002,866.6666870117188,0.0,0.0,-1.5707963267948966,8.881784197001252e-16,-1.1614096253346329,0.0,0.0,0.0,0.0,0.0,0.8831523112245224,0.0,0.0,-3.424718450095341e-05,-1.5706381350261458,3.9560116917025256e-05,-1.331183600879143,-3.419205915714252e-07,-3.6208254250872103e-07,-0.010837707008347639,0.0694687692553663,0.016240315229871974,2.0224308971009655,0.0005617142492087032,-9.553849029176188e-05,0.0,-1.5707963267948966,8.881784197001252e-16,-0.882194992574553,0.0,0.0
17.102,866.6666870117188,0.0,0.0,-1.5707963267948966,8.881784197001252e-16,-1.0554571601332867,0.0,0.0,0.0,0.0,0.0,1.1128142753048924,0.0,0.0,1.4310553171345878e-05,-1.570711904588341,4.06763884300874e-05,-1.0741969446439301,1.0525992735562064e-06,8.384795292125728e-08,0.0047959687333800575,-0.013310511377432359,-0.006141859608089649,3.1410054265694307,0.0007866779553421103,-2.8336312765610422e-05,0.0,-1.5707963267948966,8.881784197001252e-16,-0.8294529340626251,0.0,0.0
17.203,866.6666870117188,0.0,0.0,-1.5707963267948966,8.881784197001252e-16,-0.9437765352505716,0.0,0.0,0.0,0.0,0.0,0.8026425746998832,0.0,0.0,-4.471899186836628e-05,-1.5698905857081606,0.0004105552803229747,-0.9099978834223316,5.565900413521794e-07,-2.5956484366363917e-06,-0.04402847769513962,-0.09428965948031097,0.049479136208691175,1.3049221693698714,-0.012172616504749857,-0.0010921666542678613,0.0,-1.5707963267948966,8.881784197001252e-16,-0.7555548654707018,0.0,0.0
17.302,866.6666870117188,0.0,0.0,-1.5707963267948966,8.881784197001252e-16,-0.8680221708829565,0.0,0.0,0.0,0.0,0.0,0.9868540894210188,0.0,0.0,3.131048008018853e-05,-1.5706493203027243,6.905792568265383e-05,-0.720293395545908,1.517009094279813e-06,1.6783761015776646e-07,0.021810130436555854,-0.08156649059624148,-0.034401108742611146,3.140691173560801,0.003046759536557754,-8.213536488667876e-05,0.0,-1.5707963267948966,8.881784197001252e-16,-0.6718563561642104,0.0,0.0
17.402,866.6666870117188,0.0,0.0,-1.5707963267948966,8.881784197001252e-16,-0.7691452650194828,0.0,0.0,0.0,0.0,0.0,0.9394613445258099,0.0,0.0,-0.00016067128485790198,-1.5700149553310674,0.000341747936252654,-0.6337291419466181,-2.187293954017221e-05,4.713620468196656e-07,0.015009793325822456,0.0017033021773090874,-0.008282701467444642,3.141595583066992,-0.0056335641051290025,0.018526375830487895,0.0,-1.5707963267948966,8.881784197001252e-16,-0.7189209270977431,0.0,0.0
17.502,866.6666870117188,0.0,0.0,-1.5707963267948966,8.881784197001252e-16,-0.6856477202219082,0.0,0.0,0.0,0.0,0.0,0.6932518222256276,0.0,0.0,0.00014662405287716286,-1.569029319411629,0.000502087366271597,-0.5688092640537565,5.929502809814717e-05,-2.1651731087857026e-06,-0.09100430073580516,-0.07635193795808226,-0.018106726141124057,0.02181315770170122,-0.01615482359769123,0.00047048820572226363,0.0,-1.5707963267948966,8.881784197001252e-16,-0.4941953663269545,0.0,0.0
17.602,866.6666870117188,0.0,0.0,-1.5707963267948966,8.881784197001252e-16,-0.5908910826872544,0.0,0.0,0.0,0.0,0.0,1.161384662024806,0.0,0.0,0.00012015627254660308,-1.5717742395471737,-0.0008715496353501542,-0.528756819287078,7.746838801216866e-05,-3.3662783777365156e-06,-0.13556328844246698,-0.07470271719640185,0.08135025856048386,-0.0346290358006245,0.020246852796084742,-0.001551531903721969,0.0,-1.5707963267948966,8.881784197001252e-16,-0.3981613904073303,0.0,0.0
17.702,866.6666870117188,0.0,0.0,-1.5707963267948966,8.881784197001252e-16,-0.504527661653392,0.0,0.0,0.0,0.0,0.0,0.5369231567763207,0.0,0.0,1.697701319248963e-06,-1.5706023155094844,7.803825149530185e-05,-0.42342966370179835,1.338920660308692e-06,-1.6352520830669757e-07,-0.012503840923544658,0.057725789294068075,0.027185500553853027,2.907937285874492,-0.00038585212054356293,-9.928974546723204e-05,0.0,-1.5707963267948966,8.881784197001252e-16,-0.3101360168833879,0.0,0.0
17.802,866.6666870117188,0.0,0.0,-1.5707963267948966,8.881784197001252e-16,-0.42623032424758467,0.0,0.0,0.0,0.0,0.0,0.9067754314303778,0.0,0.0,-0.00034243807598387097,-1.5689160019072461,0.0006761380447524072,-0.40466543013526357,-1.7740643730925427e-06,-1.6267184260186048e-06,0.00868907020131766,-0.04227916784955347,0.011547613168502991,-0.25003603881670133,-0.0006627388204622021,-7.043088242736873e-05,0.0,-1.5707963267948966,8.881784197001252e-16,-0.3392281046829359,0.0,0.0
17.902,866.6666870117188,0.0,0.0,-1.5707963267948966,8.881784197001252e-16,-0.3511229225928121,0.0,0.0,0.0,0.0,0.0,0.6672073698223764,0.0,0.0,-8.309142248809317e-05,-1.569362214547889,0.0005741251910631366,-0.2538788304668743,3.1589833938620254e-06,-7.499913671349629e-07,0.001431189531741038,-0.19083706370900705,0.004797815261089,1.2251792700076833,-0.002141533396985707,-0.0001278093578045133,0.0,-1.5707963267948966,8.881784197001252e-16,-0.16558219275450747,0.0,0.0
18.002,866.6666870117188,0.0,0.0,-1.5707963267948966,8.881784197001252e-16,-0.2839732111507658,0.0,0.0,0.0,0.0,0.0,1.0962030352799759,0.0,0.0,0.00026107393712661384,-1.5720513414585964,-0.0008635870047539937,-0.1432590916234962,-1.548805796517868e-05,-2.6214683216620512e-08,-0.1992363242472239,0.032654680520548235,0.16408832365452164,0.0021837614050946013,0.0023840069321563163,0.00013387051999053302,0.0,-1.5707963267948966,8.881784197001252e-16,-0.20544635683080348,0.0,0.0
18.102,866.6666870117188,0.0,0.0,-1.5707963267948966,8.881784197001252e-16,-0.2004348937266327,0.0,0.0,0.0,0.0,0.0,0.8975376549855707,0.0,0.0,4.171259362393898e-05,-1.5710686350163572,-0.00010904990414400141,-0.08890043676415618,7.655053784351703e-08,9.087580915174191e-08,-0.03372608895243853,0.1866460970358198,0.07181899643379361,2.587711339552312,-7.97852682655627e-05,-6.015036785346535e-05,0.0,-1.5707963267948966,8.881784197001252e-16,-0.13931394119455592,0.0,0.0
18.203,866.6666870117188,0.0,0.0,-1.5707963267948966,8.881784197001252e-16,-0.11690565849700985,0.0,0.0,0.0,0.0,0.0,0.9809696289530461,0.0,0.0,-0.00018106346887739332,-1.5692578186331578,0.0008946220640919616,-0.028550202084355904,0.00021138772882993588,-6.583269521187482e-06,0.0830535664594281,0.08001177876374525,-0.32626073593132665,-0.21217299542693369,0.11887113568444674,-0.005442299204590874,0.0,-1.5707963267948966,8.881784197001252e-16,0.09640606673125951,0.0,0.0
18.302,866.6666870117188,0.0,0.0,-1.5707963267948966,8.881784197001252e-16,-0.026260645166375163,0.0,0.0,0.0,0.0,0.0,0.9342633569305705,0.0,0.0,5.394765208863124e-05,-1.5698751393738382,0.00031741580500743504,0.037206045710034275,4.648044276367589e-06,-1.9555974902310838e-07,0.049311282158610525,-0.11820977291723918,0.010955243958582604,-0.022441959163393352,0.0143021893435938,-0.00046311272542453967,0.0,-1.5707963267948966,8.881784197001252e-16,0.2600377583615567,0.0,0.0
18.402,866.6666870117188,0.0,0.0,-1.5707963267948966,8.881784197001252e-16,0.060226838140815045,0.0,0.0,0.0,0.0,0.0,0.9173099058370888,0.0,0.0,0.00019277635498833647,-1.5718610585987103,-0.0003978875800909845,0.13965150703184762,-3.345895560456393e-07,-2.3453688051359344e-07,0.04906682893767647,-0.024734318764165687,0.019180943375726543,2.36913745309013,-0.0002804510835641283,6.35732258578117e-07,0.0,-1.5707963267948966,8.881784197001252e-16,0.3394227988877413,0.0,0.0
18.502,866.6666870117188,0.0,0.0,-1.5707963267948966,8.881784197001252e-16,0.14047646448030998,0.0,0.0,0.0,0.0,0.0,0.8774710325714244,0.0,0.0,5.641531449572308e-05,-1.5715049939609667,-0.00030696208499660777,0.26002916797781694,4.972796343277239e-07,-3.852492852743241e-07,-0.05015970286407172,0.05189551381188254,-0.003086305138076504,2.1629681715113733,0.000627975465635286,1.5087903138393803e-05,0.0,-1.5707963267948966,8.881784197001252e-16,0.31927393090191336,0.0,0.0
18.602,866.6666870117188,0.0,0.0,-1.5707963267948966,8.881784197001252e-16,0.22066241263011138,0.0,0.0,0.0,0.0,0.0,0.9550110312835749,0.0,0.0,-0.00016338439647306554,-1.5700967143765328,0.000252408000536523,0.30311443723863457,1.358967844560733e-06,4.2204135749435165e-07,0.02254459489509148,-0.016004476710885947,0.009119107779378759,3.042672997008217,-0.00025914644502930743,7.969831404039558e-06,0.0,-1.5707963267948966,8.881784197001252e-16,0.439580885832655,0.0,0.0
18.702,866.6666870117188,0.0,0.0,-1.5707963267948966,8.881784197001252e-16,0.2951580788706078,0.0,0.0,0.0,0.0,0.0,0.804567292017005,0.0,0.0,-0.00016862768992490293,-1.5702557050936106,0.00017353009095498045,0.39428056662255406,2.547958577146448e-06,4.679774613936527e-07,-0.029905684500178983,-0.041878532714253874,-0.028825429380042584,2.1859970580895065,0.0010176251264568826,-2.1983570688086126e-05,0.0,-1.5707963267948966,8.881784197001252e-16,0.5605298479035117,0.0,0.0
18.803,866.6666870117188,0.0,0.0,-1.5707963267948966,8.881784197001252e-16,0.3605350939291676,0.0,0.0,0.0,0.0,0.0,0.9276511591513528,0.0,0.0,0.00037483455939569545,-1.5718534685896035,-0.0003310500064504611,0.5052204673632301,-9.655712421401694e-06,-1.4570746612621701e-06,-0.009022962462540394,-0.015514848302691073,0.012569521133928736,-0.41373615680807346,0.0013060165392437852,0.00011500061601503644,0.0,-1.5707963267948966,8.881784197001252e-16,0.4426851790141248,0.0,0.0
18.902,866.6666870117188,0.0,0.0,-1.5707963267948966,8.881784197001252e-16,0.4478274466981855,0.0,0.0,0.0,0.0,0.0,0.9595737478625191,0.0,0.0,4.1142693567853804e-05,-1.5709381401229434,-5.878138130587114e-05,0.4617729249703777,-1.0905910782895915e-06,-1.954755867872547e-07,0.02711520974583175,0.022192327342495852,0.03845508490603825,2.677776784457702,-0.00045790242890271244,8.632675522094177e-05,0.0,-1.5707963267948966,8.881784197001252e-16,0.6125089071077447,0.0,0.0
19.002,866.6666870117188,0.0,0.0,-1.5707963267948966,8.881784197001252e-16,0.5109465598681463,0.0,0.0,0.0,0.0,0.0,0.5467168054787656,0.0,0.0,-8.228937765113494e-05,-1.570629213436494,3.4357342232322224e-05,0.5666478425130482,2.1431572076080646e-06,1.921105259840446e-07,-0.03448949448188275,-0.002364554412928429,-0.0033910547707886093,2.222581434616143,0.0018619393233417043,7.503236120854098e-05,0.0,-1.5707963267948966,8.881784197001252e-16,0.7213861385848185,0.0,0.0
19.102,866.6666870117188,0.0,0.0,-1.5707963267948966,8.881784197001252e-16,0.6034523981012004,0.0,0.0,0.0,0.0,0.0,1.074905155072772,0.0,0.0,3.353469260058366e-05,-1.570794862056297,1.1614507917858447e-05,0.5825712155657683,-1.6013140662377476e-06,-3.351036409514026e-08,0.054191816139424955,-0.06613147470841474,0.008518971709810507,-1.8599619584815368,-0.001408141224892893,-1.0108274256545651e-05,0.0,-1.5707963267948966,8.881784197001252e-16,0.783153835411851,0.0,0.0
19.203,866.6666870117188,0.0,0.0,-1.5707963267948966,8.881784197001252e-16,0.6939357833234477,0.0,0.0,0.0,0.0,0.0,0.9787481214641387,0.0,0.0,6.959771299235876e-06,-1.570603780248084,9.303761558060935e-05,0.8172586247825022,-1.2884752574678791e-06,4.222453659921245e-07,-0.011865588360874648,-0.006241436345574744,0.007502003596117669,2.958651329880653,0.0016620082261391599,0.00013782443808391765,0.0,-1.5707963267948966,8.881784197001252e-16,0.9326389669559576,0.0,0.0
19.303,866.6666870117188,0.0,0.0,-1.5707963267948966,8.881784197001252e-16,0.77408267910252,0.0,0.0,0.0,0.0,0.0,0.7458111421903999,0.0,0.0,0.0002310448290238861,-1.5711820856787946,-0.0001284822351023949,0.8208124135201312,-1.4234958911430413e-05,-8.574635263214586e-07,-0.02655857370789696,-0.03771711464559888,-0.047110425027823026,0.017702360499703754,-0.009164893344182105,0.0003887764287654367,0.0,-1.5707963267948966,8.881784197001252e-16,0.9433184817448503,0.0,0.0
19.402,866.6666870117188,0.0,0.0,-1.5707963267948966,8.881784197001252e-16,0.8446007520828105,0.0,0.0,0.0,0.0,0.0,0.8476368742621013,0.0,0.0,0.00048054303673681075,-1.5719729113644936,-0.0003853904561070369,0.918059138883947,-4.729040767656881e-05,-8.087194006948767e-07,-0.05772610554444752,0.06026894584871482,-0.058280217821130534,0.023546035011123748,-0.01367865282654108,0.00038019225304133155,0.0,-1.5707963267948966,8.881784197001252e-16,1.1083313831759685,0.0,0.0
19.503,866.6666870117188,0.0,0.0,-1.5707963267948966,8.881784197001252e-16,0.9219335469378117,0.0,0.0,0.0,0.0,0.0,0.6398724196261134,0.0,0.0,0.00016058307089772219,-1.5705357364822323,0.00012155392822488959,0.9887461586964024,-1.3772758071608616e-05,-2.298862582250794e-07,-0.021814480959867853,-0.07957076760960653,-0.14965542199537807,0.031103601406226446,-0.01997625898457588,-0.00019663997039961702,0.0,-1.5707963267948966,8.881784197001252e-16,1.1561998331623649,0.0,0.0
19.602,866.6666870117188,0.0,0.0,-1.5707963267948966,8.881784197001252e-16,1.0068376719888255,0.0,0.0,0.0,0.0,0.0,0.9960169000137153,0.0,0.0,-0.00028223012198567976,-1.569698838109675,0.0003596716410691259,1.111208691946497,1.40207907523717e-05,3.448816164973002e-06,-0.04081000174469763,0.02552287660174895,0.01761190456880353,1.888788413594718,0.005147721858960436,0.00045612875451411827,0.0,-1.5707963267948966,8.881784197001252e-16,1.1450695277852896,0.0,0.0
19.702,866.6666870117188,0.0,0.0,-1.5707963267948966,8.881784197001252e-16,1.0925927651689062,0.0,0.0,0.0,0.0,0.0,0.6036552173896319,0.0,0.0,-7.558565511259581e-06,-1.5708337442082123,-4.331091391468031e-06,1.1467070979596266,2.3328608555582003e-06,1.2447397055478612e-07,0.032640037295742004,-0.15350750141985275,-0.03055588279675422,1.4084929036372165,0.0007260472180190109,-0.00015371036303455168,0.0,-1.5707963267948966,8.881784197001252e-16,1.2802484867875923,0.0,0.0
19.803,866.6666870117188,0.0,0.0,-1.5707963267948966,8.881784197001252e-16,1.163839864440682,0.0,0.0,0.0,0.0,0.0,0.5791506238165033,0.0,0.0,0.0005244613979223621,-1.5729335135696851,-0.0006848077524202135,1.205223271853338,-2.7815810576668497e-05,-7.439253366826683e-06,-0.026658677355964912,0.13608074064226938,0.02579180593757651,1.2203260583951774,-0.0011186345483809384,0.00011258686620282692,0.0,-1.5707963267948966,8.881784197001252e-16,1.3314394476687883,0.0,0.0
19.902,866.6666870117188,0.0,0.0,-1.5707963267948966,8.881784197001252e-16,1.2568134013556254,0.0,0.0,0.0,0.0,0.0,0.9723806386996322,0.0,0.0,0.00017547240728882344,-1.5716037972374086,-0.00020957689632212834,1.279328126029774,-7.840477444499358e-06,-2.4621235097078635e-07,0.06806977744523404,-0.14164834521718903,0.06155815716528696,-0.023501897277244888,0.015612184759938868,-0.00014457687782632706,0.0,-1.5707963267948966,8.881784197001252e-16,1.5435081825976633,0.0,0.0
20.002,933.3333129882812,0.0,0.0,-1.5707963267948966,8.881784197001252e-16,1.3511588605352964,0.0,0.0,0.0,0.0,0.0,0.7221252927341445,0.0,0.0,0.0004176300821914733,-1.5722135279689822,-0.000440294551844909,1.3835452094936813,-2.9723589852856808e-05,-6.05547864769021e-06,-0.019201759724715797,0.14060551791334125,0.012847407429516294,0.5081121276748382,-0.004112150628785823,-0.00021342129874263451,0.0,-1.5707963267948966,8.881784197001252e-16,1.108892884596333,0.0,0.0
20.103,933.3333129882812,0.0,0.0,-1.5707963267948966,8.881784197001252e-16,1.2998157777863977,0.0,0.0,0.0,0.0,0.0,-1.0308771453124128,0.0,0.0,0.0002356447961230431,-1.570674087700862,-0.00017199470966685357,1.3988337515215536,-5.891155663295793e-05,-3.3806665326164746e-06,0.06507768683220559,0.011663266140326187,0.03512524721013891,0.029194116985234234,-0.01769724639817296,0.001607743588148381,0.0,-1.5707963267948966,8.881784197001252e-16,1.1163593639597078,0.0,0.0
20.202,933.3333129882812,0.0,0.0,-1.5707963267948966,8.881784197001252e-16,1.2162821189138944,0.0,0.0,0.0,0.0,0.0,-0.668080456014206,0.0,0.0,-1.244565669727142e-05,-1.5706495866188332,5.833163558802977e-05,1.1920151912690355,2.2892210695319778e-07,5.252737845234297e-07,-0.009157358470832322,0.011355958156477058,0.001044222147472423,-2.833577567181736,0.0006668339507868493,4.8067237494966326e-05,0.0,-1.5707963267948966,8.881784197001252e-16,1.0449847424531071,0.0,0.0
20.302,933.3333129882812,0.0,0.0,-1.5707963267948966,8.881784197001252e-16,1.1354414550469816,0.0,0.0,0.0,0.0,0.0,-1.2124404150716335,0.0,0.0,-7.424122323859595e-05,-1.5707466588405665,-7.740365388716108e-05,1.0978061340235916,-5.776132916581146e-06,-3.247341296545555e-07,0.0055022130470365515,-0.148617072131113,0.04881071190340571,0.0036454251458913067,0.005651404683689282,0.0014117539173442888,0.0,-1.5707963267948966,8.881784197001252e-16,1.0175860096783897,0.0,0.0
20.402,933.3333129882812,0.0,0.0,-1.5707963267948966,8.881784197001252e-16,1.0684310642143977,0.0,0.0,0.0,0.0,0.0,-0.597108285716334,0.0,0.0,-0.00018647088548307916,-1.5697616887114008,0.0003527882213946861,1.018572564219881,5.262793946650967e-06,2.8543121633998153e-06,-0.007416465150558386,-0.05244601833752634,-0.03832848904690781,-3.103476160488034,-0.00034603984531360804,-0.00032552534508804463,0.0,-1.5707963267948966,8.881784197001252e-16,0.8231927872932026,0.0,0.0
20.502,933.3333129882812,0.0,0.0,-1.5707963267948966,8.881784197001252e-16,0.9840365561645399,0.0,0.0,0.0,0.0,0.0,-0.9517323894396273,0.0,0.0,-4.098397508357598e-05,-1.570355973108652,0.00015998085254306918,1.0259994547098394,-1.1999180448949913e-06,1.0833849368550345e-06,-0.04237067240013291,0.05366270012628585,-0.005041106990086698,-1.570745194101967,0.0016992581515893426,2.990147256397303e-05,0.0,-1.5707963267948966,8.881784197001252e-16,0.7063808995732607,0.0,0.0
20.603,933.3333129882812,0.0,0.0,-1.5707963267948966,8.881784197001252e-16,0.903706894626449,0.0,0.0,0.0,0.0,0.0,-0.5489167469946689,0.0,0.0,5.836497386559174e-05,-1.5709635733113536,-4.5609331938730934e-05,0.882930779104284,-2.4449953041858604e-06,-3.984917098903362e-07,-0.05158745681397683,0.10918810666513559,0.02658935610502799,-1.3190313305090022,0.0026398719544059555,0.0002949918065769402,0.0,-1.5707963267948966,8.881784197001252e-16,0.6721380953995477,0.0,0.0
20.702,933.3333129882812,0.0,0.0,-1.5707963267948966,8.881784197001252e-16,0.8380848319938234,0.0,0.0,0.0,0.0,0.0,-0.8415484136480614,0.0,0.0,-0.0003262629808929018,-1.5702125618839513,0.00025543495684362535,0.8096220769357273,2.445536787058256e-06,2.772308239670728e-06,-0.11660891349647892,-0.04417212194643577,-0.03458546814966648,0.1677428797498965,-0.0814187267676341,0.006054271776847767,0.0,-1.5707963267948966,8.881784197001252e-16,0.7292179296442148,0.0,0.0
20.803,933.3333129882812,0.0,0.0,-1.5707963267948966,8.881784197001252e-16,0.7657352011126761,0.0,0.0,0.0,0.0,0.0,-0.7207150089369966,0.0,0.0,0.0001262815674357533,-1.5711898088459557,-0.00011716969277848852,0.7305630773414715,-4.221176971821426e-06,-7.496700204162488e-07,-0.07000210471435749,0.16990639852996323,0.05139251758337223,-0.7639157078852968,0.003086939459355674,0.00039832635798689274,0.0,-1.5707963267948966,8.881784197001252e-16,0.6491384772888518,0.0,0.0
20.902,933.3333129882812,0.0,0.0,-1.5707963267948966,8.881784197001252e-16,0.6964203096765162,0.0,0.0,0.0,0.0,0.0,-0.6384384027284417,0.0,0.0,-0.0004886621670581622,-1.5688270523268375,0.000686225547604058,0.6970884074406932,1.3191277596644572e-05,3.5045426766820863e-06,-0.0034475977899053297,0.016100680284373156,0.023117299365134614,1.271229186838734,0.0010176999628439597,0.00016297154473645102,0.0,-1.5707963267948966,8.881784197001252e-16,0.5542492159860833,0.0,0.0
21.002,933.3333129882812,0.0,0.0,-1.5707963267948966,8.881784197001252e-16,0.624885458824739,0.0,0.0,0.0,0.0,0.0,-0.7854181281716732,0.0,0.0,0.00033495765569592755,-1.572323649680057,-0.0005438795223207414,0.5947423278006211,-7.219330555365185e-06,-2.4948152841499034e-06,-0.008569689324117006,-0.018380705080049763,0.003164441348191858,-2.0634317268213347,0.0012338006610673534,8.092794544995561e-05,0.0,-1.5707963267948966,8.881784197001252e-16,0.4484764041024517,0.0,0.0
21.103,933.3333129882812,0.0,0.0,-1.5707963267948966,8.881784197001252e-16,0.5448581294912271,0.0,0.0,0.0,0.0,0.0,-0.9227482263973925,0.0,0.0,-0.00030900896746382774,-1.5690773894693049,0.000659437306940912,0.5090301525921022,4.496274145008618e-06,2.411631882719407e-06,-0.02638179390697534,0.0006113192005334005,0.0041029211111330175,-2.353720147223552,0.0016274656744143412,9.456923391834342e-05,0.0,-1.5707963267948966,8.881784197001252e-16,0.4300372816736869,0.0,0.0
21.203,933.3333129882812,0.0,0.0,-1.5707963267948966,8.881784197001252e-16,0.4589027611954686,0.0,0.0,0.0,0.0,0.0,-0.9108838589777983,0.0,0.0,-1.5857956801521382e-05,-1.5698618235683879,0.00038475951579409426,0.37947162661749134,-4.029011303857957e-05,2.496423224142931e-06,-0.08756606822235039,-0.1473805664369892,-0.028818421937424316,-0.04577198684297645,0.02829861658512748,-0.0009876851750837635,0.0,-1.5707963267948966,8.881784197001252e-16,0.2200865571347273,0.0,0.0
21.302,933.3333129882812,0.0,0.0,-1.5707963267948966,8.881784197001252e-16,0.3876780436881617,0.0,0.0,0.0,0.0,0.0,-0.7223279106829488,0.0,0.0,0.00014327808290090835,-1.5713200374232608,-0.0001818945688928703,0.3181813376847851,-2.0162335715228126e-06,-4.592478596754633e-07,-0.03950771181045968,0.06445775286470559,0.034764484589784844,-1.8166405833453267,0.0013408421818715875,0.00014082041303703017,0.0,-1.5707963267948966,8.881784197001252e-16,0.22847312011960336,0.0,0.0
21.402,933.3333129882812,0.0,0.0,-1.5707963267948966,8.881784197001252e-16,0.2997605636289089,0.0,0.0,0.0,0.0,0.0,-0.9670052870779988,0.0,0.0,-7.476821509468397e-05,-1.5702608982577362,0.00021702807450313171,0.27442688262105785,2.2993662540243959e-07,4.0318225447669485e-07,-0.04238349302406812,0.0688799776278634,0.03754856151573209,-1.892856924792032,0.0012527828358781111,0.00012867325969425654,0.0,-1.5707963267948966,8.881784197001252e-16,0.05357812686915525,0.0,0.0
21.502,933.3333129882812,0.0,0.0,-1.5707963267948966,8.881784197001252e-16,0.21960557656816881,0.0,0.0,0.0,0.0,0.0,-0.949146140696873,0.0,0.0,2.017113709771405e-05,-1.5707125703786136,4.546215831629533e-05,0.19435350161234768,-5.170976661775045e-07,4.203356832715707e-08,-0.011556353746424415,-0.0833233030659611,-0.01857546537951862,-2.0108986106325952,0.0007495808235579845,1.0840742100104726e-05,0.0,-1.5707963267948966,8.881784197001252e-16,-0.0064633409816267084,0.0,0.0
21.602,933.3333129882812,0.0,0.0,-1.5707963267948966,8.881784197001252e-16,0.1353671787141355,0.0,0.0,0.0,0.0,0.0,-0.9590981426753915,0.0,0.0,0.0001321700402698382,-1.5711136424387795,-9.408578012975893e-05,0.13302259115063936,-1.1089688596709686e-06,-1.2578229489301613e-07,-0.03811365517072248,-0.04880105794445417,-0.01116551092961737,-1.8053198850255634,0.0008271814106005829,2.7281611817209435e-05,0.0,-1.5707963267948966,8.881784197001252e-16,-0.049822764487959914,0.0,0.0
21.702,933.3333129882812,0.0,0.0,-1.5707963267948966,8.881784197001252e-16,0.057957870505243925,0.0,0.0,0.0,0.0,0.0,-0.8137211642053879,0.0,0.0,1.3074325423529826e-05,-1.5706747534911345,5.8480678494677775e-05,0.05873843965381389,-1.703616676758458e-07,2.633264051096767e-08,-0.034461529209842315,0.016765663286187536,0.02192192702628494,-1.9161926075277422,0.0003666779783715148,2.767214795762313e-05,0.0,-1.5707963267948966,8.881784197001252e-16,-0.21941396257823348,0.0,0.0
21.802,933.3333129882812,0.0,0.0,-1.5707963267948966,8.881784197001252e-16,-0.029741281272203324,0.0,0.0,0.0,0.0,0.0,-0.5594202690019038,0.0,0.0,-0.00016737092951229517,-1.5705196243576374,0.0002081067124164008,-0.010719863170408933,-8.343586654985661e-05,4.309448839175207e-06,-0.0480369429322508,-0.09206289062435484,0.2022596112957091,-0.12634590481737779,0.08311200620059853,-0.0021415094701477885,0.0,-1.5707963267948966,8.881784197001252e-16,-0.2682407815341353,0.0,0.0
21.903,933.3333129882812,0.0,0.0,-1.5707963267948966,8.881784197001252e-16,-0.10377420680111982,0.0,0.0,0.0,0.0,0.0,-0.5963953284299065,0.0,0.0,5.921258961663446e-06,-1.5712910089673788,-0.00022551590894439444,-0.10086643566080253,-6.178301160566266e-07,1.411262753012307e-07,0.020252530738752574,0.0005978294703780248,-0.029567458880549718,1.5261661411409673,0.0005678300270030155,5.220043619896516e-05,0.0,-1.5707963267948966,8.881784197001252e-16,-0.331593169199944,0.0,0.0
22.002,933.3333129882812,0.0,0.0,-1.5707963267948966,8.881784197001252e-16,-0.19613409761483602,0.0,0.0,0.0,0.0,0.0,-1.1047682812782573,0.0,0.0,-6.030730239041874e-05,-1.5699228099573506,0.0003909759423522602,-0.16803269825552436,5.542136883992865e-07,-3.1901817727648136e-07,0.020283427568586698,0.010173383555021974,0.07199518118465917,-1.0975567289875057,-0.0004143114687833011,-9.483106374524159e-05,0.0,-1.5707963267948966,8.881784197001252e-16,-0.3412467622436406,0.0,0.0
22.104,933.3333129882812,0.0,0.0,-1.5707963267948966,8.881784197001252e-16,-0.27810569718471356,0.0,0.0,0.0,0.0,0.0,-0.6371752946328116,0.0,0.0,0.0001508659789037419,-1.5712530589218452,-0.0001503371827820228,-0.3023914222921917,1.9784190440150056e-06,3.087749887018001e-07,-0.015268233343965931,-0.0626727941112152,-0.004818280509739228,-1.9141723335248082,-0.0010986460159688077,-5.053237636837143e-05,0.0,-1.5707963267948966,8.881784197001252e-16,-0.37854272640682723,0.0,0.0
22.203,933.3333129882812,0.0,0.0,-1.5707963267948966,8.881784197001252e-16,-0.3441209075887528,0.0,0.0,0.0,0.0,0.0,-0.7003650510058673,0.0,0.0,0.0005495436810493386,-1.5715028634320947,-0.0003703842650706928,-0.42412141979494644,3.9400041169862775e-05,-5.491444613726176e-07,0.005087211926161394,0.015579758693072552,-0.09995694950378366,-0.053802649241569515,0.028141835459516675,-0.0014390035948789262,0.0,-1.5707963267948966,8.881784197001252e-16,-0.6024098292816524,0.0,0.0
22.303,933.3333129882812,0.0,0.0,-1.5707963267948966,8.881784197001252e-16,-0.42461159217528,0.0,0.0,0.0,0.0,0.0,-0.6359836731747555,0.0,0.0,-0.00010858259934554751,-1.5701756771028537,0.00024294818706874983,-0.4820159786007199,-1.163135941344167e-06,-7.096898788924016e-07,-0.0410060644963871,0.07636085954773403,0.043522564472997835,-2.3879391040699804,-0.0019285637335634332,-0.00021082842273894138,0.0,-1.5707963267948966,8.881784197001252e-16,-0.5294618074903221,0.0,0.0
22.402,933.3333129882812,0.0,0.0,-1.5707963267948966,8.881784197001252e-16,-0.5114089890874371,0.0,0.0,0.0,0.0,0.0,-0.7943029636344364,0.0,0.0,-0.00017131640331743338,-1.5705981876097947,7.945591918177202e-07,-0.5396123632329454,-5.48713751368325e-06,-2.2548653527641882e-07,0.03250249542841242,0.017560002055871406,-0.041306177784103816,1.5710369433993852,0.004202947517126387,0.0003793803660166289,0.0,-1.5707963267948966,8.881784197001252e-16,-0.597298197434163,0.0,0.0
22.502,933.3333129882812,0.0,0.0,-1.5707963267948966,8.881784197001252e-16,-0.5819612081761925,0.0,0.0,0.0,0.0,0.0,-0.8671457567729403,0.0,0.0,9.631108983871352e-05,-1.5716377525413072,-0.0003619468362845835,-0.6283143362392417,1.1493752411716438e-06,1.5766096721212066e-06,0.036067802337756,0.005302793255957356,-0.042811463011243854,1.0128892452955975,0.004884905830221094,0.0004590842066364351,0.0,-1.5707963267948966,8.881784197001252e-16,-0.749025503563091,0.0,0.0
22.602,933.3333129882812,0.0,0.0,-1.5707963267948966,8.881784197001252e-16,-0.6571397218379111,0.0,0.0,0.0,0.0,0.0,-0.9570530842846152,0.0,0.0,0.00025030531587190164,-1.5712320199492336,-6.744144184167693e-05,-0.6388076569873448,7.86003635444456e-06,5.575250644266278e-07,-0.04515861923203917,0.08382419373273456,0.05375504107589515,-2.5782118439439996,-0.003276237677846617,-0.0003864184648959832,0.0,-1.5707963267948966,8.881784197001252e-16,-0.9139229885107761,0.0,0.0
22.703,933.3333129882812,0.0,0.0,-1.5707963267948966,8.881784197001252e-16,-0.7388411488271309,0.0,0.0,0.0,0.0,0.0,-1.0410270091740221,0.0,0.0,-2.1559527628165214e-05,-1.5706005844547757,8.862407300868696e-05,-0.8150775624287546,-6.814109866773178e-07,-5.065712277090902e-07,0.0009061718998556478,-0.07294319995370012,-0.01646266317346107,-1.5832319575050215,-0.0014275979053099837,-4.205132366991297e-06,0.0,-1.5707963267948966,8.881784197001252e-16,-0.9165872681758047,0.0,0.0
22.803,933.3333129882812,0.0,0.0,-1.5707963267948966,8.881784197001252e-16,-0.8300953492083814,0.0,0.0,0.0,0.0,0.0,-0.9425470811419376,0.0,0.0,0.00016082180287361325,-1.5713171079460615,-0.00011786652942357944,-0.819502870633112,3.1329106887815864e-06,7.169704996197961e-07,-0.03974197844022418,-0.12397060647400089,-0.010002869464743148,-0.30096709716219006,-0.007339269369202966,-0.00037869220935214166,0.0,-1.5707963267948966,8.881784197001252e-16,-0.9895135148858933,0.0,0.0
22.902,933.3333129882812,0.0,0.0,-1.5707963267948966,8.881784197001252e-16,-0.9075740609540475,0.0,0.0,0.0,0.0,0.0,-1.1706307133583929,0.0,0.0,-0.00010254261696238654,-1.5698315966900154,0.00042034737125048544,-0.8874640119118169,-2.8773975694440843e-06,-2.6274793498232794e-06,-0.04656273346608062,0.08460147890876622,0.06717234209214779,-1.3399189024126572,-0.006024101594678261,-0.0007550713826745087,0.0,-1.5707963267948966,8.881784197001252e-16,-1.1765748146593584,0.0,0.0
23.004,933.3333129882812,0.0,0.0,-1.5707963267948966,8.881784197001252e-16,-0.983253432939371,0.0,0.0,0.0,0.0,0.0,-0.7670945925786844,0.0,0.0,0.00017993729828532813,-1.5714693076023596,-0.00018092949809062308,-1.0112959425944303,4.8311137432155485e-06,1.4096833538906605e-06,-0.009292151872693161,-0.06599101376685906,-0.00474925938457359,-1.7662260118037454,-0.003533274334931296,-0.000197020556665261,0.0,-1.5707963267948966,8.881784197001252e-16,-1.097637757153119,0.0,0.0
23.102,933.3333129882812,0.0,0.0,-1.5707963267948966,8.881784197001252e-16,-1.0593333576871142,0.0,0.0,0.0,0.0,0.0,-0.9170430525753293,0.0,0.0,0.00017822446503418615,-1.5715405471615191,-0.00018862183018967098,-1.0539405419186239,2.33874986276375e-06,1.346380780576455e-06,-0.051620837873765285,0.06355804966350355,0.04569773458283368,-2.849023102555868,-0.006939993382326885,-0.0007591851733319893,0.0,-1.5707963267948966,8.881784197001252e-16,-1.3189967174972568,0.0,0.0
23.202,933.3333129882812,0.0,0.0,-1.5707963267948966,8.881784197001252e-16,-1.1439416009412469,0.0,0.0,0.0,0.0,0.0,-0.8928913537822323,0.0,0.0,-0.0001923916075334892,-1.5692791239218784,0.0006204489146639097,-1.1322048542436,-9.500129051840966e-06,-5.4272376217869236e-06,-0.0007314085852144905,0.04142534592050645,0.035352930838583874,-0.5790903308629802,-0.001609873596871794,-0.0003953866403612507,0.0,-1.5707963267948966,8.881784197001252e-16,-1.3922668761980495,0.0,0.0
23.302,933.3333129882812,0.0,0.0,-1.5707963267948966,8.881784197001252e-16,-1.2554171070191078,0.0,0.0,0.0,0.0,0.0,-1.1046002678223112,0.0,0.0,0.0002044128117569606,-1.5716344235899444,-0.00020178628863744432,-1.174791995867275,3.07185900287667e-06,1.397151530302605e-06,-0.05782704351095073,0.0866901129279313,0.04326794546684024,-3.1399891642974564,-0.006529352667588082,-0.001238870419925699,0.0,-1.5707963267948966,8.881784197001252e-16,-1.400030710803544,0.0,0.0
23.402,1000.0,0.0,0.0,-1.5707963267948966,8.881784197001252e-16,-1.2959951409897448,0.0,0.0,0.0,0.0,0.0,0.47575511915165125,0.0,0.0,4.219158957604303e-05,-1.5709611764663725,-3.8213439870139866e-05,-1.375840418143973,8.407142572185991e-07,3.638203291802255e-07,0.007301761970170833,-0.057615705033696125,-0.01776178852330995,-2.037488676220382,-0.0001715662047067909,0.00014518312733302068,0.0,-1.5707963267948966,8.881784197001252e-16,-1.131414668955104,0.0,0.0
23.502,1000.0,0.0,0.0,-1.5707963267948966,8.881784197001252e-16,-1.2208175740059977,0.0,0.0,0.0,0.0,0.0,0.734141833113633,0.0,0.0,-6.450278483164237e-05,-1.5704434579504611,0.0001020411611541044,-1.3561430129314744,-8.373415453030386e-07,-9.675789067198387e-07,-0.03287279341382573,0.1966650422147524,0.0701359618486476,-0.25262669534610316,-0.0017527644128478295,-0.000766986167735036,0.0,-1.5707963267948966,8.881784197001252e-16,-1.0892067172248199,0.0,0.0
23.603,1000.0,0.0,0.0,-1.5707963267948966,8.881784197001252e-16,-1.133380387012087,0.0,0.0,0.0,0.0,0.0,1.0434950902621016,0.0,0.0,5.346594567441921e-05,-1.5709667691046616,-4.585591897197541e-05,-1.1210763029964859,2.5883503548642143e-06,5.103741480207477e-07,-0.0031049418041462296,-0.014476466189209666,-0.0012173257327887158,2.9466756270907846,-0.0010258969854257094,-6.066620495919895e-05,0.0,-1.5707963267948966,8.881784197001252e-16,-0.9543586568620748,0.0,0.0
23.703,1000.0,0.0,0.0,-1.5707963267948966,8.881784197001252e-16,-1.0593098931847598,0.0,0.0,0.0,0.0,0.0,0.9431181004072373,0.0,0.0,-0.00012431180513327873,-1.5701973818657378,0.00025807726322375237,-1.0402526928639435,-1.9004963823503572e-05,4.0072805701142426e-07,0.03819727426776177,-0.042204674240436904,-0.03751513052167319,3.141596382015319,0.0033777795369329447,0.016098333373662524,0.0,-1.5707963267948966,8.881784197001252e-16,-1.0164590609500306,0.0,0.0
23.802,1000.0,0.0,0.0,-1.5707963267948966,8.881784197001252e-16,-0.9686641688940529,0.0,0.0,0.0,0.0,0.0,0.7227394268620893,0.0,0.0,-0.00012992731370841767,-1.5701672881454198,0.0001812318182390263,-0.9525141849610106,-1.4288219288669066e-06,-1.218144327902361e-06,-0.002492139854866265,0.12232449828184451,0.040077253776708344,1.2324602192699055,0.0017008974000610974,-0.00016172006708357393,0.0,-1.5707963267948966,8.881784197001252e-16,-0.8583450532095646,0.0,0.0
23.902,1000.0,0.0,0.0,-1.5707963267948966,8.881784197001252e-16,-0.8940970121189507,0.0,0.0,0.0,0.0,0.0,0.8998585014246685,0.0,0.0,2.5836433651484055e-06,-1.5707688962356687,6.470868648763789e-05,-0.8593557447656028,-3.436320660358095e-06,-6.126117399601574e-07,-0.013377645923442972,-0.1387354461958876,-0.041076222146353876,0.3100380568615953,-0.003606884211490816,2.4148205869703097e-05,0.0,-1.5707963267948966,8.881784197001252e-16,-0.6713287597499006,0.0,0.0
24.002,1000.0,0.0,0.0,-1.5707963267948966,8.881784197001252e-16,-0.8011114365855079,0.0,0.0,0.0,0.0,0.0,0.516162784834034,0.0,0.0,0.00012638333777013433,-1.5713017947697936,-0.00017075578060016754,-0.7311592259514857,3.927959932757978e-06,1.044604591339253e-06,-0.04234767350740655,0.13970365505494273,0.045901632853792874,1.38248114348014,-0.0016286360088777548,-0.00030445275786988613,0.0,-1.5707963267948966,8.881784197001252e-16,-0.7276447497837872,0.0,0.0
24.102,1000.0,0.0,0.0,-1.5707963267948966,8.881784197001252e-16,-0.7425595362930881,0.0,0.0,0.0,0.0,0.0,0.507844766018305,0.0,0.0,-0.0001378419605915782,-1.569785790319266,0.0004540527112131849,-0.585577991015495,-3.2413751432694185e-06,-1.8368196220211891e-06,-0.0667313725499011,0.0054207744131397695,0.0339345707733051,0.1590622728872696,-0.00562944868900699,-0.0004198548229878415,0.0,-1.5707963267948966,8.881784197001252e-16,-0.482663963542356,0.0,0.0
24.202,1000.0,0.0,0.0,-1.5707963267948966,8.881784197001252e-16,-0.6677715656971639,0.0,0.0,0.0,0.0,0.0,0.4807626803234533,0.0,0.0,0.00025699512646587314,-1.5718228422370677,-0.0003231011597935363,-0.612305941768721,4.3801712771121115e-06,1.3432742384780945e-06,-0.021988957542565475,-0.031138886210075396,0.012920279215140888,-1.9251071398026192,-0.0028241343537379914,-0.0002041294282703612,0.0,-1.5707963267948966,8.881784197001252e-16,-0.483362365055744,0.0,0.0
24.303,1000.0,0.0,0.0,-1.5707963267948966,8.881784197001252e-16,-0.589252835048482,0.0,0.0,0.0,0.0,0.0,0.7778172690779388,0.0,0.0,0.0004091571532599738,-1.571048261834018,-0.0001503660997960563,-0.5822790002151593,3.828947503730977e-05,-3.59973819751319e-07,0.0023976491308848424,0.06987152659715955,-0.09518096124051165,-0.06295977052461725,0.03318046134054094,-0.0016934270251439648,0.0,-1.5707963267948966,8.881784197001252e-16,-0.5331395495319324,0.0,0.0
24.402,1000.0,0.0,0.0,-1.5707963267948966,8.881784197001252e-16,-0.5132421825921627,0.0,0.0,0.0,0.0,0.0,0.8207767269787772,0.0,0.0,0.00021765309812517595,-1.5706173623696433,-7.518721921455406e-05,-0.529027929086048,5.292020002128727e-05,-1.9053041254692988e-06,-0.16312951908306586,-0.014384515351088176,-0.0015668943640745508,0.01625651161854832,-0.013400793578683345,9.79446329299592e-05,0.0,-1.5707963267948966,8.881784197001252e-16,-0.23239055695740635,0.0,0.0
24.503,1000.0,0.0,0.0,-1.5707963267948966,8.881784197001252e-16,-0.43725239952291606,0.0,0.0,0.0,0.0,0.0,0.5020452552672676,0.0,0.0,1.439498386282625e-05,-1.5712920742318148,-0.00026572591909081145,-0.37252849933954574,-7.317820689620639e-08,7.120589934485481e-07,0.06492902418673033,-0.1058027462216973,-0.027902367343248115,2.824752117645322,0.0018343420564714329,0.00014760375286020276,0.0,-1.5707963267948966,8.881784197001252e-16,-0.3441615008743778,0.0,0.0
24.602,1000.0,0.0,0.0,-1.5707963267948966,8.881784197001252e-16,-0.35807735194272006,0.0,0.0,0.0,0.0,0.0,0.7608152185087609,0.0,0.0,8.27805280142809e-05,-1.5714772970856299,-0.0002899640822314055,-0.31294756035250687,2.2139257109558426e-07,6.169112206380869e-07,0.009606214506916462,-0.025812884441485568,-0.0285975897070025,2.2490973311675715,0.0007168838242633879,9.607546250007955e-05,0.0,-1.5707963267948966,8.881784197001252e-16,-0.2655833866622733,0.0,0.0
24.703,1000.0,0.0,0.0,-1.5707963267948966,8.881784197001252e-16,-0.28889717799684966,0.0,0.0,0.0,0.0,0.0,0.5185755691058394,0.0,0.0,-0.00023127566124214914,-1.5691893753931427,0.0006786757849991573,-0.27569416447052886,-1.1917276084923442e-06,-1.1636376765291657e-06,-0.05162491167799527,-0.0696706410271835,0.005482442716983266,0.5703833919950752,-0.002526977590950189,-0.00013370147167915102,0.0,-1.5707963267948966,8.881784197001252e-16,-0.23345890380551526,0.0,0.0
24.802,1000.0,0.0,0.0,-1.5707963267948966,8.881784197001252e-16,-0.2315290960576295,0.0,0.0,0.0,0.0,0.0,0.719843042187912,0.0,0.0,9.316971708316718e-06,-1.5701487791758437,0.0003610201264453037,-0.22205437169080688,5.760365656636878e-07,-4.1398010107574407e-07,-0.043192657070585866,-0.13412350865576447,-0.01950632340428538,-1.287868617329549,-0.0018179902733857789,-6.591304598737857e-05,0.0,-1.5707963267948966,8.881784197001252e-16,0.011847847623161156,0.0,0.0
24.902,1000.0,0.0,0.0,-1.5707963267948966,8.881784197001252e-16,-0.15898908974711468,0.0,0.0,0.0,0.0,0.0,0.9294316960354465,0.0,0.0,0.00023647781418666846,-1.5717683805927756,-0.00035730155123425987,-0.12073089597505472,1.4986386782845989e-06,4.0306942438004303e-07,-0.011366314316106643,0.12211616418319465,0.06288257214251858,2.4248065746204923,-8.07012581662505e-05,-6.337350553865874e-05,0.0,-1.5707963267948966,8.881784197001252e-16,-0.029444350514214235,0.0,0.0
25.003,1000.0,0.0,0.0,-1.5707963267948966,8.881784197001252e-16,-0.08349624826493329,0.0,0.0,0.0,0.0,0.0,0.7483392838316584,0.0,0.0,-0.000186403997617566,-1.5702461177136862,0.00016744430298129307,-0.03637259696332636,-6.227135575668053e-07,-9.72281610542837e-08,-0.04073120130475571,0.10085618249060573,0.021306235391177646,2.351287349567765,-0.0001030470880073765,-1.4574096847410525e-05,0.0,-1.5707963267948966,8.881784197001252e-16,-0.015953146351035855,0.0,0.0
25.102,1000.0,0.0,0.0,-1.5707963267948966,8.881784197001252e-16,-0.014530338637639417,0.0,0.0,0.0,0.0,0.0,0.5194251018353868,0.0,0.0,7.557673740780428e-05,-1.5703362657165854,-0.00017411382777789868,0.0622643359402135,-3.780809371600426e-05,4.2042373455830784e-07,-0.16333646334452182,-0.12257468562150065,-0.088709354955943,0.19982579830975614,-0.10631807621500605,0.00505535282132402,0.0,-1.5707963267948966,8.881784197001252e-16,0.19338712710253286,0.0,0.0
25.202,1000.0,0.0,0.0,-1.5707963267948966,8.881784197001252e-16,0.054109467148584375,0.0,0.0,0.0,0.0,0.0,0.8353835450873172,0.0,0.0,0.00025695739943407337,-1.571428161763518,-0.00016645244452354995,0.20637243083565934,-2.453135325790116e-06,-3.0000062321425807e-07,-0.04718863457889809,-0.08662925137464458,-0.016723520842531633,-0.06709556399015863,0.0014650841082846132,4.760374441084118e-05,0.0,-1.5707963267948966,8.881784197001252e-16,0.17950538396272922,0.0,0.0
25.302,1000.0,0.0,0.0,-1.5707963267948966,8.881784197001252e-16,0.14020086616893226,0.0,0.0,0.0,0.0,0.0,0.9310009628531031,0.0,0.0,-7.554006692795065e-05,-1.5702992477774333,0.00019944758652270123,0.259668059978759,2.1069833198680604e-07,2.665338006153356e-07,-0.010749977696672845,0.05840262752392251,0.010830820240216261,2.526263691088696,-0.00011510691326814052,4.045939450253044e-06,0.0,-1.5707963267948966,8.881784197001252e-16,0.29096999115162875,0.0,0.0
25.402,1000.0,0.0,0.0,-1.5707963267948966,8.881784197001252e-16,0.22826492046606628,0.0,0.0,0.0,0.0,0.0,0.7350648952326095,0.0,0.0,-8.76848633471521e-05,-1.5702433213945417,0.00022259246221872293,0.3119273033388975,4.154188594185025e-07,3.505387600765455e-07,0.014764649347480662,-0.04274759707935239,-0.006970659266160227,3.0338217148092297,-6.153729140217591e-05,-9.90525373643402e-06,0.0,-1.5707963267948966,8.881784197001252e-16,0.2779500338110453,0.0,0.0
25.502,1000.0,0.0,0.0,-1.5707963267948966,8.881784197001252e-16,0.3088135698250181,0.0,0.0,0.0,0.0,0.0,1.0977926394550974,0.0,0.0,1.3650807595056374e-05,-1.5708887384847223,-0.00010124632525234791,0.3728023388786332,-1.8914866356296706e-05,4.362784902106155e-07,0.001974958522473568,0.05459821868296025,0.03164929975834049,0.00129491461648668,-0.0005696173878029735,0.00010898045617184954,0.0,-1.5707963267948966,8.881784197001252e-16,0.4183187424588281,0.0,0.0
25.602,1000.0,0.0,0.0,-1.5707963267948966,8.881784197001252e-16,0.3748725146554939,0.0,0.0,0.0,0.0,0.0,0.7401299957400629,0.0,0.0,1.541940037515574e-05,-1.57063027870093,9.046273346929122e-05,0.4841138837494298,-8.898919247134638e-07,1.9772964893195888e-07,-0.02391153722598031,0.02026775236885806,0.013897669738172976,3.076210717247803,0.0011610585224938732,9.26453666069445e-05,0.0,-1.5707963267948966,8.881784197001252e-16,0.6571886040201055,0.0,0.0
25.703,1000.0,0.0,0.0,-1.5707963267948966,8.881784197001252e-16,0.4741771769215149,0.0,0.0,0.0,0.0,0.0,0.9217631691139305,0.0,0.0,-0.00018359101746152448,-1.570204572400681,0.00022547021713638534,0.47720128295547926,3.130250514482586e-05,-7.551424388406324e-07,-0.06649819199051864,-0.010398504931215035,-0.025928161865983172,-0.0008803736321113873,0.0016304907289279404,-1.3431999496693818e-06,0.0,-1.5707963267948966,8.881784197001252e-16,0.6906553937724087,0.0,0.0
25.802,1000.0,0.0,0.0,-1.5707963267948966,8.881784197001252e-16,0.55458443208452,0.0,0.0,0.0,0.0,0.0,0.6953281450438163,0.0,0.0,-3.0433458659837203e-05,-1.5705466554427017,0.00011109530743849679,0.6691071064994487,6.160760112450886e-07,4.883924704908842e-07,-0.005790851855525304,-0.050354937539109745,-0.01564966563138983,2.771003135260907,0.000989149458553238,-8.933853781663304e-06,0.0,-1.5707963267948966,8.881784197001252e-16,0.7476963921285731,0.0,0.0
25.903,1000.0,0.0,0.0,-1.5707963267948966,8.881784197001252e-16,0.6355033790538847,0.0,0.0,0.0,0.0,0.0,0.8154869614207785,0.0,0.0,-0.00014611261671665105,-1.5700100284830507,0.00029719509124147915,0.6708492799055513,3.302614011574408e-06,1.4904768145006877e-06,-0.04427932250268987,0.07219341191592353,0.0171908535989755,-1.7137569446392222,0.002005028836102195,0.00016985964574874445,0.0,-1.5707963267948966,8.881784197001252e-16,0.6990131450089802,0.0,0.0
26.003,1000.0,0.0,0.0,-1.5707963267948966,8.881784197001252e-16,0.709253971470777,0.0,0.0,0.0,0.0,0.0,1.149650167390065,0.0,0.0,-0.00038081246528835956,-1.5692687375936272,0.0005326338109710895,0.7762189129102177,1.211600436275389e-05,3.131926774781746e-06,-0.013689175433738796,-0.021369608222148524,-0.006257958347306243,1.5374953615762188,0.0014263717849038139,4.628250588388971e-05,0.0,-1.5707963267948966,8.881784197001252e-16,0.888175745393346,0.0,0.0
26.103,1000.0,0.0,0.0,-1.5707963267948966,8.881784197001252e-16,0.7897979104014169,0.0,0.0,0.0,0.0,0.0,0.5876166448283234,0.0,0.0,0.00021565111098834417,-1.5718558654345847,-0.00035778142087355014,0.8903491474787542,-5.115629975411022e-06,-2.25186040219911e-06,0.030476364551674736,-0.11468015236650266,-0.027906099929963426,2.3267708212047133,-0.00041050072973326335,-0.00016438052990252919,0.0,-1.5707963267948966,8.881784197001252e-16,0.9941513245066619,0.0,0.0
26.203,1000.0,0.0,0.0,-1.5707963267948966,8.881784197001252e-16,0.8622376654504774,0.0,0.0,0.0,0.0,0.0,0.8096654600146765,0.0,0.0,0.00021188681146000054,-1.5711156398095971,-6.245714178112845e-05,0.9005696939522058,-1.2609665052687262e-05,-1.0235403488496385e-06,-0.08366456219251953,0.16218824144053415,0.020862226100217988,-0.12355351383540246,0.003116325257360367,0.0002548603226220892,0.0,-1.5707963267948966,8.881784197001252e-16,1.0110349177781994,0.0,0.0
26.302,1000.0,0.0,0.0,-1.5707963267948966,8.881784197001252e-16,0.9368078957148248,0.0,0.0,0.0,0.0,0.0,1.1477387191263004,0.0,0.0,-0.0001373942751500318,-1.5699588957901212,0.00031770094399572954,0.9819176805033847,4.510986630858581e-06,2.284135016407609e-06,0.033507123015374375,-0.17565887641880484,-0.059629262877256194,1.2316153314140779,-0.0008441197913267324,-0.0004218059005755148,0.0,-1.5707963267948966,8.881784197001252e-16,1.2096139451525125,0.0,0.0
26.403,1000.0,0.0,0.0,-1.5707963267948966,8.881784197001252e-16,1.0350235175849358,0.0,0.0,0.0,0.0,0.0,0.7984744882125092,0.0,0.0,-1.5431028796034081e-06,-1.5709179000986586,-4.0281014500858796e-05,1.0773312855098716,1.9904078291103125e-07,1.9303613596798716e-07,-0.062090739449032366,0.2094785089045324,0.07727459844011862,3.141593186222011,0.008547158045027365,0.0003937649794157377,0.0,-1.5707963267948966,8.881784197001252e-16,1.1936564675908916,0.0,0.0
26.502,1000.0,0.0,0.0,-1.5707963267948966,8.881784197001252e-16,1.1103342389552866,0.0,0.0,0.0,0.0,0.0,0.7779848583535157,0.0,0.0,-0.00020501577782529854,-1.5697435792159882,0.0003748123230408906,1.1673468627238497,9.973288570357938e-06,3.560116801091247e-06,0.05687361103475634,-0.09721502542446532,-0.00990839902655909,0.565147284396843,-0.0028851995452213426,-0.00022016361184100633,0.0,-1.5707963267948966,8.881784197001252e-16,1.356497682798843,0.0,0.0
26.603,1000.0,0.0,0.0,-1.5707963267948966,8.881784197001252e-16,1.1947472321375454,0.0,0.0,0.0,0.0,0.0,0.6338398955960646,0.0,0.0,8.758782311456072e-05,-1.571194868852027,-0.00012972824306712005,1.2873785956889745,-1.0418251358812371e-05,4.58941934234028e-08,-0.03307165664584899,0.14156247491679078,0.05639565268168198,3.1415958493831013,0.0013373010098596228,0.010991810408706153,0.0,-1.5707963267948966,8.881784197001252e-16,1.2629940558307748,0.0,0.0
26.703,1000.0,0.0,0.0,-1.5707963267948966,8.881784197001252e-16,1.2505935063221585,0.0,0.0,0.0,0.0,0.0,0.6771287752793662,0.0,0.0,0.0001561289567310681,-1.5710369433993852,1.8928837223953707e-05,1.2716250657347743,-1.0697815003760325e-05,1.0521840816586228e-06,-0.10242455966844542,0.20614929122582434,0.056759390552316366,-0.02957431235916747,0.017631399740220752,-0.0005537406954908841,0.0,-1.5707963267948966,8.881784197001252e-16,1.417092648371754,0.0,0.0
26.802,1066.6666259765625,0.0,0.0,-1.5707963267948966,8.881784197001252e-16,1.324152252032687,0.0,0.0,0.0,0.0,0.0,0.38467487530795536,0.0,0.0,-4.462538949326117e-05,-1.5709650380499531,-6.84470679840105e-05,1.3919518769486798,7.428498379155737e-06,-1.56214665698016e-07,0.03963489023607857,-0.04081397568038673,-0.014063613802409336,1.792567338145719,-0.004795944286393489,-0.0004443170239049526,0.0,-1.5707963267948966,8.881784197001252e-16,1.1787588054246396,0.0,0.0
26.902,1066.6666259765625,0.0,0.0,-1.5707963267948966,8.881784197001252e-16,1.2646671830079637,0.0,0.0,0.0,0.0,0.0,-1.0389305897389198,0.0,0.0,9.887854357711803e-05,-1.5711380103627537,-0.00012111113543158608,1.4813154457487792,-9.178248469619543e-06,-1.7880420981780407e-06,-0.01711358551695767,0.10874298425606407,0.029712128864984467,-0.4848027103653788,-0.0003117388051090309,0.00025213149276489616,0.0,-1.5707963267948966,8.881784197001252e-16,0.9778713206416892,0.0,0.0
27.002,1066.6666259765625,0.0,0.0,-1.5707963267948966,8.881784197001252e-16,1.191690592305302,0.0,0.0,0.0,0.0,0.0,-0.6628516009411554,0.0,0.0,3.0996015679896725e-05,-1.5709374743326707,-4.3291594252795995e-05,1.2482719392939239,-1.2825054849933697e-06,-4.5129143302026153e-07,-0.0028873602427151295,-0.004662917309349429,-0.004442223438468625,-2.9484857776837115,0.00010632754363564784,-3.90864443612652e-05,0.0,-1.5707963267948966,8.881784197001252e-16,1.0124664613010734,0.0,0.0
27.102,1066.6666259765625,0.0,0.0,-1.5707963267948966,8.881784197001252e-16,1.1187861751236934,0.0,0.0,0.0,0.0,0.0,-0.582605216873702,0.0,0.0,0.0002221461259127385,-1.5717710437538657,-0.00032659597355703365,1.1353210190351017,-1.1334760392235251e-05,-3.287407536893859e-06,-0.036364986148273624,0.0392418367875073,0.003928313450975494,-0.7169607157577828,0.0028143526982927795,0.0001887530864506719,0.0,-1.5707963267948966,8.881784197001252e-16,0.9532402517582785,0.0,0.0
27.202,1066.6666259765625,0.0,0.0,-1.5707963267948966,8.881784197001252e-16,1.0383932042986324,0.0,0.0,0.0,0.0,0.0,-0.9273354949360565,0.0,0.0,0.00029362293787552464,-1.571817116440724,-0.0004161110530765436,1.0653765551135876,-9.043772569745841e-05,2.9241913916104767e-06,0.036220060250702873,0.11662678164291768,-0.08087193818394882,-0.05254161333709258,0.013076238505884052,-0.004228778359179879,0.0,-1.5707963267948966,8.881784197001252e-16,0.9133274040972985,0.0,0.0
27.303,1066.6666259765625,0.0,0.0,-1.5707963267948966,8.881784197001252e-16,0.972341228359233,0.0,0.0,0.0,0.0,0.0,-0.6591514928802396,0.0,0.0,-8.237443821012167e-06,-1.5707471914727846,1.2369108492858433e-05,0.9434744841149001,-2.62416248150367e-07,6.003273473135143e-08,-0.03308940411780084,-0.01871984200011454,-0.028040572920255614,-1.9728761271173159,0.0018364060063162445,-0.00010401669385566944,0.0,-1.5707963267948966,8.881784197001252e-16,0.9216244181257565,0.0,0.0
27.402,1066.6666259765625,0.0,0.0,-1.5707963267948966,8.881784197001252e-16,0.9036765469316093,0.0,0.0,0.0,0.0,0.0,-0.6370832172321919,0.0,0.0,0.0002756061914692113,-1.5716365541188166,-0.0002539434143339405,0.8747101334514273,-1.2275287695956766e-05,-2.1321068425541e-06,-0.029126934585547784,0.03646634439488636,0.0031174326538370815,-0.8462959356749905,0.001559595378137727,9.203174561859589e-05,0.0,-1.5707963267948966,8.881784197001252e-16,0.813013771530235,0.0,0.0
