7cmdehdrb/project_th/tune/rtde_tune/data/rtde_log_wrist2_zz.csv
Time,Stiffness,Damping,R_shoulder_pan_p,R_shoulder_lift_p,R_elbow_p,R_wrist_1_p,R_wrist_2_p,R_wrist_3_p,R_shoulder_pan_v,R_shoulder_lift_v,R_elbow_v,R_wrist_1_v,R_wrist_2_v,R_wrist_3_v,S_shoulder_pan_p,S_shoulder_lift_p,S_elbow_p,S_wrist_1_p,S_wrist_2_p,S_wrist_3_p,S_shoulder_pan_v,S_shoulder_lift_v,S_elbow_v,S_wrist_1_v,S_wrist_2_v,S_wrist_3_v,C_shoulder_pan_p,C_shoulder_lift_p,C_elbow_p,C_wrist_1_p,C_wrist_2_p,C_wrist_3_p
4.203,666.6666870117188,0.0,0.0,-1.5707963267948966,8.881784197001252e-16,-1.655141228937726,1.3532341342210268,0.0,0.0,0.0,0.0,0.0,0.04495088300055736,0.0,-9.592477381059237e-05,-1.5708350757887573,-5.976303997367272e-05,-1.6551503564265024,1.352748148331896,1.3042006545572802e-08,-0.035994785950806595,-0.0041296174805407855,0.004220641153692926,0.003547365942093773,-0.007975500114068848,3.865749239845609e-05,0.0,-1.5707963267948966,8.881784197001252e-16,-1.655141228937726,1.0766423279214221,0.0
4.303,666.6666870117188,0.0,0.0,-1.5707963267948966,8.881784197001252e-16,-1.655141228937726,1.3371901532564099,0.0,0.0,0.0,0.0,0.0,-0.4468393739030019,0.0,-8.047887836355657e-05,-1.570557308087062,0.0001321772898416532,-1.6551138711195683,1.311011886676501,1.3081843323982143e-07,-0.03290691932648157,0.026029902942002605,0.011037214184400103,0.0028644908670027247,-3.0370305576066663,2.7107345764678065e-05,0.0,-1.5707963267948966,8.881784197001252e-16,-1.655141228937726,1.1781036712517117,0.0
4.403,666.6666870117188,0.0,0.0,-1.5707963267948966,8.881784197001252e-16,-1.655141228937726,1.2866201396405312,0.0,0.0,0.0,0.0,0.0,-0.6407007707431648,0.0,7.555832191056617e-06,-1.570942800654851,0.00011396842165491884,-1.6550901689858666,1.154915359913414,5.711585846984231e-07,0.07503800085526442,-0.0057232418936482175,0.0702345820327646,0.015303988362194846,-2.7329825159583905,9.703904600227952e-05,0.0,-1.5707963267948966,8.881784197001252e-16,-1.655141228937726,1.1534565811995385,0.0
4.502,666.6666870117188,0.0,0.0,-1.5707963267948966,8.881784197001252e-16,-1.655141228937726,1.216693792334695,0.0,0.0,0.0,0.0,0.0,-0.7965079468862647,0.0,-0.00017100335510311553,-1.5713313558578934,4.79788620042486e-06,-1.6550695294874185,1.1621857896893306,1.122841818487769e-06,0.01708207283112147,-0.05749486409923378,0.10725428552908818,0.03858442298885363,-1.8896876299367833,0.00040516270420847076,0.0,-1.5707963267948966,8.881784197001252e-16,-1.655141228937726,1.036964519443744,0.0
4.603,666.6666870117188,0.0,0.0,-1.5707963267948966,8.881784197001252e-16,-1.655141228937726,1.1312636203417936,0.0,0.0,0.0,0.0,0.0,-0.9350037892773859,0.0,-5.771257335715856e-05,-1.5708835453205967,-3.923911611748206e-05,-1.6551409022046326,0.999378096979244,9.669906758684562e-08,-0.022956400742807196,0.011825493222306744,0.006438217942699079,0.0026838146325409134,-2.9407309189055097,4.2337336853351356e-05,0.0,-1.5707963267948966,8.881784197001252e-16,-1.655141228937726,0.9619808966420174,0.0
4.702,666.6666870117188,0.0,0.0,-1.5707963267948966,8.881784197001252e-16,-1.655141228937726,1.0530661287187089,0.0,0.0,0.0,0.0,0.0,-0.8386642909870863,0.0,-0.00025172745104604793,-1.5715216387177797,-1.2683754741994814e-05,-1.6550972263627552,0.9783057016959374,-2.6976976397762706e-06,-0.3060454790448622,-0.055121138685375715,0.16273618683481797,0.033492662882893084,-0.57968900947603,-0.002359614821269847,0.0,-1.5707963267948966,8.881784197001252e-16,-1.655141228937726,0.8093502834848678,0.0
4.803,666.6666870117188,0.0,0.0,-1.5707963267948966,8.881784197001252e-16,-1.655141228937726,0.9772522562185992,0.0,0.0,0.0,0.0,0.0,-0.695595623167022,0.0,-0.0002091137039489417,-1.571465712334888,-0.0002830801098990247,-1.6551482258976304,0.9953950066738941,4.8187165919038e-07,-0.08243587953409784,-0.007404280668422623,0.05550310256472033,0.025050935328262483,-1.9583866665745218,0.0004251661583850101,0.0,-1.5707963267948966,8.881784197001252e-16,-1.655141228937726,0.8262512699726492,0.0
4.902,666.6666870117188,0.0,0.0,-1.5707963267948966,8.881784197001252e-16,-1.655141228937726,0.9098470021482816,0.0,0.0,0.0,0.0,0.0,-0.6550557050053764,0.0,-4.9894991088557394e-05,-1.5703286757074786,-0.0001851282517792184,-1.6552287865206052,0.8964150960726549,-2.0778216607234606e-06,-0.04200995555286008,0.00807307844043908,-0.06829056182198003,-0.016342882301948254,1.7897887290223848,-0.00029764632019570647,0.0,-1.5707963267948966,8.881784197001252e-16,-1.655141228937726,0.7956833686116677,0.0
5.002,666.6666870117188,0.0,0.0,-1.5707963267948966,8.881784197001252e-16,-1.655141228937726,0.837273799396054,0.0,0.0,0.0,0.0,0.0,-0.8231969971923325,0.0,-0.0009203763792752628,-1.570992202293072,0.0005006562747878765,-1.6549132019314308,0.7654382370804952,6.498210486073759e-06,-0.07370686971865875,0.10537450991841257,-0.02052112717944388,-0.03947513802137664,0.324248251674581,0.001246304774548791,0.0,-1.5707963267948966,8.881784197001252e-16,-1.655141228937726,0.7697884957569813,0.0
5.103,666.6666870117188,0.0,0.0,-1.5707963267948966,8.881784197001252e-16,-1.655141228937726,0.7619037948144642,0.0,0.0,0.0,0.0,0.0,-0.8216616839222481,0.0,-2.1215971476402648e-05,-1.5710711650193927,-3.0108083328870863e-05,-1.6551270537669642,0.7306461013884548,5.856449658921245e-07,-0.04756502662589955,0.15503605601701737,0.07805056868036206,0.013238280414945064,-1.8108715106339426,0.00020231740917344494,0.0,-1.5707963267948966,8.881784197001252e-16,-1.655141228937726,0.7050675507357543,0.0
5.203,666.6666870117188,0.0,0.0,-1.5707963267948966,8.881784197001252e-16,-1.655141228937726,0.6882548427839623,0.0,0.0,0.0,0.0,0.0,-0.885616260487387,0.0,-8.644720214280145e-05,-1.5719211128812915,-0.00020845613852695644,-1.6551073463748975,0.6893967987383809,1.9455344996385626e-06,0.019997786896918886,0.007912047180205807,0.04626278246474284,0.010471763707435532,-1.046257255594718,0.00025405456359867416,0.0,-1.5707963267948966,8.881784197001252e-16,-1.655141228937726,0.637803905250589,0.0
5.303,666.6666870117188,0.0,0.0,-1.5707963267948966,8.881784197001252e-16,-1.655141228937726,0.6214493193823429,0.0,0.0,0.0,0.0,0.0,-0.6869353053682667,0.0,-2.459584661097485e-05,-1.5711349477275,-0.00014471187265575276,-1.65515235379732,0.578587725786255,4.030152792675389e-08,-0.016557259487618527,0.04551776731098237,0.02079323982501193,0.003409061276768368,-2.4803803549838297,6.358327173658033e-05,0.0,-1.5707963267948966,8.881784197001252e-16,-1.655141228937726,0.4395498163442457,0.0
5.403,666.6666870117188,0.0,0.0,-1.5707963267948966,8.881784197001252e-16,-1.655141228937726,0.53975628175872,0.0,0.0,0.0,0.0,0.0,-1.029119406661903,0.0,-0.00018179528551922404,-1.5712060541286053,4.6900487180846807e-05,-1.6550912342503026,0.522207140770678,2.034437377403444e-06,0.037875772467540356,0.025000006533603923,0.008706588287714688,-0.0019089448968045784,-1.476102574231058,-9.456131790607006e-05,0.0,-1.5707963267948966,8.881784197001252e-16,-1.655141228937726,0.39564870060486057,0.0
5.503,666.6666870117188,0.0,0.0,-1.5707963267948966,8.881784197001252e-16,-1.655141228937726,0.44862854773709593,0.0,0.0,0.0,0.0,0.0,-0.7327695018205583,0.0,-0.00020506130708685438,-1.5703764794490456,0.0003349090543064052,-1.6550765868643071,0.44426973146950904,1.7552988930222766e-06,0.04505777697288764,0.07479327299584296,0.0024642198357584166,-0.006833655752683813,-2.2358805953097263,-0.0003230795736245445,0.0,-1.5707963267948966,8.881784197001252e-16,-1.655141228937726,0.2149487990905813,0.0
5.602,666.6666870117188,0.0,0.0,-1.5707963267948966,8.881784197001252e-16,-1.655141228937726,0.3725549833661965,0.0,0.0,0.0,0.0,0.0,-0.854097712523129,0.0,-0.00020108301515280462,-1.5712184378276741,-4.9037294409667054e-05,-1.6551160016484403,0.3228359107694847,1.4577572293764117e-06,0.05523669490954994,-0.021766094651812475,-0.041217685934507524,-0.011118451000620528,-1.9504555065321567,-0.000398895400610437,0.0,-1.5707963267948966,8.881784197001252e-16,-1.655141228937726,0.07809150754761351,0.0
5.703,666.6666870117188,0.0,0.0,-1.5707963267948966,8.881784197001252e-16,-1.655141228937726,0.27822891842115993,0.0,0.0,0.0,0.0,0.0,-0.9059871222929182,0.0,0.00025576370704532734,-1.5733230008791093,-0.0008604479726673742,-1.6552018885935955,0.26579051752203986,5.928647586889661e-07,0.034948263510946334,-0.0306462825516002,-0.02892284281929064,-0.006593710139954178,-0.570184919914837,-0.0002265083038054333,0.0,-1.5707963267948966,8.881784197001252e-16,-1.655141228937726,0.11478577843190724,0.0
5.803,666.6666870117188,0.0,0.0,-1.5707963267948966,8.881784197001252e-16,-1.655141228937726,0.20675552625185833,0.0,0.0,0.0,0.0,0.0,-0.8970090777645197,0.0,0.00012001135425620635,-1.5716936789241989,-0.0003638226873736918,-1.6551763222471307,0.1933148687872168,-3.4845835595904596e-07,-0.017588011020398475,0.036947290481808656,0.012370646458635167,0.0016519676667032083,-2.1447654654606816,2.1554484624453073e-05,0.0,-1.5707963267948966,8.881784197001252e-16,-1.655141228937726,0.13558124673740513,0.0
5.902,666.6666870117188,0.0,0.0,-1.5707963267948966,8.881784197001252e-16,-1.655141228937726,0.11845738772815029,0.0,0.0,0.0,0.0,0.0,-0.6980456738111118,0.0,0.0005663380456179069,-1.5716895510245092,-0.0007229579251470864,-1.655351291930749,0.10059925402444032,-3.988952441594758e-06,-0.07990339642975743,-0.12248601067957941,0.12318404184604599,0.06896553167788219,-0.05797608482464349,0.0020889933118453494,0.0,-1.5707963267948966,8.881784197001252e-16,-1.655141228937726,-0.025955393821645856,0.0
6.003,666.6666870117188,0.0,0.0,-1.5707963267948966,8.881784197001252e-16,-1.655141228937726,0.0293439946049201,0.0,0.0,0.0,0.0,0.0,-0.9473555361440797,0.0,-1.2949148399880532e-05,-1.5704871337923383,-3.235088709985668e-05,-1.6551748575085312,-0.003995566330804076,-1.114878820130258e-06,0.06234210024404381,0.16483462461574588,-0.0640704501796132,-0.03984569191992595,0.03318078383270419,-0.0009767138746564915,0.0,-1.5707963267948966,8.881784197001252e-16,-1.655141228937726,-0.02592014281181597,0.0
6.102,666.6666870117188,0.0,0.0,-1.5707963267948966,8.881784197001252e-16,-1.655141228937726,-0.06703828582663007,0.0,0.0,0.0,0.0,0.0,-1.045798332916835,0.0,-1.9032174099777943e-05,-1.5708008541687497,5.0996535892954914e-05,-1.6551295837699997,-0.149804692174477,4.754809167998314e-07,-0.014827870295045622,0.08358212903440317,0.03382915328662459,0.003489339459026094,-2.275021073850621,4.0133215074578166e-05,0.0,-1.5707963267948966,8.881784197001252e-16,-1.655141228937726,-0.24088360427703015,0.0
6.202,666.6666870117188,0.0,0.0,-1.5707963267948966,8.881784197001252e-16,-1.655141228937726,-0.16157511411324776,0.0,0.0,0.0,0.0,0.0,-0.496509728469719,0.0,-0.00010551415305625263,-1.5701782071058892,0.0003773054280315777,-1.6550883047731035,-0.2770308050216396,1.2961038926914742e-06,0.006873671828656855,0.11642620400094267,0.0331095879660312,0.00021029218198966336,-2.4183555995119934,-0.00011344096654143907,0.0,-1.5707963267948966,8.881784197001252e-16,-1.655141228937726,-0.21038983880047335,0.0
6.302,666.6666870117188,0.0,0.0,-1.5707963267948966,8.881784197001252e-16,-1.655141228937726,-0.22760287126233436,0.0,0.0,0.0,0.0,0.0,-0.6351312026802893,0.0,-0.0001002468108566566,-1.5704338705705367,2.4392773263265915e-05,-1.6551527532714836,-0.24947391208961284,-7.909043094184677e-07,0.16713278283367297,0.16983209633555002,-0.16870314905995182,-0.0725407380563403,0.06045214636457705,-0.0012640967192102568,0.0,-1.5707963267948966,8.881784197001252e-16,-1.655141228937726,-0.4106481894716634,0.0
6.402,666.6666870117188,0.0,0.0,-1.5707963267948966,8.881784197001252e-16,-1.655141228937726,-0.2971420814641732,0.0,0.0,0.0,0.0,0.0,-0.8545521192496143,0.0,-0.0005935255003702395,-1.5687900343876855,0.0012592833936365612,-1.6548949592779638,-0.32627448450045415,3.3132359143367536e-06,-0.0640043413667412,-0.04083357488153403,0.033423872183579575,0.021424340343738853,-0.020817160421146803,0.00046341925552608213,0.0,-1.5707963267948966,8.881784197001252e-16,-1.655141228937726,-0.3903060204605834,0.0
6.503,666.6666870117188,0.0,0.0,-1.5707963267948966,8.881784197001252e-16,-1.655141228937726,-0.3603859833029688,0.0,0.0,0.0,0.0,0.0,-0.4666361784044394,0.0,-8.882242844559026e-05,-1.5711125771743435,4.5397342918061134e-05,-1.6551073463748975,-0.36311435804417014,1.4676954211197664e-06,0.04167753063098014,0.009414607348566367,0.00829605784448977,-0.0016208700594900292,-2.013591599126883,-4.194365340723657e-05,0.0,-1.5707963267948966,8.881784197001252e-16,-1.655141228937726,-0.636460168130114,0.0
6.603,666.6666870117188,0.0,0.0,-1.5707963267948966,8.881784197001252e-16,-1.655141228937726,-0.44960797880345993,0.0,0.0,0.0,0.0,0.0,-0.7179850550728808,0.0,1.1596511993652795e-05,-1.570285665655874,0.00011133198320175422,-1.6551527532714836,-0.45129385213410667,-5.492655457813486e-07,0.057098435926218674,0.12234566209013223,-0.023949239680756344,-0.02210731840826268,0.022122991527396718,-0.00047000534522823354,0.0,-1.5707963267948966,8.881784197001252e-16,-1.655141228937726,-0.5728554327700668,0.0
6.704,666.6666870117188,0.0,0.0,-1.5707963267948966,8.881784197001252e-16,-1.655141228937726,-0.5256226087222942,0.0,0.0,0.0,0.0,0.0,-0.9160571242134785,0.0,0.00010266901308443522,-1.5710948671530944,-8.307742723846817e-05,-1.6551495574781754,-0.5937589555681094,8.313635185164499e-08,0.0024609124705648093,0.036996975080895445,0.021745334478877467,0.002643757724898814,-2.7764748660365837,4.612596552208546e-05,0.0,-1.5707963267948966,8.881784197001252e-16,-1.655141228937726,-0.5835864788867444,0.0
6.803,666.6666870117188,0.0,0.0,-1.5707963267948966,8.881784197001252e-16,-1.655141228937726,-0.5893212392440361,0.0,0.0,0.0,0.0,0.0,-0.9269827656606449,0.0,0.00022030767676252348,-1.5722299064096863,-0.00035883400668622816,-1.655150755900666,-0.6356679232201958,1.047870251176617e-06,0.07303517887984874,-0.005488686581382741,0.01044106141319666,-0.002939954553352292,-1.9205235732504837,-1.956001526108419e-05,0.0,-1.5707963267948966,8.881784197001252e-16,-1.655141228937726,-0.7909397476577971,0.0
6.905,666.6666870117188,0.0,0.0,-1.5707963267948966,8.881784197001252e-16,-1.655141228937726,-0.6609965073326958,0.0,0.0,0.0,0.0,0.0,-0.48842450065053655,0.0,0.00016975935458708803,-1.5706314771234207,-0.00027807413426893506,-1.6552450318032548,-0.6299291439662114,-1.8961092027813217e-06,0.12799695650230763,0.048036838902520716,-0.14645298742931462,-0.056449623305648115,0.0491916230018819,-0.0009729050211453116,0.0,-1.5707963267948966,8.881784197001252e-16,-1.655141228937726,-0.8009983137094352,0.0
7.004,666.6666870117188,0.0,0.0,-1.5707963267948966,8.881784197001252e-16,-1.655141228937726,-0.7374117870767449,0.0,0.0,0.0,0.0,0.0,-0.9038849229318476,0.0,-6.314967500886953e-05,-1.5690755252565418,0.000435101712812161,-1.6551492911620664,-0.7377926941736823,-1.329851076174902e-06,0.0168630892090032,-0.021761176126174234,-0.08937732569160531,-0.024167749967602747,0.8248999663192393,-0.00048119998448227367,0.0,-1.5707963267948966,8.881784197001252e-16,-1.655141228937726,-1.0135840020848712,0.0
7.103,666.6666870117188,0.0,0.0,-1.5707963267948966,8.881784197001252e-16,-1.655141228937726,-0.8171066967113596,0.0,0.0,0.0,0.0,0.0,-0.48309036260361826,0.0,-3.63057825037915e-05,-1.5702149587289322,0.00035248985112509693,-1.6550856416120134,-0.8668012773831918,6.710164584653998e-07,-0.005404626918436562,0.14428332673398386,0.08962889454607692,0.013809625216416037,-2.5919548204332448,0.00016557015862994393,0.0,-1.5707963267948966,8.881784197001252e-16,-1.655141228937726,-0.8664109670857387,0.0
7.204,666.6666870117188,0.0,0.0,-1.5707963267948966,8.881784197001252e-16,-1.655141228937726,-0.8847075844544996,0.0,0.0,0.0,0.0,0.0,-0.7445072332180208,0.0,8.019642139174073e-05,-1.5701907239630126,4.569579547679229e-06,-1.6552016222774864,-0.9821259397006289,-9.459699431277052e-07,-0.00565245382351715,0.17827008922287071,-0.03873833289391419,-0.02725876869274923,2.3426627023775435,-0.0004230128730094915,0.0,-1.5707963267948966,8.881784197001252e-16,-1.655141228937726,-1.1104022794326056,0.0
7.303,666.6666870117188,0.0,0.0,-1.5707963267948966,8.881784197001252e-16,-1.655141228937726,-0.9610226845187597,0.0,0.0,0.0,0.0,0.0,-0.9072441721498854,0.0,0.0004964354635455749,-1.5706818108680232,-0.00018114204383289526,-1.655185376994837,-0.9459819834392642,1.906906223949163e-06,0.3995019269662498,0.253421632286735,-0.20676664525601834,-0.05883125081780315,0.30859422407660886,0.0010303938655642142,0.0,-1.5707963267948966,8.881784197001252e-16,-1.655141228937726,-1.0742180765026867,0.0
7.402,666.6666870117188,0.0,0.0,-1.5707963267948966,8.881784197001252e-16,-1.655141228937726,-1.0348720603010975,0.0,0.0,0.0,0.0,0.0,-0.7749501897610772,0.0,0.00038671371427367,-1.5704292100386292,0.0001635964708306233,-1.6551434322076681,-1.1066646733365493,4.1611872984075605e-07,-0.05039371566129482,-0.045542093623064564,0.21340700440753552,0.06334294531002001,-0.0760667300500916,0.0005194423860667217,0.0,-1.5707963267948966,8.881784197001252e-16,-1.655141228937726,-1.0985262399125444,0.0
7.503,666.6666870117188,0.0,0.0,-1.5707963267948966,8.881784197001252e-16,-1.655141228937726,-1.111298757721471,0.0,0.0,0.0,0.0,0.0,-0.9772858491815016,0.0,-8.467523449196644e-05,-1.5701419881150642,0.0007277659191971152,-1.6549675304176685,-1.1768317109461668,1.3101809235007558e-06,-0.04059604587943418,0.12570504839056384,-0.02085291543937572,-0.007747806602799528,0.007882179724550839,-5.190169207253348e-05,0.0,-1.5707963267948966,8.881784197001252e-16,-1.655141228937726,-1.3167609712832697,0.0
7.605,666.6666870117188,0.0,0.0,-1.5707963267948966,8.881784197001252e-16,-1.655141228937726,-1.1946255847099962,0.0,0.0,0.0,0.0,0.0,-0.7588957185585252,0.0,-4.515542096802499e-05,-1.569314144490213,0.0008030470333703902,-1.655020261007252,-1.2929816203063922,5.716289534975207e-07,0.04782838412938396,-0.008998402083565518,0.01945406302908178,0.0024450736840856183,-3.139566254316352,5.492060639386117e-05,0.0,-1.5707963267948966,8.881784197001252e-16,-1.655141228937726,-1.3886615993569,0.0
7.702,666.6666870117188,0.0,0.0,-1.5707963267948966,8.881784197001252e-16,-1.655141228937726,-1.2579131329297457,0.0,0.0,0.0,0.0,0.0,-0.417494546299505,0.0,0.00017487139177792453,-1.5700591638051626,0.0007151547851308567,-1.6550006867732399,-1.3791858811053306,6.418888324844495e-07,-0.08453433395978259,0.009074949239553882,0.1929972368929544,0.046536576230749,-0.04374588301396859,2.1391578537173347e-05,0.0,-1.5707963267948966,8.881784197001252e-16,-1.655141228937726,-1.3301636198854778,0.0
7.803,733.3333129882812,0.0,0.0,-1.5707963267948966,8.881784197001252e-16,-1.655141228937726,-1.3201716560614933,0.0,0.0,0.0,0.0,0.0,-0.5987118130402388,0.0,0.00019708616041379348,-1.5705976549775766,-9.519614307924538e-05,-1.6552141391346098,-1.3423414468982477,-1.0903547033642618e-07,-0.02872296841829099,0.16490409983068333,-0.04533035567164645,-0.02865331635281241,2.5011042756384994,-0.00012369368160817504,0.0,-1.5707963267948966,8.881784197001252e-16,-1.655141228937726,-1.1544285698555814,0.0
7.903,733.3333129882812,0.0,0.0,-1.5707963267948966,8.881784197001252e-16,-1.655141228937726,-1.286448451631018,0.0,0.0,0.0,0.0,0.0,0.6298128602962014,0.0,0.0002961178308771975,-1.5712659752531322,-7.128410501513331e-05,-1.655119863232021,-1.4093672194230895,1.0587387038912976e-07,-0.26321384258836095,0.05955128635277651,-0.06620231895460005,0.09401506260478859,0.05409647497240012,0.00038614018536801595,0.0,-1.5707963267948966,8.881784197001252e-16,-1.655141228937726,-1.1594163743950998,0.0
8.003,733.3333129882812,0.0,0.0,-1.5707963267948966,8.881784197001252e-16,-1.655141228937726,-1.2080254774103256,0.0,0.0,0.0,0.0,0.0,0.9339544044639507,0.0,0.00014296196255862402,-1.5715453408514815,-0.00035254394658473917,-1.6551978938519603,-1.3215034097908682,-8.594092105416194e-08,0.027829544451596657,0.008776888458411673,0.017253800948350346,0.0015960098148181947,3.114058497395573,2.4987012618894902e-05,0.0,-1.5707963267948966,8.881784197001252e-16,-1.655141228937726,-0.9587410055238372,0.0
8.103,733.3333129882812,0.0,0.0,-1.5707963267948966,8.881784197001252e-16,-1.655141228937726,-1.1154522673459972,0.0,0.0,0.0,0.0,0.0,0.8845512752843072,0.0,0.00020128216706732886,-1.5714408117786958,-0.0002490266116881049,-1.6551775206696213,-1.1179940935088826,-2.2896997402641862e-08,0.015352083387005996,-0.009288375593491213,-0.008475759840529371,-0.0019496267630501405,3.141594251486447,6.613425443969376e-06,0.0,-1.5707963267948966,8.881784197001252e-16,-1.655141228937726,-0.9786540627875662,0.0
8.203,733.3333129882812,0.0,0.0,-1.5707963267948966,8.881784197001252e-16,-1.655141228937726,-1.0392462497822983,0.0,0.0,0.0,0.0,0.0,0.8102404795775803,0.0,4.1967645263736553e-05,-1.5716610552008454,-0.0005883912430792434,-1.655241436535783,-0.9770062122420333,-8.626942838860466e-07,0.15490090059169584,0.06817942061955044,-0.1916017737712665,-0.06927848639548013,0.060512163196455505,-0.0006308030587174749,0.0,-1.5707963267948966,8.881784197001252e-16,-1.655141228937726,-0.7445044969308168,0.0
8.303,733.3333129882812,0.0,0.0,-1.5707963267948966,8.881784197001252e-16,-1.655141228937726,-0.9450815145936655,0.0,0.0,0.0,0.0,0.0,1.0738095438451054,0.0,0.0005078057830062896,-1.5720252424799137,-0.0005848004618897463,-1.655256483395942,-0.9443879483687972,-6.911149464417483e-07,0.16185031958771673,-0.056171464452167745,0.05762782657784519,0.017634820237745822,0.09051198211879039,0.0008686114456611728,0.0,-1.5707963267948966,8.881784197001252e-16,-1.655141228937726,-0.7684152323178657,0.0
8.403,733.3333129882812,0.0,0.0,-1.5707963267948966,8.881784197001252e-16,-1.655141228937726,-0.867835405582082,0.0,0.0,0.0,0.0,0.0,0.7974578791550978,0.0,0.00043485256160861644,-1.5722083348048566,-0.0009755653864363948,-1.6553390413897344,-0.7918294311138806,-2.1122214428188114e-06,0.12377468104155513,-0.009788388249342793,-0.08180763983294816,-0.033032293876580854,0.02886520826823104,-0.00039985114124626756,0.0,-1.5707963267948966,8.881784197001252e-16,-1.655141228937726,-0.730478835087821,0.0
8.503,733.3333129882812,0.0,0.0,-1.5707963267948966,8.881784197001252e-16,-1.655141228937726,-0.7981248727213712,0.0,0.0,0.0,0.0,0.0,0.9510326613710507,0.0,0.0005513839019558941,-1.5712960689734499,-0.00014141612953355308,-1.6551913691072897,-0.8145172999144292,1.3835057238047534e-07,-0.04440720833047331,-0.11464826101244896,0.16877353973651396,0.06001306184103944,-0.06724022357162038,0.000871973946611723,0.0,-1.5707963267948966,8.881784197001252e-16,-1.655141228937726,-0.5053564813100393,0.0
8.603,733.3333129882812,0.0,0.0,-1.5707963267948966,8.881784197001252e-16,-1.655141228937726,-0.7079788577583113,0.0,0.0,0.0,0.0,0.0,0.8206309957232597,0.0,3.500235640133869e-07,-1.570562634409242,2.7496325522801876e-05,-1.6551514216909384,-0.7066955613360724,-3.7354682956610303e-07,-0.0024381754726839327,-0.0414982790836718,-0.03832118199866691,-0.006961864592779161,2.4393058888593195,-0.00012287451250236672,0.0,-1.5707963267948966,8.881784197001252e-16,-1.655141228937726,-0.44382895794831284,0.0
8.704,733.3333129882812,0.0,0.0,-1.5707963267948966,8.881784197001252e-16,-1.655141228937726,-0.615104815501649,0.0,0.0,0.0,0.0,0.0,0.8085640761583917,0.0,4.1388849852997164e-05,-1.5701174870330354,0.00018002377299845812,-1.6551460953687582,-0.5655590756803965,-6.287623174584418e-07,-0.04069639711825973,0.029346320802721468,0.029167984717037833,0.008569084391236582,2.2008102258627997,0.00017201953051026515,0.0,-1.5707963267948966,8.881784197001252e-16,-1.655141228937726,-0.43753653238626306,0.0
8.803,733.3333129882812,0.0,0.0,-1.5707963267948966,8.881784197001252e-16,-1.655141228937726,-0.5490833547644343,0.0,0.0,0.0,0.0,0.0,0.6172918686868295,0.0,0.00032537759036203867,-1.571482090775592,-0.0002804266690868499,-1.6552108101832472,-0.44474517230311544,-8.3693289336041e-07,-0.04226374232117702,0.01784121314163236,0.1354854409148526,0.03426672937907603,-0.029761634532935517,0.00026062899872012743,0.0,-1.5707963267948966,8.881784197001252e-16,-1.655141228937726,-0.4938950475943609,0.0
8.904,733.3333129882812,0.0,0.0,-1.5707963267948966,8.881784197001252e-16,-1.655141228937726,-0.4793968293738251,0.0,0.0,0.0,0.0,0.0,0.7326663471769332,0.0,-0.0002410382337337493,-1.5693169408093577,0.0005464525676571378,-1.6550875058247765,-0.4750715197422293,1.1714437159677554e-07,-0.0403050622408294,0.01584003483595196,0.05195468176116353,0.01447654733239913,2.2116602104598915,0.00038008815829266906,0.0,-1.5707963267948966,8.881784197001252e-16,-1.655141228937726,-0.3430956190789509,0.0
9.003,733.3333129882812,0.0,0.0,-1.5707963267948966,8.881784197001252e-16,-1.655141228937726,-0.4146721778975735,0.0,0.0,0.0,0.0,0.0,0.6091097409044213,0.0,-3.8965192834461944e-05,-1.570441327421589,0.00013476885734639766,-1.6551290511377819,-0.3617047135896776,3.402939365131255e-08,0.003488086160852941,-0.03505983331586384,-0.013598641480541013,-0.0012209910902909649,2.5533642846574516,-4.3056787773750955e-06,0.0,-1.5707963267948966,8.881784197001252e-16,-1.655141228937726,-0.2794237740718813,0.0
9.102,733.3333129882812,0.0,0.0,-1.5707963267948966,8.881784197001252e-16,-1.655141228937726,-0.3252606572484815,0.0,0.0,0.0,0.0,0.0,0.8572419320021744,0.0,-0.0002642533620068665,-1.5703355999263129,0.000589105602231995,-1.6549893683386072,-0.33166954952625033,2.7156366727232843e-06,-0.11290832632613772,0.02550749476585914,0.1108844404109752,0.04246089530443775,-0.03585519469779441,0.000785744873681863,0.0,-1.5707963267948966,8.881784197001252e-16,-1.655141228937726,-0.05050442782564485,0.0
9.203,733.3333129882812,0.0,0.0,-1.5707963267948966,8.881784197001252e-16,-1.655141228937726,-0.2352861996435358,0.0,0.0,0.0,0.0,0.0,0.7341688123734611,0.0,-0.0002424902774552939,-1.570693395618765,0.00022244865737153097,-1.6550628715846933,-0.15002598421630578,1.0587978174647263e-06,0.15665384315545644,0.047664741202777,-0.2058098214106233,-0.0893473235174499,0.06953111219200937,-0.002237604592641389,0.0,-1.5707963267948966,8.881784197001252e-16,-1.655141228937726,-0.10612710310485685,0.0
9.303,733.3333129882812,0.0,0.0,-1.5707963267948966,8.881784197001252e-16,-1.655141228937726,-0.153197670329007,0.0,0.0,0.0,0.0,0.0,1.0283817372128778,0.0,0.00010620966494774954,-1.5708285510440865,-9.874323990943115e-05,-1.6551634059158438,-0.09753474623570775,6.31309090208416e-07,0.06324134155324429,0.20517404163463732,-0.010179931186233287,-0.066181250853664,0.06535715646028499,-0.0026609189893216628,0.0,-1.5707963267948966,8.881784197001252e-16,-1.655141228937726,0.1092355556042518,0.0
9.403,733.3333129882812,0.0,0.0,-1.5707963267948966,8.881784197001252e-16,-1.655141228937726,-0.06904739261016601,0.0,0.0,0.0,0.0,0.0,0.9866617159954721,0.0,0.0002085032932530448,-1.5725974226401171,-0.0005672942738930972,-1.6551761890890762,-0.05676364744887129,6.916770650943417e-07,0.05124046356869631,0.1534714488765958,-0.008110187925753654,-0.012575521568759821,0.5272892177893626,-0.0006800861030461521,0.0,-1.5707963267948966,8.881784197001252e-16,-1.655141228937726,0.1982855685430272,0.0
9.503,733.3333129882812,0.0,0.0,-1.5707963267948966,8.881784197001252e-16,-1.655141228937726,0.015659350968666275,0.0,0.0,0.0,0.0,0.0,0.9228677293136978,0.0,-0.000231951301829736,-1.5695295942224003,0.00048807426904604067,-1.6550936310952837,0.031178540262587755,4.437243241690105e-07,0.011795885320828328,-0.06944224167419558,-0.029680229188552364,-0.0031552721677824995,1.6774142499815103,-4.694463073388869e-05,0.0,-1.5707963267948966,8.881784197001252e-16,-1.655141228937726,0.16738502206456043,0.0
9.603,733.3333129882812,0.0,0.0,-1.5707963267948966,8.881784197001252e-16,-1.655141228937726,0.1038289286582762,0.0,0.0,0.0,0.0,0.0,0.7348376495003857,0.0,-7.974264858552005e-05,-1.5705346712177963,0.00010310111844843742,-1.6551287848216727,0.17403566308964472,1.8119643644777237e-07,-0.018963109282125672,0.08880285687734,0.040279520861499864,0.004191745595791241,3.093082109069564,2.3370469854828697e-05,0.0,-1.5707963267948966,8.881784197001252e-16,-1.655141228937726,0.24076672793223197,0.0
9.703,733.3333129882812,0.0,0.0,-1.5707963267948966,8.881784197001252e-16,-1.655141228937726,0.192718002801324,0.0,0.0,0.0,0.0,0.0,0.9317515637229817,0.0,-0.00020943678127942518,-1.5707910004727164,0.00018192275444786418,-1.6550536836789325,0.2608727908321268,1.9599622752165015e-06,-0.06343805761163868,-0.11993810620805176,-0.018008505431170573,0.046176225568126054,-0.039521464540776416,0.0025817812329799517,0.0,-1.5707963267948966,8.881784197001252e-16,-1.655141228937726,0.35104427817573697,0.0
9.803,733.3333129882812,0.0,0.0,-1.5707963267948966,8.881784197001252e-16,-1.655141228937726,0.25888897226402807,0.0,0.0,0.0,0.0,0.0,0.5000214836638912,0.0,-0.0002094895113488601,-1.5697244044561398,0.00036187931448790263,-1.6551100095359876,0.3581558184105516,-4.150757022674869e-08,0.011438193658106263,-0.12135440856526952,-0.04516464463400548,-0.00368196532850801,1.3841035412162164,-2.941815236825481e-07,0.0,-1.5707963267948966,8.881784197001252e-16,-1.655141228937726,0.4916080812940005,0.0
9.903,733.3333129882812,0.0,0.0,-1.5707963267948966,8.881784197001252e-16,-1.655141228937726,0.33792279976159734,0.0,0.0,0.0,0.0,0.0,0.9045164567145976,0.0,-4.106248095683532e-05,-1.5709361427521258,8.709402527605742e-06,-1.6551286516636183,0.3330564572429363,6.164784407063037e-07,0.016062032199350682,-0.01518162131159221,-0.02314791531469752,-0.005208326978962503,-2.5867323615355993,-0.00017628757775188175,0.0,-1.5707963267948966,8.881784197001252e-16,-1.655141228937726,0.5354103491707896,0.0
10.004,733.3333129882812,0.0,0.0,-1.5707963267948966,8.881784197001252e-16,-1.655141228937726,0.4083657395059214,0.0,0.0,0.0,0.0,0.0,0.7695089971949157,0.0,-0.00014051879183837591,-1.5700377253583875,0.0001935269620001631,-1.6551334453535804,0.41617551249804513,-5.597154413789055e-07,-0.07524757498829684,0.14253627641413508,0.09620965714582519,0.017535611245356564,2.931233553826069,0.000495927473369872,0.0,-1.5707963267948966,8.881784197001252e-16,-1.655141228937726,0.683241459745222,0.0
10.104,733.3333129882812,0.0,0.0,-1.5707963267948966,8.881784197001252e-16,-1.655141228937726,0.4943400046475831,0.0,0.0,0.0,0.0,0.0,0.9889251770895511,0.0,0.0002610833973301931,-1.5696868538847695,2.339904348947972e-05,-1.6551841785723465,0.5181970526697776,7.990092184490326e-07,-0.35137271382460616,-0.04142047732913865,0.36383733970109944,0.06574012318622759,0.11720214095167247,0.004030705493030911,0.0,-1.5707963267948966,8.881784197001252e-16,-1.655141228937726,0.6340104853067348,0.0
10.203,733.3333129882812,0.0,0.0,-1.5707963267948966,8.881784197001252e-16,-1.655141228937726,0.5746476737581546,0.0,0.0,0.0,0.0,0.0,1.0229193693803875,0.0,-8.37047346381806e-05,-1.5711434698429885,9.349027494362525e-05,-1.65509056846003,0.5364668370904255,1.9266815238602565e-06,0.0745077238703376,0.10514447105687856,-0.031843177885698265,-0.019438712402110994,-1.5154663588293558,-0.0007285144781236308,0.0,-1.5707963267948966,8.881784197001252e-16,-1.655141228937726,0.7013549894922847,0.0
10.303,733.3333129882812,0.0,0.0,-1.5707963267948966,8.881784197001252e-16,-1.655141228937726,0.6489949962231862,0.0,0.0,0.0,0.0,0.0,0.7481728365895234,0.0,-0.0003066945335345552,-1.568942100885929,0.0006357485020483735,-1.6550873726667221,0.6789106019461939,-2.2340159128727575e-07,-0.08863880615419112,0.12545928855621996,0.07477766853633076,0.016322879465448237,2.3827310262422214,0.0003707156647795828,0.0,-1.5707963267948966,8.881784197001252e-16,-1.655141228937726,0.8823045185755553,0.0
10.403,733.3333129882812,0.0,0.0,-1.5707963267948966,8.881784197001252e-16,-1.655141228937726,0.7477026317357797,0.0,0.0,0.0,0.0,0.0,0.8309786045949598,0.0,-0.0002652542092834744,-1.5690536873356034,0.0005851111206712013,-1.6550954953080468,0.7954616499456124,-3.702943766280657e-07,-0.13758289665512857,0.19602127295549618,0.08517665512519608,0.01844976417606688,2.7119278306963333,0.0003394202710420867,0.0,-1.5707963267948966,8.881784197001252e-16,-1.655141228937726,0.8384514300123261,0.0
10.503,733.3333129882812,0.0,0.0,-1.5707963267948966,8.881784197001252e-16,-1.655141228937726,0.8239034505293285,0.0,0.0,0.0,0.0,0.0,0.6852307111815213,0.0,-0.0002144492750222902,-1.5705993860322853,0.0003500586113145175,-1.655039036292937,0.8704493420234096,1.9012292890693402e-06,0.07046689290360357,0.18993356966444086,0.08351297839222357,0.0026526098747057503,-1.4835341252529242,-0.00014286220780026333,0.0,-1.5707963267948966,8.881784197001252e-16,-1.655141228937726,0.9123517210833558,0.0
10.602,733.3333129882812,0.0,0.0,-1.5707963267948966,8.881784197001252e-16,-1.655141228937726,0.8990562754492514,0.0,0.0,0.0,0.0,0.0,0.9615003102429392,0.0,0.00018404146619277616,-1.5727914339255296,-0.0005581344561594458,-1.6551495574781754,0.9085213603349643,1.2586129342171719e-06,0.061570486768896183,0.1488536274149393,0.057653650918040554,-0.000780042288971717,-0.511965888219751,-0.00016485734366849833,0.0,-1.5707963267948966,8.881784197001252e-16,-1.655141228937726,1.140639941711597,0.0
10.703,733.3333129882812,0.0,0.0,-1.5707963267948966,8.881784197001252e-16,-1.655141228937726,0.9706479857694611,0.0,0.0,0.0,0.0,0.0,0.40480367315891747,0.0,0.00024972305822170803,-1.5728813156123196,-0.0009800820972421962,-1.6552711307819374,1.0352947524415703,-6.56289940284902e-07,-0.024711887873765576,0.06706542033557031,0.012828977522535104,0.0003326772589939659,3.1415606956567124,-2.7042558812073186e-05,0.0,-1.5707963267948966,8.881784197001252e-16,-1.655141228937726,1.1132996102217454,0.0
10.803,733.3333129882812,0.0,0.0,-1.5707963267948966,8.881784197001252e-16,-1.655141228937726,1.0463975458696655,0.0,0.0,0.0,0.0,0.0,0.9620452011064217,0.0,0.00013907799633139636,-1.5717101905229574,-0.0004885430855265098,-1.6552187996665175,1.0215263427639152,-5.523827549907037e-07,-0.02131779517478427,0.061868232339956246,-0.0861574058085098,-0.029319412472738657,0.012823094641299012,-0.0004160442139749664,0.0,-1.5707963267948966,8.881784197001252e-16,-1.655141228937726,1.2400245715821039,0.0
10.904,733.3333129882812,0.0,0.0,-1.5707963267948966,8.881784197001252e-16,-1.655141228937726,1.1233146642239795,0.0,0.0,0.0,0.0,0.0,0.8570121607063304,0.0,0.0008928129870858491,-1.571039473402421,-0.0006940882446407592,-1.6553837824960478,1.1525049328107835,-3.218959225429481e-06,0.11064772700195918,-0.0280360725941323,0.023864723847443762,-0.08928159337279537,-0.6002976818345265,-0.0032337888666356257,0.0,-1.5707963267948966,8.881784197001252e-16,-1.655141228937726,1.3792861396855949,0.0
11.003,733.3333129882812,0.0,0.0,-1.5707963267948966,8.881784197001252e-16,-1.655141228937726,1.203102630613233,0.0,0.0,0.0,0.0,0.0,0.9613228740307984,0.0,-1.1720086918822223e-05,-1.570827086305487,-0.00027353291145798325,-1.6552271886239511,1.2512928960764553,-8.13308798210911e-07,-0.10535642539013525,0.0416788830174712,-0.020185429482255587,-0.00042184627711450254,2.5060164762691506,4.9412337841255175e-05,0.0,-1.5707963267948966,8.881784197001252e-16,-1.655141228937726,1.3138684766730713,0.0
11.103,733.3333129882812,0.0,0.0,-1.5707963267948966,8.881784197001252e-16,-1.655141228937726,1.2830082406194132,0.0,0.0,0.0,0.0,0.0,0.6737187893876821,0.0,-0.000214055782568258,-1.5704003147408019,-5.009862115786872e-05,-1.6551777869857303,1.3094763079919614,-3.3225514134757953e-07,0.013294789364325182,0.02723188741049624,-0.08305730320733262,-0.032107692199781185,2.4493231029835436,-0.0002889628936072457,0.0,-1.5707963267948966,8.881784197001252e-16,-1.655141228937726,1.432123233107857,0.0
11.203,800.0,0.0,0.0,-1.5707963267948966,8.881784197001252e-16,-1.655141228937726,1.357730092232681,0.0,0.0,0.0,0.0,0.0,0.23447755623296027,0.0,-0.00029057837778753514,-1.5703079030509761,0.0004582891594242894,-1.6549906999191522,1.3978269434714492,9.679245084171238e-07,-0.32329047907804764,-0.10885441258054866,0.021407939016494248,0.12106917569014362,-0.05748622130925863,0.001133591422823366,0.0,-1.5707963267948966,8.881784197001252e-16,-1.655141228937726,1.2151588983638013,0.0
11.303,800.0,0.0,0.0,-1.5707963267948966,8.881784197001252e-16,-1.655141228937726,1.3095882514158932,0.0,0.0,0.0,0.0,0.0,-0.4916811900097203,0.0,-0.00011691230046976412,-1.5709418685484695,0.0001741179076938753,-1.655052485256442,1.4789473629074807,3.0783577497660395e-07,0.11419355954583156,-0.07917593733324547,0.05762816363417065,0.01592249608209544,-2.301788239650898,-3.006530516603629e-05,0.0,-1.5707963267948966,8.881784197001252e-16,-1.655141228937726,1.1663464727281396,0.0
11.404,800.0,0.0,0.0,-1.5707963267948966,8.881784197001252e-16,-1.655141228937726,1.235965460874895,0.0,0.0,0.0,0.0,0.0,-0.6980262745201585,0.0,-0.0001055452725747277,-1.5707975252173871,-4.81413586776492e-05,-1.6551463616848674,1.278647022580986,3.746950916815435e-08,0.011585678687037011,-0.04741800765015957,-0.024690085322935155,-0.004385817998669937,-3.0979738033598214,-1.8536391162714304e-05,0.0,-1.5707963267948966,8.881784197001252e-16,-1.655141228937726,1.0325563283600494,0.0
11.503,800.0,0.0,0.0,-1.5707963267948966,8.881784197001252e-16,-1.655141228937726,1.1769034410059556,0.0,0.0,0.0,0.0,0.0,-0.6893742842433171,0.0,-0.00031747682494598584,-1.5700346627231339,-1.3658646397764447e-06,-1.655185376994837,1.1646139268132103,-7.438530797046211e-07,-0.07743436313838815,-0.07727449857157774,0.02373683177787651,0.0228842956562933,1.9808339187705817,0.0003730024333025119,0.0,-1.5707963267948966,8.881784197001252e-16,-1.655141228937726,1.0189126562306352,0.0
11.604,800.0,0.0,0.0,-1.5707963267948966,8.881784197001252e-16,-1.655141228937726,1.1017554416720463,0.0,0.0,0.0,0.0,0.0,-0.6095975315700487,0.0,-0.0006921384674247119,-1.5702871303944734,0.00011344068208514588,-1.6551038842654806,1.1251140546832095,2.3397853979614398e-07,-0.01445723317271225,-0.10096843473055256,-0.15176655972575434,-0.04975495231265011,0.007874418066389478,-0.0006635282110577747,0.0,-1.5707963267948966,8.881784197001252e-16,-1.655141228937726,0.867321819637743,0.0
11.703,800.0,0.0,0.0,-1.5707963267948966,8.881784197001252e-16,-1.655141228937726,1.0379326114494516,0.0,0.0,0.0,0.0,0.0,-0.7604640600535744,0.0,5.9982091637736315e-05,-1.5715883509030861,-0.000575652997686542,-1.6552482275965628,1.0070155769324005,-1.2226826756729208e-06,-0.09536235580025967,-0.06805391499199126,-5.156919517508404e-05,0.014640693762899686,2.36649320044379,0.000354545836193699,0.0,-1.5707963267948966,8.881784197001252e-16,-1.655141228937726,0.8899745530761549,0.0
11.804,800.0,0.0,0.0,-1.5707963267948966,8.881784197001252e-16,-1.655141228937726,0.9504629584056294,0.0,0.0,0.0,0.0,0.0,-0.992318899110443,0.0,0.0001928243712106271,-1.5722408253701556,-0.0005745714786051851,-1.6552020217516499,0.9334906260833293,-7.847142738008603e-08,0.0008362364183811775,-0.011311251379974654,-0.024438965876897496,-0.0061076905230958226,-2.381873488371216,-8.664044549374997e-05,0.0,-1.5707963267948966,8.881784197001252e-16,-1.655141228937726,0.7959178027397915,0.0
11.903,800.0,0.0,0.0,-1.5707963267948966,8.881784197001252e-16,-1.655141228937726,0.8835060403984025,0.0,0.0,0.0,0.0,0.0,-0.842763760259737,0.0,0.00023373016145018888,-1.5725188593879598,-0.0007148688984288772,-1.6552214628276076,0.823324839692512,-3.295045188366033e-07,0.008529790801738955,0.06263703285120248,0.027302325940734236,0.002078365114471602,-1.8555569568804913,-1.224590234495482e-05,0.0,-1.5707963267948966,8.881784197001252e-16,-1.655141228937726,0.678585433410955,0.0
12.003,800.0,0.0,0.0,-1.5707963267948966,8.881784197001252e-16,-1.655141228937726,0.8062087951729877,0.0,0.0,0.0,0.0,0.0,-0.770184155501973,0.0,0.00037060084196500565,-1.5724351029716768,-0.0010954318874207857,-1.6553466313988412,0.7982421232817097,-2.4746872076394862e-06,-0.05927932351001978,0.058977450039270095,0.17464855632501283,0.048955388129624265,-0.032600089879390816,0.0008098089008070883,0.0,-1.5707963267948966,8.881784197001252e-16,-1.655141228937726,0.549239931139565,0.0
12.103,800.0,0.0,0.0,-1.5707963267948966,8.881784197001252e-16,-1.655141228937726,0.7483975669956058,0.0,0.0,0.0,0.0,0.0,-0.39474853584524544,0.0,0.0002926178156271961,-1.5726849074819262,-0.0007471129782861327,-1.655220264405117,0.698104003922395,-3.327696389689468e-07,-0.00827840920078149,0.16388222827566312,0.05125641756810157,0.002066756566929001,-0.954848445656465,-9.651975884807565e-05,0.0,-1.5707963267948966,8.881784197001252e-16,-1.655141228937726,0.6749829986416302,0.0
12.204,800.0,0.0,0.0,-1.5707963267948966,8.881784197001252e-16,-1.655141228937726,0.6871337087320217,0.0,0.0,0.0,0.0,0.0,-0.9236356034184675,0.0,0.0003622201093817906,-1.5733273950949078,-0.0009571701343590391,-1.6552327812622403,0.6541420719649937,-1.3195899662188027e-07,0.033851490550267635,0.1861020132251166,0.02356677437811274,-0.00954315480543313,-0.18109467116452238,-0.0004479510099417242,0.0,-1.5707963267948966,8.881784197001252e-16,-1.655141228937726,0.5981342290334566,0.0
12.303,800.0,0.0,0.0,-1.5707963267948966,8.881784197001252e-16,-1.655141228937726,0.6155885769152354,0.0,0.0,0.0,0.0,0.0,-0.5105235902949091,0.0,7.648165789502562e-05,-1.5714606523288168,-7.485990754896336e-05,-1.6551142705937318,0.5630990472024632,1.173280744868335e-06,-0.1651059008622841,0.09246712518831525,0.209064304131241,0.06359565433033332,-0.05144567677544373,0.0011231024952507644,0.0,-1.5707963267948966,8.881784197001252e-16,-1.655141228937726,0.4128575454856461,0.0
12.404,800.0,0.0,0.0,-1.5707963267948966,8.881784197001252e-16,-1.655141228937726,0.5437003802554887,0.0,0.0,0.0,0.0,0.0,-0.740570409844738,0.0,-7.433014427584741e-05,-1.5705674280992044,0.0001674541858056508,-1.6551108084843147,0.5118296675299935,7.184802767937898e-07,0.0171156713130458,0.18947074555649873,0.03136448508272953,-0.005742206513442024,-1.4064673033121022,-0.0003882272493184798,0.0,-1.5707963267948966,8.881784197001252e-16,-1.655141228937726,0.3115649791197907,0.0
12.503,800.0,0.0,0.0,-1.5707963267948966,8.881784197001252e-16,-1.655141228937726,0.4717732658546163,0.0,0.0,0.0,0.0,0.0,-0.7129016979517031,0.0,-6.0672150095726636e-06,-1.5706305450170392,-0.00027578720319955266,-1.6552313165236407,0.45727238246522556,-2.305828872424742e-06,0.13890664584208767,0.24653815981720717,-0.12871077522061133,-0.06685153521052331,0.05931645796246957,-0.001453036815355395,0.0,-1.5707963267948966,8.881784197001252e-16,-1.655141228937726,0.25435891545157124,0.0
12.603,800.0,0.0,0.0,-1.5707963267948966,8.881784197001252e-16,-1.655141228937726,0.40198679963338346,0.0,0.0,0.0,0.0,0.0,-0.9540350807479313,0.0,1.459131762821723e-05,-1.5710922039920043,-0.00011379711394783666,-1.6551502232684479,0.31903877568724975,6.064643489760129e-09,-0.003551458471675168,0.09506348254692552,0.0035090733786738515,-0.0043610503404578746,-1.9453980304640417,-0.00026996719493157747,0.0,-1.5707963267948966,8.881784197001252e-16,-1.655141228937726,0.23514212314333416,0.0
12.702,800.0,0.0,0.0,-1.5707963267948966,8.881784197001252e-16,-1.655141228937726,0.3227063034788733,0.0,0.0,0.0,0.0,0.0,-0.6933159955900549,0.0,8.52487959069111e-05,-1.5715189755566896,-0.00019122801874788543,-1.6551470274751399,0.3461538501944324,5.880957346431468e-07,0.08761435466186489,0.07927918475975648,-0.07510467142867887,-0.026178996270560407,-0.8718192720881464,-0.001068064721309738,0.0,-1.5707963267948966,8.881784197001252e-16,-1.655141228937726,0.1713428366952331,0.0
12.803,800.0,0.0,0.0,-1.5707963267948966,8.881784197001252e-16,-1.655141228937726,0.2545821860032138,0.0,0.0,0.0,0.0,0.0,-0.8981109087002785,0.0,0.00011534335333904075,-1.5716478725534495,-0.00033796427744172807,-1.6551733927699317,0.23593463413424537,-2.6243440763694125e-07,0.030251086090589255,0.022119847748953664,-0.018029644272323078,-0.006791372348743651,-1.9643141973707656,-0.0002932538273894802,0.0,-1.5707963267948966,8.881784197001252e-16,-1.655141228937726,-0.037320906859034775,0.0
12.903,800.0,0.0,0.0,-1.5707963267948966,8.881784197001252e-16,-1.655141228937726,0.16856013955314086,0.0,0.0,0.0,0.0,0.0,-0.6917210039873446,0.0,0.00015785294066890314,-1.57154973506728,-0.00037744128435720565,-1.6552032201741405,0.16432834104776503,-6.444208109673895e-07,0.021689154263444404,-0.102624596355824,-0.02183659768048312,3.6157434483231145e-05,-0.0004555161494411025,0.00012697746943873803,0.0,-1.5707963267948966,8.881784197001252e-16,-1.655141228937726,0.037246270154430994,0.0
13.003,800.0,0.0,0.0,-1.5707963267948966,8.881784197001252e-16,-1.655141228937726,0.08778242193654595,0.0,0.0,0.0,0.0,0.0,-0.6393485130306286,0.0,-8.687543890121626e-05,-1.5723311065311092,-0.0002634897837880703,-1.6547732528161472,0.0761579433174268,3.2843799822126257e-07,-0.2301085697755335,-0.23800479247334802,0.1914644711723161,0.22200275629992977,0.20765387737317823,0.02894406696482181,0.0,-1.5707963267948966,8.881784197001252e-16,-1.655141228937726,-0.10084989133795802,0.0
13.103,800.0,0.0,0.0,-1.5707963267948966,8.881784197001252e-16,-1.655141228937726,0.01399893391920859,0.0,0.0,0.0,0.0,0.0,-0.6663574705766311,0.0,0.0001565674095340698,-1.5717445453010193,-0.00038435620553428564,-1.6551796511984933,-0.08016912164989849,-4.484700456568832e-07,0.009317962689023613,-0.06693416810572143,-0.025745812313313004,-0.002335671858743004,-2.748898898213249,-1.6437739681964275e-05,0.0,-1.5707963267948966,8.881784197001252e-16,-1.655141228937726,-0.23969586738222926,0.0
13.204,800.0,0.0,0.0,-1.5707963267948966,8.881784197001252e-16,-1.655141228937726,-0.05824460670630316,0.0,0.0,0.0,0.0,0.0,-0.926627002135896,0.0,-0.0003012174657736509,-1.5689351766670947,0.0006677663172427024,-1.6550829784509233,-0.10205406402654496,1.3143359378436221e-07,-0.06305463731607291,-0.032599833966254814,0.06288679158837068,0.01847912968827421,0.5846983489074418,0.0007525680372572667,0.0,-1.5707963267948966,8.881784197001252e-16,-1.655141228937726,-0.1653759671382845,0.0
13.303,800.0,0.0,0.0,-1.5707963267948966,8.881784197001252e-16,-1.655141228937726,-0.14201006790028714,0.0,0.0,0.0,0.0,0.0,-0.7473364902092523,0.0,-0.00026046170591044053,-1.5698208108876006,0.0004916058508172635,-1.655053816836987,-0.21235337465651613,8.70665155587387e-07,0.006913631208427003,6.383308125326052e-05,-0.016924817329941493,-0.005885302007911995,-3.1410917129887492,-0.0001695138119148057,0.0,-1.5707963267948966,8.881784197001252e-16,-1.655141228937726,-0.262226902470136,0.0
13.403,800.0,0.0,0.0,-1.5707963267948966,8.881784197001252e-16,-1.655141228937726,-0.22147389046272536,0.0,0.0,0.0,0.0,0.0,-0.9943453756702848,0.0,-9.181355951439586e-05,-1.570367291543285,0.0002501591866104282,-1.655105881636298,-0.21199210020989007,8.507099751676751e-07,0.012777477604658397,0.1848446017164357,0.013870066489593226,-0.007772799745451541,-1.3526617287545228,-0.0004978918147481306,0.0,-1.5707963267948966,8.881784197001252e-16,-1.655141228937726,-0.4950597191683915,0.0
13.504,800.0,0.0,0.0,-1.5707963267948966,8.881784197001252e-16,-1.655141228937726,-0.3105585511693203,0.0,0.0,0.0,0.0,0.0,-0.7085523281940741,0.0,-0.00016328940432578512,-1.5700751427717032,0.0003648484530215833,-1.655082046344542,-0.41375243538023654,6.24566587133877e-07,-0.004554225486914619,0.012822860574406328,-0.001291939106132032,-0.0018906434665400397,-3.141351371195032,-0.00014178606900650909,0.0,-1.5707963267948966,8.881784197001252e-16,-1.655141228937726,-0.37172257276057863,0.0
13.603,800.0,0.0,0.0,-1.5707963267948966,8.881784197001252e-16,-1.655141228937726,-0.38271439202067725,0.0,0.0,0.0,0.0,0.0,-0.7546011929631963,0.0,-5.582206464162826e-05,-1.5704968543303173,0.0001910107429038236,-1.6551118737487507,-0.4531003408805347,6.360779872648187e-07,0.02919034278662689,0.09121114512872025,-0.018133324462511223,-0.011679927541895995,-2.3035784165356494,-0.0004458887505800266,0.0,-1.5707963267948966,8.881784197001252e-16,-1.655141228937726,-0.4808784285437501,0.0
13.703,800.0,0.0,0.0,-1.5707963267948966,8.881784197001252e-16,-1.655141228937726,-0.44135327444996264,0.0,0.0,0.0,0.0,0.0,-0.8106282007952545,0.0,-0.00017853315700355684,-1.570003770054489,0.00041732618534247356,-1.6550799158156697,-0.5239440877231413,1.0258543499989791e-06,0.011577092073116108,0.08936495031491486,-0.008132767058519131,-0.008396020012124814,-2.4938072142516825,-0.00032357137417350347,0.0,-1.5707963267948966,8.881784197001252e-16,-1.655141228937726,-0.5897400448243937,0.0
13.802,800.0,0.0,0.0,-1.5707963267948966,8.881784197001252e-16,-1.655141228937726,-0.5285335967004166,0.0,0.0,0.0,0.0,0.0,-0.9213650786839848,0.0,4.476205042383271e-05,-1.5697026996932555,2.311764713327135e-05,-1.6552239928306431,-0.4832327103237498,-2.335507315000208e-06,0.0554746275470025,0.22152468559474695,0.0018972457133596445,-0.02231187830830519,0.024294628787599006,-0.00048267931975331927,0.0,-1.5707963267948966,8.881784197001252e-16,-1.655141228937726,-0.7750426883711663,0.0
13.905,800.0,0.0,0.0,-1.5707963267948966,8.881784197001252e-16,-1.655141228937726,-0.6080241026668638,0.0,0.0,0.0,0.0,0.0,-0.4114458206517045,0.0,-0.00010647383544357455,-1.5700293364009539,0.00035094917082259406,-1.655096027940265,-0.7275429195072671,3.136938920065652e-07,0.01172208559001141,-0.06146029015641575,-0.032073204263664654,-0.0049866214189566585,-3.141550309328461,-4.625482422290092e-05,0.0,-1.5707963267948966,8.881784197001252e-16,-1.655141228937726,-0.7731552217232842,0.0
14.003,800.0,0.0,0.0,-1.5707963267948966,8.881784197001252e-16,-1.655141228937726,-0.6618287823613009,0.0,0.0,0.0,0.0,0.0,-0.4255512151823534,0.0,-9.210615125757195e-05,-1.5715872856386501,8.583359944092882e-06,-1.6550705947518545,-0.6779713716087502,1.4209874437989978e-06,-0.09038028048050756,-0.14533575806251273,-0.017369177201091525,0.024803635853913406,-0.07745218135055647,0.00026053125953778703,0.0,-1.5707963267948966,8.881784197001252e-16,-1.655141228937726,-0.8509081232316068,0.0
14.104,800.0,0.0,0.0,-1.5707963267948966,8.881784197001252e-16,-1.655141228937726,-0.7434631488834498,0.0,0.0,0.0,0.0,0.0,-0.6488616014760114,0.0,2.663100611369581e-07,-1.570419090026487,-3.419079713632032e-05,-1.6551792517243298,-0.7460825154358538,-1.0205042223827842e-06,-0.08677322019869858,-0.1322550514797217,0.0002967640830660364,0.01787233675627806,1.373590047022856,0.0003850871769345595,0.0,-1.5707963267948966,8.881784197001252e-16,-1.655141228937726,-0.9548831546965681,0.0
14.203,800.0,0.0,0.0,-1.5707963267948966,8.881784197001252e-16,-1.655141228937726,-0.8209046031037559,0.0,0.0,0.0,0.0,0.0,-0.7455454177983443,0.0,-0.0008266230960429533,-1.569344238210531,0.001010929708010274,-1.6548996198098715,-0.8583342227504757,3.247122938243706e-06,0.24643399692907145,0.24372076841049872,-0.22304278728463298,-0.10230168807365189,-0.10857768517615421,-0.0023982948954343213,0.0,-1.5707963267948966,8.881784197001252e-16,-1.655141228937726,-0.9304176947546313,0.0
14.303,800.0,0.0,0.0,-1.5707963267948966,8.881784197001252e-16,-1.655141228937726,-0.8971057485947433,0.0,0.0,0.0,0.0,0.0,-1.0373124518615158,0.0,-0.0004899884160795351,-1.568505875099374,0.0013075037742724589,-1.6549130687733764,-0.9267218692777567,1.8377171832177395e-06,-0.045065221340372254,0.1342653219838112,-0.04647694222827724,-0.020439532500951974,0.005732609770842031,-0.00040842468643233004,0.0,-1.5707963267948966,8.881784197001252e-16,-1.655141228937726,-1.0908984229210805,0.0
14.402,800.0,0.0,0.0,-1.5707963267948966,8.881784197001252e-16,-1.655141228937726,-0.9738554619095776,0.0,0.0,0.0,0.0,0.0,-0.7475484618955544,0.0,-5.577632813334451e-05,-1.5704096358046171,0.00037665690019239324,-1.6550602084236032,-0.9803904241972515,9.36397861872417e-07,0.09165950494299191,-0.30627574261061313,-0.11388759562609507,-0.015577152748334017,-3.1415654893466742,-5.280613609546374e-06,0.0,-1.5707963267948966,8.881784197001252e-16,-1.655141228937726,-1.055589925210714,0.0
14.503,800.0,0.0,0.0,-1.5707963267948966,8.881784197001252e-16,-1.655141228937726,-1.0504159222137197,0.0,0.0,0.0,0.0,0.0,-1.0662069893528734,0.0,-0.0005405949136305894,-1.5707806141444651,0.0004979593365448115,-1.6550452947214989,-1.1143100096149217,-7.848313580429683e-07,-0.3801628167889078,-0.30352709404954237,0.12862880811568575,0.08942668571793425,0.7420767216822111,0.00026008074578795406,0.0,-1.5707963267948966,8.881784197001252e-16,-1.655141228937726,-1.3355292158101875,0.0
14.605,800.0,0.0,0.0,-1.5707963267948966,8.881784197001252e-16,-1.655141228937726,-1.131050872750512,0.0,0.0,0.0,0.0,0.0,-1.0099400620213166,0.0,-5.297107299749378e-05,-1.5697996387569344,0.0005897170369705473,-1.6550446289312262,-1.1515310148001414,6.735457066758828e-07,-0.02059434330347504,0.07767569546741977,0.025933877259353835,0.002775778214304338,-2.9294630843333844,-1.269124203799773e-05,0.0,-1.5707963267948966,8.881784197001252e-16,-1.655141228937726,-1.2639580339797585,0.0
14.709,800.0,0.0,0.0,-1.5707963267948966,8.881784197001252e-16,-1.655141228937726,-1.1880341796747729,0.0,0.0,0.0,0.0,0.0,-0.6968742383294663,0.0,9.089101899164201e-05,-1.5706156313149346,0.0002265060444097331,-1.6550953621499922,-1.2540047930144829,3.8781717001480856e-07,-0.022929144953525916,0.11205639773817819,0.049714289171755965,0.0072726456091670505,-2.674676332316632,1.533541567050648e-05,0.0,-1.5707963267948966,8.881784197001252e-16,-1.655141228937726,-1.4575566580671402,0.0
14.804,800.0,0.0,0.0,-1.5707963267948966,8.881784197001252e-16,-1.655141228937726,-1.250542190684186,0.0,0.0,0.0,0.0,0.0,-0.4618266470944361,0.0,0.00037728410193691104,-1.572773590746226,-0.0006739342399392179,-1.6552060164932851,-1.2438621440029163,1.6242555932730054e-07,0.10746996828787098,0.023791734508224176,0.04256063900963962,-0.00014354196081311748,-2.0862024199317846,7.018677829119768e-05,0.0,-1.5707963267948966,8.881784197001252e-16,-1.655141228937726,-1.5235001593009647,0.0
14.903,866.6666870117188,0.0,0.0,-1.5707963267948966,8.881784197001252e-16,-1.655141228937726,-1.3078984126613848,0.0,0.0,0.0,0.0,0.0,0.3969066569445089,0.0,0.0002821810329567977,-1.572192888470534,-0.0008418370539558439,-1.6553088145113621,-1.2942910966143841,-4.81243093325549e-07,-0.09268747680138409,0.010361149935737472,0.007800959032938576,0.011393358925035858,2.6108970863186514,-1.5595942078032635e-05,0.0,-1.5707963267948966,8.881784197001252e-16,-1.655141228937726,-1.0458550655964338,0.0
15.004,866.6666870117188,0.0,0.0,-1.5707963267948966,8.881784197001252e-16,-1.655141228937726,-1.224668539476796,0.0,0.0,0.0,0.0,0.0,0.9606889640591686,0.0,0.0001293991840271569,-1.5711657072380907,-0.00014228788241698838,-1.6551643380222254,-1.2474612730581038,-4.794695254017071e-09,-0.0014298752461386242,0.103278843489494,0.06028586108282603,0.010816149967680209,3.141594784118665,2.444800451625025e-05,0.0,-1.5707963267948966,8.881784197001252e-16,-1.655141228937726,-0.9436003386211457,0.0
15.103,866.6666870117188,0.0,0.0,-1.5707963267948966,8.881784197001252e-16,-1.655141228937726,-1.1399078609823148,0.0,0.0,0.0,0.0,0.0,1.1227158490538331,0.0,0.00011158341818296694,-1.5709605106761,-3.9914443803146425e-05,-1.6551480927395759,-1.0772993941558178,6.477137655924847e-08,-0.011151136101514745,0.07249458214569787,0.034018458267047996,0.005872233793219192,3.141593186222011,4.2089234074430306e-05,0.0,-1.5707963267948966,8.881784197001252e-16,-1.655141228937726,-0.9147707348960303,0.0
15.203,866.6666870117188,0.0,0.0,-1.5707963267948966,8.881784197001252e-16,-1.655141228937726,-1.058008312497491,0.0,0.0,0.0,0.0,0.0,0.7614037484583331,0.0,-1.6249160652287578e-06,-1.5704296095127928,1.314293424961679e-05,-1.655168998554133,-0.9546180822221731,-5.322180737809509e-07,-0.08154272188351253,0.020414188778109587,0.029344396252714965,0.014853714400889699,2.2733653866009185,0.0001318120642158415,0.0,-1.5707963267948966,8.881784197001252e-16,-1.655141228937726,-0.9242819439454253,0.0
15.303,866.6666870117188,0.0,0.0,-1.5707963267948966,8.881784197001252e-16,-1.655141228937726,-0.9779878146466547,0.0,0.0,0.0,0.0,0.0,0.6579807549718892,0.0,4.31905147408413e-05,-1.5706274823817856,0.00023255231734063494,-1.6550921663566842,-0.9562643152500057,7.264430846671758e-07,0.08520084827922376,-0.02734073995886403,-0.061765546673987676,-0.023541557571541052,-2.72093757098018,-0.0002962927633701872,0.0,-1.5707963267948966,8.881784197001252e-16,-1.655141228937726,-0.8346961208074019,0.0
15.402,866.6666870117188,0.0,0.0,-1.5707963267948966,8.881784197001252e-16,-1.655141228937726,-0.8969656806027366,0.0,0.0,0.0,0.0,0.0,0.6665395112565184,0.0,-5.50933607643773e-05,-1.5702567703580466,0.0002238134786662606,-1.655116667438713,-0.8318936936578964,9.286501899444335e-08,-0.006081777237481241,-0.04130787554929874,-5.9327342333053645e-05,0.003945675232703074,2.5431207018405706,8.475060728233934e-05,0.0,-1.5707963267948966,8.881784197001252e-16,-1.655141228937726,-0.7433089052112978,0.0
15.503,866.6666870117188,0.0,0.0,-1.5707963267948966,8.881784197001252e-16,-1.655141228937726,-0.8334815040718464,0.0,0.0,0.0,0.0,0.0,0.6892598119208784,0.0,5.476784523709503e-05,-1.570916435360059,-4.451181422271273e-05,-1.655148625371794,-0.6940420174697516,-4.497334951100211e-08,-0.004540951293356256,-0.08236353309861016,-0.019381905927702843,0.0014221076062677848,2.5991679922457243,8.151775338290281e-05,0.0,-1.5707963267948966,8.881784197001252e-16,-1.655141228937726,-0.7519042576669395,0.0
15.603,866.6666870117188,0.0,0.0,-1.5707963267948966,8.881784197001252e-16,-1.655141228937726,-0.7562476424170432,0.0,0.0,0.0,0.0,0.0,0.7546281548350763,0.0,-6.387815132108594e-05,-1.5704274789839205,3.3553871050236716e-05,-1.6551548838003556,-0.7408395501978148,-5.566882676659218e-07,-0.08419513878306897,-0.1189009464438988,0.03833510949893018,0.026820501842890056,1.460268483653883,0.0005634441986013725,0.0,-1.5707963267948966,8.881784197001252e-16,-1.655141228937726,-0.563502976448404,0.0
15.703,866.6666870117188,0.0,0.0,-1.5707963267948966,8.881784197001252e-16,-1.655141228937726,-0.6761931800518015,0.0,0.0,0.0,0.0,0.0,0.9912766008200289,0.0,-8.079810334309799e-05,-1.5703490488898177,0.000105772918882507,-1.655139437466033,-0.7050325503933724,-3.17096795655923e-07,-0.08902038720412904,-0.02969204696588959,0.05981536374199309,0.025873614917312385,2.102717480799693,0.0005069164913605484,0.0,-1.5707963267948966,8.881784197001252e-16,-1.655141228937726,-0.5523479665583293,0.0
15.803,866.6666870117188,0.0,0.0,-1.5707963267948966,8.881784197001252e-16,-1.655141228937726,-0.6121755155829511,0.0,0.0,0.0,0.0,0.0,0.7729795286551946,0.0,0.00012495834177841085,-1.5705169611965473,-0.00018580520899307663,-1.6552246586209156,-0.5753810800967178,-1.636343969818283e-06,0.09034195592794564,0.0036981403910896888,-0.03348568456859924,-0.017559346668571896,0.01929972244093868,-0.00017107737875792645,0.0,-1.5707963267948966,8.881784197001252e-16,-1.655141228937726,-0.33131130857744445,0.0
15.903,866.6666870117188,0.0,0.0,-1.5707963267948966,8.881784197001252e-16,-1.655141228937726,-0.5245217795397341,0.0,0.0,0.0,0.0,0.0,0.7021848239427999,0.0,0.00013737127482689666,-1.5712489310221556,-0.00012683331511667158,-1.6551524869553744,-0.5607404185830345,1.4840019733689937e-07,0.024070330286570886,0.06322709364141237,-0.04719290395902062,-0.017179437376396385,-2.0299367503172445,-0.0005316885058175578,0.0,-1.5707963267948966,8.881784197001252e-16,-1.655141228937726,-0.282896089603174,0.0
16.003,866.6666870117188,0.0,0.0,-1.5707963267948966,8.881784197001252e-16,-1.655141228937726,-0.44793296491019596,0.0,0.0,0.0,0.0,0.0,0.7211626234041182,0.0,4.48242813334602e-05,-1.5708671668798928,-3.12796653363133e-05,-1.655148625371794,-0.39800493082800265,-4.4384749596627693e-08,-0.017608575617440933,0.08880516217615861,0.03434778518356611,0.004164389417820433,3.141578805152125,4.234235293530718e-06,0.0,-1.5707963267948966,8.881784197001252e-16,-1.655141228937726,-0.38763997422189295,0.0
16.103,866.6666870117188,0.0,0.0,-1.5707963267948966,8.881784197001252e-16,-1.655141228937726,-0.38004382708555084,0.0,0.0,0.0,0.0,0.0,0.7050254567884415,0.0,-2.7208476072399406e-05,-1.5705840728560172,0.00012096729807510347,-1.6551250563961466,-0.35252569612904233,3.4129666082030024e-07,0.0048617233250211455,0.1932524842386817,0.017301190651591542,-0.007587543081974253,-1.2602006372905523,-0.0004565363234910021,0.0,-1.5707963267948966,8.881784197001252e-16,-1.655141228937726,-0.26903336757257607,0.0
16.203,866.6666870117188,0.0,0.0,-1.5707963267948966,8.881784197001252e-16,-1.655141228937726,-0.30437507188576696,0.0,0.0,0.0,0.0,0.0,0.9221663364398079,0.0,0.00010826461784637346,-1.5722529427531153,-0.00028902761960493065,-1.6551130721712413,-0.32031279866323004,1.801106007421663e-06,-0.012890391473688553,0.167604961294944,0.0076205657593425855,-0.010500820251344517,0.008959496004812443,-0.00038895262912076175,0.0,-1.5707963267948966,8.881784197001252e-16,-1.655141228937726,-0.05443185213061208,0.0
16.303,866.6666870117188,0.0,0.0,-1.5707963267948966,8.881784197001252e-16,-1.655141228937726,-0.21393150210610568,0.0,0.0,0.0,0.0,0.0,1.0312852264233712,0.0,0.0002702599410938842,-1.5719079302338956,-0.000531606192293631,-1.6552281207303328,-0.24340533362413563,-7.640741759626998e-07,-0.019130303783717606,0.12162010049589696,0.050181291113658176,0.006144220042665192,3.141218745772746,2.3216190920555318e-05,0.0,-1.5707963267948966,8.881784197001252e-16,-1.655141228937726,-0.13432097981232877,0.0
16.404,866.6666870117188,0.0,0.0,-1.5707963267948966,8.881784197001252e-16,-1.655141228937726,-0.12940624597214967,0.0,0.0,0.0,0.0,0.0,0.6897138633743214,0.0,3.976893221819532e-05,-1.570896594809938,-6.439077000704514e-05,-1.6551554164325735,-0.09651903324070833,-2.014879642110345e-07,-0.00883290846806041,0.05257872698359635,0.026157345603135904,0.0040274621061213035,3.1414653544896876,4.236835071663182e-05,0.0,-1.5707963267948966,8.881784197001252e-16,-1.655141228937726,-0.002811737845895723,0.0
16.503,866.6666870117188,0.0,0.0,-1.5707963267948966,8.881784197001252e-16,-1.655141228937726,-0.05085851678579445,0.0,0.0,0.0,0.0,0.0,1.0315682756331397,0.0,-8.280570645988963e-05,-1.570437066363845,0.00011876483427015344,-1.6551302495602722,-0.027136136366334884,-7.351464948181909e-09,-0.06384275822878983,-0.015479704979275035,0.06853446576593925,0.018580207054615723,1.7619927840930099,0.0007563800116603492,0.0,-1.5707963267948966,8.881784197001252e-16,-1.655141228937726,0.1869144890717181,0.0
16.603,866.6666870117188,0.0,0.0,-1.5707963267948966,8.881784197001252e-16,-1.655141228937726,0.025962966477282964,0.0,0.0,0.0,0.0,0.0,1.0631813082738781,0.0,-0.00025135622745611123,-1.5694807252163974,0.0005057245057095616,-1.6550920331986296,0.0882241686172226,4.66509368495659e-07,-0.050073050260103266,0.07629070189776725,0.06962779326195766,0.013124616491561021,2.2079835834169828,0.000444498685821107,0.0,-1.5707963267948966,8.881784197001252e-16,-1.655141228937726,0.10714516560990058,0.0
16.703,866.6666870117188,0.0,0.0,-1.5707963267948966,8.881784197001252e-16,-1.655141228937726,0.0905935189441329,0.0,0.0,0.0,0.0,0.0,0.6212326383789474,0.0,-0.0002930390059968625,-1.5691835164387447,0.0006313187210857712,-1.6550788505512337,0.17204207063188184,6.285935485237764e-07,0.02751773198043501,-0.14192609627412747,-0.04666583108978031,-0.003781990694204079,0.6790962242741725,1.5759836650931203e-05,0.0,-1.5707963267948966,8.881784197001252e-16,-1.655141228937726,0.29550270337812745,0.0
16.803,866.6666870117188,0.0,0.0,-1.5707963267948966,8.881784197001252e-16,-1.655141228937726,0.16223559713889926,0.0,0.0,0.0,0.0,0.0,0.8373144120447286,0.0,-0.0003306993937507967,-1.5692186701651336,0.0005837139363776292,-1.6550153341592353,0.1504818341711433,2.688013934823788e-06,0.3109225925281515,0.16461499704959842,-0.31144560407672944,-0.09699669614934926,0.10585040848283132,0.0017804315096744178,0.0,-1.5707963267948966,8.881784197001252e-16,-1.655141228937726,0.23166082046741415,0.0
16.904,866.6666870117188,0.0,0.0,-1.5707963267948966,8.881784197001252e-16,-1.655141228937726,0.25032553424409487,0.0,0.0,0.0,0.0,0.0,0.7184636239272046,0.0,0.00019755216484062139,-1.5720972809874003,-0.000546191908164703,-1.6551976275358513,0.2814741228528687,-7.008113503358909e-07,-0.004141252425627394,-0.1450654638566265,-0.01353660647189898,0.005174965164674106,2.517164468592222,0.0003738603209734848,0.0,-1.5707963267948966,8.881784197001252e-16,-1.655141228937726,0.5023862177152749,0.0
17.004,866.6666870117188,0.0,0.0,-1.5707963267948966,8.881784197001252e-16,-1.655141228937726,0.3414499213123324,0.0,0.0,0.0,0.0,0.0,0.5914807647073652,0.0,0.00036419196040618946,-1.5729986278583377,-0.000882688423642857,-1.6552318491558589,0.38157362637637726,-8.02778835786186e-07,0.022823436183601185,0.030646430273816916,-0.02337444421313858,-0.00841940277455517,-0.8867180604904856,-0.0003354937989173337,0.0,-1.5707963267948966,8.881784197001252e-16,-1.655141228937726,0.6233953778536503,0.0
17.103,866.6666870117188,0.0,0.0,-1.5707963267948966,8.881784197001252e-16,-1.655141228937726,0.4192111811090031,0.0,0.0,0.0,0.0,0.0,0.7712249355288905,0.0,0.0003596569143604613,-1.5727825123358776,-0.0007609281264409188,-1.655218400192354,0.49265890242305804,-4.7104270018426303e-07,0.05674421885648132,0.21327333036557036,-0.005969570770615637,-0.01822892362326666,0.7715894068292785,-0.0008418606557008561,0.0,-1.5707963267948966,8.881784197001252e-16,-1.655141228937726,0.46535002248366497,0.0
17.203,866.6666870117188,0.0,0.0,-1.5707963267948966,8.881784197001252e-16,-1.655141228937726,0.5049551587212845,0.0,0.0,0.0,0.0,0.0,0.5112157659468285,0.0,-7.242807444382958e-05,-1.5705952581325957,2.756770779774745e-05,-1.655142633259341,0.5817700701308451,-2.2950894092099757e-07,0.0020219609750445396,0.08065171972893448,0.0488406724656691,0.006274911552268929,3.1057382495179473,0.00010921711568046165,0.0,-1.5707963267948966,8.881784197001252e-16,-1.655141228937726,0.786085463827717,0.0
17.303,866.6666870117188,0.0,0.0,-1.5707963267948966,8.881784197001252e-16,-1.655141228937726,0.5789124281316292,0.0,0.0,0.0,0.0,0.0,0.6804225146514932,0.0,0.000301633747240429,-1.572428311910897,-0.0006003521263139131,-1.655200423854996,0.610655114788008,-1.494460186773338e-07,0.0876536945445924,0.045988310424896546,-0.06622184325434169,-0.025871536403305362,-0.9123437954475551,-0.0008003782156637379,0.0,-1.5707963267948966,8.881784197001252e-16,-1.655141228937726,0.8183989807056903,0.0
17.403,866.6666870117188,0.0,0.0,-1.5707963267948966,8.881784197001252e-16,-1.655141228937726,0.6585010745190233,0.0,0.0,0.0,0.0,0.0,0.8813486522599874,0.0,-0.0004105986477167023,-1.5687667317281473,0.0006580237379648522,-1.6550851089797955,0.6605058951268198,-5.650947765609191e-07,-0.053698328228244066,0.020835078501855994,0.13406739918054789,0.04018574430161544,-0.029137722468557205,0.0007570255811540844,0.0,-1.5707963267948966,8.881784197001252e-16,-1.655141228937726,0.8912897023264403,0.0
17.503,866.6666870117188,0.0,0.0,-1.5707963267948966,8.881784197001252e-16,-1.655141228937726,0.7399691749806814,0.0,0.0,0.0,0.0,0.0,0.9763322401169776,0.0,-0.00034304401665230343,-1.5690182672931052,0.000693675506686662,-1.6550639368491293,0.799143470152647,3.949133703619413e-07,0.026099619505913836,0.007277056469722494,0.014037846678565518,0.0012276837129385776,2.1410883057855545,7.821127813112718e-06,0.0,-1.5707963267948966,8.881784197001252e-16,-1.655141228937726,0.8947052405067681,0.0
17.603,866.6666870117188,0.0,0.0,-1.5707963267948966,8.881784197001252e-16,-1.655141228937726,0.817071958278881,0.0,0.0,0.0,0.0,0.0,0.7734415613738314,0.0,8.080526351436374e-05,-1.5698768704285468,7.906065243161102e-05,-1.6552020217516499,0.8996013020008258,-1.3666024482869084e-06,0.0707541065047902,0.056486491441988904,0.05435742730852505,0.009857522246765569,0.04501358514354914,0.00039908489726563805,0.0,-1.5707963267948966,8.881784197001252e-16,-1.655141228937726,1.1012581125163217,0.0
17.703,866.6666870117188,0.0,0.0,-1.5707963267948966,8.881784197001252e-16,-1.655141228937726,0.9136489086433365,0.0,0.0,0.0,0.0,0.0,0.9163164743804725,0.0,0.00020720917966547976,-1.571767714802503,-0.0002562417724189865,-1.655150489584557,0.9087777561689118,4.3801719755539034e-07,0.10643768543746424,0.04490745817410948,-0.06154359300307559,-0.030835414842671664,-1.5651878426972443,-0.0006395318682756836,0.0,-1.5707963267948966,8.881784197001252e-16,-1.655141228937726,0.9855023298095419,0.0
17.803,866.6666870117188,0.0,0.0,-1.5707963267948966,8.881784197001252e-16,-1.655141228937726,0.9852148094605078,0.0,0.0,0.0,0.0,0.0,0.5837060677480995,0.0,5.391700395487059e-05,-1.571482090775592,-0.00030179554597999596,-1.6551756564568583,1.0975398179145837,-7.65931507296259e-08,-0.00657637046454424,0.06936562169739616,0.03642961773897849,0.005542628597173105,3.1415915883253573,3.677353430499185e-05,0.0,-1.5707963267948966,8.881784197001252e-16,-1.655141228937726,1.123380811564088,0.0
17.903,866.6666870117188,0.0,0.0,-1.5707963267948966,8.881784197001252e-16,-1.655141228937726,1.0536266896840025,0.0,0.0,0.0,0.0,0.0,0.7487693119352979,0.0,-3.747332523187062e-05,-1.5703053730479404,0.00029184055099703616,-1.6550925658308477,1.1028078834458965,3.061175764226105e-07,0.12845297290471328,-0.0023815018962559604,0.0004455540349234903,-0.011699202170285443,-2.8786385191419854,-0.00021970931075881257,0.0,-1.5707963267948966,8.881784197001252e-16,-1.655141228937726,1.2586218755434488,0.0
18.003,866.6666870117188,0.0,0.0,-1.5707963267948966,8.881784197001252e-16,-1.655141228937726,1.1237722358224747,0.0,0.0,0.0,0.0,0.0,0.5890231788997761,0.0,-0.00017663162357483474,-1.5697904508511737,0.00032946651141217166,-1.655116667438713,1.1419148727360835,-1.7948834942607594e-07,0.021438022333839134,-0.051436185102871124,0.049209378796212164,0.01863296261133451,2.125440370168576,0.00025372990956759416,0.0,-1.5707963267948966,8.881784197001252e-16,-1.655141228937726,1.4128014526034574,0.0
18.103,866.6666870117188,0.0,0.0,-1.5707963267948966,8.881784197001252e-16,-1.655141228937726,1.2048055125658204,0.0,0.0,0.0,0.0,0.0,0.5601426122593515,0.0,-7.169848468840839e-05,-1.5702125618839513,0.0003287173998277149,-1.6550853752959045,1.1892419084678816,2.7512282504934546e-07,0.09354688720753106,0.01070660250071548,-0.0024225720534690504,-0.010969332704927504,-2.877445955605848,-0.00017040685838361702,0.0,-1.5707963267948966,8.881784197001252e-16,-1.655141228937726,1.3422828901519366,0.0
18.203,866.6666870117188,0.0,0.0,-1.5707963267948966,8.881784197001252e-16,-1.655141228937726,1.2756007604983624,0.0,0.0,0.0,0.0,0.0,0.5357485245744813,0.0,-0.00031203275411509167,-1.569903102565284,0.00022642191036552993,-1.6551263879766918,1.303362355919412,-6.428746354518619e-08,-0.12203772576671341,0.05127868825271736,-0.01128331107506944,0.0037153380659180656,2.6679289473788073,9.774555416133893e-05,0.0,-1.5707963267948966,8.881784197001252e-16,-1.655141228937726,1.3843017826196364,0.0
18.304,933.3333129882812,0.0,0.0,-1.5707963267948966,8.881784197001252e-16,-1.655141228937726,1.3408340280553437,0.0,0.0,0.0,0.0,0.0,0.20199390948204593,0.0,-0.00015090848480126727,-1.5706708919075538,4.711066787222418e-05,-1.65512279270922,1.3818296011194522,1.4784369796599065e-07,0.043727324110122104,-0.07337884317376665,-0.04671639786097819,-0.012517309652698273,-2.930283870581347,-6.233556109775736e-05,0.0,-1.5707963267948966,8.881784197001252e-16,-1.655141228937726,1.224760860329183,0.0
18.403,933.3333129882812,0.0,0.0,-1.5707963267948966,8.881784197001252e-16,-1.655141228937726,1.2733904056783265,0.0,0.0,0.0,0.0,0.0,-1.0228341962128151,0.0,6.827728821358888e-05,-1.5709550511958654,0.00011450905115843469,-1.6550922995147388,1.4537610495302744,1.2323337919663674e-07,0.11185394756106173,-0.01882953926989059,-0.04053851327751007,-0.0238268611868834,-2.3972114320373095,-0.00014153436582364852,0.0,-1.5707963267948966,8.881784197001252e-16,-1.655141228937726,1.1581621004940734,0.0
18.503,933.3333129882812,0.0,0.0,-1.5707963267948966,8.881784197001252e-16,-1.655141228937726,1.1888664143747327,0.0,0.0,0.0,0.0,0.0,-0.8202493009775136,0.0,-6.519708778389323e-06,-1.5710483949920726,-0.00013946245120262775,-1.6551606095966993,1.252898249581555,-3.1472777237341965e-08,0.029171411456346708,-0.02720012089211864,-0.014782697465352454,-0.004862924868403584,-3.0776251221027437,-4.360808032460012e-05,0.0,-1.5707963267948966,8.881784197001252e-16,-1.655141228937726,0.9281607204456284,0.0
18.603,933.3333129882812,0.0,0.0,-1.5707963267948966,8.881784197001252e-16,-1.655141228937726,1.1127173604419696,0.0,0.0,0.0,0.0,0.0,-0.6639113827958507,0.0,-0.00013941022502719793,-1.5706959256218007,-0.00010768998362483732,-1.6551717948732776,1.0961673578468112,-3.680002493224232e-07,0.01647121857846295,0.037001610645667864,-0.10732108093817873,-0.03674722882729486,0.019862931077219998,-0.00044092662998302437,0.0,-1.5707963267948966,8.881784197001252e-16,-1.655141228937726,1.0377951118951887,0.0
18.703,933.3333129882812,0.0,0.0,-1.5707963267948966,8.881784197001252e-16,-1.655141228937726,1.0382721265219246,0.0,0.0,0.0,0.0,0.0,-0.7527683375583855,0.0,7.777213044203784e-05,-1.5712914084415424,-0.0001778647009692037,-1.6551572806453365,1.0486262039633707,5.275399503469038e-08,0.04384612606187485,-0.157032428149168,0.08747746818183481,0.03626949933962667,-0.015504909302279114,0.0005382937434919022,0.0,-1.5707963267948966,8.881784197001252e-16,-1.655141228937726,0.9886040699473492,0.0
18.803,933.3333129882812,0.0,0.0,-1.5707963267948966,8.881784197001252e-16,-1.655141228937726,0.9771529633603127,0.0,0.0,0.0,0.0,0.0,-0.7163665125013206,0.0,-0.00011792194963681569,-1.5709474611867587,-0.00017966422024386493,-1.655170330134678,0.957133171555644,-3.440821101787799e-07,-0.0012594032879004798,0.015001953645363535,0.05538771278811424,0.014848382877223036,2.9304654981676905,0.0002610740509091311,0.0,-1.5707963267948966,8.881784197001252e-16,-1.655141228937726,0.7694056102024005,0.0
18.903,933.3333129882812,0.0,0.0,-1.5707963267948966,8.881784197001252e-16,-1.655141228937726,0.8924763500936743,0.0,0.0,0.0,0.0,0.0,-0.9212085484051488,0.0,0.00024638394770578074,-1.5718508054285134,-0.000376938853270204,-1.6551813822532018,0.8783633912557708,-7.545196827416111e-08,0.09765805891655682,-0.0613651944995539,-0.07389364885723577,-0.024375697075656698,-2.237578094188543,-0.00045329862570725867,0.0,-1.5707963267948966,8.881784197001252e-16,-1.655141228937726,0.6926693903708079,0.0
19.002,933.3333129882812,0.0,0.0,-1.5707963267948966,8.881784197001252e-16,-1.655141228937726,0.8134884512214304,0.0,0.0,0.0,0.0,0.0,-0.7006959881526411,0.0,0.00018178239558548116,-1.5720872941333126,-0.0005670009750728495,-1.6552097449188112,0.7543985022557352,-4.857685834176779e-07,-0.004126271364272723,0.05950250473174683,0.0069043429139767016,-0.0024426505715977017,-1.9931562319763239,-0.00010351644901846403,0.0,-1.5707963267948966,8.881784197001252e-16,-1.655141228937726,0.6186981754881415,0.0
19.104,933.3333129882812,0.0,0.0,-1.5707963267948966,8.881784197001252e-16,-1.655141228937726,0.7375794564287013,0.0,0.0,0.0,0.0,0.0,-0.8688927362838946,0.0,-0.0001003399824836606,-1.5707810136186287,-4.609556527166603e-05,-1.6551467611590307,0.678248207204064,-1.218139311820405e-07,-0.05340500184011786,0.030328103460957583,0.08052035098578791,0.021787075367775258,2.586488682295857,0.0005925935240258743,0.0,-1.5707963267948966,8.881784197001252e-16,-1.655141228937726,0.6177953709071109,0.0
19.203,933.3333129882812,0.0,0.0,-1.5707963267948966,8.881784197001252e-16,-1.655141228937726,0.6763409617206753,0.0,0.0,0.0,0.0,0.0,-0.7144526824171026,0.0,5.0652644489132515e-05,-1.5709746254298773,-0.00020745742060888607,-1.655188839104254,0.6672889664232516,-7.987251431240916e-07,-0.07464726518907935,-0.03644071563058355,0.12797971253424936,0.04519168404144819,-0.035841729089532696,0.0008717267459656176,0.0,-1.5707963267948966,8.881784197001252e-16,-1.655141228937726,0.4893362630452673,0.0
19.304,933.3333129882812,0.0,0.0,-1.5707963267948966,8.881784197001252e-16,-1.655141228937726,0.5971629872747766,0.0,0.0,0.0,0.0,0.0,-0.5496548656039993,0.0,0.0002792166082702614,-1.5715313592557585,-0.0007075294059159032,-1.6553022897666914,0.6268992655940282,-2.5818170033588205e-06,0.048430603914445744,-0.14657992034477052,0.05608461211111754,0.022429735670108808,-0.011100756583831013,0.000622971570599798,0.0,-1.5707963267948966,8.881784197001252e-16,-1.655141228937726,0.3404090979727231,0.0
19.403,933.3333129882812,0.0,0.0,-1.5707963267948966,8.881784197001252e-16,-1.655141228937726,0.5218233017273386,0.0,0.0,0.0,0.0,0.0,-0.7987600404911279,0.0,-0.00023051686188907858,-1.5699885900362756,0.00029998841953132255,-1.6551068137426797,0.49788705382753345,3.283034211870175e-07,-0.05624057348245531,0.060944340145915724,0.10767834399841286,0.024422495890031037,2.063965557461841,0.000769505507723278,0.0,-1.5707963267948966,8.881784197001252e-16,-1.655141228937726,0.25518240780887463,0.0
19.503,933.3333129882812,0.0,0.0,-1.5707963267948966,8.881784197001252e-16,-1.655141228937726,0.42902423086285424,0.0,0.0,0.0,0.0,0.0,-1.0585223462535018,0.0,-5.6210115853137866e-05,-1.5689965625302211,0.00044528557320129943,-1.6551712622410595,0.42786752205279277,-2.2526589116507104e-06,0.010389708177239368,0.00943062064491777,0.07281745713835636,0.016984940272144634,-0.01642121356780751,9.63335618858756e-05,0.0,-1.5707963267948966,8.881784197001252e-16,-1.655141228937726,0.2984942761161912,0.0
19.604,933.3333129882812,0.0,0.0,-1.5707963267948966,8.881784197001252e-16,-1.655141228937726,0.3479811063157259,0.0,0.0,0.0,0.0,0.0,-0.46769959507662845,0.0,-0.00013656642606361984,-1.5697543650184032,0.00045494837467989355,-1.6550829784509233,0.3324027843533764,5.373424459617797e-07,-0.14648581088974982,-0.062433026389324006,0.17105556918508924,0.07370649521163046,-0.05776292790770707,0.0016695117605327557,0.0,-1.5707963267948966,8.881784197001252e-16,-1.655141228937726,0.06693958948562906,0.0
19.703,933.3333129882812,0.0,0.0,-1.5707963267948966,8.881784197001252e-16,-1.655141228937726,0.2597335689426812,0.0,0.0,0.0,0.0,0.0,-0.9815831952213445,0.0,-0.00025879498708808614,-1.5696797965078808,0.0004528299717732428,-1.6550911010922482,0.22503979191754253,6.787438279604039e-07,-0.02385892106909983,-0.14500557602161335,0.013550041911538968,0.011909861333402614,-0.10042581565844892,0.0006447188556361144,0.0,-1.5707963267948966,8.881784197001252e-16,-1.655141228937726,0.1275379398533797,0.0
19.804,933.3333129882812,0.0,0.0,-1.5707963267948966,8.881784197001252e-16,-1.655141228937726,0.1869807357902662,0.0,0.0,0.0,0.0,0.0,-0.7186001174461526,0.0,-5.8616823340260244e-05,-1.5707860736246997,7.904060981897798e-08,-1.6551393043079785,0.2032519883416567,-8.900162790996723e-08,-0.0712638771493234,0.13629971906290114,0.12291452994372998,0.028564510333431277,3.1270105150410643,0.0008445998235124759,0.0,-1.5707963267948966,8.881784197001252e-16,-1.655141228937726,-0.09751284268487637,0.0
19.904,933.3333129882812,0.0,0.0,-1.5707963267948966,8.881784197001252e-16,-1.655141228937726,0.10800674451215375,0.0,0.0,0.0,0.0,0.0,-0.922463996084139,0.0,-5.452694326605304e-05,-1.5704686248227624,0.00012103403152148603,-1.6551301164022179,0.044479667118069485,5.5107212103245924e-08,0.01142942811304962,0.014319783891842438,-0.005562672525416505,-0.002544770575908956,-3.031013944071959,-0.00011978026196361811,0.0,-1.5707963267948966,8.881784197001252e-16,-1.655141228937726,-0.03536877157741808,0.0
20.004,933.3333129882812,0.0,0.0,-1.5707963267948966,8.881784197001252e-16,-1.655141228937726,0.03896810247193638,0.0,0.0,0.0,0.0,0.0,-0.5171621611274066,0.0,-0.00036132639647252097,-1.5688413002386694,0.0007663978796114267,-1.6550271852260863,0.024941298395729887,1.4520427056292744e-06,-0.13372599857355652,-0.16204349863528836,0.12190969429730786,0.03469537555949729,-0.009514484211822745,0.0005652062021546232,0.0,-1.5707963267948966,8.881784197001252e-16,-1.655141228937726,-0.25740777697302625,0.0
20.103,933.3333129882812,0.0,0.0,-1.5707963267948966,8.881784197001252e-16,-1.655141228937726,-0.053851329228875144,0.0,0.0,0.0,0.0,0.0,-1.1436345829997572,0.0,-0.0002960342169816447,-1.5693676740281235,0.0005847940250501975,-1.6550785842351248,-0.0439815644480622,8.358110688541386e-07,-0.016304126026006494,-0.20217988291057487,-0.01108061954897919,0.009230494491971322,-0.9417757202345658,0.0006019417656081354,0.0,-1.5707963267948966,8.881784197001252e-16,-1.655141228937726,-0.2032869283957126,0.0
20.203,933.3333129882812,0.0,0.0,-1.5707963267948966,8.881784197001252e-16,-1.655141228937726,-0.1393452836084279,0.0,0.0,0.0,0.0,0.0,-0.7367338791771458,0.0,2.0889100718066394e-05,-1.5709220279983482,-4.974216897687128e-05,-1.6551464948429218,-0.20205216769154874,-8.017545074045115e-08,0.029109540814678203,-0.15718542675379304,-0.06565347474344833,-0.00762728295901393,-3.1352948102439737,-0.00015029625358509396,0.0,-1.5707963267948966,8.881784197001252e-16,-1.655141228937726,-0.3092779522271803,0.0
20.303,933.3333129882812,0.0,0.0,-1.5707963267948966,8.881784197001252e-16,-1.655141228937726,-0.20900139920083305,0.0,0.0,0.0,0.0,0.0,-0.8861101937219042,0.0,-0.00021480801504461717,-1.569092968961682,0.0006058223996330714,-1.6550776521287434,-0.26738024160049223,1.1326610211477667e-06,-0.27120941783959224,-0.1331678915552384,0.2894362088533922,0.050447573933152474,0.0007519330657922835,-0.000505581269774956,0.0,-1.5707963267948966,8.881784197001252e-16,-1.655141228937726,-0.344601847155775,0.0
20.403,933.3333129882812,0.0,0.0,-1.5707963267948966,8.881784197001252e-16,-1.655141228937726,-0.2809772404449262,0.0,0.0,0.0,0.0,0.0,-0.529964573653605,0.0,2.8221150635312112e-05,-1.5708550494969329,-2.5522032237942886e-05,-1.6551452964204312,-0.3467784280490832,-7.09419153329881e-08,0.0047869987699038045,0.06127394794270506,-0.010279080881676396,-0.006012814889113099,-2.2456309606927243,-0.0002742616397172022,0.0,-1.5707963267948966,8.881784197001252e-16,-1.655141228937726,-0.44104609435897696,0.0
20.503,933.3333129882812,0.0,0.0,-1.5707963267948966,8.881784197001252e-16,-1.655141228937726,-0.36165267070476403,0.0,0.0,0.0,0.0,0.0,-0.9945696395515272,0.0,-0.00022166664638493606,-1.5695647479487895,0.0004979417490185696,-1.6550869731925586,-0.35792006207505234,4.836490983072188e-07,-0.02736611489062544,-0.05076709916850234,0.03112133223342149,0.011893296679481781,1.2224837515103597,0.00042655521535591963,0.0,-1.5707963267948966,8.881784197001252e-16,-1.655141228937726,-0.6369420305733164,0.0
20.603,933.3333129882812,0.0,0.0,-1.5707963267948966,8.881784197001252e-16,-1.655141228937726,-0.44807272791132746,0.0,0.0,0.0,0.0,0.0,-0.8024393221213197,0.0,-5.145640012751121e-05,-1.570462765868364,0.0001459512080885719,-1.65512279270922,-0.5272277653472089,1.1115086003819983e-07,0.017686841344570235,-0.10876914149139569,-0.05335413546329734,-0.0076498917402524815,-3.141558298811731,-7.210279460890452e-05,0.0,-1.5707963267948966,8.881784197001252e-16,-1.655141228937726,-0.5774996400316004,0.0
20.703,933.3333129882812,0.0,0.0,-1.5707963267948966,8.881784197001252e-16,-1.655141228937726,-0.5268622528752118,0.0,0.0,0.0,0.0,0.0,-0.810791120484408,0.0,0.00013111319574008492,-1.5715421450581732,-0.00030628963031950466,-1.6551760559310216,-0.4808486818054245,-2.777109646017781e-07,-0.01870417304216971,-0.03610674690750921,0.030647697355929305,0.01106852713315455,2.984392912345141,0.000335182359912903,0.0,-1.5707963267948966,8.881784197001252e-16,-1.655141228937726,-0.7957637538474888,0.0
20.803,933.3333129882812,0.0,0.0,-1.5707963267948966,8.881784197001252e-16,-1.655141228937726,-0.607773367415616,0.0,0.0,0.0,0.0,0.0,-0.5611853507938277,0.0,0.00029867228089934186,-1.5721425547259316,-0.0005034364368150065,-1.6551973612197424,-0.6003689879727133,-2.3610988254337837e-07,0.03872918243885625,0.026279370395926573,-0.042894374706118586,-0.015211371733800837,-1.5180865098678302,-0.0004089375855109211,0.0,-1.5707963267948966,8.881784197001252e-16,-1.655141228937726,-0.6643663202816339,0.0
20.904,933.3333129882812,0.0,0.0,-1.5707963267948966,8.881784197001252e-16,-1.655141228937726,-0.6754596152319756,0.0,0.0,0.0,0.0,0.0,-0.9535962738940088,0.0,-6.463047726165574e-05,-1.5706659650595372,-2.851359151506128e-06,-1.6551462285268128,-0.7085240877405208,-2.394854517208124e-07,-0.08085327941156144,-0.029275896836645682,0.08732018355233041,0.032389539947490234,2.0224214428790956,0.0006502020676529517,0.0,-1.5707963267948966,8.881784197001252e-16,-1.655141228937726,-0.9143307213531556,0.0
21.003,933.3333129882812,0.0,0.0,-1.5707963267948966,8.881784197001252e-16,-1.655141228937726,-0.754884292339387,0.0,0.0,0.0,0.0,0.0,-1.0788617338431288,0.0,-0.0001645349490331185,-1.569899374139758,0.000414553142849996,-1.6550832447670325,-0.7866653620231352,3.8027666544633595e-07,0.0032297296265678564,0.007396268818760418,-0.01649345285267321,-0.005324120911069958,-3.141551907225115,-9.79206898373952e-05,0.0,-1.5707963267948966,8.881784197001252e-16,-1.655141228937726,-0.9708365151967289,0.0
21.103,933.3333129882812,0.0,0.0,-1.5707963267948966,8.881784197001252e-16,-1.655141228937726,-0.8426764737282806,0.0,0.0,0.0,0.0,0.0,-0.5699219202874447,0.0,0.00011826293145912487,-1.5711940699037,-0.00010555088855468756,-1.6551494243201208,-0.9134677160065958,1.5722035838280386e-07,0.015140231002884794,-0.08043351528949452,-0.04650995294222661,-0.007953167011615012,-3.0793276809876318,-8.49831950022975e-05,0.0,-1.5707963267948966,8.881784197001252e-16,-1.655141228937726,-1.1376057594392028,0.0
21.203,933.3333129882812,0.0,0.0,-1.5707963267948966,8.881784197001252e-16,-1.655141228937726,-0.927296683323446,0.0,0.0,0.0,0.0,0.0,-1.151612299760033,0.0,-2.1604043006218912e-05,-1.5708832790044878,-0.0001289633400947299,-1.6551688653960785,-0.9563041960873296,-3.2519240271172176e-07,-0.08615334448784742,-0.012738126278660573,0.06516115612643357,0.03078379737119996,2.3177906420089665,0.00042081521245223506,0.0,-1.5707963267948966,8.881784197001252e-16,-1.655141228937726,-1.0405340098885558,0.0
21.303,933.3333129882812,0.0,0.0,-1.5707963267948966,8.881784197001252e-16,-1.655141228937726,-1.0190517257979526,0.0,0.0,0.0,0.0,0.0,-0.9794166540285382,0.0,0.0001536437840072997,-1.571486884465554,-0.0002545936976748201,-1.6551715285571686,-1.0441571533381087,-1.4838621064318633e-08,-0.03329472967665675,0.06798949978312496,0.00081030583782397,-0.002486423421198302,-2.46105246337258,-8.496629017115929e-05,0.0,-1.5707963267948966,8.881784197001252e-16,-1.655141228937726,-1.0736749321229133,0.0
21.403,933.3333129882812,0.0,0.0,-1.5707963267948966,8.881784197001252e-16,-1.655141228937726,-1.0987403710383603,0.0,0.0,0.0,0.0,0.0,-1.188981947376185,0.0,-0.0002536579827620302,-1.5697945787508634,0.00028252699682789905,-1.6551205290222935,-1.0917992410268633,-2.5897878750601605e-07,-0.08710569089365976,0.032696660677825215,0.09718370831452168,0.0360313003860651,2.1530580164629702,0.0002794811688775742,0.0,-1.5707963267948966,8.881784197001252e-16,-1.655141228937726,-1.1599559724149033,0.0
21.504,933.3333129882812,0.0,0.0,-1.5707963267948966,8.881784197001252e-16,-1.655141228937726,-1.192618400907726,0.0,0.0,0.0,0.0,0.0,-0.9282008696085039,0.0,-3.952065470183702e-05,-1.5703217514886445,0.00021321969237666615,-1.6551146700678954,-1.2573241569971578,8.660113109424267e-08,-0.004531097077174312,-0.0547539054158106,-0.026450961193911743,-0.0029387470282603743,-3.1375294687146593,-1.864456379552278e-05,0.0,-1.5707963267948966,8.881784197001252e-16,-1.655141228937726,-1.2934204109675158,0.0
21.603,933.3333129882812,0.0,0.0,-1.5707963267948966,8.881784197001252e-16,-1.655141228937726,-1.2583954309665586,0.0,0.0,0.0,0.0,0.0,-0.702340524095257,0.0,-0.00026694235172836745,-1.5696784649273359,6.010216063909217e-05,-1.6552002906969414,-1.2989229995403044,-6.190196259219474e-07,-0.012622901909325314,-0.10302449496063461,0.12730569142948553,0.04805873508010821,-0.022156464133347653,0.00025296257652572784,0.0,-1.5707963267948966,8.881784197001252e-16,-1.655141228937726,-1.494330283567419,0.0
21.703,1000.0,0.0,0.0,-1.5707963267948966,8.881784197001252e-16,-1.655141228937726,-1.3370628689771529,0.0,0.0,0.0,0.0,0.0,-0.8353091991762935,0.0,5.7718811077302094e-05,-1.569901770984739,0.0001575084072065904,-1.6552093454446477,-1.3683209828061342,-5.175590504753776e-07,0.24645948005175214,-0.016061711787782033,-0.04578321789263602,-0.04612170566718509,0.0941951838406404,-0.0002725414918756639,0.0,-1.5707963267948966,8.881784197001252e-16,-1.655141228937726,-1.2820173912927808,0.0
21.803,1000.0,0.0,0.0,-1.5707963267948966,8.881784197001252e-16,-1.655141228937726,-1.2932070196357301,0.0,0.0,0.0,0.0,0.0,0.8202502377908225,0.0,0.0001897940339372971,-1.5707176303846848,0.0002625085233590792,-1.655082046344542,-1.4636843872260732,2.8862138731864596e-07,0.07867954075081152,-0.08851097442186733,-0.061811814936738596,-0.01999000131191961,-2.582653464010034,2.0733860473909326e-06,0.0,-1.5707963267948966,8.881784197001252e-16,-1.655141228937726,-1.2420583704745094,0.0
21.903,1000.0,0.0,0.0,-1.5707963267948966,8.881784197001252e-16,-1.655141228937726,-1.2248680331306305,0.0,0.0,0.0,0.0,0.0,1.0817521089315587,0.0,0.00011135701535555501,-1.571196999380899,-0.00013109570574171503,-1.6551562153809005,-1.3766590738630633,3.296332146734919e-08,-0.016289818817228425,-0.08473124975525874,-0.036875530773998626,-0.002000235926363028,3.064521570591227,-1.894028658975464e-05,0.0,-1.5707963267948966,8.881784197001252e-16,-1.655141228937726,-1.0080507499308227,0.0
22.003,1000.0,0.0,0.0,-1.5707963267948966,8.881784197001252e-16,-1.655141228937726,-1.1405623787564743,0.0,0.0,0.0,0.0,0.0,0.9001699190451384,0.0,0.00012064465962004376,-1.5713960706723824,-0.00023900550906260759,-1.6551717948732776,-1.1732180676630384,-4.0346057559369604e-08,-0.014692731514480913,-0.03684492938859794,-0.011510990542325199,0.0019249507810377123,3.14159345253812,3.1661585498789313e-07,0.0,-1.5707963267948966,8.881784197001252e-16,-1.655141228937726,-1.0606400394290696,0.0
22.103,1000.0,0.0,0.0,-1.5707963267948966,8.881784197001252e-16,-1.655141228937726,-1.0353557229973225,0.0,0.0,0.0,0.0,0.0,0.8107482028741316,0.0,-0.00014711126961614013,-1.570706045633943,-4.6780987092077336e-05,-1.6551490248459573,-1.0401644756528348,-2.262442493779351e-07,-0.06289618339240241,0.022736850158659984,0.03229256759429772,0.014060445056831062,2.7854401315302266,0.0001003227525596159,0.0,-1.5707963267948966,8.881784197001252e-16,-1.655141228937726,-0.9819589184551182,0.0
22.203,1000.0,0.0,0.0,-1.5707963267948966,8.881784197001252e-16,-1.655141228937726,-0.9569265338872031,0.0,0.0,0.0,0.0,0.0,0.8417308692960673,0.0,-0.00015812683144263262,-1.570104171227585,0.0002823631500030212,-1.6551028190010446,-0.8946550129082216,1.4419746672074428e-07,-0.06674258695480385,0.040886846425714024,0.05310465552580577,0.01824341912585618,2.5481231836321756,0.00020665759453101473,0.0,-1.5707963267948966,8.881784197001252e-16,-1.655141228937726,-0.6820491990660716,0.0
22.305,1000.0,0.0,0.0,-1.5707963267948966,8.881784197001252e-16,-1.655141228937726,-0.8764991177489083,0.0,0.0,0.0,0.0,0.0,0.6444652759783399,0.0,4.727636366300785e-05,-1.5709310827460545,-5.313251007120224e-05,-1.6551492911620664,-0.7522928739398641,-1.554029612523471e-08,-0.018577797726067043,0.020362340360637107,0.011277808942645445,0.003157370187363912,3.1415945178025564,2.057394549534827e-05,0.0,-1.5707963267948966,8.881784197001252e-16,-1.655141228937726,-0.6311732069834233,0.0
22.402,1000.0,0.0,0.0,-1.5707963267948966,8.881784197001252e-16,-1.655141228937726,-0.8051499205274979,0.0,0.0,0.0,0.0,0.0,0.8185610948204747,0.0,0.00020731923986897662,-1.571399399623745,-0.00022157084150538936,-1.6551732596118771,-0.8302142376954652,-1.0714425663914962e-07,-0.018156483561021907,0.0477551596829744,-0.04568279175240481,-0.014537073909954986,-2.139538745505292,-0.0003282558329190608,0.0,-1.5707963267948966,8.881784197001252e-16,-1.655141228937726,-0.6069927259519631,0.0
22.503,1000.0,0.0,0.0,-1.5707963267948966,8.881784197001252e-16,-1.655141228937726,-0.7181881386594409,0.0,0.0,0.0,0.0,0.0,0.6662384966713314,0.0,-2.3697923748565996e-05,-1.570524551205654,0.000143831699866039,-1.6551211948125661,-0.712959915431184,2.2489332009043474e-07,-0.0062413021472229385,0.007989831249684836,0.018271438493356256,0.004845307953762979,2.9485507588143096,8.96791782913904e-05,0.0,-1.5707963267948966,8.881784197001252e-16,-1.655141228937726,-0.43099573232697713,0.0
22.603,1000.0,0.0,0.0,-1.5707963267948966,8.881784197001252e-16,-1.655141228937726,-0.6427299460540521,0.0,0.0,0.0,0.0,0.0,0.712093185446369,0.0,-0.00012012045543562902,-1.5705140317193482,0.00012268977845824593,-1.6551266542928007,-0.5419587413113597,1.0624031739915037e-06,-0.013732142833154243,0.02126670617434138,0.037995435785458186,-0.00200557343173917,2.337882328220851,0.0017976720967664533,0.0,-1.5707963267948966,8.881784197001252e-16,-1.655141228937726,-0.5704204026730018,0.0
22.703,1000.0,0.0,0.0,-1.5707963267948966,8.881784197001252e-16,-1.655141228937726,-0.5576244729672739,0.0,0.0,0.0,0.0,0.0,0.6350514623036693,0.0,0.0001648524185109648,-1.5712558552409899,-0.00018590380967161923,-1.655167666973588,-0.49329832740078605,-2.9822994628385345e-07,0.046658844453108056,-0.038008784880422204,-0.08345417246640327,-0.020304893063091654,-2.144896359828259,-0.0005640777396575671,0.0,-1.5707963267948966,8.881784197001252e-16,-1.655141228937726,-0.3936475416347275,0.0
22.803,1000.0,0.0,0.0,-1.5707963267948966,8.881784197001252e-16,-1.655141228937726,-0.47555630588386233,0.0,0.0,0.0,0.0,0.0,0.6657961925683393,0.0,0.00014140018372648907,-1.5713968696207095,-0.0002610443699267673,-1.6551789854082208,-0.41722949178895763,-2.0049812932964496e-07,-0.02857972988294216,0.013510364972485991,0.026753061449473002,0.009051323047555137,3.1415231450853423,0.000138356046259278,0.0,-1.5707963267948966,8.881784197001252e-16,-1.655141228937726,-0.4145694188493496,0.0
22.903,1000.0,0.0,0.0,-1.5707963267948966,8.881784197001252e-16,-1.655141228937726,-0.42098472478255466,0.0,0.0,0.0,0.0,0.0,0.762641561998235,0.0,0.0003361092648079267,-1.5723713202635694,-0.0006408206665942273,-1.6552277212561692,-0.33524504302676345,-2.8158874517452306e-07,-0.07491208326997412,-0.025734142258192493,0.09799739557370335,0.03879616926265015,-0.029421513491624172,0.0007317987617208763,0.0,-1.5707963267948966,8.881784197001252e-16,-1.655141228937726,-0.2391541195757499,0.0
23.003,1000.0,0.0,0.0,-1.5707963267948966,8.881784197001252e-16,-1.655141228937726,-0.3461801197871832,0.0,0.0,0.0,0.0,0.0,0.7217270101060144,0.0,0.00035307092218618183,-1.5727380375456734,-0.0007688607834710996,-1.65523424600084,-0.36787705546912697,-1.888202936945678e-07,0.06182216381428708,0.11750254552263342,-0.08730347221649017,-0.04169524065222917,0.032206655682007444,-0.0008808897496097527,0.0,-1.5707963267948966,8.881784197001252e-16,-1.655141228937726,-0.06299046578760598,0.0
23.104,1000.0,0.0,0.0,-1.5707963267948966,8.881784197001252e-16,-1.655141228937726,-0.2533103620622317,0.0,0.0,0.0,0.0,0.0,0.9864217199929365,0.0,0.00012929708859986936,-1.571806863270527,-0.00030834177929180996,-1.6551576801195,-0.2574777098507097,5.460753811521551e-07,0.02525720755766213,0.2253703567878486,-0.019902813995138536,-0.028861471520326525,0.023219858114832487,-0.000744607292199964,0.0,-1.5707963267948966,8.881784197001252e-16,-1.655141228937726,-0.06319426459873817,0.0
23.203,1000.0,0.0,0.0,-1.5707963267948966,8.881784197001252e-16,-1.655141228937726,-0.17299813759880056,0.0,0.0,0.0,0.0,0.0,1.012509437123996,0.0,-0.00011175735101526913,-1.570139058637865,0.0002589922534637527,-1.6551153358581678,-0.09991129293584561,2.3700769771876194e-07,-0.027080665633660978,0.14523622241677103,0.05977274068098421,0.006294953920066376,2.9920068899016776,7.511430087562526e-05,0.0,-1.5707963267948966,8.881784197001252e-16,-1.655141228937726,0.03254407202968801,0.0
23.302,1000.0,0.0,0.0,-1.5707963267948966,8.881784197001252e-16,-1.655141228937726,-0.09142083288205338,0.0,0.0,0.0,0.0,0.0,0.5966191822531701,0.0,-0.0003578173436397188,-1.5689223934938623,0.0007595421903619118,-1.6550628715846933,-0.0038115145916754545,9.63308062155353e-07,-0.01766007865620954,0.017913961131878157,0.02893878849631749,0.00602220409240158,1.2169434443366132,0.00022001206978263955,0.0,-1.5707963267948966,8.881784197001252e-16,-1.655141228937726,0.17552745509565237,0.0
23.403,1000.0,0.0,0.0,-1.5707963267948966,8.881784197001252e-16,-1.655141228937726,-0.009839454031727257,0.0,0.0,0.0,0.0,0.0,0.5307747392328591,0.0,-0.0001530630542937666,-1.5699949816228917,0.0003307198420946158,-1.6551062811104615,0.06720226520370834,4.667561089321187e-07,0.04432004806142206,-0.25864598868665706,-0.09088140417387641,-0.0076610593317767,-0.16601981452461523,-6.739639717173483e-06,0.0,-1.5707963267948966,8.881784197001252e-16,-1.655141228937726,0.20299979233440602,0.0
23.504,1000.0,0.0,0.0,-1.5707963267948966,8.881784197001252e-16,-1.655141228937726,0.08255622209427481,0.0,0.0,0.0,0.0,0.0,1.0451723397089652,0.0,-0.00014477403041947628,-1.5703114983184476,0.0002265289472049963,-1.6551121400648598,0.14141455296299368,6.222445221565819e-07,-0.025197357173351802,0.011714089864957367,0.05452648810347465,0.01199330357990076,1.6361905136779014,0.0004746003058966304,0.0,-1.5707963267948966,8.881784197001252e-16,-1.655141228937726,0.18383422717815906,0.0
23.604,1000.0,0.0,0.0,-1.5707963267948966,8.881784197001252e-16,-1.655141228937726,0.15769553571046488,0.0,0.0,0.0,0.0,0.0,0.8308440670669296,0.0,8.447891901305144e-05,-1.5714045927878706,-0.00023894302620597755,-1.655165802760825,0.2283652978154813,8.028730460596283e-08,0.0019225769526344215,-0.01834927977918683,0.0056799795699479915,-0.0027865380092866386,3.141593985170338,0.0006196202528452315,0.0,-1.5707963267948966,8.881784197001252e-16,-1.655141228937726,0.21081411796337668,0.0
23.703,1000.0,0.0,0.0,-1.5707963267948966,8.881784197001252e-16,-1.655141228937726,0.2271728862566922,0.0,0.0,0.0,0.0,0.0,0.892469433239831,0.0,0.00020894171354675587,-1.5716827599637295,-0.00038934885235520863,-1.6551873743656544,0.26448556858790107,-7.738794097868712e-07,0.04617311715979123,-0.05392527948738926,-0.06170536755573029,-0.012930418992931904,-1.7677386873029104,-0.0004344869296166716,0.0,-1.5707963267948966,8.881784197001252e-16,-1.655141228937726,0.39520366954972186,0.0
23.803,1000.0,0.0,0.0,-1.5707963267948966,8.881784197001252e-16,-1.655141228937726,0.2945329123602182,0.0,0.0,0.0,0.0,0.0,0.45910897328314676,0.0,-0.00023073579570696357,-1.569819079832892,0.0003905147655550939,-1.655097892153028,0.36503762640439813,5.347584653127408e-07,-0.035628701169461575,0.12656407596730412,0.08733448139843278,0.013827099090177779,2.7214811221586652,0.000380693773868195,0.0,-1.5707963267948966,8.881784197001252e-16,-1.655141228937726,0.4322518912972229,0.0
23.905,1000.0,0.0,0.0,-1.5707963267948966,8.881784197001252e-16,-1.655141228937726,0.3589355948282692,0.0,0.0,0.0,0.0,0.0,0.61595415715559,0.0,1.4374668603915759e-05,-1.5708726263601274,-5.5666389839687575e-05,-1.6551503564265024,0.42940636310966784,-2.205871248471023e-07,-0.008157158389182625,0.06196270797962681,0.00719546179123059,-0.0016018521244595561,-2.26699750211843,-0.00011792166518052249,0.0,-1.5707963267948966,8.881784197001252e-16,-1.655141228937726,0.5030384961415391,0.0
24.003,1000.0,0.0,0.0,-1.5707963267948966,8.881784197001252e-16,-1.655141228937726,0.4135269357297007,0.0,0.0,0.0,0.0,0.0,0.7826341382614506,0.0,4.8220144943540395e-05,-1.5713598516815575,-0.00014498352028842734,-1.6551399700982512,0.5054983016439527,4.65959758300601e-07,0.041975401037716305,0.15430987856678,-0.07525990043071687,-0.03794745311275552,0.030673948218018,-0.0008843831329644614,0.0,-1.5707963267948966,8.881784197001252e-16,-1.655141228937726,0.6327879792149584,0.0
24.104,1000.0,0.0,0.0,-1.5707963267948966,8.881784197001252e-16,-1.655141228937726,0.4944550859754815,0.0,0.0,0.0,0.0,0.0,1.173158078757854,0.0,-0.0003726293891922988,-1.5690399720559893,0.0006871137664432077,-1.6550663336941105,0.560555328887274,6.339862810892416e-07,-0.022684204873455082,0.08021610979838158,0.06486822089009246,0.011633921434064876,2.0388582068109558,0.0002916083696432111,0.0,-1.5707963267948966,8.881784197001252e-16,-1.655141228937726,0.7356498507549367,0.0
