7cmdehdrb/project_th/tune/rtde_tune/data/rtde_log_wrist1.csv
Time,Stiffness,Damping,R_shoulder_pan_p,R_shoulder_lift_p,R_elbow_p,R_wrist_1_p,R_wrist_2_p,R_wrist_3_p,R_shoulder_pan_v,R_shoulder_lift_v,R_elbow_v,R_wrist_1_v,R_wrist_2_v,R_wrist_3_v,S_shoulder_pan_p,S_shoulder_lift_p,S_elbow_p,S_wrist_1_p,S_wrist_2_p,S_wrist_3_p,S_shoulder_pan_v,S_shoulder_lift_v,S_elbow_v,S_wrist_1_v,S_wrist_2_v,S_wrist_3_v,C_shoulder_pan_p,C_shoulder_lift_p,C_elbow_p,C_wrist_1_p,C_wrist_2_p,C_wrist_3_p
5.402,600.0,40.0,0.0,-1.5707963267948966,0.0,0.3067272184306216,0.0,0.0,0.0,0.0,0.0,0.06033955660870869,0.0,0.0,0.00018444373615528398,-1.5703016446224143,0.0005281795830219181,0.3100044344528331,-3.68146748123099e-05,1.62025270828281e-08,-0.001369725516279988,-0.002942377665840209,-0.003389221246795928,-0.025866915402695152,0.00023438810072901663,-1.883255111801282e-07,0.0,-1.5707963267948966,0.0,0.5007051573921046,0.0,0.0
5.503,600.0,40.0,0.0,-1.5707963267948966,0.0,0.33422240991696095,0.0,0.0,0.0,0.0,0.0,0.40120788356959314,0.0,0.0,1.600522084042161e-05,-1.570302576728796,0.0003273594542479578,0.3758499938510926,-7.78621567951714e-05,-1.2905266445036848e-06,0.000712445915978123,-0.007338999932202056,-0.003005193677680827,3.081090693629264,0.0019794039729142637,4.336573169012419e-05,0.0,-1.5707963267948966,0.0,0.49641633087671744,0.0,0.0
5.602,600.0,40.0,0.0,-1.5707963267948966,0.0,0.3996451047269464,0.0,0.0,0.0,0.0,0.0,0.8868006668759804,0.0,0.0,0.0002443147638651746,-1.57060750867361,0.0002931919622093725,0.4396430217077144,-3.098780505217684e-06,1.0056248089446964e-06,-0.004025888136305175,-0.0031016014095133215,-0.004893917925738031,-1.0530754140385117,-0.0002563331560350047,-2.4042319046393472e-05,0.0,-1.5707963267948966,0.0,0.6683684894783468,0.0,0.0
5.703,600.0,40.0,0.0,-1.5707963267948966,0.0,0.4789203407285221,0.0,0.0,0.0,0.0,0.0,0.7872843065583122,0.0,0.0,0.00020516657216998032,-1.5706068428833375,0.00021674604015209432,0.4704536649910591,-1.317895759140341e-05,6.68249295582911e-07,-0.003595050309545427,-0.0025287005833546593,-0.003461188753991791,-0.6248757292187587,2.201762823370373e-05,-1.5819882326677787e-05,0.0,-1.5707963267948966,0.0,0.6071160973281005,0.0,0.0
5.802,600.0,40.0,0.0,-1.5707963267948966,0.0,0.5513735076634314,0.0,0.0,0.0,0.0,0.0,0.5509781511478926,0.0,0.0,0.00016935897016343794,-1.5705852712785078,0.0001673921743337352,0.5017315931771719,-2.2338755006748197e-05,3.5655786793940523e-07,-0.003044912748774487,-0.00250770842412157,-0.0024796063529860797,-0.14191670863128494,0.0003007565815601004,-6.546817971088076e-06,0.0,-1.5707963267948966,0.0,0.7709159020860797,0.0,0.0
5.902,600.0,40.0,0.0,-1.5707963267948966,0.0,0.6128767590488009,0.0,0.0,0.0,0.0,0.0,0.9305766326795292,0.0,0.0,4.341263446921002e-05,-1.5704602358653286,0.0001339100837972545,0.5594529799330629,-4.684069040435676e-05,-4.411173266882123e-07,0.0008579619872113396,-0.006197491066696533,-0.0016289624021558846,1.681303264121353,0.0011698863553514028,2.1211747300448764e-05,0.0,-1.5707963267948966,0.0,0.7549543568505368,0.0,0.0
6.002,600.0,40.0,0.0,-1.5707963267948966,0.0,0.7032547668173881,0.0,0.0,0.0,0.0,0.0,0.953806752416385,0.0,0.0,0.00021068105812442321,-1.5706166965793706,9.959081400794522e-05,0.6304781546249312,-1.6955988570697995e-05,4.93309405459692e-07,-0.0016319756232876872,-0.004870765069011154,-0.0017483834608397841,0.28199090926239856,0.00031059457560600945,-4.9733784627629485e-06,0.0,-1.5707963267948966,0.0,0.9589881984768459,0.0,0.0
6.102,600.0,40.0,0.0,-1.5707963267948966,0.0,0.779317722079724,0.0,0.0,0.0,0.0,0.0,0.8814794743469104,0.0,0.0,0.0001393071055572549,-1.5705313422664338,7.056816916178528e-05,0.70361648106275,-2.9570080982405707e-05,3.737068362310229e-08,-0.00045110805217536405,-0.005535341834729567,-0.0012287208893474873,1.2354321738883793,0.0007781917301107347,9.792227060165307e-06,0.0,-1.5707963267948966,0.0,0.9577136597667985,0.0,0.0
6.202,600.0,40.0,0.0,-1.5707963267948966,0.0,0.850493269964854,0.0,0.0,0.0,0.0,0.0,0.8251213867471624,0.0,0.0,0.00026318162822199534,-1.5706427955580535,-4.962060340524076e-07,0.7945152290732256,-1.3793034725736458e-05,5.077621027106396e-07,-0.001491076976642707,-0.0054670468370798956,-0.0005771417281425855,0.6125087414857305,0.00034177810487437757,-2.2879431750327016e-06,0.0,-1.5707963267948966,0.0,1.1084813163141698,0.0,0.0
6.302,600.0,40.0,0.0,-1.5707963267948966,0.0,0.9198054793669648,0.0,0.0,0.0,0.0,0.0,0.5129637489963145,0.0,0.0,0.0001840202701352721,-1.5705539791356993,-1.9843545039491492e-05,0.8422633771523925,-2.480379228862002e-05,6.880409612550694e-08,-0.001947683877803711,-0.004127338189154706,1.7022510706691337e-05,0.8983331712687572,0.0006208018355232102,7.185819064238972e-06,0.0,-1.5707963267948966,0.0,1.1158059403730656,0.0,0.0
6.402,600.0,40.0,0.0,-1.5707963267948966,0.0,0.9862855553659219,0.0,0.0,0.0,0.0,0.0,0.7447601120902195,0.0,0.0,0.0003242923652215476,-1.5706878029804758,-0.00010375154808112494,0.9190018313308077,-9.516854065965253e-06,5.513217584149852e-07,-0.001537822865891866,-0.00612451681178781,0.0006193448991534228,0.2729223630527312,0.00015901587926869391,-6.543492372246076e-06,0.0,-1.5707963267948966,0.0,1.1374084301707295,0.0,0.0
6.502,600.0,40.0,0.0,-1.5707963267948966,0.0,1.066980576282081,0.0,0.0,0.0,0.0,0.0,0.8779662976417678,0.0,0.0,0.0003794008468697387,-1.5707400009378414,-0.00016809302587622143,1.0093387189303038,-6.011699300295141e-06,6.169500793995674e-07,-0.0028435697080604156,-0.004509990485238133,0.0015807161441246294,0.32297789054509957,0.00012839026631914497,-6.589568196250994e-06,0.0,-1.5707963267948966,0.0,1.1776796553079054,0.0,0.0
6.604,600.0,40.0,0.0,-1.5707963267948966,0.0,1.136052002882559,0.0,0.0,0.0,0.0,0.0,0.7108107812978735,0.0,0.0,5.100500862683067e-05,-1.5703968526313847,-4.265968678845654e-05,1.0950690702132626,-3.1603874396477555e-05,-4.0882756899178353e-07,0.003313008806464101,-0.009626560641525747,-0.001642637500286549,2.3679824401253624,0.001069149101208672,2.640166049703824e-05,0.0,-1.5707963267948966,0.0,1.261467280923828,0.0,0.0
6.702,600.0,40.0,0.0,-1.5707963267948966,0.0,1.1967798274685784,0.0,0.0,0.0,0.0,0.0,0.5759465332202557,0.0,0.0,0.0003977679784106818,-1.5707679641292873,-0.00023189221619397893,1.1442344860455425,-3.6585015976256282e-06,6.058833962055695e-07,-0.0017892538809711183,-0.00553581985133929,0.0018285858314317138,0.48083936074160927,0.00010805158446474152,-5.338014857681619e-06,0.0,-1.5707963267948966,0.0,1.2884529461962169,0.0,0.0
6.802,600.0,40.0,0.0,-1.5707963267948966,0.0,1.2564886548145604,0.0,0.0,0.0,0.0,0.0,0.7451449167442403,0.0,0.0,0.0003977679784106818,-1.5707679641292873,-0.00023189221619397893,1.1442344860455425,-3.6585015976256282e-06,6.058833962055695e-07,-0.0017892538809711183,-0.00553581985133929,0.0018285858314317138,0.48083936074160927,0.00010805158446474152,-5.338014857681619e-06,0.0,-1.5707963267948966,0.0,1.4901150010366717,0.0,0.0
6.902,600.0,46.66666793823242,0.0,-1.5707963267948966,0.0,1.327326833999412,0.0,0.0,0.0,0.0,0.0,-0.17435837036676108,0.0,0.0,0.0003977679784106818,-1.5707679641292873,-0.00023189221619397893,1.1442344860455425,-3.6585015976256282e-06,6.058833962055695e-07,-0.0017892538809711183,-0.00553581985133929,0.0018285858314317138,0.48083936074160927,0.00010805158446474152,-5.338014857681619e-06,0.0,-1.5707963267948966,0.0,1.129136035756793,0.0,0.0
7.002,600.0,46.66666793823242,0.0,-1.5707963267948966,0.0,1.2672025751197635,0.0,0.0,0.0,0.0,0.0,-0.48009815953432733,0.0,0.0,0.00024337309975219564,-1.5706192265824064,-0.00015393656267889704,1.1683411539168307,-1.5057329166452452e-05,1.331470381720716e-07,-0.0019419224512774878,-0.003875174024552706,0.0010084514597654142,1.287583525934856,0.0005517604245602069,9.229091984281407e-06,0.0,-1.5707963267948966,0.0,1.0747835602898446,0.0,0.0
7.102,600.0,46.66666793823242,0.0,-1.5707963267948966,0.0,1.2024088769151735,0.0,0.0,0.0,0.0,0.0,-0.8719779307759385,0.0,0.0,0.0004650782046279711,-1.57084106790121,-0.00028810393312968133,1.1759753714976517,1.9026204581282267e-06,6.055714467036842e-07,-0.007415116925256533,0.0020931277133931026,0.004402838302808525,-0.4139025377971762,-9.84266481824324e-05,-1.0286631400122305e-05,0.0,-1.5707963267948966,0.0,0.9285857816365983,0.0,0.0
7.202,600.0,46.66666793823242,0.0,-1.5707963267948966,0.0,1.1160006340791115,0.0,0.0,0.0,0.0,0.0,-1.1994811151937506,0.0,0.0,0.0003886728866747152,-1.5707543820077279,-0.000255358462482725,1.1441468680456788,-3.903026576723301e-06,3.911027671905793e-07,-0.007192263917327893,0.0017663720216911036,0.0043374621193106085,-0.6833384401535869,-7.718333842442345e-05,-9.63912557176267e-06,0.0,-1.5707963267948966,0.0,1.0268438078295459,0.0,0.0
7.302,600.0,46.66666793823242,0.0,-1.5707963267948966,0.0,1.041639529215594,0.0,0.0,0.0,0.0,0.0,-0.8360051200608337,0.0,0.0,0.00020776640516187263,-1.5705494517618463,-0.0001677426895055276,1.1005556481120167,-1.9566112784911803e-05,-8.4028992208302e-08,-0.004116035098907056,-0.0014255398071374894,0.002655716722594626,-0.13299660868525426,0.00024446617588637874,4.1147304426581243e-07,0.0,-1.5707963267948966,0.0,0.8825309484531252,0.0,0.0
7.402,600.0,46.66666793823242,0.0,-1.5707963267948966,0.0,0.9642723462015867,0.0,0.0,0.0,0.0,0.0,-0.543027832698042,0.0,0.0,0.0004545618717233512,-1.5707806141444651,-0.0002777340545794414,1.0139196223213491,7.794696108951543e-07,5.676701854243373e-07,-0.007597858670009107,0.0007200742860478163,0.004896789146288273,-2.116938894178771,-0.0005094317676874591,-2.0694904438535674e-05,0.0,-1.5707963267948966,0.0,0.672411636185229,0.0,0.0
7.502,600.0,46.66666793823242,0.0,-1.5707963267948966,0.0,0.8816324872585932,0.0,0.0,0.0,0.0,0.0,-0.9910101723577536,0.0,0.0,0.00025693545566288434,-1.5705635665156237,-0.0001748063894512691,0.9756252966378,-1.900982599428647e-05,1.2180536138062945e-08,-0.005105115962857022,-0.001196565429816545,0.0030126663932668863,-0.9087510579789837,4.538155559378904e-05,-6.0407885119775685e-06,0.0,-1.5707963267948966,0.0,0.6292812363557412,0.0,0.0
7.602,600.0,46.66666793823242,0.0,-1.5707963267948966,0.0,0.7964370379928409,0.0,0.0,0.0,0.0,0.0,-0.6034054938422233,0.0,0.0,0.0003277318806816486,-1.5706190934243518,-0.00017164547861204185,0.8371411862697886,-1.3162657229888243e-05,2.4438330652977554e-07,-0.007653635250089454,0.0011140027546862347,0.00333610132594753,-2.090493970870393,-0.0003123006306700508,-1.6858590735909452e-05,0.0,-1.5707963267948966,0.0,0.5314954578784374,0.0,0.0
7.702,600.0,46.66666793823242,0.0,-1.5707963267948966,0.0,0.7251258752356682,0.0,0.0,0.0,0.0,0.0,-0.5146205076128888,0.0,0.0,0.00015026746660822305,-1.5704304084611198,-8.750935381425336e-05,0.7727223821360254,-3.577613301319282e-05,-3.172528021542199e-07,-0.004399679440054608,-0.001726622651938557,0.0016702276151128771,-0.7845031415341,0.00029676005191399575,-9.386851317495628e-07,0.0,-1.5707963267948966,0.0,0.5929648946034404,0.0,0.0
7.802,600.0,46.66666793823242,0.0,-1.5707963267948966,0.0,0.6615828969435587,0.0,0.0,0.0,0.0,0.0,-0.5234535732065879,0.0,0.0,0.00016887362270867306,-1.570457173230075,-5.491807066919044e-05,0.6962945856987679,-3.359451579087236e-05,-2.047146224238244e-07,-0.004277646064811207,-0.001976519098461949,0.0010502204366903249,-1.0379295508660402,0.00019475087177456868,-4.142484678098513e-06,0.0,-1.5707963267948966,0.0,0.5204269189828086,0.0,0.0
7.902,600.0,46.66666793823242,0.0,-1.5707963267948966,0.0,0.5830848303471114,0.0,0.0,0.0,0.0,0.0,-0.9669455513503732,0.0,0.0,0.00017262254534253907,-1.5704787448349047,-9.062233986356994e-06,0.6539545188452249,-3.2418530806377456e-05,-1.1878266206037151e-07,-0.0030804885757933376,-0.003308578440334267,0.0001770133314110062,-0.7567160516153494,0.0002324407292004775,-3.385926434252173e-06,0.0,-1.5707963267948966,0.0,0.30761808345668773,0.0,0.0
8.002,600.0,46.66666793823242,0.0,-1.5707963267948966,0.0,0.49802322874909954,0.0,0.0,0.0,0.0,0.0,-0.7124060744551595,0.0,0.0,0.00016630834709274213,-1.5704836716829214,1.8142526883670272e-05,0.6123630665741031,-3.382789592479011e-05,-1.2000735593092988e-07,-0.0035345518200166934,-0.0023797383322567587,-0.00011188829843800887,-0.6766597647718862,0.000279580029630442,-2.616531084260264e-06,0.0,-1.5707963267948966,0.0,0.26298037820304215,0.0,0.0
8.102,600.0,46.66666793823242,0.0,-1.5707963267948966,0.0,0.41121770424541904,0.0,0.0,0.0,0.0,0.0,-0.8025206785973666,0.0,0.0,0.00019030454358302538,-1.5705117680324217,5.011882568200793e-05,0.5036462728428843,-2.8202571575705418e-05,7.567796975152185e-08,-0.005082847358835836,-0.000665295546134692,-0.000718624111610484,-1.6423743737290653,-2.6965899872888922e-05,-1.145581381554861e-05,0.0,-1.5707963267948966,0.0,0.2697267866241126,0.0,0.0
8.202,600.0,46.66666793823242,0.0,-1.5707963267948966,0.0,0.3358923012497499,0.0,0.0,0.0,0.0,0.0,-0.6684827269302246,0.0,0.0,8.853604597692838e-05,-1.5704390637346624,0.00010672346615915616,0.39543777669522073,-4.650842107194188e-05,-3.378228335817696e-07,-0.002502404728407704,-0.002953508326810249,-0.0015482756431332643,-0.8183471918780721,0.0004040817702943456,-1.1313976034419828e-06,0.0,-1.5707963267948966,0.0,0.18373779546823393,0.0,0.0
8.304,600.0,46.66666793823242,0.0,-1.5707963267948966,0.0,0.2642530775305749,0.0,0.0,0.0,0.0,0.0,-0.9075348041002119,0.0,0.0,7.901067752455873e-05,-1.5704655621875088,0.00018709126027656038,0.29720631422883464,-4.27440118247423e-05,-1.949080552107786e-07,-0.0019543194141369417,-0.003359463542506195,-0.0028821166241703856,-1.0073547304972221,0.00030149564777374614,-3.769770740368555e-06,0.0,-1.5707963267948966,0.0,0.025351509475563194,0.0,0.0
8.402,600.0,46.66666793823242,0.0,-1.5707963267948966,0.0,0.1789705691842629,0.0,0.0,0.0,0.0,0.0,-1.139213530905142,0.0,0.0,0.00010663938900621162,-1.5705015148622248,0.0002784617750506502,0.2264184604796061,-2.4062326482958118e-05,3.0347638704139194e-07,-0.002758314223366953,-0.002758778976186091,-0.004793967721521946,-2.0685933324880716,-0.00020531821175621902,-1.6649859755712017e-05,0.0,-1.5707963267948966,0.0,0.029140260796658213,0.0,0.0
8.502,600.0,46.66666793823242,0.0,-1.5707963267948966,0.0,0.09218836925262419,0.0,0.0,0.0,0.0,0.0,-0.8267648515723373,0.0,0.0,3.0379050298272456e-05,-1.5704855358956844,0.00024229080044786317,0.1630181490152301,-5.602834421812759e-05,-4.746189761346382e-07,-0.0007323659838241441,-0.0036374975603104672,-0.0033179114675685037,-0.31812224879809897,0.0006424259103479618,4.211607557343886e-06,0.0,-1.5707963267948966,0.0,0.04551678906667127,0.0,0.0
8.602,600.0,46.66666793823242,0.0,-1.5707963267948966,0.0,0.007546514464777054,0.0,0.0,0.0,0.0,0.0,-1.0162104343339662,0.0,0.0,3.8845306697866e-05,-1.570477812728523,0.0003849974512923644,0.061132883628714926,-2.7829125163020496e-05,2.5506276724519654e-07,-0.001506650487310191,-0.0036065216678814833,-0.0067197093885826,-2.132459397537589,-0.00017355814647281172,-1.658997256275735e-05,0.0,-1.5707963267948966,0.0,-0.14551386135705896,0.0,0.0
8.702,600.0,46.66666793823242,0.0,-1.5707963267948966,0.0,-0.07931913149132797,0.0,0.0,0.0,0.0,0.0,-0.707079792123862,0.0,0.0,-1.4538375740435418e-06,-1.57046795903249,0.0004323507116187444,-0.046097774668077206,-3.258596584421092e-05,1.3718806363985977e-07,-0.0006558259798797238,-0.0042033358080939155,-0.007673258898223325,-2.1362864931820873,-0.00011359950622461832,-1.5574287842713484e-05,0.0,-1.5707963267948966,0.0,-0.3424089666253923,0.0,0.0
8.805,600.0,46.66666793823242,0.0,-1.5707963267948966,0.0,-0.16287247200530786,0.0,0.0,0.0,0.0,0.0,-1.0323859870477727,0.0,0.0,-2.0721464528997036e-05,-1.5704933922209001,0.00048021885409044515,-0.09997633232309239,-3.4323280623043286e-05,1.0250449194575514e-07,-0.0012465371509583598,-0.0021842409821502757,-0.007668405911315036,-1.662923457858171,3.440365984417635e-05,-1.1728575907343304e-05,0.0,-1.5707963267948966,0.0,-0.4290798947580194,0.0,0.0
8.902,600.0,46.66666793823242,0.0,-1.5707963267948966,0.0,-0.245599311548359,0.0,0.0,0.0,0.0,0.0,-0.7895929225520932,0.0,0.0,-1.3916790483835131e-05,-1.5705975218195223,0.00039726964349430207,-0.13756372189528,-5.928213816440429e-05,-5.316873215142585e-07,0.0006901682743741362,-0.0034663496689011203,-0.005279257049675131,-0.008253716704049412,0.000756456733586284,6.836048050427855e-06,0.0,-1.5707963267948966,0.0,-0.5130959552530906,0.0,0.0
9.002,600.0,46.66666793823242,0.0,-1.5707963267948966,0.0,-0.318672440342036,0.0,0.0,0.0,0.0,0.0,-0.5064272047369185,0.0,0.0,-6.204903233728757e-05,-1.5705138985612936,0.0005508498393290896,-0.21806736986760605,-3.683079129314983e-05,2.9148519708400822e-08,0.0008780763305782874,-0.004415596508905686,-0.00888193767984769,-1.3797494059919913,0.0001288585057597051,-9.131260353645748e-06,0.0,-1.5707963267948966,0.0,-0.5400758780399013,0.0,0.0
9.102,600.0,46.66666793823242,0.0,-1.5707963267948966,0.0,-0.3938385875564272,0.0,0.0,0.0,0.0,0.0,-0.7623658548325448,0.0,0.0,-5.769840337009632e-05,-1.5705835402237993,0.000534171825511759,-0.28054737608303476,-4.5697805973235945e-05,-2.111515254673082e-07,0.0005998049949522672,-0.0028751487128495456,-0.007944943461452091,-0.8231465410575312,0.0003831495256839248,-2.3973763047903814e-06,0.0,-1.5707963267948966,0.0,-0.44190404200785366,0.0,0.0
9.202,600.0,46.66666793823242,0.0,-1.5707963267948966,0.0,-0.47186543590900243,0.0,0.0,0.0,0.0,0.0,-0.7911447256650284,0.0,0.0,-0.00011553334576092424,-1.5705107027679857,0.000656456400044016,-0.3703564917335044,-3.2267449973571805e-05,1.2133536362873338e-07,0.0011083333944711335,-0.0037275594786080075,-0.01076123059257573,-1.7197593102620972,-1.0194423876769162e-05,-1.1704692753783935e-05,0.0,-1.5707963267948966,0.0,-0.5596050902552892,0.0,0.0
9.302,600.0,46.66666793823242,0.0,-1.5707963267948966,0.0,-0.5519362601740454,0.0,0.0,0.0,0.0,0.0,-0.7741909801420138,0.0,0.0,-7.559270759683627e-05,-1.5706554455732313,0.0005624557861284384,-0.44787398710979504,-4.9427523743650235e-05,-3.3726169909715485e-07,0.0017318634096657238,-0.003386548462955816,-0.008713708602590096,-0.7566109233313185,0.00044731073946236496,-3.977920616995617e-07,0.0,-1.5707963267948966,0.0,-0.6676860662538583,0.0,0.0
9.402,600.0,46.66666793823242,0.0,-1.5707963267948966,0.0,-0.6134296178655063,0.0,0.0,0.0,0.0,0.0,-0.6174897665727196,0.0,0.0,-0.00023872927761995128,-1.5703923252575316,0.0008769749808296337,-0.5484540580520084,-1.4017637351178612e-05,5.631719663094239e-07,0.0005478603499794618,-0.0018743469492484915,-0.014559606749490576,-2.8202489785581073,-0.0005117535487164186,-2.3460225974483736e-05,0.0,-1.5707963267948966,0.0,-0.8777740265095084,0.0,0.0
9.502,600.0,46.66666793823242,0.0,-1.5707963267948966,0.0,-0.6899539403698753,0.0,0.0,0.0,0.0,0.0,-0.9760165702118926,0.0,0.0,-0.00013402615009219904,-1.5706549129410134,0.0006560845587775569,-0.6108078470765241,-4.237776215627511e-05,-2.1212666132372595e-07,0.0033687224485577484,-0.004843249725553322,-0.011007722796219376,-1.0448116251759958,0.0002903734392192751,-3.7907260259387245e-06,0.0,-1.5707963267948966,0.0,-0.9750259058240653,0.0,0.0
9.602,600.0,46.66666793823242,0.0,-1.5707963267948966,0.0,-0.7847930050154162,0.0,0.0,0.0,0.0,0.0,-0.8718597802491712,0.0,0.0,-0.0002871654549271861,-1.5704618337619827,0.0009131884450753008,-0.7301556136946894,-1.93303635364379e-05,3.309455947362147e-07,0.002965431694323508,-0.0036415261116078627,-0.015364373459317791,-2.3345049073264126,-0.00031885037498525506,-1.9403519599554586e-05,0.0,-1.5707963267948966,0.0,-0.9517971071154805,0.0,0.0
9.702,600.0,46.66666793823242,0.0,-1.5707963267948966,0.0,-0.8764538279050811,0.0,0.0,0.0,0.0,0.0,-0.6406949679960512,0.0,0.0,-0.00013711502034334503,-1.5707746220320125,0.000634483760604911,-0.8155470777289355,-4.352532792524957e-05,-3.694509764176965e-07,0.005295605841906045,-0.006067383684027203,-0.012014549571675248,-0.8909672671677616,0.00035784549668542204,-1.0899317492385882e-06,0.0,-1.5707963267948966,0.0,-1.1535045779351543,0.0,0.0
9.802,600.0,46.66666793823242,0.0,-1.5707963267948966,0.0,-0.93421827489321,0.0,0.0,0.0,0.0,0.0,-0.8458363388832245,0.0,0.0,-0.00037657806516256607,-1.5704379984702264,0.001025180480659775,-0.9028518898483492,-1.3198252871319746e-05,4.185323224400678e-07,0.0038534630198847554,-0.003403138864234844,-0.017286103219837864,-2.57519714559003,-0.0004446995607280357,-2.1032129405944078e-05,0.0,-1.5707963267948966,0.0,-1.0949597357624292,0.0,0.0
9.902,600.0,46.66666793823242,0.0,-1.5707963267948966,0.0,-1.003235018019371,0.0,0.0,0.0,0.0,0.0,-0.6677061099500221,0.0,0.0,-2.1230129272480888e-05,-1.5710483949920726,0.00043595485412669895,-0.9495136013608183,-4.9770106648523955e-05,-6.967335931793504e-07,0.0021323084306335924,0.00035798281592912924,-0.006737740861697579,0.13379545714373717,0.0006796067860648029,9.392306909822312e-06,0.0,-1.5707963267948966,0.0,-1.28582906005314,0.0,0.0
10.002,600.0,46.66666793823242,0.0,-1.5707963267948966,0.0,-1.0729054128083213,0.0,0.0,0.0,0.0,0.0,-0.7630925735480533,0.0,0.0,-0.00025523803181551065,-1.5707186956491208,0.0007957937554962211,-1.01493741591095,-2.4803999535347912e-05,-2.9096862794778262e-08,0.002676235806630171,-0.0001803132194677638,-0.012116779587426062,-1.1951016618143828,4.046705704392826e-05,-6.497543029700093e-06,0.0,-1.5707963267948966,0.0,-1.1237021286301234,0.0,0.0
10.102,600.0,46.66666793823242,0.0,-1.5707963267948966,0.0,-1.144295785827822,0.0,0.0,0.0,0.0,0.0,-0.9550415355410927,0.0,0.0,-0.0002064557280907212,-1.5708202952447072,0.0006981092537827235,-1.0411852652986622,-2.8477132853554545e-05,-1.8666956918762438e-07,0.003136156184731425,-0.0004807744053583695,-0.010435890095314324,-0.5349803604384842,0.0002467429478024329,-9.219280527975821e-07,0.0,-1.5707963267948966,0.0,-1.2475368739945136,0.0,0.0
10.202,600.0,46.66666793823242,0.0,-1.5707963267948966,0.0,-1.223196686565828,0.0,0.0,0.0,0.0,0.0,-0.6731706500223134,0.0,0.0,-0.00021371306962622168,-1.5708188305061077,0.0006825090204783251,-1.1100835063859384,-2.5790428941552435e-05,-1.7086694269083228e-07,0.004253374108262982,-0.001989447523204955,-0.011526725038999984,-0.7370044650700461,0.00017592639953275602,-2.3356901797601163e-06,0.0,-1.5707963267948966,0.0,-1.4694460529250029,0.0,0.0
10.302,600.0,46.66666793823242,0.0,-1.5707963267948966,0.0,-1.2983977499186174,0.0,0.0,0.0,0.0,0.0,-0.6818898480788391,0.0,0.0,-0.00029987421439326773,-1.5706879361385304,0.0007551044771323908,-1.2536593810210996,-1.6808753993342417e-05,1.964706044242094e-08,0.00863067623322847,-0.008245727220779174,-0.017581159622375327,-1.701719989144282,-0.00011537564319197924,-1.1609767656915487e-05,0.0,-1.5707963267948966,0.0,-1.5247366562438884,0.0,0.0
10.402,600.0,53.33333206176758,0.0,-1.5707963267948966,0.0,-1.280230984122368,0.0,0.0,0.0,0.0,0.0,0.7716294731099032,0.0,0.0,-0.0001671339367834539,-1.5708545168647148,0.00047796518002539813,-1.3393142316871547,-2.1946130144410212e-05,-2.6405541166620213e-07,0.009648881260411975,-0.009830589989944842,-0.015800297559655535,-1.1691179980068067,9.555220108509368e-05,-5.3723136831907704e-06,0.0,-1.5707963267948966,0.0,-1.0970387316036496,0.0,0.0
10.502,600.0,53.33333206176758,0.0,-1.5707963267948966,0.0,-1.2000517384775007,0.0,0.0,0.0,0.0,0.0,0.8957871091955305,0.0,0.0,0.0005636109062438277,-1.5717947458875674,-0.0008572248715551328,-1.3358743596651539,-7.109212139919747e-05,-1.6691005088627905e-06,0.015622617901568714,-0.018744848666631467,-0.011659984002342123,3.1280291741580197,0.0009288187169642603,1.533116101709261e-05,0.0,-1.5707963267948966,0.0,-0.964031326667608,0.0,0.0
10.602,600.0,53.33333206176758,0.0,-1.5707963267948966,0.0,-1.116438269345882,0.0,0.0,0.0,0.0,0.0,0.5860037093428723,0.0,0.0,-9.905150113070072e-05,-1.5709374743326707,0.00040026118092924084,-1.223369785205029,-1.356682187449178e-05,-1.069029926212809e-07,-0.007704131281070879,0.013858131158661007,0.004684062392285738,0.7217484801865,0.00024471542461779525,5.781793596815644e-06,0.0,-1.5707963267948966,0.0,-0.9809671239940307,0.0,0.0
10.704,600.0,53.33333206176758,0.0,-1.5707963267948966,0.0,-1.034380437902441,0.0,0.0,0.0,0.0,0.0,0.8019739888530577,0.0,0.0,-1.157271316106605e-05,-1.571100859265547,0.00027438657292117166,-1.1074001052715747,-2.795706547637507e-05,-4.303103368511677e-07,-0.003904098190630163,0.009110678250350277,0.0043028636516058705,2.2819053452684757,0.0007429969119783067,1.581083255289299e-05,0.0,-1.5707963267948966,0.0,-0.8748878315852171,0.0,0.0
10.802,600.0,53.33333206176758,0.0,-1.5707963267948966,0.0,-0.9769614048118349,0.0,0.0,0.0,0.0,0.0,0.5934108970159667,0.0,0.0,-0.0004335195181454976,-1.5705181596190378,0.0009905993078976637,-1.041755448088048,1.665833071173594e-06,4.1975462732222635e-07,0.0017664231262960058,0.0013731501749942618,-0.00823257942334286,0.3067179937991344,3.1760676864437675e-05,-2.4701414944827637e-06,0.0,-1.5707963267948966,0.0,-0.6972741698105953,0.0,0.0
10.903,600.0,53.33333206176758,0.0,-1.5707963267948966,0.0,-0.8949161883501002,0.0,0.0,0.0,0.0,0.0,0.5478270891282077,0.0,0.0,-0.0002748360463737038,-1.5707732904514673,0.0007727090382425479,-0.9790324783574201,-1.9418345867921826e-05,-5.4518842357189105e-08,0.0040260948953937115,-0.001628821311834462,-0.007135002832999287,1.3633969311086322,0.0005009244114171608,6.12682333376847e-06,0.0,-1.5707963267948966,0.0,-0.6100729412369235,0.0,0.0
11.002,600.0,53.33333206176758,0.0,-1.5707963267948966,0.0,-0.8069435732544452,0.0,0.0,0.0,0.0,0.0,0.7827629526166077,0.0,0.0,-0.00027978292011339104,-1.5707660999165243,0.0008499188636115287,-0.9132432115267022,-1.8311313088896387e-05,1.7294127115843118e-08,-0.0010126699953573702,0.005925698312548484,-0.00462065055016608,1.2502188432088264,0.0004547820246396356,6.463169026456313e-06,0.0,-1.5707963267948966,0.0,-0.6856695947922112,0.0,0.0
11.102,600.0,53.33333206176758,0.0,-1.5707963267948966,0.0,-0.7308491393707648,0.0,0.0,0.0,0.0,0.0,0.7006718673226247,0.0,0.0,-0.0001684065454752537,-1.5709362759101801,0.0006874618109089107,-0.8433603997844233,-3.7183610560917085e-05,-3.780924792281176e-07,0.0022041449904067157,0.0012569433748955468,-0.004370818992186826,2.2386177922781094,0.0008908194523645865,1.4157162147073385e-05,0.0,-1.5707963267948966,0.0,-0.46983400367225026,0.0,0.0
11.202,600.0,53.33333206176758,0.0,-1.5707963267948966,0.0,-0.6435288087444553,0.0,0.0,0.0,0.0,0.0,0.7726314171188489,0.0,0.0,-0.0003864619948361641,-1.570542527543012,0.0010887361438812707,-0.7611016787194647,-5.964670547708033e-06,3.8392145218696843e-07,-0.0018708040867534128,0.0068154021760951115,-0.00771794070759051,0.5583747658762307,0.00017987226344938202,-1.0441488263230647e-06,0.0,-1.5707963267948966,0.0,-0.4726054436533395,0.0,0.0
11.303,600.0,53.33333206176758,0.0,-1.5707963267948966,0.0,-0.5716506249964359,0.0,0.0,0.0,0.0,0.0,0.7402167007923219,0.0,0.0,-0.00020334720597337707,-1.5708056478587118,0.0008054747621775794,-0.6402523552996855,-3.5813100140323636e-05,-2.326088002013093e-07,-0.0008290207862655815,0.005391164431066751,-0.003811090410451048,2.4208395298607104,0.0009287127366767401,1.429924908143754e-05,0.0,-1.5707963267948966,0.0,-0.28897799251915873,0.0,0.0
11.402,600.0,53.33333206176758,0.0,-1.5707963267948966,0.0,-0.49853806611444185,0.0,0.0,0.0,0.0,0.0,0.5074662392665839,0.0,0.0,-0.00027005059751674103,-1.5706305450170392,0.0009268760917921561,-0.5545373171929946,-2.6579108396392015e-05,3.079343743217577e-08,0.0016397976186924943,0.0007039961661708572,-0.007318305818145649,1.7332745864781405,0.0006808401235334971,7.68796772677809e-06,0.0,-1.5707963267948966,0.0,-0.3259026332100912,0.0,0.0
11.503,600.0,53.33333206176758,0.0,-1.5707963267948966,0.0,-0.4179511421517006,0.0,0.0,0.0,0.0,0.0,0.8006640922163313,0.0,0.0,-0.0002897924981953528,-1.570522953309,0.0010016719072746022,-0.48924472990557644,-1.6329360818343234e-05,3.106675119774354e-07,-9.746008195281527e-05,0.0025386767743951232,-0.008578549016079372,0.9081190898523079,0.00039052698904837844,1.2708789689562772e-06,0.0,-1.5707963267948966,0.0,-0.13038395280497522,0.0,0.0
11.602,600.0,53.33333206176758,0.0,-1.5707963267948966,0.0,-0.3220159029629981,0.0,0.0,0.0,0.0,0.0,0.8001573126911046,0.0,0.0,-0.00023872488886571348,-1.5705650312542232,0.0009213566644255344,-0.4387006954455035,-2.6082579777474082e-05,1.3893285060295448e-07,0.0016821738691667541,-0.0007294630342062278,-0.008562880578283189,1.0620511990184602,0.0005309105259830035,3.916054166993775e-06,0.0,-1.5707963267948966,0.0,-0.2584596598988192,0.0,0.0
11.702,600.0,53.33333206176758,0.0,-1.5707963267948966,0.0,-0.2553299756683316,0.0,0.0,0.0,0.0,0.0,1.006207242621828,0.0,0.0,-0.00016063007933200262,-1.5706623697920656,0.0007941824650144256,-0.36654504216041023,-4.1360359523403436e-05,-1.6140227860831313e-07,0.0004701724429821765,0.0011742614556871313,-0.006091870201893721,1.8340434089626132,0.0008772543656734832,1.0830303570059955e-05,0.0,-1.5707963267948966,0.0,-0.024279884528348283,0.0,0.0
11.803,600.0,53.33333206176758,0.0,-1.5707963267948966,0.0,-0.18119484894476745,0.0,0.0,0.0,0.0,0.0,0.7990389660708972,0.0,0.0,-0.0001649215982814688,-1.570590331284579,0.0008020633022353097,-0.29209464283253656,-3.71698753856173e-05,-4.447270167288312e-08,0.0015885087511306884,-0.001413593683120775,-0.007033690359467788,1.5757324958753585,0.0007708605599761672,7.8805172075543e-06,0.0,-1.5707963267948966,0.0,-0.08591213454367448,0.0,0.0
11.902,600.0,53.33333206176758,0.0,-1.5707963267948966,0.0,-0.10197068699272993,0.0,0.0,0.0,0.0,0.0,0.6965423337739006,0.0,0.0,-0.00014573518385220015,-1.5705545117679174,0.0007765499459143091,-0.19544256805062196,-3.570017099192687e-05,7.851780431187139e-09,0.0007538109974759935,-0.0007155947008519376,-0.006626175217969274,1.6390877666277985,0.00077406474068125,7.606743264088112e-06,0.0,-1.5707963267948966,0.0,0.1492638540036742,0.0,0.0
12.002,600.0,53.33333206176758,0.0,-1.5707963267948966,0.0,-0.0093548638268528,0.0,0.0,0.0,0.0,0.0,0.6941510118874779,0.0,0.0,-0.0001433929869887121,-1.5704707553516344,0.0008112387244284733,-0.1386402714764309,-2.108039757523723e-05,3.4247410669104377e-07,0.0009901485340735054,-0.002446803958571194,-0.008308729185762313,0.6215315978379462,0.0003805032369156931,-7.314986603315599e-07,0.0,-1.5707963267948966,0.0,0.10974990440691261,0.0,0.0
12.102,600.0,53.33333206176758,0.0,-1.5707963267948966,0.0,0.06507135017197811,0.0,0.0,0.0,0.0,0.0,1.080297928164362,0.0,0.0,-8.819011461511767e-05,-1.570539864381922,0.0006684734593329294,-0.0451521277768821,-4.111840506407664e-05,-6.310208480432427e-08,-4.3715844559444804e-05,-0.00048823375962597147,-0.0054759210932044744,1.814795811658229,0.0008807311692899601,1.036278339755549e-05,0.0,-1.5707963267948966,0.0,0.22038296972810345,0.0,0.0
12.202,600.0,53.33333206176758,0.0,-1.5707963267948966,0.0,0.1459942862933781,0.0,0.0,0.0,0.0,0.0,0.872800260322109,0.0,0.0,-7.037104095060404e-05,-1.570503911707206,0.0006310894655681047,0.0398939159416024,-3.891509195390838e-05,-1.8769626076297333e-09,0.0006932370863929509,-0.0024295784557900207,-0.005545846756873168,1.7146746699508635,0.000828183411957009,8.610748005550495e-06,0.0,-1.5707963267948966,0.0,0.39214981827829964,0.0,0.0
12.302,600.0,53.33333206176758,0.0,-1.5707963267948966,0.0,0.22593837310443476,0.0,0.0,0.0,0.0,0.0,0.774893583092412,0.0,0.0,-4.1542834171824026e-05,-1.5704799432573953,0.0005898788032008236,0.13291037220020613,-3.46784446233987e-05,8.848163005949335e-08,0.00027191734600446726,-0.002563551583229169,-0.005345721124075372,1.5858570353915127,0.0007542823171718426,6.793728065408388e-06,0.0,-1.5707963267948966,0.0,0.3147323817410377,0.0,0.0
12.402,600.0,53.33333206176758,0.0,-1.5707963267948966,0.0,0.2794124029978125,0.0,0.0,0.0,0.0,0.0,0.41171133969967116,0.0,0.0,4.242818317714793e-07,-1.5704707553516344,0.000515445303762676,0.22823483621158103,-3.296183419904929e-05,1.2215158016711095e-07,0.00013922324784202225,-0.0032839462808456356,-0.004897723333264402,1.3722008090402162,0.0006847919529049574,5.171981783007459e-06,0.0,-1.5707963267948966,0.0,0.47121514706916556,0.0,0.0
12.502,600.0,53.33333206176758,0.0,-1.5707963267948966,0.0,0.3453177568639714,0.0,0.0,0.0,0.0,0.0,0.8951233259641834,0.0,0.0,4.595399950186761e-05,-1.5704784785187957,0.0004501242560217022,0.2844071287404002,-2.966707651472245e-05,1.917171921397937e-07,-0.0004008082147630148,-0.0033920245879472915,-0.004592313371840606,0.8266870805687371,0.0005229169790514344,2.135683626462142e-06,0.0,-1.5707963267948966,0.0,0.5835199862391389,0.0,0.0
12.602,600.0,53.33333206176758,0.0,-1.5707963267948966,0.0,0.43050793853306074,0.0,0.0,0.0,0.0,0.0,0.6874448138618933,0.0,0.0,8.945139381912584e-05,-1.5704944574853361,0.00041603374598337696,0.3262741848948315,-2.2253824484924075e-05,3.367899651618287e-07,-0.0010013332254846065,-0.0032922801025224422,-0.0045252506063437475,0.3004602643172343,0.00031908798539061873,-2.1705866676154906e-06,0.0,-1.5707963267948966,0.0,0.5800541482382338,0.0,0.0
12.702,600.0,53.33333206176758,0.0,-1.5707963267948966,0.0,0.49743928677061655,0.0,0.0,0.0,0.0,0.0,0.951406511215849,0.0,0.0,2.574262199782038e-05,-1.5704344032027548,0.0003148223763458009,0.40132536007511344,-5.36316577198482e-05,-3.4903276083769573e-07,0.0005203182838847149,-0.004304724743477024,-0.002641413154857109,2.118222537824189,0.0010860760386645124,1.4952233741187098e-05,0.0,-1.5707963267948966,0.0,0.6163075965265915,0.0,0.0
12.802,600.0,53.33333206176758,0.0,-1.5707963267948966,0.0,0.5776752271960839,0.0,0.0,0.0,0.0,0.0,0.6393681767636461,0.0,0.0,0.000140738229550266,-1.5704941911692272,0.0002831499398553417,0.47421281673824683,-2.580684816516154e-05,2.1903264739846435e-07,-0.0013566730360838597,-0.0034546073131182025,-0.0029988057321051896,0.6223641685737322,0.00043230659651133184,4.758331854414883e-07,0.0,-1.5707963267948966,0.0,0.685555178726446,0.0,0.0
12.902,600.0,53.33333206176758,0.0,-1.5707963267948966,0.0,0.6410143961193816,0.0,0.0,0.0,0.0,0.0,0.6192918610450907,0.0,0.0,6.169876911249769e-05,-1.5703969857894393,0.0002151572623540742,0.5675527180724299,-4.9255309840091174e-05,-3.165495665124263e-07,0.0005644813750102823,-0.005263325416661842,-0.0020028369296893837,2.192164672858021,0.001050426285518723,1.4013399968325402e-05,0.0,-1.5707963267948966,0.0,0.9323178401869302,0.0,0.0
13.002,600.0,53.33333206176758,0.0,-1.5707963267948966,0.0,0.7186855840040148,0.0,0.0,0.0,0.0,0.0,0.8198063267886718,0.0,0.0,0.00028515709596938686,-1.570574751792202,0.00015129380116870092,0.6472225136626953,-7.6236663817023016e-06,5.814955867046199e-07,-0.001969721145712629,-0.004221978715947446,-0.001890101731720642,0.12822186877874323,9.729352060216804e-05,-5.835775273940602e-06,0.0,-1.5707963267948966,0.0,0.8295817888902828,0.0,0.0
13.102,600.0,53.33333206176758,0.0,-1.5707963267948966,0.0,0.7949538359653607,0.0,0.0,0.0,0.0,0.0,1.0229575645099276,0.0,0.0,0.00015746066731327032,-1.5704280116161387,0.00010348757264104383,0.7333111932703242,-3.4225391085233654e-05,-4.6805211529693826e-08,-9.629659069508345e-05,-0.005636869129653683,-0.001350803158564027,1.7070741413578319,0.0007599662415491553,8.733406575089718e-06,0.0,-1.5707963267948966,0.0,0.8479585315750168,0.0,0.0
13.203,600.0,53.33333206176758,0.0,-1.5707963267948966,0.0,0.8745658216425231,0.0,0.0,0.0,0.0,0.0,0.6344560602782243,0.0,0.0,0.00032505584591247184,-1.570576882321074,1.973696536192488e-05,0.7766974163790776,-1.0970427756001095e-05,4.463146542888796e-07,-0.002614213541630073,-0.003795527822905223,-0.0004232058806680828,0.24056072804003795,0.00016339939951070067,-4.0316213935310495e-06,0.0,-1.5707963267948966,0.0,1.167575476225552,0.0,0.0
13.302,600.0,53.33333206176758,0.0,-1.5707963267948966,0.0,0.9450330713033978,0.0,0.0,0.0,0.0,0.0,0.6432726292705367,0.0,0.0,0.00012639837331706013,-1.57035650574087,6.795422612183539e-06,0.8843499776491872,-4.1480444779404614e-05,-2.9921246340011124e-07,-3.4571204600865755e-05,-0.0056828227024711105,-0.0006082830928609801,2.199436434214482,0.0009554459066015242,1.3865082425225033e-05,0.0,-1.5707963267948966,0.0,1.0467442817597625,0.0,0.0
13.402,600.0,53.33333206176758,0.0,-1.5707963267948966,0.0,1.034835832814866,0.0,0.0,0.0,0.0,0.0,1.0377632826419403,0.0,0.0,0.0003733287290527698,-1.5705830075915812,-0.0001228005132295238,0.9554209587118048,-1.102961295146078e-05,3.7786862863400054e-07,-0.0013599302069327028,-0.0057886053335042,0.0005865131163397897,0.5910067783185943,0.0002147042128795705,-1.4294143344953598e-06,0.0,-1.5707963267948966,0.0,1.2753715798283844,0.0,0.0
13.502,600.0,53.33333206176758,0.0,-1.5707963267948966,0.0,1.1374304875286927,0.0,0.0,0.0,0.0,0.0,0.8574366613690683,0.0,0.0,0.00028747435820694606,-1.5704981859108622,-0.00014108456727820985,1.064940129589951,-2.0872707908255936e-05,6.834717233089208e-08,-0.0013559436576388278,-0.004995105563593432,0.0006263480505453279,1.3970089535426313,0.000518787551425151,5.90828826265161e-06,0.0,-1.5707963267948966,0.0,1.309786554514371,0.0,0.0
13.602,600.0,53.33333206176758,0.0,-1.5707963267948966,0.0,1.226167596734504,0.0,0.0,0.0,0.0,0.0,1.1075660972540418,0.0,0.0,0.0002152624299093282,-1.570437332679954,-0.00013512825568186027,1.1353917259620434,-2.5314041860023076e-05,-1.0777390985086024e-07,0.0002182490421867334,-0.0063564328898011255,5.387527421665949e-05,1.7857179541381443,0.0006374392452365185,1.0307110221401379e-05,0.0,-1.5707963267948966,0.0,1.3506558189159008,0.0,0.0
13.702,600.0,53.33333206176758,0.0,-1.5707963267948966,0.0,1.3040279723910775,0.0,0.0,0.0,0.0,0.0,0.46794422709315275,0.0,0.0,0.0002687163999738041,-1.5705125669807487,-0.00018690881813743045,1.233115623214174,-1.7981400680053656e-05,2.0520156582205085e-09,-0.0005346973707044131,-0.00529531819970237,0.000489091679806235,1.6595989007113707,0.0005192234034849007,8.232087915377516e-06,0.0,-1.5707963267948966,0.0,1.4639966650394292,0.0,0.0
13.802,600.0,60.0,0.0,-1.5707963267948966,0.0,1.3374073832632254,0.0,0.0,0.0,0.0,0.0,-0.733007887426193,0.0,0.0,0.00012900172543966532,-1.5704276121419751,-0.00011893949043417262,1.3201545186987431,-2.418799317779783e-05,-2.3990181827049966e-07,0.0005635527796321448,-0.0052868371759574985,-0.0006266727533403439,2.3049938866550264,0.0007237038183117687,1.4776860340942951e-05,0.0,-1.5707963267948966,0.0,1.1621619677759005,0.0,0.0
13.902,600.0,60.0,0.0,-1.5707963267948966,0.0,1.2492022835242098,0.0,0.0,0.0,0.0,0.0,-0.91936857551022,0.0,0.0,0.0007813442860622648,-1.571111378751853,-0.0005282172287804913,1.3489125305719092,2.661438097674768e-05,1.0469178940468026e-06,-0.00802030727926078,0.0026430602055586196,0.006244111470083782,-1.620249097708796,-0.0005597051750465096,-1.6424754252180116e-05,0.0,-1.5707963267948966,0.0,1.1373622385044844,0.0,0.0
14.002,600.0,60.0,0.0,-1.5707963267948966,0.0,1.1655239146676344,0.0,0.0,0.0,0.0,0.0,-1.086300883400684,0.0,0.0,0.0006787826755468157,-1.5710205649586813,-0.0004656990020422308,1.2695948048777523,2.066900875670198e-05,8.244669137848631e-07,-0.00961013018595672,0.004466280833698557,0.006738913796904244,-2.15864306474303,-0.0005689173327381082,-1.6830437690206222e-05,0.0,-1.5707963267948966,0.0,1.067002708386935,0.0,0.0
14.102,600.0,60.0,0.0,-1.5707963267948966,0.0,1.0729391302263087,0.0,0.0,0.0,0.0,0.0,-1.0547673852446573,0.0,0.0,0.00044374512046383113,-1.5707630372812706,-0.0003313532206043572,1.189511553528252,1.8758715344043763e-06,3.6249513112326435e-07,-0.006592127847759643,0.0014606221431242672,0.004703940913258308,-1.566253906081603,-0.00028833364377741695,-9.598679950532263e-06,0.0,-1.5707963267948966,0.0,0.8381641221627791,0.0,0.0
14.202,600.0,60.0,0.0,-1.5707963267948966,0.0,0.9738875569812473,0.0,0.0,0.0,0.0,0.0,-0.6506431938653677,0.0,0.0,0.0004133821256914786,-1.5706683619045183,-0.00030539026079366184,1.0628044741327891,-4.4462296477560205e-06,2.409445283702273e-07,-0.007516983877249365,0.0019362685654847362,0.004649880303575651,-1.8985290584397372,-0.0002844506365742634,-9.28263681781325e-06,0.0,-1.5707963267948966,0.0,0.8692534174290336,0.0,0.0
14.302,600.0,60.0,0.0,-1.5707963267948966,0.0,0.9047607841938117,0.0,0.0,0.0,0.0,0.0,-0.8526068426366455,0.0,0.0,0.0003237110991047188,-1.5705334727953058,-0.0002484413631831714,0.9712718937828747,-1.599580330528633e-05,3.391238084075137e-08,-0.005633725871359279,-0.00035371320824156144,0.003463884944521171,-1.5519110525568176,-0.00012212735960267167,-6.238054379686416e-06,0.0,-1.5707963267948966,0.0,0.7986353923310697,0.0,0.0
14.402,600.0,60.0,0.0,-1.5707963267948966,0.0,0.8287809983865637,0.0,0.0,0.0,0.0,0.0,-0.5362799612996206,0.0,0.0,0.0003489187380564432,-1.5705254833120355,-0.00023128045636252006,0.8997884556464311,-1.4737786205411857e-05,1.0723361750424548e-07,-0.0044409022608965934,-0.0022634323138029785,0.002849129056835956,-1.7020167984477714,-0.0001913826816981546,-7.517854736127307e-06,0.0,-1.5707963267948966,0.0,0.6778584686348204,0.0,0.0
14.502,600.0,60.0,0.0,-1.5707963267948966,0.0,0.7467852043099894,0.0,0.0,0.0,0.0,0.0,-0.819366144702749,0.0,0.0,0.0003228261311946341,-1.5704779458865776,-0.00017525516395405227,0.7913682381921062,-2.0331991036021472e-05,4.533360658064716e-08,-0.005266916002795595,-0.0012305758694719981,0.002259381396113616,-1.640955974132489,-0.00011286448741765852,-6.950412179232232e-06,0.0,-1.5707963267948966,0.0,0.5162855258285446,0.0,0.0
14.602,600.0,60.0,0.0,-1.5707963267948966,0.0,0.6827438224419087,0.0,0.0,0.0,0.0,0.0,-0.7282399621826635,0.0,0.0,0.00036586040222094836,-1.5705192248834738,-0.00014408387443361401,0.7399601078268434,-1.3732818376213957e-05,2.1829091808976302e-07,-0.005212943818383507,-0.0015483115333901423,0.0017678964473482812,-1.9227101616634932,-0.00024715397901877096,-9.645784896769332e-06,0.0,-1.5707963267948966,0.0,0.4827470531975316,0.0,0.0
14.702,600.0,60.0,0.0,-1.5707963267948966,0.0,0.6075770403825178,0.0,0.0,0.0,0.0,0.0,-0.9393438111520678,0.0,0.0,0.00031522357350171725,-1.5704768806221416,-7.93834940697373e-05,0.6851575123361655,-2.046067296756901e-05,1.254240498119404e-07,-0.00407157617323657,-0.0025803479633737577,0.0008846638831985181,-1.4327811990948482,-8.698558037793974e-05,-6.613083588459881e-06,0.0,-1.5707963267948966,0.0,0.4671996881247453,0.0,0.0
14.802,600.0,60.0,0.0,-1.5707963267948966,0.0,0.5250812959347355,0.0,0.0,0.0,0.0,0.0,-0.7610447552224774,0.0,0.0,0.0002462671905884099,-1.570418024762051,-3.219649438306602e-05,0.62550756418738,-3.187876076723319e-05,-6.279299256431244e-08,-0.0036458425651832577,-0.002559437727553107,0.0003878719227716711,-0.9514801460887601,0.00013211681443372084,-2.843031439544133e-06,0.0,-1.5707963267948966,0.0,0.2529288945373871,0.0,0.0
14.903,600.0,60.0,0.0,-1.5707963267948966,0.0,0.43472719217567324,0.0,0.0,0.0,0.0,0.0,-1.0888696985248072,0.0,0.0,0.00022331639535757094,-1.5704097689626715,1.3285501711933372e-05,0.5682850873722017,-3.4519657056878245e-05,-8.914664982372792e-08,-0.0032666359938344457,-0.002794820856395705,-0.0001462540158763349,-0.883637582057591,0.00017039991765006315,-2.2026555589690926e-06,0.0,-1.5707963267948966,0.0,0.2929315852851982,0.0,0.0
15.002,600.0,60.0,0.0,-1.5707963267948966,0.0,0.3650299346003809,0.0,0.0,0.0,0.0,0.0,-0.620567540409429,0.0,0.0,0.00031964763282916504,-1.5705198906737463,0.00010077003163502916,0.464299099711886,-5.557411425000714e-06,5.002114707361927e-07,-0.004611489692135128,-0.0018733966376641995,-0.0015023629019848934,-2.6393769310159585,-0.0004887728937021174,-1.5277943308297935e-05,0.0,-1.5707963267948966,0.0,0.17371980062852804,0.0,0.0
15.102,600.0,60.0,0.0,-1.5707963267948966,0.0,0.28390428482436203,0.0,0.0,0.0,0.0,0.0,-0.8423721154695628,0.0,0.0,0.00023387299101866135,-1.5704518469078947,0.00016265196215471244,0.36767119311686386,-1.797199736773303e-05,2.8796456630862083e-07,-0.003639824445298059,-0.0025153941405799706,-0.002316700477016742,-2.315873432340218,-0.0002967025104695446,-1.2268090951739038e-05,0.0,-1.5707963267948966,0.0,0.015812966209828416,0.0,0.0
15.202,600.0,60.0,0.0,-1.5707963267948966,0.0,0.1973837774935756,0.0,0.0,0.0,0.0,0.0,-0.7130418007127066,0.0,0.0,0.0001171010575386029,-1.5703936568380765,0.00020023457143076564,0.29870783774093496,-4.8593445064417395e-05,-2.546769416502023e-07,-0.001893177370690493,-0.003216677796557541,-0.0022154894324720726,-0.6507359555098097,0.00035627035653482977,6.02544780948367e-08,0.0,-1.5707963267948966,0.0,-0.07613108075190728,0.0,0.0
15.302,600.0,60.0,0.0,-1.5707963267948966,0.0,0.12273610834080717,0.0,0.0,0.0,0.0,0.0,-0.8338190505020325,0.0,0.0,0.00010573590705510154,-1.5704081710660176,0.00027413319550984255,0.21293722279124555,-4.327065014229448e-05,-1.2841073771154317e-07,-0.0017600795233928157,-0.0032636656849663014,-0.0032556988281623564,-1.0962172921172502,0.00020909948113428215,-2.808158621871936e-06,0.0,-1.5707963267948966,0.0,-0.11112187964375236,0.0,0.0
15.402,600.0,60.0,0.0,-1.5707963267948966,0.0,0.04092820469597669,0.0,0.0,0.0,0.0,0.0,-0.7409556148407278,0.0,0.0,9.290704201471209e-05,-1.5704166931815058,0.0003759476449982739,0.133058269186868,-3.1711224137866445e-05,1.0337576633306868e-07,-0.0017825166555767334,-0.003180112126656968,-0.004725542686709674,-1.735197788259341,-3.824575410504634e-05,-7.329715851768555e-06,0.0,-1.5707963267948966,0.0,-0.21089769400017283,0.0,0.0
15.502,600.0,60.0,0.0,-1.5707963267948966,0.0,-0.04228347452149883,0.0,0.0,0.0,0.0,0.0,-1.0024685622083516,0.0,0.0,4.146427140730605e-05,-1.5704433247924066,0.0003885289355357153,0.05671514462751822,-5.414018023518546e-05,-2.9896886595171245e-07,-0.000504165847769329,-0.0036133184502963396,-0.004256456249090964,-0.5228591491845566,0.00043272918478049616,6.516160313121184e-07,0.0,-1.5707963267948966,0.0,-0.16729308334960918,0.0,0.0
15.602,600.0,60.0,0.0,-1.5707963267948966,0.0,-0.12261714435449989,0.0,0.0,0.0,0.0,0.0,-0.9094958707483919,0.0,0.0,1.916850993744298e-05,-1.5704467869018237,0.00046822526650938125,-0.03592532738062596,-4.81192604873296e-05,-1.790856977333818e-07,-0.00025549173431974623,-0.0037888743414435534,-0.005495368931094508,-1.0099325372743642,0.00027177253336926514,-1.4995150322485765e-06,0.0,-1.5707963267948966,0.0,-0.2762163284558854,0.0,0.0
15.702,600.0,60.0,0.0,-1.5707963267948966,0.0,-0.20725590213371348,0.0,0.0,0.0,0.0,0.0,-1.0457316999795774,0.0,0.0,-1.990165336469838e-05,-1.5704134973881978,0.0006123263383577493,-0.12432161110567334,-2.9780722899344185e-05,1.6898946766106446e-07,-0.0005718683310876059,-0.003321528841357753,-0.007707555939785152,-2.0037954273731358,-0.00011055826208427515,-9.5970097857251e-06,0.0,-1.5707963267948966,0.0,-0.2799026648556005,0.0,0.0
15.802,600.0,60.0,0.0,-1.5707963267948966,0.0,-0.2777869149101946,0.0,0.0,0.0,0.0,0.0,-0.988126584530938,0.0,0.0,-5.5442754365642275e-05,-1.5704218863456314,0.0006704210909357938,-0.20177757913840477,-3.202695436866295e-05,1.2080160330023513e-07,0.0002485115507416856,-0.003906456804685429,-0.008423958756584077,-1.8949068930411206,-6.751728601676428e-05,-8.598528575927283e-06,0.0,-1.5707963267948966,0.0,-0.5414528387115993,0.0,0.0
15.902,600.0,60.0,0.0,-1.5707963267948966,0.0,-0.354134615335461,0.0,0.0,0.0,0.0,0.0,-0.7573151554945983,0.0,0.0,-6.392996300305999e-05,-1.570518958567365,0.0006655649181170211,-0.283223886268078,-4.7971412297113e-05,-1.783629533424626e-07,0.000390586351013106,-0.002673105291977702,-0.0075120341426921,-0.8995734719674344,0.00029690341788576397,-1.5869685798017674e-06,0.0,-1.5707963267948966,0.0,-0.5923255316105838,0.0,0.0
16.002,600.0,60.0,0.0,-1.5707963267948966,0.0,-0.4278862830081742,0.0,0.0,0.0,0.0,0.0,-0.8769005791495516,0.0,0.0,-7.312780441578838e-05,-1.5705711565247304,0.0006748017178509326,-0.35630132618547494,-5.38273636495635e-05,-2.9455858700779675e-07,0.0016375733330261952,-0.0039022589450023273,-0.007710034448104338,-0.59177296976421,0.00041298596747561307,6.428121725325703e-07,0.0,-1.5707963267948966,0.0,-0.4903363820142663,0.0,0.0
16.102,600.0,60.0,0.0,-1.5707963267948966,0.0,-0.5096161812032953,0.0,0.0,0.0,0.0,0.0,-0.9955949593066797,0.0,0.0,-8.853613537747767e-05,-1.5706277486978946,0.0007154783826099905,-0.42515875432904593,-5.495057995984083e-05,-3.320592919198235e-07,0.0016583779786708132,-0.003027361112789509,-0.0077734098798184674,-0.2762518636923051,0.0004899291841519701,2.2332137842227846e-06,0.0,-1.5707963267948966,0.0,-0.7404900586072591,0.0,0.0
16.203,600.0,60.0,0.0,-1.5707963267948966,0.0,-0.5926414810204736,0.0,0.0,0.0,0.0,0.0,-0.5596489315385234,0.0,0.0,-0.00020820445159874118,-1.5704599695492196,0.0009398269479457111,-0.5242886674786839,-2.8120424661893237e-05,1.599942834517268e-07,0.0024756547836889443,-0.004451191841498926,-0.011787647206503197,-1.863481459020131,-9.544847206595097e-05,-8.352158948564035e-06,0.0,-1.5707963267948966,0.0,-0.8718498019540102,0.0,0.0
16.302,600.0,60.0,0.0,-1.5707963267948966,0.0,-0.6797284981786511,0.0,0.0,0.0,0.0,0.0,-0.9261361713684725,0.0,0.0,-0.00024741792194956145,-1.5704631653425276,0.0010085257109852595,-0.6070857465580022,-2.4611540471036326e-05,2.1371875938703258e-07,0.0013988815386183637,-0.0020857357508850187,-0.012148677183263566,-2.0524489836439024,-0.00016162569261281588,-8.555730094786057e-06,0.0,-1.5707963267948966,0.0,-0.7985498873950932,0.0,0.0
16.402,600.0,60.0,0.0,-1.5707963267948966,0.0,-0.7625900801549612,0.0,0.0,0.0,0.0,0.0,-0.9263889709492935,0.0,0.0,-0.0003226445342970611,-1.5704288105644657,0.0011254908878162665,-0.6857390135601843,-1.7036975309200092e-05,3.2804731528108326e-07,0.0019825199234045215,-0.0021569710188182726,-0.013494396408918525,-2.2166760080569468,-0.0002672881855623062,-1.090758831308924e-05,0.0,-1.5707963267948966,0.0,-0.9161408893100558,0.0,0.0
16.502,600.0,60.0,0.0,-1.5707963267948966,0.0,-0.8399210978815681,0.0,0.0,0.0,0.0,0.0,-0.7822520393898065,0.0,0.0,-0.0002047607424401463,-1.5706898003512935,0.0009151280793926653,-0.735773152540048,-4.097423448736486e-05,-1.6794891638141905e-07,0.002067032245713716,-0.0012380952683994314,-0.01019412916379477,-0.7621865173895084,0.0002596859367076505,-9.411298685032964e-07,0.0,-1.5707963267948966,0.0,-0.9451627322308046,0.0,0.0
16.602,600.0,60.0,0.0,-1.5707963267948966,0.0,-0.9238074451641758,0.0,0.0,0.0,0.0,0.0,-0.9797279824912238,0.0,0.0,-0.00024054158930048342,-1.5706871371902034,0.0009575675279279494,-0.7993139790414393,-3.764729057346348e-05,-1.293366731058658e-07,0.003450599827841149,-0.0028136983512905686,-0.011378636637634764,-0.8550916243862224,0.00020976297950181112,-1.8946646981674621e-06,0.0,-1.5707963267948966,0.0,-1.0709597915817821,0.0,0.0
16.703,600.0,60.0,0.0,-1.5707963267948966,0.0,-1.0044628095330737,0.0,0.0,0.0,0.0,0.0,-0.8719697217335773,0.0,0.0,-0.00027896157288510913,-1.570692330354329,0.0009845254670882903,-0.9212611906206037,-3.3620486650440676e-05,-1.0077169754569087e-07,0.005140634313450003,-0.004638201405928083,-0.013122542138743202,-1.1826591068854237,0.00011331972314195847,-3.535372913266142e-06,0.0,-1.5707963267948966,0.0,-1.0809033818216898,0.0,0.0
16.803,600.0,60.0,0.0,-1.5707963267948966,0.0,-1.0784502095158501,0.0,0.0,0.0,0.0,0.0,-0.8731128949390883,0.0,0.0,-0.00031631458529594403,-1.5706884687707483,0.0010337516851769107,-0.9956655838406462,-2.7560468385085742e-05,-2.1590512426742952e-08,0.0031361496828732948,-0.0011424287483937656,-0.012369313837792826,-1.3829706324884967,1.7141210254178543e-05,-4.432130774767083e-06,0.0,-1.5707963267948966,0.0,-1.3199051355406206,0.0,0.0
16.902,600.0,60.0,0.0,-1.5707963267948966,0.0,-1.1596801455994026,0.0,0.0,0.0,0.0,0.0,-0.6516803051945558,0.0,0.0,-0.0003516199025072927,-1.5706804792874782,0.0010711417256697965,-1.0574226250439025,-2.2209628104284882e-05,4.690617208431252e-08,0.0019581460177208166,0.0009958823277026758,-0.011755193051609757,-1.466568058054411,-5.0402891863710965e-05,-5.388533279436979e-06,0.0,-1.5707963267948966,0.0,-1.2775622254993493,0.0,0.0
17.002,600.0,60.0,0.0,-1.5707963267948966,0.0,-1.2421631407438412,0.0,0.0,0.0,0.0,0.0,-0.7258672897951671,0.0,0.0,-0.0003461329519220307,-1.5707123040625046,0.0010006397372964526,-1.1509804062447677,-2.3351096349431736e-05,-4.310805752838964e-08,0.006265717404724351,-0.004796877433072317,-0.014565231636996068,-1.4498447379892583,-1.7168857374046026e-05,-5.260617348050391e-06,0.0,-1.5707963267948966,0.0,-1.3816940019588069,0.0,0.0
17.102,600.0,60.0,0.0,-1.5707963267948966,0.0,-1.3120634716471091,0.0,0.0,0.0,0.0,0.0,-0.6274325142189751,0.0,0.0,-0.00016580963831951996,-1.5709742259557138,0.0006555694165579109,-1.200550755720794,-3.6284484854754165e-05,-3.904615976261505e-07,0.006755471688892622,-0.005273500564561087,-0.01145327900926534,-0.29766301306626963,0.0003275260968718317,2.0848972570377495e-06,0.0,-1.5707963267948966,0.0,-1.5379206926289664,0.0,0.0
17.202,600.0,66.66666412353516,0.0,-1.5707963267948966,0.0,-1.361042563116535,0.0,0.0,0.0,0.0,0.0,0.19638867590117787,0.0,0.0,-0.0005036324353283376,-1.5705154964579477,0.001197128620767772,-1.3017366292319732,-2.92142302232853e-06,3.347969297629521e-07,0.003645444911540022,-0.0008445978729550369,-0.01466708402482669,-2.451751905897696,-0.000392584697109385,-1.1782252809868416e-05,0.0,-1.5707963267948966,0.0,-1.1769582490466557,0.0,0.0
17.302,600.0,66.66666412353516,0.0,-1.5707963267948966,0.0,-1.2790877556490683,0.0,0.0,0.0,0.0,0.0,0.8322200679298002,0.0,0.0,-0.00023818655126718849,-1.5708384047401198,0.0006777690358643368,-1.376174378544669,-1.93959063300504e-05,-1.3389649796150866e-07,0.0060030553399855295,-0.004381534054385192,-0.01219119309365046,-1.1972391149052806,1.1750302272651087e-05,-3.2982145902256117e-06,0.0,-1.5707963267948966,0.0,-1.1239132584646185,0.0,0.0
17.402,600.0,66.66666412353516,0.0,-1.5707963267948966,0.0,-1.2112479076298772,0.0,0.0,0.0,0.0,0.0,0.7606041636131075,0.0,0.0,0.00033341515487314826,-1.571554795073351,-0.00031263264805546316,-1.3354047112069183,-5.456388601121587e-05,-9.744205885287447e-07,-1.3530953459793414e-06,0.002773366285012405,0.003028489575286565,2.099564830701257,0.0008120774641272531,1.5058939392254979e-05,0.0,-1.5707963267948966,0.0,-1.0618098889498233,0.0,0.0
17.502,600.0,66.66666412353516,0.0,-1.5707963267948966,0.0,-1.129224595091304,0.0,0.0,0.0,0.0,0.0,1.0772645990728833,0.0,0.0,-0.00011363086956277328,-1.570999126511906,0.00047519057708696937,-1.2349412201414232,-1.8659912244371093e-05,-2.193245801935577e-07,-0.005552876565883407,0.01056523650050811,0.002774309054441266,0.8657717658847944,0.0002865316537966663,4.907196658406101e-06,0.0,-1.5707963267948966,0.0,-0.8505264417056883,0.0,0.0
17.603,600.0,66.66666412353516,0.0,-1.5707963267948966,0.0,-1.0421349834219988,0.0,0.0,0.0,0.0,0.0,0.6975083038849204,0.0,0.0,-7.766597135341901e-05,-1.5710870108278787,0.00042127232558807006,-1.1630390665025918,-2.9548413540187228e-05,-3.9752986030163056e-07,-0.0001435700325855941,0.0036972004824784048,-0.0005302011407517215,1.821700456258423,0.0005520584047183083,8.544846593825508e-06,0.0,-1.5707963267948966,0.0,-0.8011393408493479,0.0,0.0
17.702,600.0,66.66666412353516,0.0,-1.5707963267948966,0.0,-0.9690947934098899,0.0,0.0,0.0,0.0,0.0,0.6998357894476479,0.0,0.0,-0.00014972678834077123,-1.5710230949617168,0.0005863702054980906,-1.0662504714252972,-2.885735948517074e-05,-3.282091315451897e-07,-0.00021125447324755995,0.004179062291099739,-0.0012115239947420862,2.081886101595039,0.0005973794117582609,8.94467531178855e-06,0.0,-1.5707963267948966,0.0,-0.8866414934792977,0.0,0.0
17.802,600.0,66.66666412353516,0.0,-1.5707963267948966,0.0,-0.9086097779953883,0.0,0.0,0.0,0.0,0.0,0.9796278209668218,0.0,0.0,-0.0004231138793755422,-1.570671424539772,0.0010940120116423398,-1.0165178022808303,-8.21928992197226e-06,1.3727143219185968e-07,0.0020692662841672103,0.0013040165676829738,-0.007821652106697682,0.5673860707672181,0.00016755888197619035,7.556909696256493e-07,0.0,-1.5707963267948966,0.0,-0.8309283117896832,0.0,0.0
17.902,600.0,66.66666412353516,0.0,-1.5707963267948966,0.0,-0.8323636166783528,0.0,0.0,0.0,0.0,0.0,0.7385820203903826,0.0,0.0,-0.0004262487827822491,-1.5706723566461533,0.0011433145615454073,-0.9586562333830603,-1.0687208847685637e-05,1.276720561488403e-07,0.001966251494140095,0.0015407563742429937,-0.008160334936990655,0.6404717331944807,0.00020461425557647566,8.902206368183408e-07,0.0,-1.5707963267948966,0.0,-0.6520121170251343,0.0,0.0
18.002,600.0,66.66666412353516,0.0,-1.5707963267948966,0.0,-0.7498227090209557,0.0,0.0,0.0,0.0,0.0,1.003466032951502,0.0,0.0,-0.00025750368555416234,-1.5709189653630948,0.000906254083342412,-0.880090650959769,-3.508238881437501e-05,-2.8474563857656666e-07,0.002392930342328358,0.0010869779114057354,-0.005633467357480027,2.0226526052617144,0.0006643322958527212,7.641439312492399e-06,0.0,-1.5707963267948966,0.0,-0.5282675068740738,0.0,0.0
18.102,600.0,66.66666412353516,0.0,-1.5707963267948966,0.0,-0.6643387841108543,0.0,0.0,0.0,0.0,0.0,1.0887646088928555,0.0,0.0,-0.00025918782935630534,-1.5708851432172508,0.0009664238389240889,-0.7604501363587768,-3.7454668962698635e-05,-2.578853292606784e-07,-0.0002005181824823996,0.004733358440330676,-0.0044294569099930575,2.280718907002845,0.0007431758431140464,9.91470276494462e-06,0.0,-1.5707963267948966,0.0,-0.3884204114958995,0.0,0.0
18.202,600.0,66.66666412353516,0.0,-1.5707963267948966,0.0,-0.5750709146185589,0.0,0.0,0.0,0.0,0.0,0.5621126460496377,0.0,0.0,-0.0003805731643998821,-1.5706462576674707,0.0011795016932656475,-0.6946028126162951,-2.188767234432883e-05,5.529175153608577e-08,0.003128020539690423,-0.0007810181528584601,-0.008944942245574081,1.2919847991103754,0.00042893421273642386,2.9440235827802083e-06,0.0,-1.5707963267948966,0.0,-0.4803686019501522,0.0,0.0
18.302,600.0,66.66666412353516,0.0,-1.5707963267948966,0.0,-0.4945567845720378,0.0,0.0,0.0,0.0,0.0,0.8752331258296797,0.0,0.0,-0.000359000746837974,-1.5706017828772663,0.001197416783120097,-0.581639774974513,-2.1637757172454025e-05,1.107825113616656e-07,0.0009599132683041184,0.0018871510584640505,-0.008339983357719264,1.2432783790919708,0.0004278962235952479,2.851195081179877e-06,0.0,-1.5707963267948966,0.0,-0.3937005456273801,0.0,0.0
18.403,600.0,66.66666412353516,0.0,-1.5707963267948966,0.0,-0.41655018090874574,0.0,0.0,0.0,0.0,0.0,0.8785076159228437,0.0,0.0,-0.0003278102605814067,-1.5705952581325957,0.0011703704837077683,-0.5272076917704925,-2.5429234467781372e-05,7.520487861680572e-08,0.0013884825967622823,0.0007779481054866008,-0.008576251519490529,1.1861314694727234,0.00045135235949460165,2.616776681791974e-06,0.0,-1.5707963267948966,0.0,-0.28456500652617517,0.0,0.0
18.503,600.0,66.66666412353516,0.0,-1.5707963267948966,0.0,-0.334249078183003,0.0,0.0,0.0,0.0,0.0,0.7230825747712598,0.0,0.0,-0.0003370282699453223,-1.5705035122330424,0.0012074694360121705,-0.45949382499900154,-1.8114745662978855e-05,2.2042353073116345e-07,0.002051869652480053,-0.0009995344214143397,-0.009752840250276739,0.7108006909983751,0.00029786331971079776,1.9112486587972585e-07,0.0,-1.5707963267948966,0.0,-0.08452137323037184,0.0,0.0
18.602,600.0,66.66666412353516,0.0,-1.5707963267948966,0.0,-0.2526088726123037,0.0,0.0,0.0,0.0,0.0,0.7562844022084556,0.0,0.0,-0.0003048379604548025,-1.570489131163156,0.0011846451831951882,-0.4003050031929632,-1.7255084203834833e-05,2.5883162264585024e-07,0.0005037621799073232,0.0008246883381191865,-0.009327455401893524,0.5394239445858222,0.00026615999939422067,-7.270272994782582e-07,0.0,-1.5707963267948966,0.0,-0.17361761556723426,0.0,0.0
18.702,600.0,66.66666412353516,0.0,-1.5707963267948966,0.0,-0.1810045762382524,0.0,0.0,0.0,0.0,0.0,0.870810691377947,0.0,0.0,-0.00019711628027158106,-1.5706333413361837,0.0009752521269116878,-0.3129259554581636,-4.676618723750875e-05,-1.9690320180870623e-07,0.0008370097493871689,0.00046939530838917916,-0.006465445123804586,2.073632033270502,0.0008118682993512086,8.585098175227345e-06,0.0,-1.5707963267948966,0.0,-0.08177477713048396,0.0,0.0
18.802,600.0,66.66666412353516,0.0,-1.5707963267948966,0.0,-0.11224080500330569,0.0,0.0,0.0,0.0,0.0,0.9123594773086886,0.0,0.0,-0.000186938336573341,-1.5705466554427017,0.0009709281961994431,-0.21866411768886557,-3.9976516229982e-05,-5.977308105859087e-08,0.0010419391500272094,-0.000822885307841135,-0.007067830836285843,1.662165655369989,0.0006750630275291804,5.4567631691048e-06,0.0,-1.5707963267948966,0.0,0.10493702041669706,0.0,0.0
18.903,600.0,66.66666412353516,0.0,-1.5707963267948966,0.0,-0.01756160204541768,0.0,0.0,0.0,0.0,0.0,0.5974197052446597,0.0,0.0,-0.00016319181143525268,-1.5705168280384927,0.0009346114174280892,-0.15529583073659778,-3.910160994535361e-05,-2.9500014508300264e-08,0.0011203581909712218,-0.0015720734841866441,-0.007036711902977997,1.5163292230225416,0.000639251378115952,5.094639132804203e-06,0.0,-1.5707963267948966,0.0,0.08422985411222532,0.0,0.0
19.002,600.0,66.66666412353516,0.0,-1.5707963267948966,0.0,0.05071373943379278,0.0,0.0,0.0,0.0,0.0,0.6269030160925472,0.0,0.0,-0.0001329911192964722,-1.5705016480202794,0.000876768156722516,-0.07748933244776307,-4.151593679747217e-05,-6.523274101502516e-08,0.0007396870110600287,-0.0014645945183674185,-0.006473104832830466,1.660647653548644,0.0006907743125704406,4.909566788877581e-06,0.0,-1.5707963267948966,0.0,0.19959933937177626,0.0,0.0
19.102,600.0,66.66666412353516,0.0,-1.5707963267948966,0.0,0.11830706230476393,0.0,0.0,0.0,0.0,0.0,0.7261251091109221,0.0,0.0,-9.181331569471598e-05,-1.5705083059230045,0.0007413626049187307,0.025957983028408252,-5.846924741535284e-05,-3.1981795662224736e-07,0.0010677482108559658,-0.002201647496661791,-0.004918733177551605,2.494935062973331,0.0009980729337438611,1.0624125585093906e-05,0.0,-1.5707963267948966,0.0,0.33337197001343655,0.0,0.0
19.203,600.0,66.66666412353516,0.0,-1.5707963267948966,0.0,0.19862139115519997,0.0,0.0,0.0,0.0,0.0,0.44664368370441354,0.0,0.0,-5.90662561561791e-05,-1.570426014245321,0.0008065075173229608,0.08483508807063661,-2.254734071105304e-05,2.7388213844913365e-07,0.0001953780085005052,-0.002632357887002189,-0.0067962804714088824,0.6380664992559757,0.0003273138112038847,-4.1843428661045024e-07,0.0,-1.5707963267948966,0.0,0.25124926229259104,0.0,0.0
19.303,600.0,66.66666412353516,0.0,-1.5707963267948966,0.0,0.2681732971026345,0.0,0.0,0.0,0.0,0.0,0.7029635171222689,0.0,0.0,-1.8262445529556867e-05,-1.5704281447741932,0.0006883472989676457,0.17430477551779722,-3.281627181833155e-05,1.1422014661646437e-07,0.00016298680784841138,-0.0029653349466745326,-0.005581342220925531,1.0816163117038091,0.0005024870680001433,2.585937555948756e-06,0.0,-1.5707963267948966,0.0,0.37963024059013895,0.0,0.0
19.402,600.0,66.66666412353516,0.0,-1.5707963267948966,0.0,0.34426725762756805,0.0,0.0,0.0,0.0,0.0,1.0286397013984108,0.0,0.0,1.4101495066411271e-05,-1.5704218863456314,0.0006234819014444277,0.24007217113806292,-3.318030679137319e-05,9.334254682190205e-08,-0.0001248263296764023,-0.0030088406999431495,-0.005052835301856054,1.101321240346387,0.0005102436547121617,1.9236175232164582e-06,0.0,-1.5707963267948966,0.0,0.6131529860836967,0.0,0.0
19.502,600.0,66.66666412353516,0.0,-1.5707963267948966,0.0,0.4401089424338527,0.0,0.0,0.0,0.0,0.0,0.8672190460753094,0.0,0.0,5.947214277727177e-05,-1.5704208210811954,0.0005695809773974451,0.31059089581438215,-2.6439346892224695e-05,2.0312111160325807e-07,-0.0004209712570473569,-0.0032811075695860442,-0.004789719667494079,0.8084485550013839,0.00039231669051726324,1.0094649054080644e-06,0.0,-1.5707963267948966,0.0,0.5229641033339574,0.0,0.0
19.602,600.0,66.66666412353516,0.0,-1.5707963267948966,0.0,0.51628462842557,0.0,0.0,0.0,0.0,0.0,0.8125960479465335,0.0,0.0,6.135353670043597e-05,-1.57039139315115,0.0004741533356594783,0.40261452977979356,-3.8994032638930166e-05,-1.0479674615750267e-08,3.490725720198008e-05,-0.0039363695132729835,-0.00375839285030678,1.6051650864526417,0.0006551780697170616,5.553072450614221e-06,0.0,-1.5707963267948966,0.0,0.6701745589313399,0.0,0.0
19.702,600.0,66.66666412353516,0.0,-1.5707963267948966,0.0,0.601200104985374,0.0,0.0,0.0,0.0,0.0,0.608153755843272,0.0,0.0,0.00011490593270601721,-1.5703893957803325,0.00037916310642721244,0.49349733211324226,-3.497358834589085e-05,3.415853395115931e-08,-0.00048589175781822735,-0.003952244450083378,-0.003109781527263933,1.3771771918531384,0.0005756871324417249,3.795080747012876e-06,0.0,-1.5707963267948966,0.0,0.8149791319685474,0.0,0.0
19.802,600.0,66.66666412353516,0.0,-1.5707963267948966,0.0,0.6742609136511803,0.0,0.0,0.0,0.0,0.0,0.8301868925556903,0.0,0.0,0.0002278375436815461,-1.5704538442787124,0.0003132159947668936,0.5591810046067386,-1.4455147384751445e-05,3.5988410172848896e-07,-0.0013284566622824426,-0.003980741053970202,-0.0028426409826451155,0.3636240870768113,0.0001912540099257604,-2.3408025196937217e-06,0.0,-1.5707963267948966,0.0,0.9453479861648693,0.0,0.0
19.902,600.0,66.66666412353516,0.0,-1.5707963267948966,0.0,0.7710543437856964,0.0,0.0,0.0,0.0,0.0,1.0548152040212395,0.0,0.0,0.00018548825966388074,-1.5703834036678799,0.00021566864975065004,0.6345183031566358,-3.361993805616095e-05,1.1647678624948366e-08,-0.000955072960019183,-0.004239193555681286,-0.0018758934812233114,1.2587180555117052,0.0005380728428619328,3.6914743996466107e-06,0.0,-1.5707963267948966,0.0,0.9812254279095771,0.0,0.0
20.002,600.0,66.66666412353516,0.0,-1.5707963267948966,0.0,0.8566154138184304,0.0,0.0,0.0,0.0,0.0,1.0239559710091775,0.0,0.0,0.00022721087834032402,-1.5703885968320055,0.00014438609705414527,0.719958902512994,-2.9774964691237737e-05,6.410347572262471e-08,-0.0005366235786847389,-0.005220599366220185,-0.0014607045866853565,1.2836979739044305,0.0004968332472259729,2.691423092701914e-06,0.0,-1.5707963267948966,0.0,0.9463017064308429,0.0,0.0
20.102,600.0,66.66666412353516,0.0,-1.5707963267948966,0.0,0.9288118177798386,0.0,0.0,0.0,0.0,0.0,0.925050376765864,0.0,0.0,0.00034668352926848557,-1.5704663611358358,4.41311995114394e-05,0.8143483223432637,-1.4971701726710013e-05,2.8422193422249566e-07,-0.001477703044580628,-0.0048327952578288095,-0.000712802607915139,0.7418504861476088,0.00025523073347975963,-3.811438761723182e-07,0.0,-1.5707963267948966,0.0,1.1343711963042433,0.0,0.0
20.202,600.0,66.66666412353516,0.0,-1.5707963267948966,0.0,1.01593763472111,0.0,0.0,0.0,0.0,0.0,0.9541551078861229,0.0,0.0,0.00020265488811968655,-1.5703088351573575,1.7024575046647637e-05,0.8995225390115866,-3.937623624178403e-05,-1.7478899494894046e-07,-0.0005563749233122846,-0.00518555018970987,-0.0006325352187419085,2.149167271268419,0.0007475600460511568,8.45358133194356e-06,0.0,-1.5707963267948966,0.0,1.2339265327839204,0.0,0.0
20.302,600.0,66.66666412353516,0.0,-1.5707963267948966,0.0,1.0974765711715742,0.0,0.0,0.0,0.0,0.0,0.7870408573470518,0.0,0.0,0.00032841811929798753,-1.5704045757985459,-9.928135807024425e-05,0.9931211997351845,-2.3581731480120202e-05,5.0243021394940426e-08,-0.0006718884952971707,-0.0058016090497643525,0.00010347976228396508,1.3967648748287256,0.0004431235428265958,3.824870940274953e-06,0.0,-1.5707963267948966,0.0,1.3892660941606088,0.0,0.0
20.402,600.0,66.66666412353516,0.0,-1.5707963267948966,0.0,1.18391285108552,0.0,0.0,0.0,0.0,0.0,0.7358048214136024,0.0,0.0,0.00038991584689344194,-1.5704591706008926,-0.00017392810220041307,1.0678696733680653,-1.6956363443455807e-05,1.3431665832001694e-07,-0.0014560396335141894,-0.005057023018640474,0.000747786440751246,1.1273567026371651,0.0003324501165801917,2.0136307964401166e-06,0.0,-1.5707963267948966,0.0,1.4768323080213865,0.0,0.0
20.502,600.0,66.66666412353516,0.0,-1.5707963267948966,0.0,1.2733501502863636,0.0,0.0,0.0,0.0,0.0,0.8910258898551889,0.0,0.0,0.00034071661151606134,-1.5704264137194845,-0.00020481631707251313,1.1718774323702923,-2.0371341500523093e-05,2.2430019617809383e-08,-0.0002955214154309256,-0.005957441424236817,0.0005236624821046289,1.522601233705787,0.0004188048054091248,4.591307436860011e-06,0.0,-1.5707963267948966,0.0,1.4803144133471957,0.0,0.0
20.602,600.0,73.33333587646484,0.0,-1.5707963267948966,0.0,1.3411096132859954,0.0,0.0,0.0,0.0,0.0,0.45077882577280765,0.0,0.0,0.0002482107747845882,-1.5703707536527018,-0.00018230730684696755,1.2421362824584903,-2.6166622389297316e-05,-1.41274376708344e-07,0.00015378300504450995,-0.005780875924559165,0.00012492888023375894,1.980662544354435,0.0005514565277112071,8.06878968477932e-06,0.0,-1.5707963267948966,0.0,1.1041411243375912,0.0,0.0
20.702,600.0,73.33333587646484,0.0,-1.5707963267948966,0.0,1.2916787946558808,0.0,0.0,0.0,0.0,0.0,-0.6196422990612396,0.0,0.0,0.0004123768734059875,-1.570564498622005,-0.00029620173735636613,1.3222665386012304,-8.308701646329471e-06,1.7451833288112813e-07,-0.0007193177948543819,-0.00498835299381386,0.001169932648581289,1.071156280469332,0.00021750887065720553,9.984318109147581e-07,0.0,-1.5707963267948966,0.0,1.2156230814185425,0.0,0.0
20.802,600.0,73.33333587646484,0.0,-1.5707963267948966,0.0,1.2379463763721636,0.0,0.0,0.0,0.0,0.0,-0.868959862522042,0.0,0.0,0.0007986030783570644,-1.5709791528037305,-0.0005450307413212527,1.3304589547465322,2.491414304390207e-05,7.246913291598451e-07,-0.009138636240309606,0.0037805090507733972,0.006029024801654355,-1.5077854027714037,-0.0004025547438939159,-1.0337049246259715e-05,0.0,-1.5707963267948966,0.0,1.1347893105102567,0.0,0.0
20.902,600.0,73.33333587646484,0.0,-1.5707963267948966,0.0,1.170188862665814,0.0,0.0,0.0,0.0,0.0,-0.45879702981283416,0.0,0.0,0.00071512546175069,-1.570911641670097,-0.0005009019474973214,1.2644542381836268,2.1020999037557652e-05,6.285790717302836e-07,-0.006914519622321897,0.0014416716973811843,0.0052438728974339545,-1.9141311876859666,-0.00045792492533184247,-9.961914382291636e-06,0.0,-1.5707963267948966,0.0,0.9657716263494256,0.0,0.0
21.003,600.0,73.33333587646484,0.0,-1.5707963267948966,0.0,1.0857713361301986,0.0,0.0,0.0,0.0,0.0,-0.9962408822176131,0.0,0.0,0.0004591274439930001,-1.570655312415177,-0.00035937232803010785,1.194924428443838,-2.462330629446343e-06,1.9249154185488497e-07,-0.005941449974128731,0.0009301824817070438,0.0039738761320821415,-1.0202094761838982,-0.00011605085303146499,-4.394971131680698e-06,0.0,-1.5707963267948966,0.0,0.8776156851345096,0.0,0.0
21.102,600.0,73.33333587646484,0.0,-1.5707963267948966,0.0,0.9933757671356762,0.0,0.0,0.0,0.0,0.0,-1.0392138732357363,0.0,0.0,0.0003754062352717824,-1.570525350153981,-0.0003165027815795191,1.1152628886529519,-1.4266356790706685e-05,1.164558305154821e-09,-0.00554743685129746,0.0003507207280371938,0.0034921310968328238,-0.7509043017474968,2.432058841520741e-05,-2.143974003535655e-06,0.0,-1.5707963267948966,0.0,0.8784216618167459,0.0,0.0
21.202,600.0,73.33333587646484,0.0,-1.5707963267948966,0.0,0.8966177993619402,0.0,0.0,0.0,0.0,0.0,-0.7433893270181405,0.0,0.0,0.00031772405810138196,-1.5704276121419751,-0.0002860939161980589,1.0490401923548236,-2.3531750477575906e-05,-1.2498993649128286e-07,-0.004297602608081338,-0.0012049074438345952,0.002885051302855977,-0.502105767310328,0.00012958883510148856,-4.0982792812107405e-07,0.0,-1.5707963267948966,0.0,0.804321073776615,0.0,0.0
21.302,600.0,73.33333587646484,0.0,-1.5707963267948966,0.0,0.8072680109094037,0.0,0.0,0.0,0.0,0.0,-1.0354754445065564,0.0,0.0,0.00048235952586119147,-1.5705336059533603,-0.0003314947335465583,0.9385251323870424,-7.874152497994155e-06,1.8034724234527066e-07,-0.006011218032756353,-0.0002740970126693487,0.003495457967600821,-1.7803984230187655,-0.00021556491260418467,-5.821719069395643e-06,0.0,-1.5707963267948966,0.0,0.7032649478919578,0.0,0.0
21.402,600.0,73.33333587646484,0.0,-1.5707963267948966,0.0,0.7271996489332997,0.0,0.0,0.0,0.0,0.0,-0.9703750259352634,0.0,0.0,0.00046503578000367236,-1.5704889980051016,-0.0002939265421409085,0.8566505057303003,-1.1053810022857992e-05,1.523378851669268e-07,-0.005904496533409281,-0.000543133076498118,0.0030314884923304812,-1.8549120724225285,-0.00020698454046708562,-6.299989149994391e-06,0.0,-1.5707963267948966,0.0,0.4944786135808069,0.0,0.0
21.503,600.0,73.33333587646484,0.0,-1.5707963267948966,0.0,0.6366042973314867,0.0,0.0,0.0,0.0,0.0,-0.9884098030915015,0.0,0.0,0.0003721255276965085,-1.5703822052453893,-0.0002263693753518389,0.7655743911912255,-2.4633545197145303e-05,-3.02126969721633e-08,-0.004527006108038868,-0.0019713640352249364,0.002146667134128053,-1.4088356524695098,-2.936187929409667e-05,-3.2678905334561357e-06,0.0,-1.5707963267948966,0.0,0.4755872328289778,0.0,0.0
21.602,600.0,73.33333587646484,0.0,-1.5707963267948966,0.0,0.5535467349903156,0.0,0.0,0.0,0.0,0.0,-0.9071163615629144,0.0,0.0,0.0003665904308517933,-1.5703767457651545,-0.00016807226869414117,0.6829162625417821,-2.4305638205169564e-05,9.692569409024121e-09,-0.004542277152266141,-0.0019440584417103805,0.0015479835796660612,-1.5779114942792614,-6.362713489699035e-05,-4.237854745882738e-06,0.0,-1.5707963267948966,0.0,0.3450039579519103,0.0,0.0
21.702,600.0,73.33333587646484,0.0,-1.5707963267948966,0.0,0.47065311500811724,0.0,0.0,0.0,0.0,0.0,-0.791360231292108,0.0,0.0,0.0003528653659413995,-1.570372617865465,-9.686597466617955e-05,0.5992785566643803,-2.3120473409727265e-05,6.030358331486939e-08,-0.003948866084598991,-0.0026391598709035497,0.0007539568991724323,-1.7664617015602173,-0.0001146507591563797,-4.744608552625549e-06,0.0,-1.5707963267948966,0.0,0.194724710399723,0.0,0.0
21.802,600.0,73.33333587646484,0.0,-1.5707963267948966,0.0,0.3939679047673792,0.0,0.0,0.0,0.0,0.0,-0.7771737038651135,0.0,0.0,0.0002810415498102112,-1.5703332030813317,3.0832403023503018e-06,0.5100494774993299,-3.3064262846565985e-05,-4.444686329502367e-08,-0.0032145680736314942,-0.0029641227402447613,-0.00016150345767997044,-1.2983311119880343,4.804544407924658e-05,-2.4756177860843535e-06,0.0,-1.5707963267948966,0.0,0.34681040954558523,0.0,0.0
21.902,600.0,73.33333587646484,0.0,-1.5707963267948966,0.0,0.3244629778686994,0.0,0.0,0.0,0.0,0.0,-0.8541941354932145,0.0,0.0,0.0002393530008703695,-1.5703193546436633,7.289528984173419e-05,0.4289389783383589,-3.868811615024875e-05,-1.0623613151050558e-07,-0.0029849557339908265,-0.0028432753039242856,-0.0007858697093579604,-1.1588188882811978,0.00012011414050592018,-2.6563382027039896e-06,0.0,-1.5707963267948966,0.0,0.07840948439317841,0.0,0.0
22.002,600.0,73.33333587646484,0.0,-1.5707963267948966,0.0,0.23917690585895368,0.0,0.0,0.0,0.0,0.0,-0.45738163860017544,0.0,0.0,0.0002614744840967172,-1.5703659599627398,0.00017119130756701071,0.3766553004752189,-2.293581657517177e-05,1.4978673128207978e-07,-0.002965746384257004,-0.002955439638749207,-0.0018522440125724599,-1.8317412393582941,-0.00013168231963685585,-5.976305826014871e-06,0.0,-1.5707963267948966,0.0,0.11317102141366048,0.0,0.0
22.103,600.0,73.33333587646484,0.0,-1.5707963267948966,0.0,0.17489869905160216,0.0,0.0,0.0,0.0,0.0,-0.8366722758077235,0.0,0.0,0.0002036329626381939,-1.5703510462606354,0.0002726401738274331,0.2760022256296238,-2.7570452800976742e-05,1.0778359279387623e-07,-0.00240835431025885,-0.0031298787707439986,-0.0028150790858830718,-1.731697861954759,-7.631076468139924e-05,-5.529149168399205e-06,0.0,-1.5707963267948966,0.0,0.08169034784258043,0.0,0.0
22.202,600.0,73.33333587646484,0.0,-1.5707963267948966,0.0,0.09342676628656932,0.0,0.0,0.0,0.0,0.0,-0.6955619878693159,0.0,0.0,0.00017600113839196126,-1.570355174160325,0.0003598715406973351,0.2101400880535785,-2.4322606023058398e-05,1.7700996047694248e-07,-0.0022403501972925576,-0.0030480900768054928,-0.0036920395675690753,-1.917344557857256,-0.0001351186491864731,-6.1917789283185974e-06,0.0,-1.5707963267948966,0.0,-0.14965233833457803,0.0,0.0
22.304,600.0,73.33333587646484,0.0,-1.5707963267948966,0.0,0.01172319040323444,0.0,0.0,0.0,0.0,0.0,-0.9014674342328806,0.0,0.0,0.00011092265872317527,-1.5703505136284173,0.0004360692868297883,0.11367631540548932,-3.653578167148161e-05,1.9102543713494493e-08,-0.0014438130193377436,-0.0032919284820347675,-0.004248364296536596,-1.4260404720597486,5.091051630989401e-05,-3.7806583049904344e-06,0.0,-1.5707963267948966,0.0,-0.03965646598175289,0.0,0.0
22.402,600.0,73.33333587646484,0.0,-1.5707963267948966,0.0,-0.05026419260715187,0.0,0.0,0.0,0.0,0.0,-0.7239193187624817,0.0,0.0,7.45482328521755e-05,-1.570372351549356,0.00047466304882758564,0.07451761917826294,-4.807936346037892e-05,-1.4253206401670356e-07,-0.0009127374111768175,-0.0032379503159131995,-0.004245623113148956,-0.7099358294343718,0.0002702057643610153,-6.939358258474603e-07,0.0,-1.5707963267948966,0.0,-0.1319455906230917,0.0,0.0
22.502,600.0,73.33333587646484,0.0,-1.5707963267948966,0.0,-0.12159516670953785,0.0,0.0,0.0,0.0,0.0,-0.7915927917576612,0.0,0.0,4.677871550539314e-05,-1.57037394944601,0.0005597916497596396,-0.015237115971104036,-4.2695613618286544e-05,-6.307750044695377e-08,-0.0006335704445933792,-0.0034284849277461575,-0.005276363982881572,-1.1602780342424523,0.0001468674661909076,-2.2293825135238706e-06,0.0,-1.5707963267948966,0.0,-0.1751646405686761,0.0,0.0
22.602,600.0,73.33333587646484,0.0,-1.5707963267948966,0.0,-0.19838237823352856,0.0,0.0,0.0,0.0,0.0,-0.6745000038857659,0.0,0.0,1.5789184413065833e-05,-1.570371818917138,0.000668219366717206,-0.064816147768403,-3.2798340912707196e-05,8.928239357323805e-08,-0.0006922198056699191,-0.003057190077444348,-0.0063803123941926195,-1.5199533857919758,5.944447229135164e-06,-4.0444805958351076e-06,0.0,-1.5707963267948966,0.0,-0.48771366184655823,0.0,0.0
22.702,600.0,73.33333587646484,0.0,-1.5707963267948966,0.0,-0.2889474284633664,0.0,0.0,0.0,0.0,0.0,-0.7589855981752662,0.0,0.0,-3.0314106894706324e-05,-1.5703794089262446,0.0007564274752246987,-0.16054733473488184,-3.34793800743727e-05,9.12802863172997e-08,-8.613349561534793e-05,-0.003334241534448003,-0.0072811328746957265,-1.57663544064295,1.023601748232566e-06,-4.638543436175015e-06,0.0,-1.5707963267948966,0.0,-0.4868302607609168,0.0,0.0
22.802,600.0,73.33333587646484,0.0,-1.5707963267948966,0.0,-0.3599430538341686,0.0,0.0,0.0,0.0,0.0,-0.5831811873463317,0.0,0.0,-7.602576385759e-05,-1.5703655604885762,0.0008460074107790561,-0.24778198920432867,-2.9299367991837318e-05,1.6255835850971316e-07,0.000564648407745644,-0.003936313077144414,-0.008428269228449992,-1.9128969456787692,-9.234618360508905e-05,-4.906614030962727e-06,0.0,-1.5707963267948966,0.0,-0.5948945826894685,0.0,0.0
22.902,600.0,73.33333587646484,0.0,-1.5707963267948966,0.0,-0.4387194081834451,0.0,0.0,0.0,0.0,0.0,-1.0773779253298843,0.0,0.0,-9.491835931796053e-05,-1.5704208210811954,0.0008653758609813217,-0.31332586238535265,-3.90534514949164e-05,1.2198422795812448e-08,0.0008293319651956869,-0.0035037915292033027,-0.008273353876048195,-1.3936993100979354,7.793380727176484e-05,-3.7436947335632846e-06,0.0,-1.5707963267948966,0.0,-0.5658329844618295,0.0,0.0
23.002,600.0,73.33333587646484,0.0,-1.5707963267948966,0.0,-0.5073644126426622,0.0,0.0,0.0,0.0,0.0,-0.7593917029667541,0.0,0.0,-0.00017183674702358337,-1.5703499809961994,0.001034302392560528,-0.38325721023849807,-2.065142326229079e-05,2.790745134625534e-07,0.0007498759428985086,-0.0031579813620281395,-0.010230984816567945,-2.249390012571371,-0.0002138753722597937,-7.1222842272817994e-06,0.0,-1.5707963267948966,0.0,-0.6563519113076256,0.0,0.0
23.102,600.0,73.33333587646484,0.0,-1.5707963267948966,0.0,-0.5625924456083258,0.0,0.0,0.0,0.0,0.0,-0.8336746276676948,0.0,0.0,-0.0001304910410629406,-1.5705449243879932,0.0009319504669697741,-0.4569928504193081,-4.9601708522954975e-05,-1.6320316314619224e-07,0.0008495274517520982,-0.0018805945847256817,-0.008190711098025721,-0.6818838215661857,0.0002903530558940373,-2.7799792893594687e-07,0.0,-1.5707963267948966,0.0,-0.6427322208571279,0.0,0.0
23.202,600.0,73.33333587646484,0.0,-1.5707963267948966,0.0,-0.6363772895207127,0.0,0.0,0.0,0.0,0.0,-1.0009945555143545,0.0,0.0,-0.0001538389860430099,-1.5705783470596737,0.0009723160828358892,-0.5124209558710183,-5.015430550909149e-05,-1.905672236040677e-07,0.0017508128151115059,-0.0026603951996307038,-0.008685096265628557,-0.5440465930269545,0.00031520312515789816,2.8171268684512765e-07,0.0,-1.5707963267948966,0.0,-0.8771172938635662,0.0,0.0
23.302,600.0,73.33333587646484,0.0,-1.5707963267948966,0.0,-0.7221037630559461,0.0,0.0,0.0,0.0,0.0,-0.6634752355151053,0.0,0.0,-0.00023261484896120095,-1.5705336059533603,0.0011182449570417844,-0.5980509725599084,-3.677136430984093e-05,-1.6557863312579782e-08,0.0012165028576237732,-0.0013170817915210368,-0.009998616729377427,-1.1344423090334301,0.00011265463994651032,-2.755697770000216e-06,0.0,-1.5707963267948966,0.0,-0.7795724779271352,0.0,0.0
23.402,600.0,73.33333587646484,0.0,-1.5707963267948966,0.0,-0.8058200562226023,0.0,0.0,0.0,0.0,0.0,-0.9663023608121517,0.0,0.0,-0.00027650692638526146,-1.5705312091083792,0.0011718096049862794,-0.6872452974727331,-3.436811093485016e-05,-5.553292824873058e-09,0.00309444000289453,-0.003620761517409326,-0.01143911016002828,-1.3675053897222975,5.036086954188401e-05,-3.2387619550545608e-06,0.0,-1.5707963267948966,0.0,-1.0751146897563628,0.0,0.0
23.503,600.0,73.33333587646484,0.0,-1.5707963267948966,0.0,-0.9050822412112787,0.0,0.0,0.0,0.0,0.0,-0.9870775622676791,0.0,0.0,-0.00023652852868008307,-1.5706715576978263,0.0011060463008552978,-0.735644721596479,-4.409172510526717e-05,-1.7828028323225403e-07,0.001501465905637268,-0.00048532775413473385,-0.009551145329000667,-0.6659553219283673,0.000251886405222683,-3.389040849694363e-07,0.0,-1.5707963267948966,0.0,-1.031158030386857,0.0,0.0
23.603,600.0,73.33333587646484,0.0,-1.5707963267948966,0.0,-0.971381048984373,0.0,0.0,0.0,0.0,0.0,-0.6614459548771291,0.0,0.0,-0.00039001090405930364,-1.5705228201509454,0.0013315788545565053,-0.8567099608016363,-2.3461225635171234e-05,1.2727465070641958e-07,0.0027369839675110996,-0.0017652395280420069,-0.01266962166110479,-1.8085420436284503,-0.000100011801194545,-5.543929212618801e-06,0.0,-1.5707963267948966,0.0,-1.1021158248437013,0.0,0.0
23.702,600.0,73.33333587646484,0.0,-1.5707963267948966,0.0,-1.0500979875220189,0.0,0.0,0.0,0.0,0.0,-1.0999663199544447,0.0,0.0,-0.0002781683787025305,-1.5707553141141093,0.0011133638821063734,-0.9387335247423411,-4.1602326173714224e-05,-2.1333537833830797e-07,0.003986645001226636,-0.0028329131625852207,-0.011210332138822863,-0.8133428458737042,0.00020932156835336025,-6.118588197091179e-07,0.0,-1.5707963267948966,0.0,-1.29001832575028,0.0,0.0
23.802,600.0,73.33333587646484,0.0,-1.5707963267948966,0.0,-1.1399235063343056,0.0,0.0,0.0,0.0,0.0,-0.46897249963087945,0.0,0.0,-0.00029308861517439493,-1.570792997843534,0.0011016741913743094,-1.0108120462243628,-4.0189610566533914e-05,-2.2146627257824527e-07,0.005208141806042958,-0.003994465956334142,-0.011919534017705565,-0.7329870865656616,0.0002131719037194101,-2.853133447634906e-07,0.0,-1.5707963267948966,0.0,-1.336066244756651,0.0,0.0
23.902,600.0,73.33333587646484,0.0,-1.5707963267948966,0.0,-1.2280024631831203,0.0,0.0,0.0,0.0,0.0,-1.1144243829613463,0.0,0.0,-0.0003825011278819029,-1.570715100381649,0.001209147305521218,-1.096057901926009,-2.894222498841356e-05,-8.183498018397399e-08,0.005688109493353839,-0.004214290918894443,-0.01344452975780409,-1.2757132843241548,4.346009803355958e-05,-2.743795305960845e-06,0.0,-1.5707963267948966,0.0,-1.3914951010107766,0.0,0.0
24.002,600.0,73.33333587646484,0.0,-1.5707963267948966,0.0,-1.3299160723278298,0.0,0.0,0.0,0.0,0.0,-0.959885234914232,0.0,0.0,-0.0004275295838152929,-1.5706965914120732,0.0012229286440137276,-1.1987322161704335,-2.1895803730652758e-05,-1.9546405456085944e-08,0.006233911355049318,-0.0044907673515650745,-0.01421582282138307,-1.5063536873693772,-3.9351021223223337e-05,-3.91992505839067e-06,0.0,-1.5707963267948966,0.0,-1.564208363053579,0.0,0.0
24.102,600.0,80.0,0.0,-1.5707963267948966,0.0,-1.3478488126823898,0.0,0.0,0.0,0.0,0.0,0.5146261730742793,0.0,0.0,-0.0005319841453067322,-1.5705722217891664,0.0013657885111450642,-1.2832012943611306,-7.4897021983817435e-06,1.8857009279650565e-07,0.0028889844068760227,0.00012688932862446218,-0.012824905798899725,-2.258202945250661,-0.00026238963688317074,-7.328663363483748e-06,0.0,-1.5707963267948966,0.0,-1.0567405578163749,0.0,0.0
24.202,600.0,80.0,0.0,-1.5707963267948966,0.0,-1.2758550301924645,0.0,0.0,0.0,0.0,0.0,0.6980560398789339,0.0,0.0,0.00010385556155656083,-1.5713638464231925,0.0002009933057652549,-1.3094479453263521,-5.838510930748832e-05,-7.387698838421258e-07,0.007123039414039947,-0.005914794436390021,-0.007241453855048148,1.290987977914359,0.0006087516167578334,6.762494256458368e-06,0.0,-1.5707963267948966,0.0,-1.194665704225142,0.0,0.0
24.302,600.0,80.0,0.0,-1.5707963267948966,0.0,-1.1980809042669573,0.0,0.0,0.0,0.0,0.0,0.8218810694319025,0.0,0.0,-5.982996847579919e-05,-1.5711686367152897,0.0004804850076529998,-1.2655400089600521,-4.015195261697678e-05,-4.5021770575552856e-07,0.0016014616228602638,0.0012647102345434108,-0.003515074073579261,0.9568631936001373,0.00042564079402850573,5.0320231912655705e-06,0.0,-1.5707963267948966,0.0,-1.110254040350369,0.0,0.0
24.402,600.0,80.0,0.0,-1.5707963267948966,0.0,-1.1189958199518557,0.0,0.0,0.0,0.0,0.0,0.9602433273548089,0.0,0.0,-0.00010263699143314459,-1.5711366787822088,0.0005494003800961517,-1.2211179493453124,-3.749575257875805e-05,-3.9796740233653636e-07,0.0018847566841890687,0.0010584885245814362,-0.0036054574437427525,1.2793607497531274,0.0004496072932817798,5.746813600075834e-06,0.0,-1.5707963267948966,0.0,-0.9701224011383787,0.0,0.0
24.502,600.0,80.0,0.0,-1.5707963267948966,0.0,-1.0286911466814974,0.0,0.0,0.0,0.0,0.0,1.0734303712057949,0.0,0.0,-0.00034308429566341927,-1.5708555821291508,0.0009910320065562202,-1.1315964550925715,-1.6149586472877292e-05,-4.647908286576084e-08,-0.0011299936846456695,0.005331562677811318,-0.003777667738770554,0.5976961729236825,0.00020389870983461545,2.0265404135425665e-06,0.0,-1.5707963267948966,0.0,-0.7706126324590363,0.0,0.0
24.602,600.0,80.0,0.0,-1.5707963267948966,0.0,-0.9499253715843272,0.0,0.0,0.0,0.0,0.0,0.7771274386960635,0.0,0.0,-0.0002971862162051316,-1.570944132235396,0.0009395609569296098,-1.0692196297246264,-2.647406478280864e-05,-1.838591822824593e-07,0.0013105103635089688,0.0023280743074808475,-0.004853091978316306,1.3334555436050894,0.0003841823458478874,4.02718768503977e-06,0.0,-1.5707963267948966,0.0,-0.8472910368457187,0.0,0.0
24.702,600.0,80.0,0.0,-1.5707963267948966,0.0,-0.8745263998684702,0.0,0.0,0.0,0.0,0.0,1.0015644203799638,0.0,0.0,-0.00026835257224749036,-1.5710007244085602,0.0009216517837660586,-0.9953354184445037,-3.5815481445863775e-05,-3.0075233706583987e-07,0.0035157697723991795,-0.0004905281353229128,-0.005848367812692609,1.9764982925159327,0.0005467328627611253,4.9859895277469645e-06,0.0,-1.5707963267948966,0.0,-0.6171356439240686,0.0,0.0
24.802,600.0,80.0,0.0,-1.5707963267948966,0.0,-0.7815605820678861,0.0,0.0,0.0,0.0,0.0,1.1660010395858624,0.0,0.0,-0.0002975934925983996,-1.5709700980560242,0.0010332057891683096,-0.9176930208130882,-3.798986535101453e-05,-2.91505475706472e-07,0.002835466312235739,0.0005286971634383628,-0.005969744500264872,2.053657259830471,0.0005812675472376067,5.848956775383999e-06,0.0,-1.5707963267948966,0.0,-0.584319488433833,0.0,0.0
24.903,600.0,80.0,0.0,-1.5707963267948966,0.0,-0.6964037182273879,0.0,0.0,0.0,0.0,0.0,0.6951100103823528,0.0,0.0,-0.0003827247592922869,-1.5708284178860321,0.0012226558260465896,-0.8286369805398658,-2.8317437058726545e-05,-1.1048091149723336e-07,0.0005901308802405266,0.003553651938533931,-0.0060498577954004205,1.6860843040683178,0.00046876817166324264,4.7745668798752085e-06,0.0,-1.5707963267948966,0.0,-0.5477417290319448,0.0,0.0
25.002,600.0,80.0,0.0,-1.5707963267948966,0.0,-0.6145680464247825,0.0,0.0,0.0,0.0,0.0,0.9321582321343252,0.0,0.0,-0.00048359487890590596,-1.5706388008164185,0.0014256522892831397,-0.7531934884415016,-1.4626889903596078e-05,1.0726141231280447e-07,0.0014859427193517109,0.0019615879713777164,-0.008569778269536225,0.9610291099143209,0.00026221810161105403,1.5132657002571883e-06,0.0,-1.5707963267948966,0.0,-0.5597116468275298,0.0,0.0
25.102,600.0,80.0,0.0,-1.5707963267948966,0.0,-0.5517433557739979,0.0,0.0,0.0,0.0,0.0,0.4881389128476644,0.0,0.0,-0.00035973786249418073,-1.5707715593967588,0.0012729203908785833,-0.6425559230635768,-3.73883296914652e-05,-1.602505163470776e-07,0.0013210185365816354,0.002041825061892061,-0.006909983926090355,2.0561177543615954,0.0006018071121262615,5.454212713661744e-06,0.0,-1.5707963267948966,0.0,-0.43840927289187587,0.0,0.0
25.202,600.0,80.0,0.0,-1.5707963267948966,0.0,-0.47584403583961343,0.0,0.0,0.0,0.0,0.0,0.7377044814509371,0.0,0.0,-0.0004301223297818234,-1.570594326026214,0.0014190271559229172,-0.5944272758436647,-2.243118907922056e-05,7.755854014831937e-08,0.002890775538753696,-0.0009075665484245491,-0.0094977749565771,1.0815834216643465,0.0003371262854566332,1.27992302821733e-06,0.0,-1.5707963267948966,0.0,-0.2827770044609008,0.0,0.0
25.303,600.0,80.0,0.0,-1.5707963267948966,0.0,-0.3939821869543927,0.0,0.0,0.0,0.0,0.0,0.872288782249559,0.0,0.0,-0.00038024550325941686,-1.5705874018073798,0.0013813985622552392,-0.5033470334049003,-2.6888300196106462e-05,4.7504546215346105e-08,0.0013597736421889306,0.0008265375966085428,-0.008712478971180536,1.197660959621949,0.0003971463357548652,2.335190857374033e-06,0.0,-1.5707963267948966,0.0,-0.1372980211061111,0.0,0.0
25.402,600.0,80.0,0.0,-1.5707963267948966,0.0,-0.30849077991374063,0.0,0.0,0.0,0.0,0.0,0.7860598416859504,0.0,0.0,-0.00030459518107222547,-1.5706507850413238,0.0012625820463402742,-0.4292815940125976,-4.2899158350709915e-05,-1.537103867815726e-07,0.0015252995069103634,0.0003522354009071764,-0.007544326531355262,1.9301911143235804,0.0006303667840369467,4.5873357158663345e-06,0.0,-1.5707963267948966,0.0,-0.08583796970361368,0.0,0.0
25.503,600.0,80.0,0.0,-1.5707963267948966,0.0,-0.22312858551353543,0.0,0.0,0.0,0.0,0.0,0.8236844395950189,0.0,0.0,-0.00031831198862279414,-1.5705413291205215,0.0013116126885363419,-0.36831158349048704,-3.13862633003559e-05,3.11630659239242e-08,0.001645161651649807,-0.0005771362015631749,-0.008558445790889827,1.2729686305047192,0.0004420290200289788,2.4512332783082354e-06,0.0,-1.5707963267948966,0.0,-0.14316762924913878,0.0,0.0
25.602,600.0,80.0,0.0,-1.5707963267948966,0.0,-0.15104668694717116,0.0,0.0,0.0,0.0,0.0,0.6629671634179803,0.0,0.0,-0.0002577058120687811,-1.5705683602055858,0.00120155768652598,-0.2717019029041751,-4.4429626672287235e-05,-1.1276614954371358e-07,0.0011390319176322885,-0.00011267775405216273,-0.0072405051039098065,2.0015113672642295,0.0006585524690679899,5.408777932231837e-06,0.0,-1.5707963267948966,0.0,0.0006170884058011028,0.0,0.0
25.703,600.0,80.0,0.0,-1.5707963267948966,0.0,-0.09494295393066476,0.0,0.0,0.0,0.0,0.0,0.884216841475958,0.0,0.0,-0.00024139143092202035,-1.5704718206160704,0.0012083652620253325,-0.207341838117205,-3.175649129326644e-05,7.605512831883292e-08,0.001300272147585863,-0.0014325298247759718,-0.008116300192544576,1.1336416296516978,0.00042398948460991957,2.031770472665363e-06,0.0,-1.5707963267948966,0.0,0.13314962276476855,0.0,0.0
25.803,600.0,80.0,0.0,-1.5707963267948966,0.0,-0.008821104079211217,0.0,0.0,0.0,0.0,0.0,0.9338512191607119,0.0,0.0,-0.0002140616504952204,-1.570436001099409,0.001182331822072507,-0.16207535669982842,-2.688428936237247e-05,1.463192535143793e-07,0.0011959426818448462,-0.0019367625766654594,-0.00826969931163044,0.7340248538634383,0.000322840370263939,5.95629381783123e-07,0.0,-1.5707963267948966,0.0,0.1845466110658825,0.0,0.0
25.902,600.0,80.0,0.0,-1.5707963267948966,0.0,0.07129100971392204,0.0,0.0,0.0,0.0,0.0,1.0101642058541696,0.0,0.0,-0.00016966457375019686,-1.5704419932118616,0.0010931871859199583,-0.07977260193072092,-3.435822811049244e-05,5.994988207385647e-08,0.0005758741258815458,-0.0013333088689677559,-0.007298315465213242,1.182364561268861,0.0004552414134258161,2.473293371802851e-06,0.0,-1.5707963267948966,0.0,0.3253536751783248,0.0,0.0
26.002,600.0,80.0,0.0,-1.5707963267948966,0.0,0.15017227095065738,0.0,0.0,0.0,0.0,0.0,0.5187524271377528,0.0,0.0,-0.00012828360333652107,-1.5704688911388713,0.0009499070386790936,0.0035745894821587274,-5.666623339194671e-05,-2.3716821234134821e-07,0.0008909602175931026,-0.001787064575301559,-0.005716946014383702,2.30715663977628,0.0008010401048213796,5.86201027149546e-06,0.0,-1.5707963267948966,0.0,0.21674828662754814,0.0,0.0
26.102,600.0,80.0,0.0,-1.5707963267948966,0.0,0.21517600550562102,0.0,0.0,0.0,0.0,0.0,0.5149248939601996,0.0,0.0,-9.292367864420242e-05,-1.5703804741906808,0.0010014019501250414,0.07399772852158744,-2.0768306353162905e-05,2.5580059162933735e-07,0.00016534925799997457,-0.0021791877380115806,-0.007106934051377423,0.6160205854361908,0.00026116348396771033,-2.1122090930980468e-07,0.0,-1.5707963267948966,0.0,0.42296106632779906,0.0,0.0
26.202,600.0,80.0,0.0,-1.5707963267948966,0.0,0.2828911339789914,0.0,0.0,0.0,0.0,0.0,0.9201958717011068,0.0,0.0,-4.169995970085998e-05,-1.5703730173396284,0.0008633303764135997,0.18270461862250253,-3.106782260745142e-05,1.1554576532586802e-07,0.00016898274014274107,-0.002664861456017416,-0.00592742260532458,1.1547142912511132,0.0004241075908628524,1.6001292549808412e-06,0.0,-1.5707963267948966,0.0,0.5244946151340979,0.0,0.0
26.302,600.0,80.0,0.0,-1.5707963267948966,0.0,0.36360198215955747,0.0,0.0,0.0,0.0,0.0,1.0000545583473064,0.0,0.0,5.485404362125452e-06,-1.5703674247013393,0.0007949379159105591,0.23035090078997392,-2.6950886676100443e-05,1.7185144401672452e-07,-9.274554398608366e-05,-0.0029372705863161966,-0.005624309100192327,0.7978654857245452,0.0003338243493145646,3.7351793947382585e-07,0.0,-1.5707963267948966,0.0,0.4495574130400138,0.0,0.0
26.402,600.0,80.0,0.0,-1.5707963267948966,0.0,0.4292706213236025,0.0,0.0,0.0,0.0,0.0,0.7714415926081679,0.0,0.0,3.315774737549248e-05,-1.570357038373088,0.0007021147885023383,0.29647517664106704,-3.4051584226432724e-05,7.456378842076228e-08,-0.00012862243141832468,-0.0031642894647859396,-0.004857916877197473,1.1357336758460095,0.00044158143211530434,2.2442217348116036e-06,0.0,-1.5707963267948966,0.0,0.6409121455103267,0.0,0.0
26.502,600.0,80.0,0.0,-1.5707963267948966,0.0,0.5018090431551357,0.0,0.0,0.0,0.0,0.0,0.8520856897060863,0.0,0.0,9.996945784347288e-05,-1.5703597015341781,0.0006109601029088764,0.36985964574263647,-2.6761150264880823e-05,1.5646412053325563e-07,-0.0006458828182785608,-0.0032330853655859514,-0.004373829612575377,0.7183229892343855,0.0003181048069134792,3.217706252603213e-08,0.0,-1.5707963267948966,0.0,0.7617058754342712,0.0,0.0
26.602,600.0,80.0,0.0,-1.5707963267948966,0.0,0.5796766877388585,0.0,0.0,0.0,0.0,0.0,0.7917959449913865,0.0,0.0,0.00011600943619517641,-1.5703350672940948,0.000516923208624933,0.4551718807344528,-3.452937733478271e-05,4.248286085151793e-08,-0.00041522888096545484,-0.0037456320434663673,-0.0036173397195126294,1.2421342850876729,0.0004600210268651071,2.619221736019249e-06,0.0,-1.5707963267948966,0.0,0.676847765948569,0.0,0.0
26.702,600.0,80.0,0.0,-1.5707963267948966,0.0,0.6519342985058063,0.0,0.0,0.0,0.0,0.0,0.9323876793065582,0.0,0.0,0.00010443364989022857,-1.5702839346011654,0.0004214164392735232,0.5461806172979486,-4.744341265301483e-05,-1.3655791040732127e-07,0.0001118982218989799,-0.00448219322121178,-0.0028786633572803395,2.037497331493925,0.0006841911812137384,5.968958218370218e-06,0.0,-1.5707963267948966,0.0,0.7081377836660803,0.0,0.0
26.802,600.0,80.0,0.0,-1.5707963267948966,0.0,0.7232067450462298,0.0,0.0,0.0,0.0,0.0,0.8162464523328139,0.0,0.0,0.00024068723092259713,-1.5703582367955786,0.00034160756113562566,0.6107585120173304,-2.1990434212074687e-05,1.9371614842021944e-07,-0.0012080539530580643,-0.0038546492188820066,-0.0025371017642816934,0.806587671189691,0.0002914441977254267,2.8062083184117463e-07,0.0,-1.5707963267948966,0.0,1.0005127936841736,0.0,0.0
26.902,600.0,80.0,0.0,-1.5707963267948966,0.0,0.8009115736570408,0.0,0.0,0.0,0.0,0.0,0.5762593485829409,0.0,0.0,0.0002247813777767944,-1.5703126967409382,0.00025730255057290844,0.6640449033203989,-3.35032053207581e-05,1.3846286078789695e-08,-0.0010011195094078709,-0.004155410611817123,-0.0019108204228007802,1.301430099390505,0.00045865823740104313,2.3889767168185893e-06,0.0,-1.5707963267948966,0.0,1.0069637392825648,0.0,0.0
27.003,600.0,80.0,0.0,-1.5707963267948966,0.0,0.8816556502400287,0.0,0.0,0.0,0.0,0.0,1.0294936382300899,0.0,0.0,0.0002471529549761155,-1.5702889946072365,0.00015195897376469838,0.7516190276050467,-3.688470388803215e-05,-5.458363077017227e-08,-0.0012951601266496717,-0.004074631266334731,-0.0012019914905004186,1.5296950959014313,0.0005218965774365003,3.9498722105716675e-06,0.0,-1.5707963267948966,0.0,1.1596351623173378,0.0,0.0
27.102,600.0,80.0,0.0,-1.5707963267948966,0.0,0.9661430553445212,0.0,0.0,0.0,0.0,0.0,0.5949608438539327,0.0,0.0,0.0003737180603175988,-1.5703732836557376,5.708421753282266e-05,0.8093095549818065,-1.91553660248669e-05,1.7493654077735615e-07,-0.001685214007991215,-0.004380687252382331,-0.0006263944087937953,0.6762879874837111,0.00024092300455303903,1.3376747671423995e-07,0.0,-1.5707963267948966,0.0,1.2185922048679156,0.0,0.0
27.202,600.0,80.0,0.0,-1.5707963267948966,0.0,1.04979717834814,0.0,0.0,0.0,0.0,0.0,0.5279078002247718,0.0,0.0,0.00032249248834468925,-1.5702951198777437,-5.101782541466958e-06,0.9085512543182005,-3.1202478121155965e-05,-1.1862451459987913e-08,-0.0006670581348551744,-0.0054324090981520525,-0.0004420888371237755,1.563554392842644,0.00046600075327804763,4.190838946216123e-06,0.0,-1.5707963267948966,0.0,1.3191271970797012,0.0,0.0
27.302,600.0,80.0,0.0,-1.5707963267948966,0.0,1.1436795751128452,0.0,0.0,0.0,0.0,0.0,0.9342506753671884,0.0,0.0,0.00035365605690859805,-1.5703028430449049,-8.15833327494673e-05,0.9949924698751287,-2.8757450307679457e-05,-1.9466976552315187e-09,-0.0008196686435684424,-0.0053921048598266855,-4.485490102159153e-05,1.6210115607288857,0.00045156529534836167,3.6726472027198752e-06,0.0,-1.5707963267948966,0.0,1.2242988375431476,0.0,0.0
27.402,600.0,80.0,0.0,-1.5707963267948966,0.0,1.2162622412369777,0.0,0.0,0.0,0.0,0.0,0.745069424802182,0.0,0.0,0.0004996272257016293,-1.5704264137194845,-0.00020311391930366994,1.0659597208132878,-1.223270560478143e-05,2.0534577569801865e-07,-0.0017617408781822129,-0.0048212911301277785,0.0008705002354479599,0.8114478736000583,0.00019479643354541518,-3.3490720419759474e-08,0.0,-1.5707963267948966,0.0,1.5042952099916365,0.0,0.0
27.502,600.0,86.66666412353516,0.0,-1.5707963267948966,0.0,1.3123596797662176,0.0,0.0,0.0,0.0,0.0,0.871079011240949,0.0,0.0,0.0003658042261667045,-1.5703150935859194,-0.0001902436536816372,1.1353841359529366,-2.705624928709833e-05,-5.611773832270325e-08,-0.0017227318099963568,-0.004253793088000884,0.00070420624120704,1.6959148306001273,0.00045116569114768716,4.283224508731344e-06,0.0,-1.5707963267948966,0.0,1.0205042783052516,0.0,0.0
27.602,600.0,86.66666412353516,0.0,-1.5707963267948966,0.0,1.2850353735382587,0.0,0.0,0.0,0.0,0.0,-0.8524030215133201,0.0,0.0,0.000254539309631562,-1.570236530333762,-0.00017053018237769921,1.2166666087412996,-3.568953232656154e-05,-2.4043576114628426e-07,-0.0006498564288747569,-0.0048711515394584065,0.0001741300824232239,2.3800095419242693,0.0006105404729851613,6.620600346007449e-06,0.0,-1.5707963267948966,0.0,1.094342562541129,0.0,0.0
27.702,600.0,86.66666412353516,0.0,-1.5707963267948966,0.0,1.2125199077514175,0.0,0.0,0.0,0.0,0.0,-0.8624650195860346,0.0,0.0,0.0006019655624088915,-1.570576616004965,-0.0003970064482771966,1.2332774102503963,-1.6977523689944375e-06,2.6123805621680096e-07,-0.005678597014835212,0.00012413141920678241,0.003171575707080828,0.08094387682289458,3.994767236185244e-05,-1.5884714995472644e-06,0.0,-1.5707963267948966,0.0,1.027713123769916,0.0,0.0
27.802,600.0,86.66666412353516,0.0,-1.5707963267948966,0.0,1.1279149859983386,0.0,0.0,0.0,0.0,0.0,-0.7880836466727246,0.0,0.0,0.0005346836517837587,-1.5705232196251089,-0.0003816012707167004,1.2044709288453908,-7.1838624113079525e-06,1.595525825134272e-07,-0.004629561736844837,-0.0008836236509162872,0.0029066541166046433,0.007521747918738435,6.138746420889097e-05,-1.0097284084475156e-06,0.0,-1.5707963267948966,0.0,0.9724316344402699,0.0,0.0
27.902,600.0,86.66666412353516,0.0,-1.5707963267948966,0.0,1.0372201684001006,0.0,0.0,0.0,0.0,0.0,-1.039917969626756,0.0,0.0,0.0006433308389625058,-1.570604579196411,-0.00045209184832902585,1.1405836916652072,3.423025122418589e-06,2.9789586887612496e-07,-0.004921489965398758,-0.0011144509927857222,0.003569580970803967,-1.0935646505134768,-0.00017151796091946573,-4.411701733339317e-06,0.0,-1.5707963267948966,0.0,0.935544447879784,0.0,0.0
