7cmdehdrb/project_th/tune/rtde_tune/data/rtde_log_elbow_3.csv
Time,Stiffness,Damping,R_shoulder_pan_p,R_shoulder_lift_p,R_elbow_p,R_wrist_1_p,R_wrist_2_p,R_wrist_3_p,R_shoulder_pan_v,R_shoulder_lift_v,R_elbow_v,R_wrist_1_v,R_wrist_2_v,R_wrist_3_v,S_shoulder_pan_p,S_shoulder_lift_p,S_elbow_p,S_wrist_1_p,S_wrist_2_p,S_wrist_3_p,S_shoulder_pan_v,S_shoulder_lift_v,S_elbow_v,S_wrist_1_v,S_wrist_2_v,S_wrist_3_v,C_shoulder_pan_p,C_shoulder_lift_p,C_elbow_p,C_wrist_1_p,C_wrist_2_p,C_wrist_3_p
4.403,600.0,11.11111068725586,0.0,-1.5707963267948966,1.4318817176698007,-1.5707963267948966,0.0,0.0,0.0,0.0,-0.09752378608540097,0.0,0.0,0.0,0.0006079630714038177,-1.5692313201803114,1.4561829282255925,-1.5699349273403105,-5.272646496731765e-05,9.341292594395117e-07,-0.04186466347063945,-0.08354021753674805,0.33708834997526177,-0.04674278812290519,0.002797533431607573,-5.4948003598556786e-05,0.0,-1.5707963267948966,1.314885386755457,-1.5707963267948966,0.0,0.0
4.503,600.0,11.11111068725586,0.0,-1.5707963267948966,1.3949281747412963,-1.5707963267948966,0.0,0.0,0.0,0.0,-0.8372602227789785,0.0,0.0,0.0,-0.00014403181080463744,-1.569480858374452,1.2862878980645325,-1.5700117595377592,-5.383714081872659e-05,6.513294796935536e-07,0.008861095323425917,-0.07695875585721364,-2.757187188157794,-0.042555192012972566,0.002880033428825509,-3.833848685662656e-05,0.0,-1.5707963267948966,1.1263404996767794,-1.5707963267948966,0.0,0.0
4.602,600.0,11.11111068725586,0.0,-1.5707963267948966,1.3187165531509573,-1.5707963267948966,0.0,0.0,0.0,0.0,-0.7112301860436236,0.0,0.0,0.0,2.879231652190199e-05,-1.5743155610173818,1.2823473517575967,-1.570200577659046,-4.0191122248549156e-05,5.502045690224199e-07,-0.027852108500051275,0.2354516532258027,0.06116269854935621,-0.03332477554329881,0.002061672243908444,-4.325719942328789e-05,0.0,-1.5707963267948966,1.2530169508414069,-1.5707963267948966,0.0,0.0
4.702,600.0,11.11111068725586,0.0,-1.5707963267948966,1.2526054806534255,-1.5707963267948966,0.0,0.0,0.0,0.0,-0.4898660962963847,0.0,0.0,0.0,-0.00033114652653440206,-1.5687028158619853,1.237893866841994,-1.5695720716417871,-8.066032084199901e-05,1.2619196116360987e-06,0.019935602085465534,-0.12212546860225312,-1.3170985413478773,-0.0662997365550373,0.00431334646743183,-7.272119446297874e-05,0.0,-1.5707963267948966,1.1555645365938494,-1.5707963267948966,0.0,0.0
4.803,600.0,11.11111068725586,0.0,-1.5707963267948966,1.1810191610162155,-1.5707963267948966,0.0,0.0,0.0,0.0,-0.9864620346305301,0.0,0.0,0.0,0.00010111163113386071,-1.5816055650273102,1.1279567128307602,-1.5722022095343495,7.579912533782086e-05,-2.680546957127529e-06,-0.005781926624832985,-0.6093611513933659,1.539402584390879,0.07670949230156063,-0.0040524890584355934,0.00015114104001193477,0.0,-1.5707963267948966,0.8987710139014036,-1.5707963267948966,0.0,0.0
4.903,600.0,11.11111068725586,0.0,-1.5707963267948966,1.0980130937687704,-1.5707963267948966,0.0,0.0,0.0,0.0,-0.6953980643415918,0.0,0.0,0.0,-0.0003816456784077288,-1.5683800407378676,1.1068805891219275,-1.5696445096234373,-7.693309003231948e-05,1.1345786883278893e-06,0.0252517917699141,-0.14299389071319474,-1.1024480903826268,-0.06206526880991928,0.00412673455664591,-6.278588385550777e-05,0.0,-1.5707963267948966,0.8040601952528272,-1.5707963267948966,0.0,0.0
5.002,600.0,11.11111068725586,0.0,-1.5707963267948966,1.0201640777661192,-1.5707963267948966,0.0,0.0,0.0,0.0,-0.7080929266567918,0.0,0.0,0.0,0.0006571029448164707,-1.5783538453363235,1.0362753949339647,-1.5722195200814348,8.210311567035358e-05,-2.3483413733997785e-06,-0.014550398037783787,0.01660916200055065,1.4701579992038378,0.13459548737995378,-0.0073212477789123456,0.00025407805156116905,0.0,-1.5707963267948966,0.8259080473912319,-1.5707963267948966,0.0,0.0
5.103,600.0,11.11111068725586,0.0,-1.5707963267948966,0.9412449893741037,-1.5707963267948966,0.0,0.0,0.0,0.0,-0.882428087322664,0.0,0.0,0.0,0.00019135753576183655,-1.5767795176579231,0.9847328415126801,-1.5716397499121246,4.291142248060777e-05,-1.8198973933329162e-06,-0.0015025214172861047,-0.37024330738717603,0.6297423232157422,0.06957242863960843,-0.003498535427090949,0.00015188477130878886,0.0,-1.5707963267948966,0.6867257036732453,-1.5707963267948966,0.0,0.0
5.202,600.0,11.11111068725586,0.0,-1.5707963267948966,0.8574152789532841,-1.5707963267948966,0.0,0.0,0.0,0.0,-0.9830352341862605,0.0,0.0,0.0,8.430456355997078e-05,-1.5716281651613828,0.7965988197310763,-1.5712892779126704,2.470536025202266e-05,-1.0945240675112045e-06,0.026637840201029644,-0.17720420893083694,-1.4618233702563257,-0.08381677849357437,0.005415253555364359,-0.00010026374819708545,0.0,-1.5707963267948966,0.8028429455879875,-1.5707963267948966,0.0,0.0
5.303,600.0,11.11111068725586,0.0,-1.5707963267948966,0.7766845227459029,-1.5707963267948966,0.0,0.0,0.0,0.0,-0.7819905007527794,0.0,0.0,0.0,-0.0004903162397664536,-1.5701628939296213,0.68410736133932,-1.5698746067416203,-6.428999120602897e-05,8.314805392638496e-07,0.022926775156274667,-0.02992800303847061,-2.3178316546897535,-0.05023317282064428,0.003386229351758792,-5.32059160494908e-05,0.0,-1.5707963267948966,0.5135721713227825,-1.5707963267948966,0.0,0.0
5.402,600.0,11.11111068725586,0.0,-1.5707963267948966,0.7029902768349947,-1.5707963267948966,0.0,0.0,0.0,0.0,-0.8898484067091352,0.0,0.0,0.0,-0.00048438992611805166,-1.5716714415290967,0.6979817648283604,-1.5700108274313778,-5.6768430410767515e-05,5.759194179268715e-07,0.02136115476628212,0.05623307085832185,-0.7403444019721418,-0.043805928974171474,0.0030075738779050854,-4.309821680102353e-05,0.0,-1.5707963267948966,0.49354473128296555,-1.5707963267948966,0.0,0.0
5.502,600.0,11.11111068725586,0.0,-1.5707963267948966,0.6206861835043878,-1.5707963267948966,0.0,0.0,0.0,0.0,-0.7552586788313818,0.0,0.0,0.0,-0.00037720416159120175,-1.5687295806309407,0.5608613260965241,-1.5700358611456244,-5.335220379375619e-05,7.143375010559484e-07,0.02744615536494993,-0.12261540701904364,-2.3752976110075923,-0.04036088875518019,0.002935223801376849,-2.9905625625853616e-05,0.0,-1.5707963267948966,0.4923713801999805,-1.5707963267948966,0.0,0.0
5.603,600.0,11.11111068725586,0.0,-1.5707963267948966,0.5448853109491303,-1.5707963267948966,0.0,0.0,0.0,0.0,-0.9990281338785709,0.0,0.0,0.0,0.0009265877343840873,-1.5783413284792,0.4529131206559021,-1.5720275061668403,7.755317224218485e-05,-2.0400627545801256e-06,-0.048697340303563194,0.043519626673420346,0.32584281937726595,0.07505032629768445,-0.004565889300251326,0.00013651676812215138,0.0,-1.5707963267948966,0.34894055883782765,-1.5707963267948966,0.0,0.0
5.703,600.0,11.11111068725586,0.0,-1.5707963267948966,0.44534910120562454,-1.5707963267948966,0.0,0.0,0.0,0.0,-1.1252778158017578,0.0,0.0,0.0,-0.0005352428440922359,-1.5697536992281305,0.345553706842783,-1.5701019075406584,-5.0326901396815695e-05,7.542580845434088e-07,0.029360862078392218,-0.057239987099345586,-1.7529123368822213,-0.03746006134375739,0.002681302574633777,-4.193347393560167e-05,0.0,-1.5707963267948966,0.3253264379053477,-1.5707963267948966,0.0,0.0
5.802,600.0,11.11111068725586,0.0,-1.5707963267948966,0.35474386040100825,-1.5707963267948966,0.0,0.0,0.0,0.0,-1.1168564415830171,0.0,0.0,0.0,0.001033790046139878,-1.5752869490249881,0.2269788062177156,-1.5718324296169919,6.99621716020942e-05,-1.8798616688634608e-06,-0.05642814324698095,-0.2220672214430665,0.2686489881885628,0.05881222169957669,-0.004037224255992125,0.00010286291474851942,0.0,-1.5707963267948966,0.0701137475910989,-1.5707963267948966,0.0,0.0
5.903,600.0,11.11111068725586,0.0,-1.5707963267948966,0.26784752503297327,-1.5707963267948966,0.0,0.0,0.0,0.0,-0.7784299739147155,0.0,0.0,0.0,-0.0015656110273168362,-1.565081848885859,0.13996729135810376,-1.5698445130213023,-7.843119941871568e-05,7.827892412345746e-07,0.06546434869416068,-0.29770326008824344,-1.6680509750629553,-0.0851511886472722,0.005714196508617655,-0.00016785694340751837,0.0,-1.5707963267948966,0.1578251699026571,-1.5707963267948966,0.0,0.0
6.003,600.0,11.11111068725586,0.0,-1.5707963267948966,0.19585578531264236,-1.5707963267948966,0.0,0.0,0.0,0.0,-0.9595147688211321,0.0,0.0,0.0,-0.000677168524247443,-1.5722273764066508,0.060790867165721504,-1.570251577193921,-4.094630494303485e-05,8.939161558309062e-07,-0.040398963636389916,0.16608464585240185,-1.6701351649320513,-0.02271433812507041,0.0006346284919668865,-0.00011361277814252634,0.0,-1.5707963267948966,0.08484550323959848,-1.5707963267948966,0.0,0.0
6.102,600.0,11.11111068725586,0.0,-1.5707963267948966,0.11707354002760528,-1.5707963267948966,0.0,0.0,0.0,0.0,-0.9888661740819743,0.0,0.0,0.0,-0.00027711501266687686,-1.565094498901037,0.07869171639042022,-1.5704200221328684,-2.6113329502768012e-05,7.747914477769144e-07,0.015397235410753147,0.5465392452282414,-0.13239098088623502,-0.02080643287538083,0.0014337885845099546,-4.403958020306396e-05,0.0,-1.5707963267948966,-0.08090487133776636,-1.5707963267948966,0.0,0.0
6.203,600.0,11.11111068725586,0.0,-1.5707963267948966,0.05497148723509948,-1.5707963267948966,0.0,0.0,0.0,0.0,-0.6146364199996482,0.0,0.0,0.0,-0.000986090724414525,-1.565669741696494,-0.0326650065115561,-1.570099910169841,-5.406419383195152e-05,1.0521014115484142e-06,0.07971620117226008,-0.29910438242724774,-2.237362111824137,-0.03519531331394321,0.003177193312505214,-2.2331665949555748e-05,0.0,-1.5707963267948966,-0.0685830816986347,-1.5707963267948966,0.0,0.0
6.302,600.0,11.11111068725586,0.0,-1.5707963267948966,-0.0008028191073981006,-1.5707963267948966,0.0,0.0,0.0,0.0,-0.7747701579561664,0.0,0.0,0.0,5.258980810040744e-05,-1.5755027982313392,-0.06315153060667057,-1.570744128837531,-1.5077739159467727e-06,2.761952824199124e-07,-0.02701274878408015,0.27565050527340834,-0.7960784380540749,-0.005937739753805385,-0.00013157091029779698,-5.269146058860985e-05,0.0,-1.5707963267948966,-0.23245453650513465,-1.5707963267948966,0.0,0.0
6.403,600.0,11.11111068725586,0.0,-1.5707963267948966,-0.07823930659438716,-1.5707963267948966,0.0,0.0,0.0,0.0,-1.086298648182091,0.0,0.0,0.0,0.0005587263853236079,-1.572487966719315,-0.08483403945095738,-1.571268638414222,3.5265237319638085e-05,-7.742821567216278e-07,0.07397678109513828,-0.13656628484326125,-0.04662553829472525,-0.03137075183366962,0.002822062081514774,-1.9958089493267442e-05,0.0,-1.5707963267948966,-0.13572321241604246,-1.5707963267948966,0.0,0.0
6.502,600.0,11.11111068725586,0.0,-1.5707963267948966,-0.1650526929390015,-1.5707963267948966,0.0,0.0,0.0,0.0,-0.9449721193350257,0.0,0.0,0.0,-0.001064315554856192,-1.5683839023214483,-0.13654268257810043,-1.5701683534098558,-4.995657587603321e-05,8.239313359203397e-07,0.07108101785097584,-0.1414315971939702,-1.6066627150916477,-0.033414678036035,0.0028842783619614735,-2.853029976658258e-05,0.0,-1.5707963267948966,-0.3253507180354841,-1.5707963267948966,0.0,0.0
6.603,600.0,11.11111068725586,0.0,-1.5707963267948966,-0.2499757787550223,-1.5707963267948966,0.0,0.0,0.0,0.0,-1.0272398666042073,0.0,0.0,0.0,0.0004833420866618086,-1.5727682644240457,-0.21694241733364297,-1.5714113838486503,4.316256894186596e-05,-1.013829912624961e-06,0.0708833363966863,-0.16215573423047838,-0.7059885586456836,-0.04434884765189775,0.003438914168261125,-5.320044636133888e-05,0.0,-1.5707963267948966,-0.41682496979795153,-1.5707963267948966,0.0,0.0
6.703,600.0,11.11111068725586,0.0,-1.5707963267948966,-0.3286592400558064,-1.5707963267948966,0.0,0.0,0.0,0.0,-0.7982299718908176,0.0,0.0,0.0,-0.0005007126784071548,-1.5700197490210295,-0.36838588568490027,-1.5704277453000297,-2.558610195432279e-05,5.375336285284757e-07,0.03076718174271139,-0.045698662528026006,-2.4959665052635187,-0.01995481845720614,0.001443903915314402,-2.452855847482056e-05,0.0,-1.5707963267948966,-0.6014801084792156,-1.5707963267948966,0.0,0.0
6.803,600.0,11.11111068725586,0.0,-1.5707963267948966,-0.41917409195117017,-1.5707963267948966,0.0,0.0,0.0,0.0,-1.1164617356663242,0.0,0.0,0.0,0.0006859802324968102,-1.581226330888083,-0.41825980223568204,-1.5715081897542749,5.539065416371371e-05,-4.210743013395653e-07,-0.056355530495384255,0.5934234638497866,-0.5872463948594023,0.033393181332611016,-0.0031642371898465737,-2.086651082472571e-05,0.0,-1.5707963267948966,-0.5811300463396307,-1.5707963267948966,0.0,0.0
6.903,600.0,11.11111068725586,0.0,-1.5707963267948966,-0.5021189511741575,-1.5707963267948966,0.0,0.0,0.0,0.0,-0.8376741022943469,0.0,0.0,0.0,-0.0005082495023143767,-1.5695142810461324,-0.5143336048763996,-1.5703256130722252,-3.0293359871779382e-05,7.063133572943431e-07,0.03280825961106714,-0.07599311029070771,-1.8643481847968972,-0.02517472446527533,0.0017068313859020926,-3.2846405898933785e-05,0.0,-1.5707963267948966,-0.723020565433667,-1.5707963267948966,0.0,0.0
7.003,600.0,11.11111068725586,0.0,-1.5707963267948966,-0.5591142371389921,-1.5707963267948966,0.0,0.0,0.0,0.0,-0.44557150984692406,0.0,0.0,0.0,0.0006707104236225821,-1.5872396154714274,-0.6370964428289143,-1.5723232502058935,9.956327051144169e-05,-1.9353899500932277e-06,-0.028842529787073336,-0.33413077642667427,0.7656169351896395,0.10561142306451034,-0.00636058887751787,0.00017117102176964486,0.0,-1.5707963267948966,-0.7446451308759565,-1.5707963267948966,0.0,0.0
7.103,600.0,11.11111068725586,0.0,-1.5707963267948966,-0.631278740780882,-1.5707963267948966,0.0,0.0,0.0,0.0,-1.0415716596133946,0.0,0.0,0.0,-0.0001950660168381335,-1.5717197779028815,-0.6272686460372221,-1.570759974646017,-3.6690823558169945e-07,1.922748820364831e-07,-0.010809360987495107,0.1260321012171824,-0.03727730607513991,0.02222278516686903,-0.0016687133323543824,1.2760207450366514e-05,0.0,-1.5707963267948966,-0.7644594308540456,-1.5707963267948966,0.0,0.0
7.205,600.0,11.11111068725586,0.0,-1.5707963267948966,-0.7079865449279268,-1.5707963267948966,0.0,0.0,0.0,0.0,-0.643398940492964,0.0,0.0,0.0,-9.109048787175008e-05,-1.5706643671628833,-0.7595445950091225,-1.570744128837531,7.498019624200994e-07,3.5668085718938526e-07,0.004074065864751739,-0.006194325442010162,-2.2064244357567957,-0.0028241060056365445,-5.7007243659885215e-05,-2.0680661305569477e-05,0.0,-1.5707963267948966,-0.8766297438138081,-1.5707963267948966,0.0,0.0
7.303,600.0,11.11111068725586,0.0,-1.5707963267948966,-0.772895064505807,-1.5707963267948966,0.0,0.0,0.0,0.0,-0.6815983875035272,0.0,0.0,0.0,0.0001232863727056164,-1.577838789981502,-0.8002319706691896,-1.5705617023028606,-4.3274224132435365e-06,1.0580379127957736e-06,-0.035650534929211025,0.4314223427653442,-1.8104386137987503,-0.017167215963706444,-2.688934658889927e-05,-0.00010125937773254403,0.0,-1.5707963267948966,-1.05930220495499,-1.5707963267948966,0.0,0.0
7.402,600.0,11.11111068725586,0.0,-1.5707963267948966,-0.8461786005580265,-1.5707963267948966,0.0,0.0,0.0,0.0,-0.7440881715041985,0.0,0.0,0.0,-0.00017152204083544236,-1.5723687902605339,-0.9246774270879301,-1.5713007295053576,3.34843783778102e-05,-5.264925019545691e-07,0.03962540688588437,-0.13004785685777764,-1.383202993293606,-0.083359313997326,0.004930781380740962,-0.0001306356017511402,0.0,-1.5707963267948966,-0.9347132169493716,-1.5707963267948966,0.0,0.0
7.503,600.0,11.11111068725586,0.0,-1.5707963267948966,-0.9213524477522341,-1.5707963267948966,0.0,0.0,0.0,0.0,-0.9424927398817171,0.0,0.0,0.0,-3.2659936671424525e-05,-1.5869139108701107,-0.9674649050046064,-1.5724231187467714,9.69205658925042e-05,-2.4739923215518347e-06,0.01640081229744128,-0.8585905520053958,1.3481455401779665,0.13441142965911568,-0.007638267978361857,0.0002300256952712873,0.0,-1.5707963267948966,-1.112421146621026,-1.5707963267948966,0.0,0.0
7.602,600.0,11.11111068725586,0.0,-1.5707963267948966,-1.0116431056308794,-1.5707963267948966,0.0,0.0,0.0,0.0,-0.9146412991977739,0.0,0.0,0.0,-0.00037856392769123525,-1.5708661016154566,-0.9985856733968909,-1.570491528008137,-1.5510637699366036e-05,6.549827747250985e-07,0.015675156036151633,0.011134205262944027,-0.8777277612825962,-0.01688854944514328,0.0007893024303763155,-4.126971955740884e-05,0.0,-1.5707963267948966,-1.0693894029630553,-1.5707963267948966,0.0,0.0
7.702,600.0,11.11111068725586,0.0,-1.5707963267948966,-1.0697666109726907,-1.5707963267948966,0.0,0.0,0.0,0.0,-0.4944572723095104,0.0,0.0,0.0,0.00040211199986454833,-1.5760677878565994,-1.1138520124864553,-1.5725600052268016,0.00011207436536304633,-2.1394519104104208e-06,-0.018262987118084457,0.09834036911021353,0.029930129406153468,0.08229747005881938,-0.005504932384180874,8.0162619856787e-05,0.0,-1.5707963267948966,-1.1288590783672712,-1.5707963267948966,0.0,0.0
7.802,600.0,11.11111068725586,0.0,-1.5707963267948966,-1.1213963975336938,-1.5707963267948966,0.0,0.0,0.0,0.0,-0.6107242485459576,0.0,0.0,0.0,-0.0003315862797090298,-1.5680896230209946,-1.1905009178732164,-1.5712585184020798,3.208117783363712e-05,-3.5783001616758047e-07,0.05855722818639081,-0.41180962607551014,-1.321477177654131,-0.11590986699984675,0.006909587052670096,-0.00017287600402709477,0.0,-1.5707963267948966,-1.2413172054724633,-1.5707963267948966,0.0,0.0
7.902,600.0,11.11111068725586,0.0,-1.5707963267948966,-1.1831686580099046,-1.5707963267948966,0.0,0.0,0.0,0.0,-0.5899438280531478,0.0,0.0,0.0,-0.0004657116481562938,-1.570055302221582,-1.2166829871820035,-1.57032161833059,-2.3252536307502443e-05,1.0611664875579147e-06,0.025061977043813306,-0.16968369168380537,-1.434080555390698,-0.11992781974834132,0.006868782951491688,-0.00019824979796333325,0.0,-1.5707963267948966,-1.2767883973745915,-1.5707963267948966,0.0,0.0
8.002,600.0,11.11111068725586,0.0,-1.5707963267948966,-1.2565565082960628,-1.5707963267948966,0.0,0.0,0.0,0.0,-0.6393229797413733,0.0,0.0,0.0,-0.00027022952865248076,-1.5705949918164865,-1.3228115545183152,-1.5705936602359416,-4.651074243847738e-06,8.177228233426165e-07,-0.0030237380173651052,-0.13890289244942633,-1.9307615634290753,-0.12719016017244653,0.007167270254527229,-0.00021693795874944886,0.0,-1.5707963267948966,-1.304354555417761,-1.5707963267948966,0.0,0.0
8.103,600.0,11.11111068725586,0.0,-1.5707963267948966,-1.3060171794754964,-1.5707963267948966,0.0,0.0,0.0,0.0,-0.9094753599224886,0.0,0.0,0.0,0.00013661572640289113,-1.5739633579632188,-1.3794832230410379,-1.5723042086040995,9.5512954243956e-05,-1.8105321778372743e-06,0.0016189002565509412,0.020399497699627518,0.35659527259079243,0.09121514819273378,-0.005764444428692836,0.00011042998042336873,0.0,-1.5707963267948966,-1.4411390188520776,-1.5707963267948966,0.0,0.0
8.202,600.0,22.22222137451172,0.0,-1.5707963267948966,-1.308745453833673,-1.5707963267948966,0.0,0.0,0.0,0.0,1.0775283964422087,0.0,0.0,0.0,-0.00017613289854696723,-1.5692931055176014,-1.4428759112067935,-1.569999508996745,-4.227219229854932e-05,1.5404606108121485e-06,0.017133206564348292,-0.09559432545358398,-3.0143095324505462,-0.04324959046126471,0.002273058184727394,-8.522723411988724e-05,0.0,-1.5707963267948966,-1.1291909118146284,-1.5707963267948966,0.0,0.0
8.302,600.0,22.22222137451172,0.0,-1.5707963267948966,-1.2187978807687863,-1.5707963267948966,0.0,0.0,0.0,0.0,0.9918425347649908,0.0,0.0,0.0,0.00014100464318714587,-1.5738977110423484,-1.3368297687062198,-1.5729315161988677,7.474964416239993e-05,-1.2834153641633305e-06,-0.005544985390708096,0.08676476466223758,2.345077124221809,0.05778676319946328,-0.0020019498161661163,3.5276001958504694e-05,0.0,-1.5707963267948966,-1.0232909428226613,-1.5707963267948966,0.0,0.0
8.402,600.0,22.22222137451172,0.0,-1.5707963267948966,-1.1304148687940403,-1.5707963267948966,0.0,0.0,0.0,0.0,0.6753302424957018,0.0,0.0,0.0,4.22130091349203e-05,-1.5712828863260542,-1.1536160036175644,-1.570964239101626,1.8735821438039733e-05,3.6478843299769883e-07,-0.01154141299659015,0.09954832904640303,1.96799069125562,0.08670153955348342,-0.0025095614536886418,5.302672077576457e-05,0.0,-1.5707963267948966,-1.0730704666664457,-1.5707963267948966,0.0,0.0
8.503,600.0,22.22222137451172,0.0,-1.5707963267948966,-1.0605810237140059,-1.5707963267948966,0.0,0.0,0.0,0.0,0.8807618021102765,0.0,0.0,0.0,-0.0004473194194429686,-1.5683020101179284,-1.0586789712881473,-1.5690824494753761,-2.9842685607323813e-05,1.7884273840680143e-06,0.016594057924040156,-0.10668366997602508,-1.040205488333622,-0.0811642117912066,0.001663431742958159,-7.494477305220619e-05,0.0,-1.5707963267948966,-1.0148651326478402,-1.5707963267948966,0.0,0.0
8.603,600.0,22.22222137451172,0.0,-1.5707963267948966,-0.9790972296545117,-1.5707963267948966,0.0,0.0,0.0,0.0,0.868168908116961,0.0,0.0,0.0,-0.00021465292947356953,-1.5708814147917247,-1.0153198458434856,-1.5702956525099616,3.0185384326545474e-08,8.74409882998886e-07,0.005666252847063774,-0.00714144851507512,-0.45106278962002866,-0.02364070622668686,0.00023890217828227535,-3.170057328151712e-05,0.0,-1.5707963267948966,-0.8678404629779829,-1.5707963267948966,0.0,0.0
8.703,600.0,22.22222137451172,0.0,-1.5707963267948966,-0.9130435059659181,-1.5707963267948966,0.0,0.0,0.0,0.0,0.6641466884543535,0.0,0.0,0.0,-0.00018166022567121703,-1.5702308045374183,-0.8699857522566541,-1.570341192564602,8.491419098514606e-07,8.544221932885238e-07,0.0056120382733805966,0.11982464722323598,0.8889364070994944,0.0245811474701887,-0.00014885576691637558,3.682511842193134e-05,0.0,-1.5707963267948966,-0.8288979322851195,-1.5707963267948966,0.0,0.0
8.803,600.0,22.22222137451172,0.0,-1.5707963267948966,-0.8390298909123519,-1.5707963267948966,0.0,0.0,0.0,0.0,0.9548588216924964,0.0,0.0,0.0,0.00029520347456836487,-1.5728682661229783,-0.8344614470019236,-1.572300879652737,4.908773257411112e-05,-6.859495249320026e-07,-0.010316816625966058,0.09360764889227689,1.4166275291868635,0.07340626541061605,-0.0021089336004701553,4.537222136371105e-05,0.0,-1.5707963267948966,-0.6471005371207873,-1.5707963267948966,0.0,0.0
8.902,600.0,22.22222137451172,0.0,-1.5707963267948966,-0.7564019771567345,-1.5707963267948966,0.0,0.0,0.0,0.0,0.7617461523521565,0.0,0.0,0.0,2.9344098743941577e-05,-1.5684962877194497,-0.7135743066946653,-1.5715554608636237,2.731775605292066e-05,-2.4972103680417455e-07,-0.004318764595848785,-0.015164735205805425,1.793406766521312,0.05902564077143292,-0.0016173135430928775,4.0444702842944795e-05,0.0,-1.5707963267948966,-0.5345901530696537,-1.5707963267948966,0.0,0.0
9.003,600.0,22.22222137451172,0.0,-1.5707963267948966,-0.676400644376165,-1.5707963267948966,0.0,0.0,0.0,0.0,0.6511115239002159,0.0,0.0,0.0,-0.0003231439745293229,-1.564677314716276,-0.6636164672800323,-1.5700438506288947,-7.855620678450439e-06,1.0566320764592696e-06,0.006720019917326893,0.16325853259312337,-0.5490369907251131,-0.027380406494944,0.00027796581331248797,-3.8692208257209365e-05,0.0,-1.5707963267948966,-0.5181083281207195,-1.5707963267948966,0.0,0.0
9.102,600.0,22.22222137451172,0.0,-1.5707963267948966,-0.6118699095337554,-1.5707963267948966,0.0,0.0,0.0,0.0,0.7210400260538418,0.0,0.0,0.0,-0.0003696973762685409,-1.5704814079959948,-0.5375085658403236,-1.5702350655951625,-6.379270166652675e-06,8.068043367977944e-07,-0.01796031677960235,0.0871647881027243,0.5907531788037914,0.0357985692351166,-0.0012804126120390326,1.4099414471809646e-05,0.0,-1.5707963267948966,-0.3387180883266908,-1.5707963267948966,0.0,0.0
9.203,600.0,22.22222137451172,0.0,-1.5707963267948966,-0.5246376742920145,-1.5707963267948966,0.0,0.0,0.0,0.0,1.1483972860514422,0.0,0.0,0.0,0.0006308399892716536,-1.5747294162507801,-0.5209797564032876,-1.5725705247131074,5.4622670936034425e-05,-1.064419511948327e-06,-0.011159822583976527,0.03208932263004344,1.5803742524973121,0.06639774088315221,-0.0016112505603865814,5.7097822670959844e-05,0.0,-1.5707963267948966,-0.4215521611100002,-1.5707963267948966,0.0,0.0
9.302,600.0,22.22222137451172,0.0,-1.5707963267948966,-0.43703273156671685,-1.5707963267948966,0.0,0.0,0.0,0.0,0.8477907898912169,0.0,0.0,0.0,0.0009594169164544683,-1.5783638321904112,-0.35109101796030306,-1.5725987542206623,5.701865035724217e-05,-1.1219573372011286e-06,-0.01488642863010834,0.0600684722364699,2.936074115423397,0.07808022963700281,-0.0017373936301168414,7.920761067999608e-05,0.0,-1.5707963267948966,-0.2706290592391333,-1.5707963267948966,0.0,0.0
9.402,600.0,22.22222137451172,0.0,-1.5707963267948966,-0.3707242396083963,-1.5707963267948966,0.0,0.0,0.0,0.0,0.40300868041227983,0.0,0.0,0.0,-0.0007720677599751785,-1.556676912485569,-0.31677655349928197,-1.5694544930796601,-2.5771539011853896e-05,1.685115271180018e-06,0.013961816550335657,0.7458685970212932,-1.5508198223001577,-0.050980801201224384,0.0007602477720061876,-7.329337423307078e-05,0.0,-1.5707963267948966,-0.32186489989699146,-1.5707963267948966,0.0,0.0
9.503,600.0,22.22222137451172,0.0,-1.5707963267948966,-0.3086767476046077,-1.5707963267948966,0.0,0.0,0.0,0.0,0.6119294341033279,0.0,0.0,0.0,0.0001105584896493097,-1.5806494901959718,-0.27248705272780094,-1.5718834291518669,2.479293418554279e-05,-1.1583851402796302e-06,0.007382825576890672,-0.8464853530075224,2.29745767340232,0.0512230198635563,-0.0007689367901926403,7.234927192329305e-05,0.0,-1.5707963267948966,-0.18007935710424638,-1.5707963267948966,0.0,0.0
9.602,600.0,22.22222137451172,0.0,-1.5707963267948966,-0.23999995167253907,-1.5707963267948966,0.0,0.0,0.0,0.0,0.5775701040124437,0.0,0.0,0.0,-8.468034657792121e-05,-1.578995800317087,-0.2053063008722734,-1.5703067046284855,-1.3064088298699787e-06,1.05926609093845e-06,-0.00022197064076180775,0.6107818146768687,-0.6074330227641485,-0.01825726340233539,7.120333568251243e-05,-3.823175072809869e-05,0.0,-1.5707963267948966,-0.005552569867415924,-1.5707963267948966,0.0,0.0
9.704,600.0,22.22222137451172,0.0,-1.5707963267948966,-0.15203969502778047,-1.5707963267948966,0.0,0.0,0.0,0.0,0.7449765889501323,0.0,0.0,0.0,-0.001523032569054731,-1.5682093321119936,-0.16057464878081196,-1.5697000365321654,-3.544987383588692e-05,9.385817623644479e-07,0.018842499293664106,-0.034395293480699606,-0.38305427736343406,-0.017672890957766346,0.0004366815343006069,-2.0873419048988914e-05,0.0,-1.5707963267948966,0.07951431934617803,-1.5707963267948966,0.0,0.0
9.802,600.0,22.22222137451172,0.0,-1.5707963267948966,-0.06370929263628344,-1.5707963267948966,0.0,0.0,0.0,0.0,0.7682068201944463,0.0,0.0,0.0,0.00040610306794982366,-1.5744152964002052,-0.046355614434678116,-1.5711012587397106,1.323694299085503e-05,-1.1368685456143986e-07,-0.04246858518208535,0.17410334067084637,1.27161814151594,0.037167983312392155,-0.0012449157175778813,3.136018881742363e-05,0.0,-1.5707963267948966,0.12869301116327714,-1.5707963267948966,0.0,0.0
9.903,600.0,22.22222137451172,0.0,-1.5707963267948966,0.017143849155521255,-1.5707963267948966,0.0,0.0,0.0,0.0,0.7479409479172352,0.0,0.0,0.0,-0.0009941125869382503,-1.565463879344231,0.08275110626100075,-1.5696558280580701,-3.214624314704319e-05,1.2472061098708027e-06,0.025456486908605715,0.431311455395456,-0.29342745508958035,-0.033522419546885514,0.000882862673440743,-3.970936300673982e-05,0.0,-1.5707963267948966,0.17278064323212344,-1.5707963267948966,0.0,0.0
10.002,600.0,22.22222137451172,0.0,-1.5707963267948966,0.09857062387883679,-1.5707963267948966,0.0,0.0,0.0,0.0,0.8703987244182169,0.0,0.0,0.0,-0.0017314852615968785,-1.5603994790572817,0.09514877860321372,-1.5695528968819386,-4.718704438694592e-05,7.727364415427355e-07,0.05368714295166574,-0.29710611279282045,-0.2798620781555301,-0.038585184486477825,0.0014537309537293618,-2.4293778409574173e-05,0.0,-1.5707963267948966,0.1644088697396559,-1.5707963267948966,0.0,0.0
10.102,600.0,22.22222137451172,0.0,-1.5707963267948966,0.1550860662825181,-1.5707963267948966,0.0,0.0,0.0,0.0,0.8529457322423135,0.0,0.0,0.0,0.0022410074051123457,-1.5769703331500273,0.19501002075532264,-1.5725365694092088,5.6270416523632996e-05,-1.4920845005148823e-06,-0.04651349411423858,0.03028071791890559,2.7188837411475113,0.07037602085378303,-0.001645499098086758,8.88783688074769e-05,0.0,-1.5707963267948966,0.3603965713988232,-1.5707963267948966,0.0,0.0
10.203,600.0,22.22222137451172,0.0,-1.5707963267948966,0.2509920226794556,-1.5707963267948966,0.0,0.0,0.0,0.0,0.9148441766007512,0.0,0.0,0.0,0.0007926285859399186,-1.5692401086119088,0.26095742942052086,-1.5713762301222614,1.6744708658930502e-05,-5.472284450549107e-07,-0.04518871711354627,0.03858192211414248,1.9067138845759324,0.05291531725586874,-0.0014143674042382541,5.366837289997647e-05,0.0,-1.5707963267948966,0.4205245695776434,-1.5707963267948966,0.0,0.0
10.302,600.0,22.22222137451172,0.0,-1.5707963267948966,0.33895897835123295,-1.5707963267948966,0.0,0.0,0.0,0.0,0.9444958564886988,0.0,0.0,0.0,-0.0005972385164925821,-1.5609594086764709,0.4084414929553733,-1.5699286689117489,-3.443208515518878e-05,2.532608826656617e-07,0.0032032553606338118,-0.2050867898194236,1.4987234645301912,0.010898165966578941,0.00012445838139749863,2.648190358551671e-05,0.0,-1.5707963267948966,0.43735036273633515,-1.5707963267948966,0.0,0.0
10.402,600.0,22.22222137451172,0.0,-1.5707963267948966,0.41877768329248244,-1.5707963267948966,0.0,0.0,0.0,0.0,0.6715077173772617,0.0,0.0,0.0,0.0005525541063821452,-1.5734052925567927,0.46008691097376214,-1.5715268318819053,1.3396490462044439e-05,-8.498390817486113e-07,-0.007448522432031564,-0.17561135563810373,1.892178617662389,0.039528151571826035,-0.0004789946192231331,5.653791109442699e-05,0.0,-1.5707963267948966,0.7009484302836926,-1.5707963267948966,0.0,0.0
10.503,600.0,22.22222137451172,0.0,-1.5707963267948966,0.4889009050370869,-1.5707963267948966,0.0,0.0,0.0,0.0,0.8315622886302595,0.0,0.0,0.0,-0.00037249480072900623,-1.5631436002444994,0.5503835848407981,-1.56907872104985,-4.696466458425199e-05,1.2569263877752667e-06,0.00876794190162469,0.3589197461692408,-0.36368201083052054,-0.05091131350271933,0.0012896107907356515,-4.150749250922573e-05,0.0,-1.5707963267948966,0.5645071384072926,-1.5707963267948966,0.0,0.0
10.603,600.0,22.22222137451172,0.0,-1.5707963267948966,0.5553494138521077,-1.5707963267948966,0.0,0.0,0.0,0.0,0.702246543687352,0.0,0.0,0.0,-2.5099521178343875e-05,-1.5834014677084052,0.5776425033363586,-1.5715493355931165,-3.1222091001603226e-07,-1.426422463840192e-06,0.0006703515210538019,-1.0772216298519874,3.0671804706235624,0.02039862801108404,1.7313060460048455e-05,3.947073262238203e-05,0.0,-1.5707963267948966,0.7207649886333791,-1.5707963267948966,0.0,0.0
10.703,600.0,22.22222137451172,0.0,-1.5707963267948966,0.6325821313801511,-1.5707963267948966,0.0,0.0,0.0,0.0,1.1080203547339085,0.0,0.0,0.0,4.1969039099573186e-05,-1.5638092573589648,0.6574153632608101,-1.5709694322657517,-8.809014041904509e-06,-6.744140603066145e-07,-0.008094366564254251,-0.12756010653737215,2.045882959976312,0.04925291315765655,-0.0007595787958231841,5.907963372928173e-05,0.0,-1.5707963267948966,0.7108972339782851,-1.5707963267948966,0.0,0.0
10.803,600.0,22.22222137451172,0.0,-1.5707963267948966,0.6940166833872785,-1.5707963267948966,0.0,0.0,0.0,0.0,0.4682640263838906,0.0,0.0,0.0,0.00032970009066549463,-1.5704973869625352,0.7646963469798264,-1.5713390790250548,5.162813655086385e-06,-7.639244554405248e-07,-0.008834218202362134,-0.008286674362836444,2.3736483153445063,0.014798950030083042,-0.0001334020204756477,2.1284314132672414e-05,0.0,-1.5707963267948966,0.9461374484672698,-1.5707963267948966,0.0,0.0
10.903,600.0,22.22222137451172,0.0,-1.5707963267948966,0.7694284533877193,-1.5707963267948966,0.0,0.0,0.0,0.0,0.8366173630313306,0.0,0.0,0.0,0.00028194631587830196,-1.568219984756354,0.7864171554095398,-1.5711834172593395,-1.408264374149538e-07,-7.008389705340021e-07,-0.0046751283190663625,-0.05075313005634703,1.458655406981622,0.03116699296254874,-0.0004176048224726379,3.811513583887444e-05,0.0,-1.5707963267948966,1.0418524520004033,-1.5707963267948966,0.0,0.0
11.002,600.0,22.22222137451172,0.0,-1.5707963267948966,0.8562356407012885,-1.5707963267948966,0.0,0.0,0.0,0.0,0.8376204321511157,0.0,0.0,0.0,-0.00016480271180556037,-1.565853899285873,0.8488693482363341,-1.5691526237700997,-4.906173733257481e-05,9.366048546214799e-07,0.0034452550403839006,0.17319503629156122,-0.26583812152652503,-0.04858968617768594,0.0013645519877658863,-3.094891174957499e-05,0.0,-1.5707963267948966,0.9057668505430672,-1.5707963267948966,0.0,0.0
11.103,600.0,22.22222137451172,0.0,-1.5707963267948966,0.935161375095713,-1.5707963267948966,0.0,0.0,0.0,0.0,1.0464436110027384,0.0,0.0,0.0,0.00018305557318986737,-1.5664967863730181,0.9606551355182466,-1.5715667792982566,5.754177970323478e-06,-1.1213559153240967e-06,-0.002020163731420224,-0.1203118975118012,2.6819390389253868,0.02137366330102709,-0.00010277950403603321,3.323118789490236e-05,0.0,-1.5707963267948966,1.1314716269371632,-1.5707963267948966,0.0,0.0
11.203,600.0,22.22222137451172,0.0,-1.5707963267948966,1.036383451269371,-1.5707963267948966,0.0,0.0,0.0,0.0,1.0956097378442975,0.0,0.0,0.0,-4.329396743101347e-05,-1.5610342435031022,1.0892470005961858,-1.570964239101626,-1.194130248254474e-05,-7.570672809227932e-07,0.005045320714303637,-0.21561661251921746,2.626781510640429,0.06264019119380775,-0.0010196072179078364,6.777888421496656e-05,0.0,-1.5707963267948966,1.3029745824157124,-1.5707963267948966,0.0,0.0
11.302,600.0,22.22222137451172,0.0,-1.5707963267948966,1.1194599587762495,-1.5707963267948966,0.0,0.0,0.0,0.0,0.7171738293560381,0.0,0.0,0.0,-0.00020506301382461353,-1.5668752215639183,1.1946008543713935,-1.5686444926341125,-6.572109894439473e-05,1.1167300718454972e-06,0.0021402936226774644,-0.08330041652534323,0.40416728585336426,-0.03695352810442432,0.0012651799287747274,-1.3503431805469533e-05,0.0,-1.5707963267948966,1.2796257571194127,-1.5707963267948966,0.0,0.0
11.403,600.0,22.22222137451172,0.0,-1.5707963267948966,1.1901009578819313,-1.5707963267948966,0.0,0.0,0.0,0.0,0.45468307100860383,0.0,0.0,0.0,-2.641515591631948e-05,-1.5695491684564125,1.2031265651271186,-1.5698953793981227,-3.559722625942111e-05,1.4738967905428057e-07,0.005866833089782026,-0.05375570270497847,-0.06044027449178018,-0.03910354382552653,0.0013041127951832988,-1.549625132233791e-05,0.0,-1.5707963267948966,1.4228061680538948,-1.5707963267948966,0.0,0.0
11.502,600.0,22.22222137451172,0.0,-1.5707963267948966,1.2737916115057712,-1.5707963267948966,0.0,0.0,0.0,0.0,0.8402798869937655,0.0,0.0,0.0,-0.00015283628573683488,-1.561952900921125,1.2811345481971748,-1.5680147881943634,-7.975131231147837e-05,1.6366100126460664e-06,-0.0014540332901324105,0.1864416661326426,-1.0091459726464094,-0.0972172891113919,0.002579413516323303,-6.549238795734663e-05,0.0,-1.5707963267948966,1.47675016791687,-1.5707963267948966,0.0,0.0
11.602,600.0,33.33333206176758,0.0,-1.5707963267948966,1.3487585065807566,-1.5707963267948966,0.0,0.0,0.0,0.0,0.27466784855877463,0.0,0.0,0.0,-0.00015358858323177534,-1.5652795885967974,1.3796121200377978,-1.5694303914717949,-4.813120765164362e-05,4.473007906035106e-07,0.004942016591589733,-0.13019030268658327,0.7858989042614104,-0.010888233207950787,0.0006773973896536217,7.86805700599721e-06,0.0,-1.5707963267948966,1.234089128449771,-1.5707963267948966,0.0,0.0
11.703,600.0,33.33333206176758,0.0,-1.5707963267948966,1.2945265969557482,-1.5707963267948966,0.0,0.0,0.0,0.0,-0.5680719299813163,0.0,0.0,0.0,-2.378150615074346e-06,-1.568420520786437,1.5013761061339645,-1.5689338450865498,-2.789917252521874e-05,2.1714109241713068e-07,4.3890846134677137e-05,0.030886177189762096,0.7128356123873045,-0.03361839737585845,0.0004916107922294424,-4.327592071104118e-06,0.0,-1.5707963267948966,1.202655100239799,-1.5707963267948966,0.0,0.0
11.802,600.0,33.33333206176758,0.0,-1.5707963267948966,1.2354378937923967,-1.5707963267948966,0.0,0.0,0.0,0.0,-0.610728668388413,0.0,0.0,0.0,-0.00012817889903865885,-1.568087625650177,1.3668254846960002,-1.5674264959095647,-5.395662058918941e-05,1.1185516080372514e-06,0.004871689373162926,-0.09379069128294941,-2.6364418611785823,-0.12739126212426113,0.001699172457099188,-5.4895647385964344e-05,0.0,-1.5707963267948966,1.1244486007906316,-1.5707963267948966,0.0,0.0
11.903,600.0,33.33333206176758,0.0,-1.5707963267948966,1.1571789557024132,-1.5707963267948966,0.0,0.0,0.0,0.0,-0.6915745002925009,0.0,0.0,0.0,-5.108548537583569e-05,-1.5697381197357536,1.2250654198710824,-1.5696281311827334,-3.29787146482195e-05,-2.425575489320241e-09,0.004794902948795376,-0.05522440275664354,-1.7502430505216346,-0.06727469070179089,0.001100375510231408,-2.4128133414557153e-05,0.0,-1.5707963267948966,1.0112681858442,-1.5707963267948966,0.0,0.0
12.003,600.0,33.33333206176758,0.0,-1.5707963267948966,1.0858984667766265,-1.5707963267948966,0.0,0.0,0.0,0.0,-0.6427532198097498,0.0,0.0,0.0,0.00021697758757475166,-1.571651467820921,1.0624938163916313,-1.5717621221642137,-9.230486836033375e-06,-1.0670904168530307e-06,0.00028194914418658854,-0.002781650432493098,-0.284966292700776,-0.00029103061452977257,0.0003544916432061848,1.0169587794627604e-05,0.0,-1.5707963267948966,0.9314050452368977,-1.5707963267948966,0.0,0.0
12.103,600.0,33.33333206176758,0.0,-1.5707963267948966,1.0012422976178392,-1.5707963267948966,0.0,0.0,0.0,0.0,-0.6814696047062653,0.0,0.0,0.0,5.8326856722304166e-05,-1.5737768035288588,0.9934594877726518,-1.5711728977730337,-1.7781391332988514e-05,-8.165672196515287e-07,-0.0007446243270682648,-0.28139386183551646,0.13253643941602378,0.008227949060056944,0.0003176887855210263,1.573758200965035e-05,0.0,-1.5707963267948966,0.8817388148893847,-1.5707963267948966,0.0,0.0
12.203,600.0,33.33333206176758,0.0,-1.5707963267948966,0.9384163221034587,-1.5707963267948966,0.0,0.0,0.0,0.0,-0.8192335719027795,0.0,0.0,0.0,0.00020022171400631343,-1.5717085926263032,0.9264752605608153,-1.5712526594476817,-1.4243423517983506e-05,-7.87275904312577e-07,-0.003447660987966354,-0.07114663980471107,0.10915872866936066,0.00917523597994678,0.0002506536366665752,1.4627255633115894e-05,0.0,-1.5707963267948966,0.8336165572071519,-1.5707963267948966,0.0,0.0
12.302,600.0,33.33333206176758,0.0,-1.5707963267948966,0.8745207526106658,-1.5707963267948966,0.0,0.0,0.0,0.0,-0.7666856961163755,0.0,0.0,0.0,-0.00022224846515970592,-1.566090387990672,0.8607555022345484,-1.5684472855553921,-4.3329703268760906e-05,7.654019773027013e-07,-0.0009544618503735372,0.10075508223772359,-2.184733121836155,-0.06419573942533383,0.0008108984821925265,-3.147149250128787e-05,0.0,-1.5707963267948966,0.6837696666303157,-1.5707963267948966,0.0,0.0
12.403,600.0,33.33333206176758,0.0,-1.5707963267948966,0.7915576013272849,-1.5707963267948966,0.0,0.0,0.0,0.0,-0.5679098743400779,0.0,0.0,0.0,4.4796701264004686e-05,-1.5722143269173092,0.7476177612252572,-1.5699940495165101,-2.4318830881681623e-05,7.564473696843351e-10,-0.0018551007989976527,0.016816586879359594,-1.1397929991375628,-0.024765804402272072,0.0005272288813261384,-6.1092408871032775e-06,0.0,-1.5707963267948966,0.6019851110315801,-1.5707963267948966,0.0,0.0
12.502,600.0,33.33333206176758,0.0,-1.5707963267948966,0.7130898412840141,-1.5707963267948966,0.0,0.0,0.0,0.0,-1.1043698768052554,0.0,0.0,0.0,0.00016796822270941463,-1.5713219016360238,0.6822720438740919,-1.5706269497495675,-1.6726952490743398e-05,-3.244971674031742e-07,-2.716520011105175e-05,-0.004784042244974897,-0.4814849109898445,-0.014461955082160636,0.0004340660968492024,-1.3985947650222988e-07,0.0,-1.5707963267948966,0.4938299090278576,-1.5707963267948966,0.0,0.0
12.602,600.0,33.33333206176758,0.0,-1.5707963267948966,0.6264941208218859,-1.5707963267948966,0.0,0.0,0.0,0.0,-0.7593156769036481,0.0,0.0,0.0,-0.0004498053073711313,-1.5656064916206047,0.5879890173293709,-1.5688883050319093,-3.846538687268032e-05,5.730711088071734e-07,0.011497094250980949,-0.12224422061973543,-1.885460793812664,-0.05811677047041613,0.0009429371117822331,-2.418538430722314e-05,0.0,-1.5707963267948966,0.4398356269706464,-1.5707963267948966,0.0,0.0
12.703,600.0,33.33333206176758,0.0,-1.5707963267948966,0.5467516273244541,-1.5707963267948966,0.0,0.0,0.0,0.0,-0.8553470373632529,0.0,0.0,0.0,0.0001208992154931589,-1.5694516967605157,0.5075250338125302,-1.5705165617223837,-1.5761350364777108e-05,-2.1748866245037323e-07,0.007183573273676908,-0.05651110903731532,-0.7048782867872295,-0.026211076958722854,0.0005672121554249144,-6.8740168700768345e-06,0.0,-1.5707963267948966,0.41441441100137216,-1.5707963267948966,0.0,0.0
12.802,600.0,33.33333206176758,0.0,-1.5707963267948966,0.47740565137128854,-1.5707963267948966,0.0,0.0,0.0,0.0,-0.5043331495981763,0.0,0.0,0.0,0.00035180097925621533,-1.5707984573237685,0.39017184169277985,-1.5708967279679926,-8.62275612478448e-06,-3.6917956828706163e-07,0.021331497970830567,-0.07538747416931006,-0.9422334510469231,-0.04152834367566527,0.0008108572604119817,-1.4829000163569499e-05,0.0,-1.5707963267948966,0.2697974038221539,-1.5707963267948966,0.0,0.0
12.902,600.0,33.33333206176758,0.0,-1.5707963267948966,0.40184801194541286,-1.5707963267948966,0.0,0.0,0.0,0.0,-0.7029990544015087,0.0,0.0,0.0,-9.046665896613726e-05,-1.5697583597600382,0.36837806264919815,-1.5699780705499697,-1.708052556768761e-05,2.727115500068867e-07,-0.0012479337500847002,0.11148673093625343,-1.1758981398260395,-0.02227367234963556,0.000249786337555959,-1.3914015003145855e-05,0.0,-1.5707963267948966,0.14734235859766104,-1.5707963267948966,0.0,0.0
13.003,600.0,33.33333206176758,0.0,-1.5707963267948966,0.3282704316098073,-1.5707963267948966,0.0,0.0,0.0,0.0,-0.6925993587978487,0.0,0.0,0.0,-0.0006070470896304526,-1.5633075178095939,0.2978357523524749,-1.5690117425484345,-2.654333801752327e-05,9.431739536476475e-07,0.0040955344801486,0.3792984545676089,-2.6482156963578225,-0.04881756954321266,0.00033400201258796893,-3.6713566854725884e-05,0.0,-1.5707963267948966,0.280054810423712,-1.5707963267948966,0.0,0.0
13.102,600.0,33.33333206176758,0.0,-1.5707963267948966,0.25798582307602214,-1.5707963267948966,0.0,0.0,0.0,0.0,-0.8021925209969486,0.0,0.0,0.0,-0.0003814196413098367,-1.5661190169723904,0.24832690525287252,-1.5700403885194776,-1.8257128228704864e-05,2.0591627565210784e-07,-0.007530691354633517,-0.06518586110673326,-0.9509393246503922,-0.005631822647447443,8.257472794981867e-05,-2.873232824537171e-06,0.0,-1.5707963267948966,0.1094475160258504,-1.5707963267948966,0.0,0.0
13.203,600.0,33.33333206176758,0.0,-1.5707963267948966,0.1942625219061611,-1.5707963267948966,0.0,0.0,0.0,0.0,-0.9861154197071749,0.0,0.0,0.0,-0.00011080895747912557,-1.5656560264168802,0.18028575262816762,-1.5700951164798786,-1.0932090159086299e-05,3.9057649130082213e-07,-0.003117254242849992,0.2595997831863121,-1.6660440168654715,-0.02204926981887736,0.0001050418336997159,-1.9841529463471166e-05,0.0,-1.5707963267948966,-0.0982557770608396,-1.5707963267948966,0.0,0.0
13.303,600.0,33.33333206176758,0.0,-1.5707963267948966,0.1128781147734701,-1.5707963267948966,0.0,0.0,0.0,0.0,-0.5223815367293831,0.0,0.0,0.0,-0.0008981330024636215,-1.5646430930962685,0.10690045128875753,-1.5695768653317492,-2.0320649357245823e-05,7.008106518940996e-07,0.009037797102049976,0.17633566887557803,-2.183250406899253,-0.033897421756693094,0.00024925544458499294,-2.8999097960575735e-05,0.0,-1.5707963267948966,-0.03501041630103763,-1.5707963267948966,0.0,0.0
13.403,600.0,33.33333206176758,0.0,-1.5707963267948966,0.02653104491484104,-1.5707963267948966,0.0,0.0,0.0,0.0,-1.0033849046332741,0.0,0.0,0.0,0.0010038319545825761,-1.5685550104214858,0.023618562458341773,-1.5716292304258188,1.0197492956989625e-05,-6.715253685524365e-07,0.00956840074032924,-0.1681421541763266,-0.03852065692550304,-0.028532219505214066,0.001000347543792087,-2.3871902297058175e-06,0.0,-1.5707963267948966,-0.05656947847493167,-1.5707963267948966,0.0,0.0
13.502,600.0,33.33333206176758,0.0,-1.5707963267948966,-0.046252450051939675,-1.5707963267948966,0.0,0.0,0.0,0.0,-0.5624559726918683,0.0,0.0,0.0,-0.0008777614455890478,-1.5645823730234147,-0.09505568447835865,-1.5698154845654204,-1.2103617307100764e-05,7.324852411091491e-07,0.006069075207438324,0.29137389157302024,-2.7405717261167895,-0.0319982029894653,7.92864132005326e-05,-3.5087838184220285e-05,0.0,-1.5707963267948966,-0.1468451427011545,-1.5707963267948966,0.0,0.0
13.603,600.0,33.33333206176758,0.0,-1.5707963267948966,-0.10573889979940887,-1.5707963267948966,0.0,0.0,0.0,0.0,-0.7921460966255817,0.0,0.0,0.0,-0.000963811782438912,-1.567667245672108,-0.1814488715895029,-1.5698847267537626,-1.1334951384317822e-05,6.58845729283455e-07,0.009016568795329602,0.11478059515149068,-2.5329961623244164,-0.030171110114697412,7.11608622942777e-05,-3.1233353819951166e-05,0.0,-1.5707963267948966,-0.19330510750574514,-1.5707963267948966,0.0,0.0
13.703,600.0,33.33333206176758,0.0,-1.5707963267948966,-0.17089461459120514,-1.5707963267948966,0.0,0.0,0.0,0.0,-0.6175553199890309,0.0,0.0,0.0,-0.00014972304977234644,-1.5720625267351747,-0.2145383152386012,-1.5708535847583334,3.529784109041442e-06,6.100797376667017e-08,0.017134120985675707,-0.012360652322466264,-0.9849878391870552,-0.016093904828052966,0.00017736264373904455,-1.1627376517379333e-05,0.0,-1.5707963267948966,-0.24315506885202648,-1.5707963267948966,0.0,0.0
13.802,600.0,33.33333206176758,0.0,-1.5707963267948966,-0.24203018397855303,-1.5707963267948966,0.0,0.0,0.0,0.0,-1.0694213654142248,0.0,0.0,0.0,-0.00029411922470659336,-1.5709898054480909,-0.25284434218618984,-1.5707189619652298,2.470565639134218e-06,1.5739957219698493e-07,0.007617125496168799,-0.010072084605355386,-0.9459853123906268,-0.009086788863134425,5.780149845807134e-06,-9.400097964509743e-06,0.0,-1.5707963267948966,-0.3025394994512562,-1.5707963267948966,0.0,0.0
13.903,600.0,33.33333206176758,0.0,-1.5707963267948966,-0.3230598222369281,-1.5707963267948966,0.0,0.0,0.0,0.0,-0.9762781128902949,0.0,0.0,0.0,-0.0008758152443949721,-1.5647685279836112,-0.3621233292235244,-1.5696014995718326,-7.356872284530284e-06,9.501958969334215e-07,0.008309641006346475,0.2772046595065514,-2.8136701717172845,-0.038793789062425886,-2.0859269380233338e-05,-3.87910730737385e-05,0.0,-1.5707963267948966,-0.5892276989561236,-1.5707963267948966,0.0,0.0
14.002,600.0,33.33333206176758,0.0,-1.5707963267948966,-0.41754607561771095,-1.5707963267948966,0.0,0.0,0.0,0.0,-0.9525174770217641,0.0,0.0,0.0,-0.0004359775456115729,-1.5677278325869073,-0.4348053562980718,-1.570370221020484,2.5437379568962294e-06,4.784305317266246e-07,0.0032482609625358746,0.06138659133443701,-1.9006386814972436,-0.020154022906744066,-0.00014057625200960047,-2.306819034303879e-05,0.0,-1.5707963267948966,-0.5884823005741175,-1.5707963267948966,0.0,0.0
14.102,600.0,33.33333206176758,0.0,-1.5707963267948966,-0.4987003407498083,-1.5707963267948966,0.0,0.0,0.0,0.0,-0.9071450144251031,0.0,0.0,0.0,0.000850364045837695,-1.5738934499846042,-0.507377028634949,-1.573318739821365,4.202391884585236e-05,-1.0643974792845463e-06,-0.007924660264829504,0.040304979017045335,0.48429391343911915,0.03710261519119832,-0.0005895605372453564,1.6457204619741193e-05,0.0,-1.5707963267948966,-0.6314175055823578,-1.5707963267948966,0.0,0.0
14.202,600.0,33.33333206176758,0.0,-1.5707963267948966,-0.577118830322938,-1.5707963267948966,0.0,0.0,0.0,0.0,-0.9351448563270459,0.0,0.0,0.0,-0.0001743112892093091,-1.5715171113439266,-0.6549012726127481,-1.5709665027885527,1.3596452061088936e-05,2.349561995672167e-07,0.014578167733931668,-0.03937876904061861,-1.8629018220088753,-0.03653822477718328,0.00022639682944779316,-2.585602049910091e-05,0.0,-1.5707963267948966,-0.7497282728283312,-1.5707963267948966,0.0,0.0
14.303,600.0,33.33333206176758,0.0,-1.5707963267948966,-0.659075038679136,-1.5707963267948966,0.0,0.0,0.0,0.0,-1.1013394750413095,0.0,0.0,0.0,0.00011654150762792854,-1.5808227288248815,-0.6841340595292481,-1.5729388398918653,3.1073773839471105e-05,-9.75123157476101e-07,9.555971073123391e-05,-0.5575316756541389,1.015471113393402,0.04724118623734592,-0.0005315025851843282,2.5419530444522235e-05,0.0,-1.5707963267948966,-0.9053095195762164,-1.5707963267948966,0.0,0.0
14.402,600.0,33.33333206176758,0.0,-1.5707963267948966,-0.7276759659743739,-1.5707963267948966,0.0,0.0,0.0,0.0,-0.8039418342577945,0.0,0.0,0.0,6.0349836733573434e-05,-1.5737986414497975,-0.7874234308274263,-1.5718725101913975,2.7244404934060074e-05,-1.535409194051158e-07,0.00806886263562754,0.013929775393470642,-0.9856510994565395,-0.013677177684968529,-9.453118179363716e-05,-1.4451237126635403e-05,0.0,-1.5707963267948966,-0.8383023842322869,-1.5707963267948966,0.0,0.0
14.503,600.0,33.33333206176758,0.0,-1.5707963267948966,-0.8080695814014085,-1.5707963267948966,0.0,0.0,0.0,0.0,-1.0175184717088337,0.0,0.0,0.0,-0.0001384350275809131,-1.572741366497036,-0.7920581966515184,-1.571092337150059,1.8806695755318893e-05,2.769351862557501e-07,0.004418531707739927,0.018788383028075856,-0.9366364185419581,-0.009981701495266221,-0.00017235041007050472,-1.317049704851165e-05,0.0,-1.5707963267948966,-1.047369233579225,-1.5707963267948966,0.0,0.0
14.602,600.0,33.33333206176758,0.0,-1.5707963267948966,-0.893669768110378,-1.5707963267948966,0.0,0.0,0.0,0.0,-0.8954227311224436,0.0,0.0,0.0,-0.00018734528787370247,-1.5716095230337523,-0.939806512345534,-1.570626283959295,1.526979769915935e-05,5.70132002254604e-07,-0.001553824458898634,0.0246749032241271,-2.1785667054901308,-0.02477771788696097,-0.0002340015652631836,-2.7094750446381708e-05,0.0,-1.5707963267948966,-1.1082136258592852,-1.5707963267948966,0.0,0.0
14.702,600.0,33.33333206176758,0.0,-1.5707963267948966,-0.9730844570861237,-1.5707963267948966,0.0,0.0,0.0,0.0,-0.6675777321692851,0.0,0.0,0.0,-3.540413732760317e-05,-1.5675643144959763,-1.0301332799328877,-1.5708776863661986,2.132813462463846e-05,5.272960592354791e-07,-0.004768716585139331,0.2373273508710591,-2.2797284773934448,-0.022997398859432205,-0.00029851415570961837,-2.71804693185041e-05,0.0,-1.5707963267948966,-1.220244722322322,-1.5707963267948966,0.0,0.0
14.803,600.0,33.33333206176758,0.0,-1.5707963267948966,-1.0420608883259295,-1.5707963267948966,0.0,0.0,0.0,0.0,-0.8863605771427138,0.0,0.0,0.0,4.6888336833466225e-05,-1.5720994115162723,-1.094151012006485,-1.572150011576984,3.4810204778404696e-05,-1.5885974413011806e-07,0.0015548300362770316,0.007425792976306119,-0.6326305214179332,0.0067865412080786785,-0.00042751641755257944,-6.656140112095645e-06,0.0,-1.5707963267948966,-1.291317689461124,-1.5707963267948966,0.0,0.0
14.903,600.0,33.33333206176758,0.0,-1.5707963267948966,-1.1219167041909106,-1.5707963267948966,0.0,0.0,0.0,0.0,-0.8629679905683492,0.0,0.0,0.0,-0.00023259035321069587,-1.573014606824878,-1.1512824087123825,-1.5699039015136111,1.1006803620408206e-05,1.0541391472219351e-06,0.007563236015392126,-0.00015179346896599728,-2.3174444310672557,-0.06468196190016584,0.0003520784135426257,-4.47571537119285e-05,0.0,-1.5707963267948966,-1.2469799933314163,-1.5707963267948966,0.0,0.0
15.003,600.0,33.33333206176758,0.0,-1.5707963267948966,-1.2197673356244714,-1.5707963267948966,0.0,0.0,0.0,0.0,-0.8431810311778446,0.0,0.0,0.0,-2.8209914611731075e-05,-1.5724392308713664,-1.212595301224841,-1.5716510683467575,3.0397450556780572e-05,1.392975959547926e-07,0.0024458453246084958,0.008878661783647433,-1.1011294261688742,-0.010682621567337158,-0.0002527592634220004,-1.6273730310633103e-05,0.0,-1.5707963267948966,-1.5092188404495022,-1.5707963267948966,0.0,0.0
15.102,600.0,33.33333206176758,0.0,-1.5707963267948966,-1.3046108994445156,-1.5707963267948966,0.0,0.0,0.0,0.0,-0.9295612191239969,0.0,0.0,0.0,9.965536933185422e-05,-1.5728593445333265,-1.3431192230946054,-1.5730665384661346,4.6428411643989955e-05,-5.989034864166911e-07,-3.363726144441628e-05,0.02146468099246975,-0.7018445468314658,0.020031519577195022,-0.0006115479359024166,-8.197004295273758e-07,0.0,-1.5707963267948966,-1.361152338683245,-1.5707963267948966,0.0,0.0
15.202,600.0,44.44444274902344,0.0,-1.5707963267948966,-1.3480892562165012,-1.5707963267948966,0.0,0.0,0.0,0.0,0.4673765855593164,0.0,0.0,0.0,1.763855566902407e-05,-1.571908596024168,-1.4119097393157882,-1.5721498784189294,3.718834066270671e-05,-8.601606704143678e-08,0.001568321001785452,-0.0010654685293583984,-1.0608001790963955,-0.005443170973728955,-0.0003500751910527492,-1.4472660749174004e-05,0.0,-1.5707963267948966,-1.0674070177500814,-1.5707963267948966,0.0,0.0
15.303,600.0,44.44444274902344,0.0,-1.5707963267948966,-1.265030963045743,-1.5707963267948966,0.0,0.0,0.0,0.0,0.8333942059032672,0.0,0.0,0.0,7.741499962959807e-05,-1.573296502426263,-1.4781761114557939,-1.5751018593292276,4.1516001816053466e-05,-1.0463629502962471e-06,-0.0012700057379160326,0.034047085168171745,1.336068370950566,0.058239762739696554,-0.0005469067874661049,1.4512255033355504e-05,0.0,-1.5707963267948966,-1.1305993123334868,-1.5707963267948966,0.0,0.0
15.402,600.0,44.44444274902344,0.0,-1.5707963267948966,-1.1975634514991587,-1.5707963267948966,0.0,0.0,0.0,0.0,0.8288830894144108,0.0,0.0,0.0,0.00010843564109716246,-1.5727512201930693,-1.296657981033192,-1.5739067657900547,3.984046484861015e-05,-5.889428810413058e-07,-0.0036731404865052203,0.05391063626258303,2.3627080495864607,0.08624067952684521,-0.0007184695624427322,2.5068048121332973e-05,0.0,-1.5707963267948966,-1.0681961090571348,-1.5707963267948966,0.0,0.0
15.503,600.0,44.44444274902344,0.0,-1.5707963267948966,-1.1091746981705226,-1.5707963267948966,0.0,0.0,0.0,0.0,0.7884088259426086,0.0,0.0,0.0,-0.00011711496338767861,-1.5706101718347,-1.1806111360071527,-1.5705664959928227,2.7158300014111207e-05,7.313339550582258e-07,-2.7261878677784652e-05,0.004409794770859056,0.16015466827690647,0.005457603018183123,-0.0003856154203983375,-5.8228401319654155e-06,0.0,-1.5707963267948966,-0.8487416969164518,-1.5707963267948966,0.0,0.0
15.603,600.0,44.44444274902344,0.0,-1.5707963267948966,-1.0031899891656817,-1.5707963267948966,0.0,0.0,0.0,0.0,1.141590085951268,0.0,0.0,0.0,-0.00011456408126018312,-1.5705232196251089,-1.0361197997472769,-1.5704449226890607,2.7192062944282294e-05,7.667382869336153e-07,0.0015062932752245245,0.16177466916800168,-0.03135338094934066,-0.005004930131302303,-0.0003680625490603145,-1.0305393324488907e-05,0.0,-1.5707963267948966,-0.9241107255197291,-1.5707963267948966,0.0,0.0
15.703,600.0,44.44444274902344,0.0,-1.5707963267948966,-0.9180063102128262,-1.5707963267948966,0.0,0.0,0.0,0.0,1.0218706159599042,0.0,0.0,0.0,0.00015577855534179298,-1.5729837141562333,-0.9106951655747416,-1.5728719945485043,3.487792163082944e-05,-2.632946498186874e-07,-0.0069092083844526,0.060994486637004075,2.1251042792390082,0.06426035021009267,-0.0006365624046490964,1.788518943437385e-05,0.0,-1.5707963267948966,-0.7061176700803378,-1.5707963267948966,0.0,0.0
15.802,600.0,44.44444274902344,0.0,-1.5707963267948966,-0.8366934282813876,-1.5707963267948966,0.0,0.0,0.0,0.0,0.6760539317731935,0.0,0.0,0.0,5.0985929736880224e-05,-1.5721610636955077,-0.7776520264718165,-1.5720797041242058,2.933446380292507e-05,-4.163415486458632e-09,-0.005363981982745179,0.044195407961217154,1.5807006228889013,0.043371792104596525,-0.0005171118600385771,1.0534820531846642e-05,0.0,-1.5707963267948966,-0.5960585550630467,-1.5707963267948966,0.0,0.0
15.902,600.0,44.44444274902344,0.0,-1.5707963267948966,-0.7487624140886826,-1.5707963267948966,0.0,0.0,0.0,0.0,1.0863006681629837,0.0,0.0,0.0,-0.00015326657870788334,-1.5696627522769044,-0.7351685483935728,-1.5712747636847293,2.327121492681175e-05,2.6533332203915573e-07,0.000726599355811417,-0.007665784362116989,0.5121303384170633,0.013948883574291962,-0.0003443222819606764,-5.814255520413633e-07,0.0,-1.5707963267948966,-0.5196055754657141,-1.5707963267948966,0.0,0.0
16.003,600.0,44.44444274902344,0.0,-1.5707963267948966,-0.6531610107618464,-1.5707963267948966,0.0,0.0,0.0,0.0,0.8736687065624218,0.0,0.0,0.0,-0.00011125762632671413,-1.5724719877527744,-0.6252759357515704,-1.571362648000702,2.2756017847737838e-05,2.1304993787713846e-07,-0.007271561619379604,0.052685960829364074,0.7231690768909755,0.031945422465611294,-0.0004485840633585591,6.120237154665769e-06,0.0,-1.5707963267948966,-0.49192255829401405,-1.5707963267948966,0.0,0.0
16.103,600.0,44.44444274902344,0.0,-1.5707963267948966,-0.5781526475179675,-1.5707963267948966,0.0,0.0,0.0,0.0,0.7164166607905694,0.0,0.0,0.0,-0.00021446344907301377,-1.571529095568832,-0.5491075644940002,-1.5711004597913836,1.9241907788408877e-05,2.7625011010053077e-07,-0.008634846785107427,0.0448643232868286,0.6061155569728863,0.030091354681833344,-0.00042905979612620633,6.103677226783065e-06,0.0,-1.5707963267948966,-0.46135823468093673,-1.5707963267948966,0.0,0.0
16.203,600.0,44.44444274902344,0.0,-1.5707963267948966,-0.5078171416183359,-1.5707963267948966,0.0,0.0,0.0,0.0,0.6917889869452648,0.0,0.0,0.0,-4.68798681632518e-05,-1.5719649218812233,-0.5121924233599758,-1.5715906145900127,1.9769700185779148e-05,2.927917792861792e-08,0.008391579503096297,0.0005528964292126937,0.6783284349319026,0.0010913237533798784,-0.00016081156244705837,-3.1279756260735587e-06,0.0,-1.5707963267948966,-0.22538933472037398,-1.5707963267948966,0.0,0.0
16.302,600.0,44.44444274902344,0.0,-1.5707963267948966,-0.4252931125061048,-1.5707963267948966,0.0,0.0,0.0,0.0,0.7070096577199774,0.0,0.0,0.0,-0.00034132794872674175,-1.5701738128900906,-0.4460938303686452,-1.570524817521763,1.6706966388400742e-05,5.350906061318661e-07,0.003914663189942887,0.27041289964706317,-0.43177148318425357,-0.005832508480341727,-0.00025614063601577317,-9.150513981033436e-06,0.0,-1.5707963267948966,-0.27981070867044044,-1.5707963267948966,0.0,0.0
16.402,600.0,44.44444274902344,0.0,-1.5707963267948966,-0.3522298811081006,-1.5707963267948966,0.0,0.0,0.0,0.0,0.8372093422223926,0.0,0.0,0.0,6.535528408768998e-05,-1.581040841718159,-0.33510808996770614,-1.572172248972086,1.270764805470751e-05,-4.69771853597608e-07,0.0032991109546739003,-0.47314042834629916,2.3649163427623545,0.029780957015000803,1.7126683236371528e-07,1.6189311810136725e-05,0.0,-1.5707963267948966,-0.07260671034872251,-1.5707963267948966,0.0,0.0
16.503,600.0,44.44444274902344,0.0,-1.5707963267948966,-0.27836393333864784,-1.5707963267948966,0.0,0.0,0.0,0.0,0.922940496625528,0.0,0.0,0.0,0.00011606861123148277,-1.575349799626714,-0.26112425981805754,-1.5714615844351985,1.50131835815799e-05,-2.6623948280026168e-08,-0.011054710944702463,0.08660983526582222,1.0799896529099886,0.02338128312759412,-0.00028913919149044275,6.945006493746273e-06,0.0,-1.5707963267948966,-0.08325820821670271,-1.5707963267948966,0.0,0.0
16.603,600.0,44.44444274902344,0.0,-1.5707963267948966,-0.19818576388811326,-1.5707963267948966,0.0,0.0,0.0,0.0,0.6249359652830199,0.0,0.0,0.0,0.0006492101441766272,-1.5785152328983822,-0.2135286442903249,-1.572353743400375,1.41271194988511e-05,-6.032625251310074e-07,-0.004220453119955805,-0.2727153855017616,2.212153694209883,0.03058494246155511,-2.987380106213756e-05,1.7291029320140826e-05,0.0,-1.5707963267948966,0.001122025540096716,-1.5707963267948966,0.0,0.0
16.703,600.0,44.44444274902344,0.0,-1.5707963267948966,-0.12611575958417642,-1.5707963267948966,0.0,0.0,0.0,0.0,0.6063598893505954,0.0,0.0,0.0,-0.00044890310953700193,-1.5726365711081414,-0.1733635810990496,-1.5706947271993101,5.2519099377327525e-06,2.008471914885326e-07,0.0039277691154128444,0.03015729496654263,0.2673703213254317,0.0012763983648295236,-8.52011697961083e-05,-1.4650036264560315e-06,0.0,-1.5707963267948966,0.07726711278928794,-1.5707963267948966,0.0,0.0
16.803,600.0,44.44444274902344,0.0,-1.5707963267948966,-0.037385081381447804,-1.5707963267948966,0.0,0.0,0.0,0.0,0.6727928448144226,0.0,0.0,0.0,0.0012639834568416307,-1.5751053214386448,-0.05966262729228784,-1.5721594657988536,1.628550172159454e-05,-4.961348247370474e-07,-0.013950884066001423,0.06868851299024352,2.126671815856629,0.024364622070592253,-0.00012657046124711792,1.3309364547186084e-05,0.0,-1.5707963267948966,0.11484939106699987,-1.5707963267948966,0.0,0.0
16.903,600.0,44.44444274902344,0.0,-1.5707963267948966,0.03486825585582053,-1.5707963267948966,0.0,0.0,0.0,0.0,0.8031787863659571,0.0,0.0,0.0,-0.001665876311577905,-1.5685271803880947,0.040059714364216646,-1.5695707400612422,-9.789692351409911e-06,6.112460322792999e-07,-0.011977247631360025,0.01812124244965959,0.01944840381176536,0.004879902520352838,-0.00016986816318289487,-9.975112646338025e-07,0.0,-1.5707963267948966,0.1978429119883043,-1.5707963267948966,0.0,0.0
17.002,600.0,44.44444274902344,0.0,-1.5707963267948966,0.12221995923861151,-1.5707963267948966,0.0,0.0,0.0,0.0,0.9185260708849604,0.0,0.0,0.0,4.622719538950942e-05,-1.571080752399317,0.08209556915867774,-1.570858777922459,-2.8476548067291086e-07,-3.75805376024581e-08,0.013483102941420907,-0.00962730653469043,0.9252984096751093,-0.004610956539768461,0.00015824392990755528,6.076068965677062e-07,0.0,-1.5707963267948966,0.22371396541619926,-1.5707963267948966,0.0,0.0
17.102,600.0,44.44444274902344,0.0,-1.5707963267948966,0.18807582906415377,-1.5707963267948966,0.0,0.0,0.0,0.0,0.7427824656041324,0.0,0.0,0.0,-0.0003764322609939991,-1.5694868504869046,0.22885989676417942,-1.570034929039243,-7.642942359227312e-06,2.662245655122301e-07,-0.03247058742960191,0.05081017163794517,0.8819182452578358,0.024636381015078024,-0.00025353529269911564,9.560218411946864e-06,0.0,-1.5707963267948966,0.2799793575956638,-1.5707963267948966,0.0,0.0
17.203,600.0,44.44444274902344,0.0,-1.5707963267948966,0.2596572058747494,-1.5707963267948966,0.0,0.0,0.0,0.0,0.7041643075580621,0.0,0.0,0.0,-0.0008402393523575403,-1.5695114847269878,0.2540204607025961,-1.5692872465632033,-1.3876683162410555e-05,5.762640672035322e-07,0.01174840823261386,0.08694914695583354,-0.3255311296611858,-0.018746176085987304,0.00030690012228862815,-3.7738978964081542e-06,0.0,-1.5707963267948966,0.5220826543182586,-1.5707963267948966,0.0,0.0
17.303,600.0,44.44444274902344,0.0,-1.5707963267948966,0.3375530862350966,-1.5707963267948966,0.0,0.0,0.0,0.0,0.5365403177174782,0.0,0.0,0.0,-9.596181001996581e-05,-1.5702810051239662,0.36079168209945756,-1.5701081659692202,-1.1296935832563532e-05,1.3728790906866392e-07,-0.017753876022039972,0.03711086682938836,0.8328626848205217,0.016960555703413597,-6.1016224364308944e-05,8.685967392708148e-06,0.0,-1.5707963267948966,0.41842758875605474,-1.5707963267948966,0.0,0.0
17.404,600.0,44.44444274902344,0.0,-1.5707963267948966,0.4152850911037853,-1.5707963267948966,0.0,0.0,0.0,0.0,0.9457235934786444,0.0,0.0,0.0,1.5460589646409774e-05,-1.5699650210606284,0.44140603434934683,-1.5702387940206886,-1.3757144468858438e-05,-3.8303857414171276e-09,0.004106134589495226,-0.014885447629753674,0.949687106305837,-0.008667050228351368,0.0002482048093297539,8.762903422799441e-07,0.0,-1.5707963267948966,0.46964744029437366,-1.5707963267948966,0.0,0.0
17.503,600.0,44.44444274902344,0.0,-1.5707963267948966,0.4990283110678453,-1.5707963267948966,0.0,0.0,0.0,0.0,1.2153118528465607,0.0,0.0,0.0,-0.0002832681761454371,-1.5681279725406918,0.47987849222030865,-1.5694895136479947,-1.9972639432664154e-05,2.621487766916468e-07,0.006345070762681655,-0.040605895414278274,0.2318780072932958,-0.020290653473638138,0.00030450730845959747,-4.249446593809098e-06,0.0,-1.5707963267948966,0.77912718066444,-1.5707963267948966,0.0,0.0
17.603,600.0,44.44444274902344,0.0,-1.5707963267948966,0.5906456897869726,-1.5707963267948966,0.0,0.0,0.0,0.0,0.8106659275939637,0.0,0.0,0.0,0.00048245741133533975,-1.5738997084131658,0.5978369209872932,-1.5711900751620649,-1.0822144754022043e-05,-4.3762870518264746e-07,-0.010900131088180175,0.0662540050856936,1.9571771919654624,0.02555305562644551,6.448869611780676e-05,1.4760521374645135e-05,0.0,-1.5707963267948966,0.8471137690931456,-1.5707963267948966,0.0,0.0
17.703,600.0,44.44444274902344,0.0,-1.5707963267948966,0.6572924903226421,-1.5707963267948966,0.0,0.0,0.0,0.0,0.5561039240789666,0.0,0.0,0.0,-6.413426357649098e-05,-1.5715734372009817,0.6859499359185186,-1.5694933752315754,-2.1979974347807925e-05,1.7933956545084837e-07,-0.009991558312191416,0.04781506832393357,0.9266213349466061,0.013335702176571524,0.00011716484889418161,9.045461224212062e-06,0.0,-1.5707963267948966,0.9314051738064276,-1.5707963267948966,0.0,0.0
17.802,600.0,44.44444274902344,0.0,-1.5707963267948966,0.7424145172614641,-1.5707963267948966,0.0,0.0,0.0,0.0,0.8892744653830319,0.0,0.0,0.0,2.3509952998194825e-05,-1.5704296095127928,0.7392784717458376,-1.5698543667173355,-2.2944399027903468e-05,-1.506027712257999e-08,-0.002124365890779054,0.007174811889809467,0.976669788417329,-0.0008881861348033243,0.0002553833808540085,5.342948650495481e-06,0.0,-1.5707963267948966,0.9814619166897417,-1.5707963267948966,0.0,0.0
17.903,600.0,44.44444274902344,0.0,-1.5707963267948966,0.8271900249806368,-1.5707963267948966,0.0,0.0,0.0,0.0,1.1257424280950674,0.0,0.0,0.0,-0.00029078803020293943,-1.5684689903182762,0.8268143130898156,-1.5682428879417287,-3.221372837077205e-05,5.761184738373967e-07,5.91091806108216e-05,-0.018716548418860172,0.04594288272236468,-0.022915425512722805,0.0003772577694114842,-3.4023558170146096e-06,0.0,-1.5707963267948966,0.9772826982763005,-1.5707963267948966,0.0,0.0
18.003,600.0,44.44444274902344,0.0,-1.5707963267948966,0.9024365015179461,-1.5707963267948966,0.0,0.0,0.0,0.0,0.5612630888380121,0.0,0.0,0.0,0.0001621209554012291,-1.570523485941218,0.9147861804832668,-1.570474616935215,-2.3675000634996145e-05,-3.4608914616083697e-07,-0.007276318378787568,0.025363053646830568,1.757110011392404,0.026948882852188688,0.00017464719145495415,1.7395953055714933e-05,0.0,-1.5707963267948966,1.00952521613285,-1.5707963267948966,0.0,0.0
18.102,600.0,44.44444274902344,0.0,-1.5707963267948966,0.9611108832634114,-1.5707963267948966,0.0,0.0,0.0,0.0,1.0426166537456993,0.0,0.0,0.0,-0.00018532468916797334,-1.5647325753088952,0.9640777635721891,-1.5686215894487379,-3.4357224386143614e-05,3.362737849306914e-07,0.001695830762094654,-0.07597205467333927,0.39964979898577646,-0.022170705803395772,0.0004398622432978402,-1.6337687514389896e-06,0.0,-1.5707963267948966,1.1016317768593153,-1.5707963267948966,0.0,0.0
18.203,600.0,44.44444274902344,0.0,-1.5707963267948966,1.0454660010427523,-1.5707963267948966,0.0,0.0,0.0,0.0,0.8025447220507526,0.0,0.0,0.0,0.00017502607098283905,-1.5693897782651713,1.0591796455730822,-1.5707751546642306,-2.5395453251134294e-05,-5.228733353287363e-07,-0.006504948333208328,0.011178881870824707,2.1535012996264142,0.036944331876285146,0.000176408853660653,2.2259592852183854e-05,0.0,-1.5707963267948966,1.2323207206333535,-1.5707963267948966,0.0,0.0
18.303,600.0,44.44444274902344,0.0,-1.5707963267948966,1.1266676900683146,-1.5707963267948966,0.0,0.0,0.0,0.0,0.5401291743302322,0.0,0.0,0.0,-6.902781395218892e-05,-1.565836455580733,1.1345922450028014,-1.56805193929157,-3.6324572873787416e-05,5.599561498180765e-07,0.0009339585008346668,0.16847862793530133,0.0008996472852221163,-0.03715858734717122,0.0004822582919301062,-7.330081073330705e-06,0.0,-1.5707963267948966,1.2424306759290145,-1.5707963267948966,0.0,0.0
18.403,600.0,44.44444274902344,0.0,-1.5707963267948966,1.207886687362854,-1.5707963267948966,0.0,0.0,0.0,0.0,0.843386172219044,0.0,0.0,0.0,-2.826690339824119e-05,-1.5623411898080586,1.216378454711353,-1.5673727000555453,-3.9460902625621624e-05,8.164590881632912e-07,-0.0007776522059231009,0.3403048160713186,-0.6476227867745342,-0.052533569758362694,0.0005243659831543032,-1.4323368943269458e-05,0.0,-1.5707963267948966,1.5039783219712182,-1.5707963267948966,0.0,0.0
18.503,600.0,44.44444274902344,0.0,-1.5707963267948966,1.288817365957273,-1.5707963267948966,0.0,0.0,0.0,0.0,0.5440683736563351,0.0,0.0,0.0,-4.26450616713252e-05,-1.5674415427697237,1.3205147112361764,-1.568964870913249,-3.6658008477004384e-05,1.0087459865733204e-07,-0.00042260380860523775,-0.033087980991093335,1.0290027680501492,-0.005434811664768279,0.0004162510380820841,6.065436141824888e-06,0.0,-1.5707963267948966,1.3745497716426358,-1.5707963267948966,0.0,0.0
18.603,600.0,55.55555725097656,0.0,-1.5707963267948966,1.350392482778616,-1.5707963267948966,0.0,0.0,0.0,0.0,0.12007807611014905,0.0,0.0,0.0,-2.8273823813488393e-05,-1.5687064111294569,1.3900487820337093,-1.568973259870683,-3.718567896453472e-05,8.537200846778027e-08,0.00033140842137988156,-0.020547710936668833,0.8713489578396384,-0.010972608601127762,0.00043051302643685964,3.955998687986266e-06,0.0,-1.5707963267948966,1.2995599716533175,-1.5707963267948966,0.0,0.0
18.703,600.0,55.55555725097656,0.0,-1.5707963267948966,1.2855481697115598,-1.5707963267948966,0.0,0.0,0.0,0.0,-0.95753570120887,0.0,0.0,0.0,1.5517835459499095e-05,-1.5698233408906361,1.477073030132283,-1.5700001747870174,-3.3782541400671496e-05,-3.428734566589062e-07,-0.000998701793462202,0.005816547198855365,1.8460785002447901,0.02308452791956443,0.0003112012314788362,1.7620584126786404e-05,0.0,-1.5707963267948966,1.1625362041751723,-1.5707963267948966,0.0,0.0
18.803,600.0,55.55555725097656,0.0,-1.5707963267948966,1.2186996275036277,-1.5707963267948966,0.0,0.0,0.0,0.0,-0.7362790769183398,0.0,0.0,0.0,-0.0001592977185639874,-1.5660091615774248,1.289061314023741,-1.565974673641308,-3.5041483999414174e-05,9.1105293313853e-07,0.0031019725355753863,-0.07402059841744849,-2.9494703483387137,-0.09237979847169586,0.00039490625057331,-2.2153624755647603e-05,0.0,-1.5707963267948966,1.119391270397322,-1.5707963267948966,0.0,0.0
18.902,600.0,55.55555725097656,0.0,-1.5707963267948966,1.14577000829164,-1.5707963267948966,0.0,0.0,0.0,0.0,-0.6193266690674847,0.0,0.0,0.0,-5.996894162966824e-05,-1.5682209168627355,1.2172467783847734,-1.5682375616195485,-3.584537780227813e-05,1.815202912074643e-07,0.0016317764063545816,-0.039059314545485196,-1.375323631734443,-0.04620419292076109,0.00039520517350084025,-7.841497931451181e-06,0.0,-1.5707963267948966,1.0245622200555227,-1.5707963267948966,0.0,0.0
19.002,600.0,55.55555725097656,0.0,-1.5707963267948966,1.0849780014026766,-1.5707963267948966,0.0,0.0,0.0,0.0,-0.9037291612369113,0.0,0.0,0.0,7.074213145563214e-06,-1.569299896578381,1.1396209589311437,-1.5691486290284646,-3.5582186648833975e-05,-8.558133464737332e-08,0.0014697748088139755,-0.025490893701532777,-0.7217964836651487,-0.0313524009892833,0.00037379748051465767,-3.0717563954280547e-06,0.0,-1.5707963267948966,0.8152095318553052,-1.5707963267948966,0.0,0.0
19.103,600.0,55.55555725097656,0.0,-1.5707963267948966,0.9990838742424293,-1.5707963267948966,0.0,0.0,0.0,0.0,-0.5913137033856747,0.0,0.0,0.0,-7.384557704405815e-05,-1.5688655350045893,1.0703257736833909,-1.568339960163462,-3.488405369577837e-05,1.82124586220047e-07,0.002228141528244551,-0.03307455491412905,-1.355070691118554,-0.044282397621511066,0.00038370166347633086,-7.671828895800842e-06,0.0,-1.5707963267948966,0.9337560300025098,-1.5707963267948966,0.0,0.0
19.203,600.0,55.55555725097656,0.0,-1.5707963267948966,0.9070528892893375,-1.5707963267948966,0.0,0.0,0.0,0.0,-0.8260153909010152,0.0,0.0,0.0,-7.409377735085115e-05,-1.5652433696059724,0.9408840939016073,-1.5678008032007755,-3.1108316992617804e-05,4.120372582437798e-07,-0.0019785587313573536,0.21323017051115428,-2.4052089047908174,-0.047348823718466354,0.00021866018718558878,-1.181301167840034e-05,0.0,-1.5707963267948966,0.8161427758258214,-1.5707963267948966,0.0,0.0
19.302,600.0,55.55555725097656,0.0,-1.5707963267948966,0.8214670646047884,-1.5707963267948966,0.0,0.0,0.0,0.0,-0.9994462411342349,0.0,0.0,0.0,-2.3025867310273324e-05,-1.5678222416475507,0.8293430511238731,-1.5691753937974198,-3.178522950620137e-05,-2.797604428279155e-08,0.0039438190822441,-0.050421816171984365,-1.2958804711529435,-0.03808107305926104,0.00035049833197985455,-5.9798092100401155e-06,0.0,-1.5707963267948966,0.5373547101451508,-1.5707963267948966,0.0,0.0
19.402,600.0,55.55555725097656,0.0,-1.5707963267948966,0.7199201295561579,-1.5707963267948966,0.0,0.0,0.0,0.0,-1.0105343959842656,0.0,0.0,0.0,0.00021750241756301144,-1.5701944523885387,0.7612679931295401,-1.570506042236078,-3.0021269300019685e-05,-4.3398855355572093e-07,-0.002515656295499775,-0.08462561380614506,-0.13391544087322363,-0.003886940567247868,0.00031350799321551534,4.3551538540836444e-06,0.0,-1.5707963267948966,0.5777299236839577,-1.5707963267948966,0.0,0.0
19.503,600.0,55.55555725097656,0.0,-1.5707963267948966,0.644989891391611,-1.5707963267948966,0.0,0.0,0.0,0.0,-0.5088371795937492,0.0,0.0,0.0,-0.00015883242934155382,-1.568640098418314,0.6517601406860268,-1.5688150681019322,-2.7242208525110507e-05,1.7268331993753697e-07,0.004629647561372154,-0.039456308640231946,-1.5926868451650753,-0.03742029285854195,0.00029707617225628005,-7.384173993184608e-06,0.0,-1.5707963267948966,0.5503569601203068,-1.5707963267948966,0.0,0.0
19.603,600.0,55.55555725097656,0.0,-1.5707963267948966,0.5922221605824554,-1.5707963267948966,0.0,0.0,0.0,0.0,-0.4659314491609983,0.0,0.0,0.0,0.00012403131497354722,-1.5700093626927782,0.6015070898645587,-1.569916551528789,-2.4260052052355066e-05,-1.3538790929112613e-07,-0.0017676614701954603,-0.010351158920460471,-0.607419440642589,-0.011646696284918849,0.00025373845951103517,5.916284532236271e-07,0.0,-1.5707963267948966,0.4061212976157538,-1.5707963267948966,0.0,0.0
19.703,600.0,55.55555725097656,0.0,-1.5707963267948966,0.5155441045637321,-1.5707963267948966,0.0,0.0,0.0,0.0,-0.776847044095347,0.0,0.0,0.0,-0.0005361555424272453,-1.5675637818637584,0.5312097570986091,-1.5680037360758394,-2.418967959725032e-05,5.137500346717232e-07,0.007441609136319017,-0.04927038182993179,-2.066588238503351,-0.04346745368319001,0.00024363727024802066,-1.0688186158235814e-05,0.0,-1.5707963267948966,0.31084916524898243,-1.5707963267948966,0.0,0.0
19.802,600.0,55.55555725097656,0.0,-1.5707963267948966,0.43602258119550985,-1.5707963267948966,0.0,0.0,0.0,0.0,-0.9661862260853965,0.0,0.0,0.0,-0.00014323226105573663,-1.5690082804390173,0.4533892605692946,-1.5693362487272606,-2.0936170107266815e-05,1.2359683878063174e-07,0.00039417111798383295,-0.023027459290236474,-1.305364919901097,-0.01950691637374684,0.00019307942285042465,-3.1065281295246362e-06,0.0,-1.5707963267948966,0.2842747465854531,-1.5707963267948966,0.0,0.0
19.903,600.0,55.55555725097656,0.0,-1.5707963267948966,0.3368625642756866,-1.5707963267948966,0.0,0.0,0.0,0.0,-0.7207701672315027,0.0,0.0,0.0,0.00016968300651799562,-1.5699853942429676,0.35735726955769137,-1.5701351970542845,-1.7583281747595758e-05,-9.818332782494063e-08,0.007411245458851561,-0.03248450660748677,-0.9618211340225105,-0.02308316929128957,0.0002221941258803838,-4.8074667899710604e-06,0.0,-1.5707963267948966,0.2820550183824439,-1.5707963267948966,0.0,0.0
20.003,600.0,55.55555725097656,0.0,-1.5707963267948966,0.2642953163472077,-1.5707963267948966,0.0,0.0,0.0,0.0,-1.10369027161841,0.0,0.0,0.0,0.0012885225097218395,-1.5726205921416008,0.2691032901810167,-1.571716715267628,-9.999670875636055e-06,-5.715213299669497e-07,-0.009032172214544484,0.01271736090423906,0.2862902166576816,0.006129686049075545,0.00014625767317153306,5.246246209752257e-06,0.0,-1.5707963267948966,0.03000630792450054,-1.5707963267948966,0.0,0.0
20.102,600.0,55.55555725097656,0.0,-1.5707963267948966,0.18229717577327254,-1.5707963267948966,0.0,0.0,0.0,0.0,-0.7573471824781765,0.0,0.0,0.0,-0.0010196167106207063,-1.5676014655931831,0.21948230735476518,-1.5688704618526057,-1.5348628665325194e-05,4.5475564081048447e-07,0.004987778229555161,-0.034257233545314215,-1.950291189492899,-0.021663371535141075,6.45482450109556e-05,-7.504573674981294e-06,0.0,-1.5707963267948966,-0.027802545698575043,-1.5707963267948966,0.0,0.0
20.202,600.0,55.55555725097656,0.0,-1.5707963267948966,0.11643468741888086,-1.5707963267948966,0.0,0.0,0.0,0.0,-0.8073964736723322,0.0,0.0,0.0,0.0003486664984702869,-1.5706513176735417,0.14384715088169933,-1.5706554455732313,-8.824557546496722e-06,-1.329778644586407e-07,0.026400567112065797,-0.04969615470920821,-0.5784622908989122,-0.02613716591609475,0.00024896071535595655,-6.105725820051705e-06,0.0,-1.5707963267948966,-0.043577639072632623,-1.5707963267948966,0.0,0.0
20.302,600.0,55.55555725097656,0.0,-1.5707963267948966,0.040559795028450196,-1.5707963267948966,0.0,0.0,0.0,0.0,-0.9785046326031245,0.0,0.0,0.0,-0.0006074925319309441,-1.5688891039802364,0.05685097416549067,-1.5697891192706286,-7.01851355561045e-06,2.839000477987611e-07,0.002946353682123913,0.09420383079180476,-1.8848993994548753,-0.016594622805474496,-4.5186703032953316e-05,-8.510286678075821e-06,0.0,-1.5707963267948966,-0.08654237841164503,-1.5707963267948966,0.0,0.0
20.403,600.0,55.55555725097656,0.0,-1.5707963267948966,-0.03890600517711107,-1.5707963267948966,0.0,0.0,0.0,0.0,-0.7429844810363107,0.0,0.0,0.0,0.0009237231457291383,-1.5737570961367922,-0.012136086465031837,-1.5715433434806638,-3.687342925966847e-06,-4.215208596230499e-07,-0.00977535852565012,-0.22431001919983357,0.12280920192261734,0.008465336061575231,4.743591519785859e-05,5.030129525085186e-06,0.0,-1.5707963267948966,-0.28258542077677445,-1.5707963267948966,0.0,0.0
20.502,600.0,55.55555725097656,0.0,-1.5707963267948966,-0.11456109304037909,-1.5707963267948966,0.0,0.0,0.0,0.0,-0.5755645881788852,0.0,0.0,0.0,0.00017205740383387285,-1.571638285173525,-0.09409866089588186,-1.5708866079558503,8.492696612045632e-07,-2.543290858907724e-08,-0.01963841619435331,0.02849585071157767,-0.9231378536617553,0.009877024700263895,-0.00014489356708119775,1.5644070051009861e-06,0.0,-1.5707963267948966,-0.20736690759835708,-1.5707963267948966,0.0,0.0
20.602,600.0,55.55555725097656,0.0,-1.5707963267948966,-0.18937255995970048,-1.5707963267948966,0.0,0.0,0.0,0.0,-0.5395440271260519,0.0,0.0,0.0,-0.0008351798664350402,-1.5694781952133618,-0.16490528160841705,-1.570052905376601,6.946222036441997e-07,3.3348119241752787e-07,0.005988140077435134,0.05407120407036879,-1.813531742246823,-0.01328248992933768,-0.00010124005095925239,-7.396636734530031e-06,0.0,-1.5707963267948966,-0.4078761935856871,-1.5707963267948966,0.0,0.0
20.702,600.0,55.55555725097656,0.0,-1.5707963267948966,-0.2755291488244147,-1.5707963267948966,0.0,0.0,0.0,0.0,-0.9529381892098255,0.0,0.0,0.0,0.0006261149589313646,-1.5739119589541803,-0.25192779865228226,-1.572173314236522,4.978141073843229e-06,-4.4131466824161347e-07,-0.006430121828955508,-0.1816491579482337,0.2219556349933922,0.01566037341150709,-3.635171000415782e-05,5.498550814489866e-06,0.0,-1.5707963267948966,-0.43570804871482494,-1.5707963267948966,0.0,0.0
20.803,600.0,55.55555725097656,0.0,-1.5707963267948966,-0.3566082002134898,-1.5707963267948966,0.0,0.0,0.0,0.0,-0.6988878634151369,0.0,0.0,0.0,-0.000284986454702763,-1.571420039122193,-0.36170787609347205,-1.57089872533881,7.756018307389667e-06,1.1504069666868353e-07,0.01108333368463701,-0.016447141937732952,-1.5455753923235191,-0.014172417456803983,-7.804928839947766e-05,-7.051632395460525e-06,0.0,-1.5707963267948966,-0.5299235241420135,-1.5707963267948966,0.0,0.0
20.902,600.0,55.55555725097656,0.0,-1.5707963267948966,-0.43307033325448785,-1.5707963267948966,0.0,0.0,0.0,0.0,-0.6183460905966965,0.0,0.0,0.0,0.000305063867515532,-1.5744371343211438,-0.4349606518791371,-1.5723625318319723,1.0245328346350996e-05,-3.710055173610428e-07,-0.003571174186120161,-0.158687249871516,-0.20573575224280546,0.01615204912478996,-0.00012275262704439577,3.3874350685214175e-06,0.0,-1.5707963267948966,-0.5415900992691689,-1.5707963267948966,0.0,0.0
21.003,600.0,55.55555725097656,0.0,-1.5707963267948966,-0.49862185583902097,-1.5707963267948966,0.0,0.0,0.0,0.0,-0.6127760357105164,0.0,0.0,0.0,0.0003130973358560197,-1.5764544788468788,-0.48223582254870595,-1.5723007464946823,1.6925591368024555e-05,-2.2301608316582306e-07,-0.002969166621707749,0.058227183464735134,-0.3604240660004857,0.013719668628220204,-0.00019104538155301158,1.4084873675650931e-06,0.0,-1.5707963267948966,-0.6713059043537295,-1.5707963267948966,0.0,0.0
21.102,600.0,55.55555725097656,0.0,-1.5707963267948966,-0.5670171638639481,-1.5707963267948966,0.0,0.0,0.0,0.0,-0.8179096475448211,0.0,0.0,0.0,0.00010531161204817808,-1.5750232960770703,-0.5674387347777745,-1.5722627964491487,1.605239791664731e-05,-2.062414638006741e-07,-0.0016830351052946639,-0.0874606569774537,-0.45697610579395426,0.013862982064974693,-0.00020418532799563454,1.430712166333043e-06,0.0,-1.5707963267948966,-0.673787193182023,-1.5707963267948966,0.0,0.0
21.204,600.0,55.55555725097656,0.0,-1.5707963267948966,-0.6511771146886289,-1.5707963267948966,0.0,0.0,0.0,0.0,-0.6710047494248489,0.0,0.0,0.0,0.00018956299040864485,-1.573902105258147,-0.6502596491488489,-1.572605012649224,2.0612655933190208e-05,-2.391828994357556e-07,0.0038176845949665717,0.015092977578590001,-0.44261833856706456,0.0033314345522560867,-0.0002019295895906312,-2.5420180122377576e-06,0.0,-1.5707963267948966,-0.8952835022698634,-1.5707963267948966,0.0,0.0
21.303,600.0,55.55555725097656,0.0,-1.5707963267948966,-0.7453433114033068,-1.5707963267948966,0.0,0.0,0.0,0.0,-0.8970967855865798,0.0,0.0,0.0,0.0001398440940202179,-1.5769595473476126,-0.718741904473855,-1.5730638753050445,1.9852273784031117e-05,-4.0553295556743397e-07,-0.0013790640050750538,-0.20470722278506007,0.121418807129379,0.02515477988542416,-0.00020238187509680463,4.712778909332828e-06,0.0,-1.5707963267948966,-0.8860654288234164,-1.5707963267948966,0.0,0.0
21.402,600.0,55.55555725097656,0.0,-1.5707963267948966,-0.8237240407979218,-1.5707963267948966,0.0,0.0,0.0,0.0,-0.605401513919767,0.0,0.0,0.0,9.159741336818413e-05,-1.574483606482166,-0.8325355820596329,-1.572590498421283,2.5105295641095648e-05,-1.5747417847923923e-07,0.003031536866154969,0.02212039286473929,-1.0129413766739357,0.00031687878403518143,-0.0002673360067288529,-4.3980071946528436e-06,0.0,-1.5707963267948966,-0.9489898706112724,-1.5707963267948966,0.0,0.0
21.502,600.0,55.55555725097656,0.0,-1.5707963267948966,-0.8997594277862646,-1.5707963267948966,0.0,0.0,0.0,0.0,-0.7783855698913237,0.0,0.0,0.0,0.00018601409744015065,-1.5740641586104782,-0.8570443206764957,-1.573297834006808,2.7207663340133147e-05,-3.397528187353028e-07,-0.002152062766115878,0.035251481045808664,-0.078864855150789,0.02678365451249529,-0.000293684738037051,3.5960052801174352e-06,0.0,-1.5707963267948966,-1.0273691693784055,-1.5707963267948966,0.0,0.0
21.603,600.0,55.55555725097656,0.0,-1.5707963267948966,-0.9726380686848195,-1.5707963267948966,0.0,0.0,0.0,0.0,-0.7220626997317611,0.0,0.0,0.0,-6.129176498453891e-05,-1.5720534719874686,-0.9547507076444591,-1.572002605610648,2.8527928620195767e-05,1.0264686295544423e-07,0.003883919803960634,-0.003941634197838069,-1.3540644157006676,-0.008300192506111848,-0.0003045602335847763,-8.211983458898587e-06,0.0,-1.5707963267948966,-1.2485848144441956,-1.5707963267948966,0.0,0.0
21.703,600.0,55.55555725097656,0.0,-1.5707963267948966,-1.0484662488840257,-1.5707963267948966,0.0,0.0,0.0,0.0,-0.602660145115769,0.0,0.0,0.0,0.0001326426278280228,-1.5730815853262936,-1.0027232270454651,-1.5734749342192982,3.038436759912446e-05,-3.2631124296670295e-07,-0.00018412451117574255,0.019559133056463812,-0.17390355365482,0.022677979734407022,-0.0003332487723235996,1.6314609727710624e-06,0.0,-1.5707963267948966,-1.1552560166248866,-1.5707963267948966,0.0,0.0
21.803,600.0,55.55555725097656,0.0,-1.5707963267948966,-1.1139782162615397,-1.5707963267948966,0.0,0.0,0.0,0.0,-0.7124371506818002,0.0,0.0,0.0,5.96804988847114e-05,-1.5726091405489135,-1.083824405142621,-1.5730521573962482,3.201509050940623e-05,-1.643197017179975e-07,0.0005986513052456664,0.012038282914295977,-0.6060415876736093,0.013973371132455779,-0.0003470863193796438,-1.679654345297837e-06,0.0,-1.5707963267948966,-1.3297521278101,-1.5707963267948966,0.0,0.0
21.902,600.0,55.55555725097656,0.0,-1.5707963267948966,-1.199961484816935,-1.5707963267948966,0.0,0.0,0.0,0.0,-0.7166291872741635,0.0,0.0,0.0,9.681936447070956e-05,-1.573260816067656,-1.131597653515062,-1.5735223384867016,3.327550821721216e-05,-2.939313545318401e-07,-0.000889803537031762,0.02500704726573582,-0.18038483886547538,0.02696664904949196,-0.0003574543774096073,2.4965514834537003e-06,0.0,-1.5707963267948966,-1.4687396993509718,-1.5707963267948966,0.0,0.0
22.003,600.0,55.55555725097656,0.0,-1.5707963267948966,-1.2710991405062444,-1.5707963267948966,0.0,0.0,0.0,0.0,-0.8079884377410791,0.0,0.0,0.0,5.7109538206577976e-05,-1.5727167322569526,-1.2507091311655099,-1.5732946382135,3.473192240651858e-05,-1.8660980479343557e-07,0.0003760250171100218,0.013125168889427753,-0.7134877539592377,0.01483123773740835,-0.0003802908212105835,-1.6864807883767506e-06,0.0,-1.5707963267948966,-1.3266932286312396,-1.5707963267948966,0.0,0.0
22.102,600.0,55.55555725097656,0.0,-1.5707963267948966,-1.3341277602437511,-1.5707963267948966,0.0,0.0,0.0,0.0,-0.6909444282934667,0.0,0.0,0.0,-5.2091066817894614e-05,-1.5727642696824107,-1.3332333028121224,-1.5714156449063945,3.634643130808847e-05,4.409634472626436e-07,0.0015815440907389134,0.004712758473179993,-2.197987141949261,-0.022470157462029166,-0.0003782299922576745,-1.3205192588958268e-05,0.0,-1.5707963267948966,-1.43923404143974,-1.5707963267948966,0.0,0.0
22.202,600.0,66.66666412353516,0.0,-1.5707963267948966,-1.3339684269113405,-1.5707963267948966,0.0,0.0,0.0,0.0,0.7838538708059943,0.0,0.0,0.0,2.235434524344572e-05,-1.5735814606629015,-1.3682470800858846,-1.5728818482445377,3.689540757197879e-05,-2.0591097781238393e-08,0.00010413996908581569,0.02409435075124664,-0.7758019950415658,0.011464989635980584,-0.0003968508588121439,-3.232425437144902e-06,0.0,-1.5707963267948966,-1.1817284795978678,-1.5707963267948966,0.0,0.0
22.302,600.0,66.66666412353516,0.0,-1.5707963267948966,-1.2592603905463386,-1.5707963267948966,0.0,0.0,0.0,0.0,0.8242099386709854,0.0,0.0,0.0,0.00011784489449065161,-1.581516482288847,-1.3438012586497747,-1.5745825429166622,2.998575493181481e-05,-3.6759943897626986e-07,-0.0019204241874075532,0.10290208941903185,0.7763198467155317,0.04581468480539099,-0.00022909287368536526,6.4846307458198955e-06,0.0,-1.5707963267948966,-1.1350106545779823,-1.5707963267948966,0.0,0.0
22.402,600.0,66.66666412353516,0.0,-1.5707963267948966,-1.1787477280850736,-1.5707963267948966,0.0,0.0,0.0,0.0,0.9399471650426368,0.0,0.0,0.0,7.38469343069428e-05,-1.5773849873317527,-1.2466874916033812,-1.5740423206895398,3.299951043508242e-05,-2.348006851529092e-07,-0.0015589424615443047,0.06724022357162038,1.1133173828976217,0.04321745775823723,-0.0002589481383563401,5.913379014384394e-06,0.0,-1.5707963267948966,-1.0512386928275688,-1.5707963267948966,0.0,0.0
22.502,600.0,66.66666412353516,0.0,-1.5707963267948966,-1.099513390548684,-1.5707963267948966,0.0,0.0,0.0,0.0,0.8069792015292357,0.0,0.0,0.0,4.125246525139615e-05,-1.574670959864853,-1.1377941635814037,-1.5734842552831136,3.4815621638959314e-05,-9.469954779088372e-08,-0.0017794629928873616,0.04452124988177755,1.1391309372905691,0.03961045157188789,-0.00026534367485134426,4.683783161861019e-06,0.0,-1.5707963267948966,-0.9844875661391072,-1.5707963267948966,0.0,0.0
22.603,600.0,66.66666412353516,0.0,-1.5707963267948966,-1.0220489674433706,-1.5707963267948966,0.0,0.0,0.0,0.0,0.7647509931907112,0.0,0.0,0.0,3.1755674497338845e-05,-1.573615948599018,-1.0401082163748068,-1.5732372470920086,3.475128168910088e-05,-4.828051504549905e-08,-0.0018930403115211111,0.0357751292563347,1.2167443730451297,0.03732599198881792,-0.00026923555709084534,3.861837813426935e-06,0.0,-1.5707963267948966,-0.883460947659448,-1.5707963267948966,0.0,0.0
22.704,600.0,66.66666412353516,0.0,-1.5707963267948966,-0.9414964750967814,-1.5707963267948966,0.0,0.0,0.0,0.0,0.9796196744148227,0.0,0.0,0.0,-9.144412393544494e-06,-1.57278730602584,-0.9653687974896323,-1.5727991570926907,3.447171804415293e-05,5.191402750698876e-08,-0.0014126174941411255,0.026093835452921318,0.8178150922922743,0.029127677357820562,-0.0002774261915969823,2.5920635254056876e-06,0.0,-1.5707963267948966,-0.8733455728363833,-1.5707963267948966,0.0,0.0
22.802,600.0,66.66666412353516,0.0,-1.5707963267948966,-0.8664592223073102,-1.5707963267948966,0.0,0.0,0.0,0.0,0.5932413106460528,0.0,0.0,0.0,-1.6796344587551967e-05,-1.5727143354119717,-0.8930155043621415,-1.5727032832934478,3.335824233008672e-05,6.291541829875633e-08,-0.001631076286271135,0.026239920241685172,0.8342863441602509,0.028531505861265707,-0.00026813137903390513,2.9466695342645495e-06,0.0,-1.5707963267948966,-0.6888832191514138,-1.5707963267948966,0.0,0.0
22.903,600.0,66.66666412353516,0.0,-1.5707963267948966,-0.7956902299062918,-1.5707963267948966,0.0,0.0,0.0,0.0,0.6481978702961159,0.0,0.0,0.0,4.707648435310531e-05,-1.5737590935076098,-0.8242392360527907,-1.5729980952261196,3.112820658300384e-05,-3.827106636575281e-08,-0.0019156488326853374,0.035577564315342855,1.0946620726196712,0.030686554540709243,-0.0002549842805473391,2.881996110198114e-06,0.0,-1.5707963267948966,-0.7488085151993734,-1.5707963267948966,0.0,0.0
23.003,600.0,66.66666412353516,0.0,-1.5707963267948966,-0.7402541951078216,-1.5707963267948966,0.0,0.0,0.0,0.0,0.7843524589858888,0.0,0.0,0.0,-6.167661809458079e-05,-1.5732925076846278,-0.7682696433724402,-1.5723269786314196,3.0739121169685415e-05,1.0233434993802266e-07,-3.1723975907124055e-05,0.026155433536697012,0.5013206008419454,0.018016384642926923,-0.0002673935481733041,1.6440718155235992e-07,0.0,-1.5707963267948966,-0.5654240517670411,-1.5707963267948966,0.0,0.0
23.103,600.0,66.66666412353516,0.0,-1.5707963267948966,-0.6556743734411521,-1.5707963267948966,0.0,0.0,0.0,0.0,0.6877619946542488,0.0,0.0,0.0,0.0003048531748028269,-1.5744260822026201,-0.6879027653668465,-1.5739813343005769,2.4890951728684354e-05,-3.7217334378347856e-07,-0.006602522498389358,0.05148673939050139,1.977808434614197,0.0488675703926789,-0.00017414389887175028,8.300078556984457e-06,0.0,-1.5707963267948966,-0.5644700936971525,-1.5707963267948966,0.0,0.0
23.204,600.0,66.66666412353516,0.0,-1.5707963267948966,-0.5917920234959508,-1.5707963267948966,0.0,0.0,0.0,0.0,1.0572793343462517,0.0,0.0,0.0,-7.216789446343191e-05,-1.5724992851539477,-0.6132528286942986,-1.5722121963884372,2.6246142146058815e-05,5.770004232725435e-08,0.0011495527043097276,0.016819398802963688,0.7268108831026316,0.014591941270194421,-0.0002246513568688382,-2.2937655842260816e-08,0.0,-1.5707963267948966,-0.5083348904653278,-1.5707963267948966,0.0,0.0
23.302,600.0,66.66666412353516,0.0,-1.5707963267948966,-0.5077939452030495,-1.5707963267948966,0.0,0.0,0.0,0.0,0.8433531058980893,0.0,0.0,0.0,7.541371652209194e-06,-1.5726343074212148,-0.5572008444677238,-1.572356140245356,2.3916855534620323e-05,-1.8701098420258095e-08,-0.0022575109415667555,0.025461684233920572,0.8741384859234419,0.022173664408919283,-0.00019390426482745145,2.4779259457205307e-06,0.0,-1.5707963267948966,-0.3266025792312453,-1.5707963267948966,0.0,0.0
23.403,600.0,66.66666412353516,0.0,-1.5707963267948966,-0.4226412696073787,-1.5707963267948966,0.0,0.0,0.0,0.0,0.9016102591701813,0.0,0.0,0.0,0.00018754003477934356,-1.5730518910801392,-0.455267188611964,-1.5726365711081414,2.0463519562331584e-05,-1.4273812021881908e-07,-0.004609589589115194,0.0323316078714026,1.3768602756834187,0.026572484563403418,-0.0001508546981798862,4.274081270735924e-06,0.0,-1.5707963267948966,-0.1509235339963369,-1.5707963267948966,0.0,0.0
23.502,600.0,66.66666412353516,0.0,-1.5707963267948966,-0.34280383636857614,-1.5707963267948966,0.0,0.0,0.0,0.0,0.9137927328502661,0.0,0.0,0.0,-7.002405303684719e-05,-1.5721915568899891,-0.35801177468509193,-1.5719060660211326,1.8990694276738723e-05,1.0735189227213416e-08,-0.008946293591767835,0.03613603335712167,1.1105889077818083,0.02663130089219674,-0.0001550762571358728,4.3293328420269125e-06,0.0,-1.5707963267948966,-0.1942766105349908,-1.5707963267948966,0.0,0.0
23.602,600.0,66.66666412353516,0.0,-1.5707963267948966,-0.26349834303875497,-1.5707963267948966,0.0,0.0,0.0,0.0,0.6028143141174691,0.0,0.0,0.0,0.00045414689062819906,-1.5732862492560662,-0.27310532221961964,-1.5724500166737814,1.4451605903901219e-05,-2.0572598201132818e-07,0.005185949663873382,0.012924261473208397,1.6887926057388738,0.009615289020271447,-4.866940302202201e-05,2.1583154263103046e-06,0.0,-1.5707963267948966,0.012521098175944101,-1.5707963267948966,0.0,0.0
23.703,600.0,66.66666412353516,0.0,-1.5707963267948966,-0.18891175816457295,-1.5707963267948966,0.0,0.0,0.0,0.0,0.6848505225955183,0.0,0.0,0.0,-0.0003483807092961794,-1.571378227493079,-0.21159177716378072,-1.5712028583352973,1.2621098163842867e-05,1.0292449356749265e-07,0.010460499368262337,-0.0031602206019681377,0.720956056604147,-0.0009041808358404745,-6.461823345006453e-05,-1.5555183808858554e-06,0.0,-1.5707963267948966,0.09740305424454215,-1.5707963267948966,0.0,0.0
23.803,600.0,66.66666412353516,0.0,-1.5707963267948966,-0.11228514003618706,-1.5707963267948966,0.0,0.0,0.0,0.0,1.0225984117180074,0.0,0.0,0.0,5.206030185387069e-07,-1.5718119232765984,-0.12206340862647587,-1.5714153785902856,1.0322759381188206e-05,-2.8054467192277656e-09,-0.02219785756294697,0.045335190973500625,1.0764101646678403,0.024790095344246036,-0.0001221997252836594,5.584889902922949e-06,0.0,-1.5707963267948966,0.14162950183196804,-1.5707963267948966,0.0,0.0
23.903,600.0,66.66666412353516,0.0,-1.5707963267948966,-0.03426058947347155,-1.5707963267948966,0.0,0.0,0.0,0.0,0.7053051109171627,0.0,0.0,0.0,0.0005504595327855412,-1.5724699903819568,-0.05485548420545111,-1.571679431012367,6.766581283842321e-06,-1.623068718438079e-07,-0.0023352523588564514,0.017850752667880807,1.4025173027832967,0.009617831506874633,3.547117656450092e-06,3.118771941115836e-06,0.0,-1.5707963267948966,0.10695089515177064,-1.5707963267948966,0.0,0.0
24.002,600.0,66.66666412353516,0.0,-1.5707963267948966,0.04081769917439696,-1.5707963267948966,0.0,0.0,0.0,0.0,0.8387648284135413,0.0,0.0,0.0,-0.000561180901786293,-1.5702639608929898,0.017934619355677688,-1.570557041770953,3.4075288578893515e-06,1.42349373867243e-07,-0.0038772210695663793,0.009000266296328574,0.4984205515729036,0.004633371825709062,-3.9866712037149003e-05,9.956205827047079e-07,0.0,-1.5707963267948966,0.2907758292177614,-1.5707963267948966,0.0,0.0
24.103,600.0,66.66666412353516,0.0,-1.5707963267948966,0.11703841628045354,-1.5707963267948966,0.0,0.0,0.0,0.0,1.0174011894073935,0.0,0.0,0.0,-0.0009101918687003113,-1.5688728586975869,0.06948819784775627,-1.5700921870026796,9.677639937945377e-07,2.400420939548148e-07,-0.009328841077898206,0.006354140594698786,0.12373167931232876,0.00539895001606603,-6.107966218135183e-05,6.61063535949719e-07,0.0,-1.5707963267948966,0.30838969486956275,-1.5707963267948966,0.0,0.0
24.202,600.0,66.66666412353516,0.0,-1.5707963267948966,0.202083924335194,-1.5707963267948966,0.0,0.0,0.0,0.0,0.9307105083349674,0.0,0.0,0.0,0.0007933222691838165,-1.5717441458268557,0.1642390419274633,-1.5714416107270228,-1.9419533980903563e-06,-2.3318720524658205e-07,-0.004300330007529742,0.011691952338396082,1.6293360696642554,0.007854692989268778,8.988918830899186e-05,3.823050927956198e-06,0.0,-1.5707963267948966,0.4075212318483556,-1.5707963267948966,0.0,0.0
24.303,600.0,66.66666412353516,0.0,-1.5707963267948966,0.274099660897383,-1.5707963267948966,0.0,0.0,0.0,0.0,0.5735853896940311,0.0,0.0,0.0,-0.0003570857545629226,-1.569308285535815,0.23723708635486224,-1.5700137569085768,-3.495982574087708e-06,1.7119928986775954e-07,-0.02159021366775876,0.027876393200241434,0.5476897973981829,0.016689257610632082,-2.3163582760960336e-05,4.646160769340533e-06,0.0,-1.5707963267948966,0.5060660431427821,-1.5707963267948966,0.0,0.0
24.402,600.0,66.66666412353516,0.0,-1.5707963267948966,0.35604432693426646,-1.5707963267948966,0.0,0.0,0.0,0.0,0.9771691410879735,0.0,0.0,0.0,-0.0005317751105678503,-1.5685926941509105,0.3114153439088434,-1.5694724694170181,-6.76243584132673e-06,2.5135731131078193e-07,-0.006030122315306712,0.0004032942327283401,0.21326462515775718,0.0009024971796776913,4.025440564646145e-05,7.509757890924697e-07,0.0,-1.5707963267948966,0.5032512392910398,-1.5707963267948966,0.0,0.0
24.502,600.0,66.66666412353516,0.0,-1.5707963267948966,0.43330905399913133,-1.5707963267948966,0.0,0.0,0.0,0.0,0.7051506287618675,0.0,0.0,0.0,0.0004952323597171856,-1.5718215106565225,0.40413579397347404,-1.5710065833629583,-1.1465345133201169e-05,-2.303738975848351e-07,-0.006776492456301483,0.020712514835063502,1.7388610994967997,0.010510423235728315,0.0001504809551199241,5.1058898871575676e-06,0.0,-1.5707963267948966,0.6348496230987453,-1.5707963267948966,0.0,0.0
24.602,600.0,66.66666412353516,0.0,-1.5707963267948966,0.5171052297925028,-1.5707963267948966,0.0,0.0,0.0,0.0,1.0279022956062918,0.0,0.0,0.0,0.0004563098962816222,-1.5712535915540633,0.49922216306101747,-1.5709872754450553,-1.571590339236321e-05,-2.8107494599494714e-07,-0.005508547937449848,0.014821775193160162,1.9335245930600324,0.01090671929098622,0.0001892215453289439,6.444581839526957e-06,0.0,-1.5707963267948966,0.6567938305960935,-1.5707963267948966,0.0,0.0
24.703,600.0,66.66666412353516,0.0,-1.5707963267948966,0.5963920447202811,-1.5707963267948966,0.0,0.0,0.0,0.0,0.613446129716664,0.0,0.0,0.0,0.00014114235254234089,-1.5700558348538,0.5534809743466147,-1.5701455833825357,-1.726236018944852e-05,-9.82396079470114e-08,-0.0001011526334766935,-0.004430286547090455,1.2986558844829694,-0.003197143874065865,0.00018305425656359604,1.9719232813769265e-06,0.0,-1.5707963267948966,0.8236821757852414,-1.5707963267948966,0.0,0.0
24.802,600.0,66.66666412353516,0.0,-1.5707963267948966,0.6739345505612053,-1.5707963267948966,0.0,0.0,0.0,0.0,0.8134849554585835,0.0,0.0,0.0,0.00032029889144876415,-1.5705812765368727,0.6472257094560034,-1.5706867377160398,-2.130154202488645e-05,-2.8441324377860815e-07,-0.004272293475124203,0.009533527894211413,2.006164042846652,0.010621378224941042,0.0002306165678835033,6.991224545897787e-06,0.0,-1.5707963267948966,0.8600093194994116,-1.5707963267948966,0.0,0.0
24.903,600.0,66.66666412353516,0.0,-1.5707963267948966,0.7447668250199095,-1.5707963267948966,0.0,0.0,0.0,0.0,0.6238780335504202,0.0,0.0,0.0,0.00011886046034860153,-1.5691122768795849,0.7136669847006001,-1.5698969772947768,-2.3265346999849358e-05,-1.257397296279385e-07,-0.0019237875986182417,-0.007303532556176815,1.3854011664573576,0.0005672432993253574,0.00023397190053546513,4.2170904523951395e-06,0.0,-1.5707963267948966,0.8176493241805839,-1.5707963267948966,0.0,0.0
25.003,600.0,66.66666412353516,0.0,-1.5707963267948966,0.810364777164683,-1.5707963267948966,0.0,0.0,0.0,0.0,0.5195890559703602,0.0,0.0,0.0,-0.0002090274893101369,-1.5678850922492764,0.782761434181188,-1.5681651236378984,-2.1350218592143397e-05,3.0282550278659297e-07,-0.0009479311239933634,-0.016927024840813817,0.21700974537495155,-0.013815472727543902,0.00021927644955380273,1.5015961983025758e-07,0.0,-1.5707963267948966,0.9223714777215444,-1.5707963267948966,0.0,0.0
25.102,600.0,66.66666412353516,0.0,-1.5707963267948966,0.8696173862254789,-1.5707963267948966,0.0,0.0,0.0,0.0,0.6063959177319436,0.0,0.0,0.0,-0.00013502726557045486,-1.568324913303303,0.8457247542001958,-1.5682988143246204,-2.441595035566897e-05,2.2094521912824584e-07,0.00035680441916163423,-0.01839899142600344,0.29075743635969414,-0.017934284379946826,0.0002320122242404148,-6.990592138603104e-07,0.0,-1.5707963267948966,0.9620115420007593,-1.5707963267948966,0.0,0.0
25.203,600.0,66.66666412353516,0.0,-1.5707963267948966,0.9441171607037613,-1.5707963267948966,0.0,0.0,0.0,0.0,0.8853122187368224,0.0,0.0,0.0,-0.00014803981623034165,-1.568168452589261,0.9064461586345474,-1.5679331623069523,-2.500573390664819e-05,2.887446305474592e-07,0.0015045332222287128,0.0005419647901200152,0.09718447397333507,-0.024932241567429014,0.00024290438079959846,-2.2171247330968444e-06,0.0,-1.5707963267948966,0.9942394210312896,-1.5707963267948966,0.0,0.0
25.303,600.0,66.66666412353516,0.0,-1.5707963267948966,1.0201886215109455,-1.5707963267948966,0.0,0.0,0.0,0.0,0.7719775823866252,0.0,0.0,0.0,5.843703070831831e-05,-1.5694446393836268,1.013987466350119,-1.5693528934840737,-3.157592859750222e-05,-1.3068888816120925e-07,-0.0019818800105273595,-0.001264050556017533,1.4950923775419227,0.0024606422533409236,0.00031880625987784254,5.044384849035378e-06,0.0,-1.5707963267948966,1.2786224085872897,-1.5707963267948966,0.0,0.0
25.402,600.0,66.66666412353516,0.0,-1.5707963267948966,1.088132737097122,-1.5707963267948966,0.0,0.0,0.0,0.0,0.4934851785259236,0.0,0.0,0.0,3.8448937171611225e-05,-1.5694385141131197,1.101626638344392,-1.5692154743718256,-3.3310163121045464e-05,-1.2667245101921085e-07,-0.002040918442794403,9.861985902409029e-05,1.5855525029208621,0.004416984265504969,0.00034840574144998017,6.266533534211483e-06,0.0,-1.5707963267948966,1.3683452406899335,-1.5707963267948966,0.0,0.0
25.503,600.0,66.66666412353516,0.0,-1.5707963267948966,1.1707928356852615,-1.5707963267948966,0.0,0.0,0.0,0.0,0.770638292536244,0.0,0.0,0.0,-9.25321204929639e-05,-1.5684069386648776,1.1639754339418638,-1.5676439430125697,-3.107175623162012e-05,2.5268355703043e-07,0.0007854858396539608,-0.02017489127059836,0.25988635596436144,-0.026045388807622496,0.00028142226611301783,-1.8282385661730711e-06,0.0,-1.5707963267948966,1.232639830711936,-1.5707963267948966,0.0,0.0
