7cmdehdrb/project_th/rtde_log_shoulder_lift.csv
Time,Stiffness,Damping,R_shoulder_pan_p,R_shoulder_lift_p,R_elbow_p,R_wrist_1_p,R_wrist_2_p,R_wrist_3_p,R_shoulder_pan_v,R_shoulder_lift_v,R_elbow_v,R_wrist_1_v,R_wrist_2_v,R_wrist_3_v,S_shoulder_pan_p,S_shoulder_lift_p,S_elbow_p,S_wrist_1_p,S_wrist_2_p,S_wrist_3_p,S_shoulder_pan_v,S_shoulder_lift_v,S_elbow_v,S_wrist_1_v,S_wrist_2_v,S_wrist_3_v,C_shoulder_pan_p,C_shoulder_lift_p,C_elbow_p,C_wrist_1_p,C_wrist_2_p,C_wrist_3_p
7.002,600.0,40.0,0.0,-1.081025280661863,0.0,-1.5707963267948966,0.0,0.0,0.0,0.024422227448040387,0.0,0.0,0.0,0.0,-0.00019703614487012787,-1.079267070727223,0.0010858277327025249,-1.5699100267841182,-1.8581896042302172e-05,2.1686486662550342e-08,0.0019474953239179387,-0.020565837076838185,-0.011111283352217931,-0.008906872565850857,0.00022429780207837,5.539784405050294e-07,0.0,-0.8695592258685885,0.0,-1.5707963267948966,0.0,0.0
7.101,600.0,40.0,0.0,-1.0675982195143225,0.0,-1.5707963267948966,0.0,0.0,0.0,0.3018856299062593,0.0,0.0,0.0,0.0,0.0006496403071105131,-1.0112371533133668,-0.002975731937973175,-1.5732929071587913,2.7044554069786854e-05,-8.179852469720267e-07,-0.009810052440632207,2.059597973274111,0.0449735753093599,0.037833245113883154,-0.0003928781259667953,1.3391933065861389e-05,0.0,-0.8675156911359575,0.0,-1.5707963267948966,0.0,0.0
7.202,600.0,40.0,0.0,-1.0246955087624325,0.0,-1.5707963267948966,0.0,0.0,0.0,0.7123965346838389,0.0,0.0,0.0,0.0,0.00019128047248834982,-0.9264829171489493,-0.0007578375331973683,-1.5714642475962886,-1.4875246597855623e-07,-3.814050616549165e-07,-0.01204300066255516,1.8284214759014559,0.06494092102666242,0.053993585408160585,-0.0007670376624514262,1.3663101186498882e-05,0.0,-0.9049223294130256,0.0,-1.5707963267948966,0.0,0.0
7.302,600.0,40.0,0.0,-0.9611837311205731,0.0,-1.5707963267948966,0.0,0.0,0.0,0.5956446600670464,0.0,0.0,0.0,0.0,-0.0002548251313149602,-0.8679396455911462,0.0019823706407418548,-1.5691737959007659,-3.30983021057076e-05,1.9917285190429843e-07,-0.002381443639607115,0.8988935669411372,0.011051514111097067,0.009793911187712804,-9.69824778047172e-06,5.043411094188866e-06,0.0,-0.7227551464438622,0.0,-1.5707963267948966,0.0,0.0
7.402,600.0,40.0,0.0,-0.8895635644355444,0.0,-1.5707963267948966,0.0,0.0,0.0,0.8486160823269016,0.0,0.0,0.0,0.0,-0.00020501512763948553,-0.8027579123841025,0.0018318721306049795,-1.5692963013109094,-3.116932270835391e-05,1.6801807799243648e-07,0.003113392399195052,0.8814348149409592,-0.027680288836659926,-0.0227258583773796,0.00045949996795456284,-2.7363356936507485e-06,0.0,-0.7332715161255399,0.0,-1.5707963267948966,0.0,0.0
7.503,600.0,40.0,0.0,-0.8321800839050688,0.0,-1.5707963267948966,0.0,0.0,0.0,0.732734647239967,0.0,0.0,0.0,0.0,-0.0002453688613598679,-0.7428726073739813,0.002341583088080544,-1.5688648692143166,-3.782644521057639e-05,2.5934519959394713e-07,0.003732874617592182,0.766951911265069,-0.035382175676304306,-0.02925306647208206,0.0005569298569036865,-4.355255445616927e-06,0.0,-0.6544362089728106,0.0,-1.5707963267948966,0.0,0.0
7.605,600.0,40.0,0.0,-0.7503660110878343,0.0,-1.5707963267948966,0.0,0.0,0.0,0.748625591604913,0.0,0.0,0.0,0.0,-0.0001417016098693994,-0.738706025269525,0.0017457437064389732,-1.5693708698214317,-3.1808758105309585e-05,9.672053673509007e-08,0.002160186967886571,0.3068692280595373,-0.026379374175453652,-0.021590457097327147,0.0004692588668963195,-1.8017742257318283e-06,0.0,-0.6533054860391156,0.0,-1.5707963267948966,0.0,0.0
7.701,600.0,40.0,0.0,-0.6916506296770022,0.0,-1.5707963267948966,0.0,0.0,0.0,0.7820187120944896,0.0,0.0,0.0,0.0,0.0003414563279155201,-0.6526845904794206,-0.0023672721896268005,-1.572856015581964,1.5819597870384597e-05,-8.57148783052408e-07,-0.011859843839179563,2.3704754252217857,0.10032135316469055,0.08483542096577286,-0.0011992321019100142,2.165679745762182e-05,0.0,-0.594697399012927,0.0,-1.5707963267948966,0.0,0.0
7.802,600.0,40.0,0.0,-0.6355146656242763,0.0,-1.5707963267948966,0.0,0.0,0.0,0.6907586574659712,0.0,0.0,0.0,0.0,-0.00012910641348288222,-0.5668454490659321,0.0018723819576844198,-1.5692554217881767,-3.339058094696118e-05,1.2991344316239977e-07,0.001968432737505573,1.3110861888709142,-0.02829007366369321,-0.02333879738582895,0.0004921849388116188,-2.2469931518395486e-06,0.0,-0.399632343346839,0.0,-1.5707963267948966,0.0,0.0
7.902,600.0,40.0,0.0,-0.5737052857211626,0.0,-1.5707963267948966,0.0,0.0,0.0,0.9141201139900199,0.0,0.0,0.0,0.0,-4.709017482813045e-05,-0.5198242108063023,0.001100914904381879,-1.569915486264353,-2.520768974749102e-05,-7.524703910311793e-08,0.0007484261585726643,1.3388361942714855,-0.016633507037984257,-0.013347503309151939,0.00037328311851798733,1.0227440617128289e-06,0.0,-0.3843149425066092,0.0,-1.5707963267948966,0.0,0.0
8.002,600.0,40.0,0.0,-0.5156168133020245,0.0,-1.5707963267948966,0.0,0.0,0.0,0.7443897565792468,0.0,0.0,0.0,0.0,1.6329002200230746e-05,-0.4566239360293049,0.00043272157760648397,-1.5704868674762293,-1.792398114544242e-05,-2.3680246694785435e-07,-0.00023183512987959686,1.4627641319113962,-0.006537776995130059,-0.004695937385974509,0.00026699740621208387,3.7803801981680736e-06,0.0,-0.3991778472697043,0.0,-1.5707963267948966,0.0,0.0
8.102,600.0,40.0,0.0,-0.4627081962404853,0.0,-1.5707963267948966,0.0,0.0,0.0,0.5261293292656188,0.0,0.0,0.0,0.0,-3.1535470785287824e-05,-0.38021581369460034,0.0010665096719007674,-1.5699534363098866,-2.7036331251082973e-05,-1.435885842154868e-07,-0.0025810558856869605,1.4787959621995097,0.0357057039756677,0.030992322884553166,-0.00029698852720868663,1.0925609635178212e-05,0.0,-0.16434872743570117,0.0,-1.5707963267948966,0.0,0.0
8.202,600.0,40.0,0.0,-0.39838775550057637,0.0,-1.5707963267948966,0.0,0.0,0.0,0.6634489804982994,0.0,0.0,0.0,0.0,-0.00012846768719482885,-0.3267543195498592,0.0027949529741529084,-1.5684764471693287,-4.674808362627782e-05,2.6572919567173866e-07,0.001953914738486926,0.819703939295413,-0.042229491572845085,-0.035129787067559655,0.0006878628455183738,-4.618722420073944e-06,0.0,-0.2735229884901784,0.0,-1.5707963267948966,0.0,0.0
8.302,600.0,40.0,0.0,-0.3340316019165366,0.0,-1.5707963267948966,0.0,0.0,0.0,1.1949565561603894,0.0,0.0,0.0,0.0,-0.00010160105037727954,-0.2631134747047786,0.002583859226838324,-1.568657009491236,-4.45830014419144e-05,2.0532714000113214e-07,0.0015489119149698736,0.9268756002516815,-0.03904013562444742,-0.03240014265758011,0.0006565829912218086,-3.7656131068689714e-06,0.0,-0.0989974409392127,0.0,-1.5707963267948966,0.0,0.0
8.404,600.0,40.0,0.0,-0.24944763909129986,0.0,-1.5707963267948966,0.0,0.0,0.0,0.808480108396103,0.0,0.0,0.0,0.0,3.941446716758889e-06,-0.19036853044947805,0.00021478917591068528,-1.5706771503361157,-1.6803786167364906e-05,-3.222943772354235e-07,-1.4314777347299762e-05,1.6964790212770606,-0.0032444813023676986,-0.0018108897241590853,0.0002513329345493602,4.9580996041149354e-06,0.0,0.017816162813115155,0.0,-1.5707963267948966,0.0,0.0
8.502,600.0,40.0,0.0,-0.1956100426681635,0.0,-1.5707963267948966,0.0,0.0,0.0,0.6053741720933666,0.0,0.0,0.0,0.0,-1.8153795416541962e-05,-0.12326888849390023,0.000579816397521555,-1.5703695552302115,-2.2299410637738573e-05,-2.6727516482946424e-07,-0.0003682572472020197,1.670175511822566,0.030382798131845086,0.026222747013843365,-0.000306081310785017,9.290147479868821e-06,0.0,-0.09357743207709589,0.0,-1.5707963267948966,0.0,0.0
8.602,600.0,40.0,0.0,-0.13435373237974169,0.0,-1.5707963267948966,0.0,0.0,0.0,0.7975634084929522,0.0,0.0,0.0,0.0,-5.930285470987125e-05,-0.05006855617576376,0.0026112832842080103,-1.5686335736736432,-4.55294241023123e-05,2.0464296864550613e-07,0.0009064592819849972,1.1005354080877319,-0.0394536829298447,-0.032751627906605525,0.0006704984630475417,-4.169663968955231e-06,0.0,-0.03799736162453242,0.0,-1.5707963267948966,0.0,0.0
8.702,600.0,40.0,0.0,-0.07702867039662298,0.0,-1.5707963267948966,0.0,0.0,0.0,0.9148273572453826,0.0,0.0,0.0,0.0,-4.66759942742606e-05,-0.030009402141069962,0.004122039694927344,-1.5673474000251895,-6.402520303368161e-05,5.313939442145513e-07,0.000718169241615704,0.07783965464440619,-0.062281276141459924,-0.052223070142394676,0.000941097606080072,-8.657364296512477e-06,0.0,0.05849289739890762,0.0,-1.5707963267948966,0.0,0.0
8.803,600.0,40.0,0.0,-0.007346233235932864,0.0,-1.5707963267948966,0.0,0.0,0.0,1.0399967886461383,0.0,0.0,0.0,0.0,-7.6094786161217424e-06,-0.004240898863031643,-0.00014805795641452456,-1.5709898054480909,-1.3262409956418272e-05,-4.2368234648305043e-07,0.00012454418154284765,1.2944010851674044,0.002238605098570445,0.0029172084528700333,0.00020035040203335297,6.350857554581908e-06,0.0,0.2480675655687158,0.0,-1.5707963267948966,0.0,0.0
8.902,600.0,40.0,0.0,0.07136426447498964,0.0,-1.5707963267948966,0.0,0.0,0.0,0.9433381034213973,0.0,0.0,0.0,0.0,-2.8277611145849162e-05,0.06543252808032343,-0.0007938523656771616,-1.5715385497907017,-5.13518786944089e-06,-5.594071745701015e-07,0.00042774463277294513,1.9575371181867864,0.01199852899324274,0.011229479850941611,8.119153077854891e-05,8.4348702033436e-06,0.0,0.14655361507591824,0.0,-1.5707963267948966,0.0,0.0
9.002,600.0,40.0,0.0,0.13933818604609824,0.0,-1.5707963267948966,0.0,0.0,0.0,0.8813169106592186,0.0,0.0,0.0,0.0,-3.135016579674998e-05,0.16723667940569967,0.0017055314043875652,-1.5694058903897663,-3.453071834302204e-05,5.5042699495401935e-09,0.0008136686638674268,1.620719411957304,-0.02533059012926142,-0.020587342102640575,0.0005319001412996918,7.272332128172801e-07,0.0,0.32821470597267755,0.0,-1.5707963267948966,0.0,0.0
9.102,600.0,40.0,0.0,0.21265127973012016,0.0,-1.5707963267948966,0.0,0.0,0.0,0.708890166942341,0.0,0.0,0.0,0.0,1.3899065809023343e-05,0.24492579886948915,0.003130847287531055,-1.5681917552487992,-5.178497152811462e-05,3.1817757083327743e-07,0.0008623300005217061,1.114196758689566,-0.04102100732681597,-0.03271707547205635,0.0010781482580279292,5.975247242238068e-06,0.0,0.3738786495356674,0.0,-1.5707963267948966,0.0,0.0
9.202,600.0,40.0,0.0,0.27942278534573844,0.0,-1.5707963267948966,0.0,0.0,0.0,0.7942280760926798,0.0,0.0,0.0,0.0,-4.1052309612523085e-05,0.3007373662286571,0.0012806806186311545,-1.5697690124043986,-2.9727633195881448e-05,-8.539050923841162e-08,0.0005647035435025871,1.5084681041168455,-0.019350803119003158,-0.01556488452226554,0.00044008824788644167,1.3248459153089095e-06,0.0,0.4889259710784082,0.0,-1.5707963267948966,0.0,0.0
9.302,600.0,40.0,0.0,0.3612372796365162,0.0,-1.5707963267948966,0.0,0.0,0.0,0.7690898872924329,0.0,0.0,0.0,0.0,-3.9013272043503195e-06,0.39405779319736894,0.002016353382481674,-1.5691414384935214,-3.7974793231136747e-05,8.928189355241017e-08,7.796200095408139e-05,1.5163531914723523,-0.030464781881527493,-0.025057851224718285,0.00055989613461979,-1.4770996223663055e-06,0.0,0.4619954181432514,0.0,-1.5707963267948966,0.0,0.0
9.402,600.0,40.0,0.0,0.4327960992888108,0.0,-1.5707963267948966,0.0,0.0,0.0,1.0156043564624844,0.0,0.0,0.0,0.0,6.640795117359466e-05,0.49168112282883547,0.0027143296732656374,-1.5685478198865428,-4.588533581635267e-05,2.5224201482890124e-07,-0.0008263660125724901,1.1844217200528926,-0.04099703055462685,-0.034023133363117845,0.000675216211306725,-4.111591454763822e-06,0.0,0.7067583407582025,0.0,-1.5707963267948966,0.0,0.0
9.502,600.0,40.0,0.0,0.5066205236964497,0.0,-1.5707963267948966,0.0,0.0,0.0,0.7187784658316811,0.0,0.0,0.0,0.0,4.651513424046118e-05,0.554817215423562,0.0021515220715937807,-1.569026922566648,-3.885189795654537e-05,1.3018566878740404e-07,-0.0007006759272981524,1.2313712527001721,-0.03250748053307791,-0.026798139612111797,0.0005729277438513205,-2.6440537544994767e-06,0.0,0.6536449901669277,0.0,-1.5707963267948966,0.0,0.0
9.602,600.0,40.0,0.0,0.5740835098839205,0.0,-1.5707963267948966,0.0,0.0,0.0,0.9280927288475841,0.0,0.0,0.0,0.0,0.00010072193413951193,0.6301676966208551,0.0024766807769018703,-1.5687507527616067,-4.2152610936553224e-05,2.1873825418342433e-07,-0.0015315178840259683,1.139096316196398,-0.0374215162481677,-0.030977267702015813,0.0006208122384962183,-3.7771965734938352e-06,0.0,0.6401921881110568,0.0,-1.5707963267948966,0.0,0.0
9.702,600.0,40.0,0.0,0.6485491211314528,0.0,-1.5707963267948966,0.0,0.0,0.0,1.025439074586946,0.0,0.0,0.0,0.0,-9.215735745400764e-06,0.7078260066397838,0.0011626447158032864,-1.569870611999985,-2.7199627449850504e-05,-8.774967893587044e-08,0.005520703811409838,1.3948331509320366,0.03279698694951554,0.028294010148679483,-0.00026566291608553106,1.018062165105741e-05,0.0,0.7343265922616421,0.0,-1.5707963267948966,0.0,0.0
9.802,600.0,40.0,0.0,0.7200198830881492,0.0,-1.5707963267948966,0.0,0.0,0.0,1.0313506894063242,0.0,0.0,0.0,0.0,0.0001186237195667628,0.7927964914847156,0.0020204909049213295,-1.5691394411227038,-3.526632231721354e-05,1.5399423987503455e-07,-0.0017999703735782726,1.3042284159059059,-0.030529602806341104,-0.025098223082368205,0.0005193927118706078,-2.6278618419460878e-06,0.0,0.9346962625090084,0.0,-1.5707963267948966,0.0,0.0
9.904,600.0,40.0,0.0,0.7828085106718287,0.0,-1.5707963267948966,0.0,0.0,0.0,0.6528833910195759,0.0,0.0,0.0,0.0,8.947051740935093e-05,0.8322620088366544,0.0016017210469996537,-1.569495638918502,-3.037646580966575e-05,5.972319405996222e-08,0.0007362763963593159,1.0390387574600581,-0.006890668205957525,-0.005782459257051001,0.00011602816154659103,-2.8983356479483037e-07,0.0,0.8457505450164607,0.0,-1.5707963267948966,0.0,0.0
10.002,600.0,40.0,0.0,0.8404171589365435,0.0,-1.5707963267948966,0.0,0.0,0.0,0.9660282353727931,0.0,0.0,0.0,0.0,0.0003020769789091563,0.8773220952695499,0.00283533991611369,-1.568457538725589,-4.397506551576828e-05,3.568101959101955e-07,-0.0045788976978493314,0.4709990470927937,-0.042844282310489874,-0.03543034976371032,0.0006470552333365761,-5.902457924556531e-06,0.0,1.0358261816462753,0.0,-1.5707963267948966,0.0,0.0
10.103,600.0,40.0,0.0,0.9071911663171505,0.0,-1.5707963267948966,0.0,0.0,0.0,0.5153791604182576,0.0,0.0,0.0,0.0,0.00013731786206235808,0.9254143903405823,0.0015576476815162815,-1.56953638528318,-2.8990426107294748e-05,6.292435914736904e-08,0.0029240047151362393,0.8261542486136394,0.008055050088216005,0.007201896550184763,2.0084430755888152e-05,4.804421075803253e-06,0.0,1.182043255234603,0.0,-1.5707963267948966,0.0,0.0
10.202,600.0,40.0,0.0,0.9569126225306326,0.0,-1.5707963267948966,0.0,0.0,0.0,0.7302408241803733,0.0,0.0,0.0,0.0,-0.0001581009377926296,0.9926446270581148,-0.00031440427435874634,-1.571096065575585,-5.217824454443494e-06,-3.017489817546948e-07,0.0023954197737692017,1.653656323054968,0.004753553211682692,0.004540941410531897,7.96725423002325e-05,4.632418482633417e-06,0.0,1.1283747744038475,0.0,-1.5707963267948966,0.0,0.0
10.302,600.0,40.0,0.0,1.0184186141687792,0.0,-1.5707963267948966,0.0,0.0,0.0,0.7433843654951416,0.0,0.0,0.0,0.0,0.0004919369904518283,1.0319777853038767,0.003010326244488709,-1.568338894899026,-4.4915669013139754e-05,4.1354862278548105e-07,-0.0005546729319095744,0.296172108909016,-0.010180221429180214,-0.007488564515437127,0.00031982393071236206,3.1480526528385014e-06,0.0,1.0773118442572205,0.0,-1.5707963267948966,0.0,0.0
10.402,600.0,40.0,0.0,1.0871413674556496,0.0,-1.5707963267948966,0.0,0.0,0.0,0.6211081640147127,0.0,0.0,0.0,0.0,0.0002659268752709668,1.0513720562052968,0.0017097903815370904,-1.5694186735629987,-2.892960325631855e-05,1.417105059859901e-07,0.0014470084225343509,0.4236318642075626,0.0012351777546193035,0.0016616144736108025,0.00012909430377211495,4.261722152754448e-06,0.0,1.220139104441564,0.0,-1.5707963267948966,0.0,0.0
10.502,600.0,40.0,0.0,1.1504312530622063,0.0,-1.5707963267948966,0.0,0.0,0.0,0.8488713446611547,0.0,0.0,0.0,0.0,0.00020780728559486548,1.1438477950552628,0.0010737575532326887,-1.5699611594770477,-2.08663279599658e-05,1.0161262543085555e-08,0.010178763972661774,1.0344735667194445,0.03924724217228232,0.0327203461667701,-0.0003342848109073366,1.1966066434697669e-05,0.0,1.2571129918562702,0.0,-1.5707963267948966,0.0,0.0
10.602,600.0,40.0,0.0,1.2166358010952685,0.0,-1.5707963267948966,0.0,0.0,0.0,0.5995362615768614,0.0,0.0,0.0,0.0,-7.146021596990908e-05,1.2018683546701108,-1.627623352601318e-05,-1.5708309478890676,-6.070191641497839e-06,-1.7066793440133822e-07,0.0010782133416278113,1.4174844012675964,0.00024633666294252975,0.0005195134513760834,9.13125669635055e-05,2.5173081575763024e-06,0.0,1.2813763305277315,0.0,-1.5707963267948966,0.0,0.0
10.703,600.0,40.0,0.0,1.2865830307385386,0.0,-1.5707963267948966,0.0,0.0,0.0,0.8327155625746614,0.0,0.0,0.0,0.0,0.0005756282256070664,1.2684664235238858,0.001785498797826674,-1.5694234672529608,-2.742242174600023e-05,2.0299609052261238e-07,0.009015483765244855,0.8568375262178511,0.024982144628948977,0.020189255695727975,-0.00017859129986988505,8.473907765922712e-06,0.0,1.4676268373681667,0.0,-1.5707963267948966,0.0,0.0
10.802,600.0,43.157894134521484,0.0,1.3422014832847498,0.0,-1.5707963267948966,0.0,0.0,0.0,0.7406825986305752,0.0,0.0,0.0,0.0,-0.00010425368658451071,1.3157724202830723,-0.00013291286130655408,-1.570910576405661,-3.908490423362065e-06,-1.7143636323488035e-07,0.01589130796901709,1.3227773328983077,0.036201326576909845,0.02711951865725171,-0.00044019757663089893,6.823902782623939e-06,0.0,1.079081621098327,0.0,-1.5707963267948966,0.0,0.0
10.902,600.0,43.157894134521484,0.0,1.3272636539913476,0.0,-1.5707963267948966,0.0,0.0,0.0,-0.7210599653886086,0.0,0.0,0.0,0.0,-0.0009242452449369833,1.3885720592092603,-0.001803496331242213,-1.5721285731302088,1.6957647560436497e-05,-4.653284304159589e-07,0.013881156058819883,2.0480418515139847,0.027273557559177576,0.020229773195000005,-0.00024978365553948034,7.586884151162061e-06,0.0,1.277563534410566,0.0,-1.5707963267948966,0.0,0.0
11.002,600.0,43.157894134521484,0.0,1.2752602314242703,0.0,-1.5707963267948966,0.0,0.0,0.0,-0.6337731789353934,0.0,0.0,0.0,0.0,0.0019264057668500608,1.434640485009887,0.0027213948523841036,-1.5689516882658532,-3.0893680496590654e-05,4.1275081177567234e-07,-0.0268036531878061,0.44135496823544457,-0.03813657083966477,-0.025977836062096953,0.00042489542101247375,-6.1262864225150725e-06,0.0,1.1272385857044882,0.0,-1.5707963267948966,0.0,0.0
11.102,600.0,43.157894134521484,0.0,1.2165729825589873,0.0,-1.5707963267948966,0.0,0.0,0.0,-0.6456435498149735,0.0,0.0,0.0,0.0,0.003581792240595226,1.4000485524527932,0.005033242862641208,-1.5673828200676876,-5.42866711625174e-05,8.367003757386098e-07,-0.04984053965218254,-1.1990310228447403,-0.07053119992155057,-0.0480774188196308,0.0007462110405263286,-1.2140014505729863e-05,0.0,0.9552418650493897,0.0,-1.5707963267948966,0.0,0.0
11.202,600.0,43.157894134521484,0.0,1.1599253795775963,0.0,-1.5707963267948966,0.0,0.0,0.0,-0.42768008803104124,0.0,0.0,0.0,0.0,0.0026623405555832227,1.2570786135446523,0.004374841821849067,-1.5676840235869756,-4.732204734369429e-05,7.535851041301209e-07,-0.06550271901980384,-2.424997523270651,-0.12817907510897703,-0.09447829450927264,0.001495542842917931,-2.0169300322792306e-05,0.0,1.0631517132007449,0.0,-1.5707963267948966,0.0,0.0
11.302,600.0,43.157894134521484,0.0,1.1081578944548172,0.0,-1.5707963267948966,0.0,0.0,0.0,-0.8944227074597436,0.0,0.0,0.0,0.0,0.0014620157513958677,1.1741323308652625,0.001940223515748099,-1.5695282626418554,-2.406381581483604e-05,2.3829302109890973e-07,-0.020399803547033957,-2.130300372841862,-0.027163302690048297,-0.017890175774392388,0.0003314683034932595,-3.270801130884678e-06,0.0,0.8453529381115599,0.0,-1.5707963267948966,0.0,0.0
11.402,600.0,43.157894134521484,0.0,1.0411594667442534,0.0,-1.5707963267948966,0.0,0.0,0.0,-0.7785182458241464,0.0,0.0,0.0,0.0,0.0007526915075431569,1.0494700931337897,0.0017934989441442451,-1.5694474357027715,-2.3551325134208767e-05,2.1548984903304118e-07,-0.018398808333678497,-2.141486847842685,-0.05985882736322102,-0.04659360116759032,0.0009201774224164824,-4.824824719347699e-06,0.0,0.9697335466426719,0.0,-1.5707963267948966,0.0,0.0
11.504,600.0,43.157894134521484,0.0,0.9720457260530351,0.0,-1.5707963267948966,0.0,0.0,0.0,-1.0077034006266756,0.0,0.0,0.0,0.0,0.0001692388645891301,0.9914745672331885,8.327093066374191e-05,-1.5708221594574703,-7.321084127143212e-06,-1.5568137364299148e-07,-0.002371710878135041,-1.2077008106154388,-0.0011641691414604643,0.0003543609883670609,0.00010225401573463778,2.4903950365367844e-06,0.0,0.8101488841632754,0.0,-1.5707963267948966,0.0,0.0
11.602,600.0,43.157894134521484,0.0,0.9037690881136653,0.0,-1.5707963267948966,0.0,0.0,0.0,-0.7857378561783579,0.0,0.0,0.0,0.0,-0.0001404273432037764,0.9592060429901071,-0.0010600100894210367,-1.5717558637356521,4.754732148917144e-06,-3.806606496947894e-07,-0.0033579847598930903,-0.34189588837507284,-0.016165711349241527,-0.013170803611122483,0.00020606496641710362,-2.311749119026776e-06,0.0,0.7683117757368418,0.0,-1.5707963267948966,0.0,0.0
11.702,600.0,43.157894134521484,0.0,0.8535135845206536,0.0,-1.5707963267948966,0.0,0.0,0.0,-0.6782251170707135,0.0,0.0,0.0,0.0,0.00035983470767102823,0.8987097422468945,0.0023209337068080724,-1.5688720597492598,-3.211508502378547e-05,2.97581062112366e-07,-0.0101137297869015,-1.534931136920636,-0.0649759915292674,-0.05387495406516517,0.0009263121206179533,-7.78058060034903e-06,0.0,0.799770716645196,0.0,-1.5707963267948966,0.0,0.0
11.802,600.0,43.157894134521484,0.0,0.810430017756012,0.0,-1.5707963267948966,0.0,0.0,0.0,-0.6415190795243769,0.0,0.0,0.0,0.0,0.00012427970220876147,0.8238562734880374,0.0011134424245525848,-1.5698964446625587,-2.0203333486441925e-05,1.7958857185471062e-08,-0.006454670244511423,-1.2494779517935664,-0.05024998818621461,-0.04184950425837201,0.0007299151084020119,-5.829220588213219e-06,0.0,0.706903266126943,0.0,-1.5707963267948966,0.0,0.0
11.903,600.0,43.157894134521484,0.0,0.7555564763366753,0.0,-1.5707963267948966,0.0,0.0,0.0,-0.8122790635673942,0.0,0.0,0.0,0.0,0.00010103442156856606,0.7862716802349943,0.0012312676671770383,-1.5697924482219912,-2.2968313674838156e-05,1.1077225299785563e-08,-0.0014152819556028306,-1.0106547865619937,-0.017232101386952702,-0.014080369871033517,0.0003143355497183114,-5.027466874492561e-07,0.0,0.5215111300771808,0.0,-1.5707963267948966,0.0,0.0
12.002,600.0,43.157894134521484,0.0,0.6991417815519014,0.0,-1.5707963267948966,0.0,0.0,0.0,-0.7420597094298269,0.0,0.0,0.0,0.0,0.00024786819187971453,0.7241198254001338,0.0026548566568011796,-1.5685693914913723,-3.892624264060146e-05,2.8838166304745353e-07,-0.0034872375383298033,-1.589025930772598,-0.037157688530303316,-0.03124280566864273,0.0005303329659253088,-4.604180100042229e-06,0.0,0.652364835137767,0.0,-1.5707963267948966,0.0,0.0
12.102,600.0,43.157894134521484,0.0,0.6401998166670086,0.0,-1.5707963267948966,0.0,0.0,0.0,-0.724319849979837,0.0,0.0,0.0,0.0,0.00015258030758225378,0.6432094627950822,0.002180267436572661,-1.5689763225059365,-3.473221499013443e-05,1.6525674074943434e-07,-0.002149317941687685,-1.619963473681885,-0.030515783496997115,-0.025525652114947516,0.0004734813036031536,-2.568287042956265e-06,0.0,0.46568392736650654,0.0,-1.5707963267948966,0.0,0.0
12.202,600.0,43.157894134521484,0.0,0.5712616105618133,0.0,-1.5707963267948966,0.0,0.0,0.0,-0.6337496696976113,0.0,0.0,0.0,0.0,-9.140980225184078e-05,0.6045658635345692,-8.704226032618868e-05,-1.5709252237916564,-1.0358320481498393e-05,-2.9891451448140634e-07,-0.0012187367660401048,-0.4992430355860609,-0.024642231647097793,-0.02056510262694381,0.00040421996728890033,-1.5841624946630897e-06,0.0,0.4333410392819743,0.0,-1.5707963267948966,0.0,0.0
12.303,600.0,43.157894134521484,0.0,0.5090068065586282,0.0,-1.5707963267948966,0.0,0.0,0.0,-0.8726478755061203,0.0,0.0,0.0,0.0,1.187211966429473e-05,0.5486127158739499,0.0011078958194189793,-1.5698944472917413,-2.3752011080885567e-05,-6.059117069086335e-08,-0.002371612049891464,-0.7297870321998224,-0.04182223598552312,-0.03524926313196333,0.0006318471921145838,-4.338157590565492e-06,0.0,0.34709868837249247,0.0,-1.5707963267948966,0.0,0.0
12.401,600.0,43.157894134521484,0.0,0.46119633449258846,0.0,-1.5707963267948966,0.0,0.0,0.0,-0.6172415396147741,0.0,0.0,0.0,0.0,0.00019194362950832695,0.4742127501592196,0.003542743901186264,-1.567796675301086,-5.110243897090986e-05,4.140214996255567e-07,-0.0027082418534612844,-1.8581605963202072,-0.04958295787931223,-0.04207190733771805,0.000695330164562185,-6.394862435180864e-06,0.0,0.24926036757164516,0.0,-1.5707963267948966,0.0,0.0
12.502,600.0,43.157894134521484,0.0,0.40093002062687333,0.0,-1.5707963267948966,0.0,0.0,0.0,-0.6167073811876942,0.0,0.0,0.0,0.0,1.8524244878995053e-05,0.4166264522496228,0.0015183022071907752,-1.5695459726631045,-2.988893820059664e-05,-1.3170373995766961e-08,-0.00030791184392295866,-1.0927723600891783,-0.024678132306948822,-0.019939367961694477,0.0005702073013911153,2.2542180877077625e-06,0.0,0.25445810868237306,0.0,-1.5707963267948966,0.0,0.0
12.602,600.0,43.157894134521484,0.0,0.33670942500195,0.0,-1.5707963267948966,0.0,0.0,0.0,-0.8678405666184322,0.0,0.0,0.0,0.0,4.294140417391009e-05,0.38232480425134774,0.001980622811239328,-1.569145300077102,-3.515783068699056e-05,7.906008682074948e-08,-0.0005972954727698016,-1.0096974467291375,-0.02771885681879024,-0.023151920459305645,0.0004804818867610974,-8.871691446320777e-07,0.0,0.04647978489932103,0.0,-1.5707963267948966,0.0,0.0
12.702,600.0,43.157894134521484,0.0,0.26557720149649544,0.0,-1.5707963267948966,0.0,0.0,0.0,-0.6227432724889602,0.0,0.0,0.0,0.0,0.000128330985627644,0.2964495104260614,0.003959058917552348,-1.5674346185508896,-5.691787155622599e-05,4.779814654021622e-07,-0.0018105087152726629,-2.0757584342428754,-0.055409592320944924,-0.047135167458825546,0.00077400375325199,-6.9719231704894555e-06,0.0,0.05809434084929266,0.0,-1.5707963267948966,0.0,0.0
12.802,600.0,43.157894134521484,0.0,0.20518159804530356,0.0,-1.5707963267948966,0.0,0.0,0.0,-0.9132828931999895,0.0,0.0,0.0,0.0,-4.846285930753614e-05,0.22442876289493746,0.0005603751915268139,-1.5703784768198632,-2.1077888264365153e-05,-2.5519296314456883e-07,0.0005738153775232385,-0.9339562797999297,-0.007848451725612555,-0.005876963504897335,0.00029073611286577076,3.2841131774483425e-06,0.0,0.004745018133728962,0.0,-1.5707963267948966,0.0,0.0
12.904,600.0,43.157894134521484,0.0,0.13518467143019652,0.0,-1.5707963267948966,0.0,0.0,0.0,-0.5791281959660192,0.0,0.0,0.0,0.0,2.1057777204436563e-05,0.16340613829654102,0.002657999394946933,-1.5685602035856117,-4.360918564048223e-05,1.911370251163656e-07,-0.00029310204151143356,-1.390681815424821,-0.03719896336601034,-0.031358141349789176,0.0005947115043117467,-2.5276161425008053e-06,0.0,0.01679700488082149,0.0,-1.5707963267948966,0.0,0.0
13.003,600.0,43.157894134521484,0.0,0.07663495513590757,0.0,-1.5707963267948966,0.0,0.0,0.0,-0.7463534960794325,0.0,0.0,0.0,0.0,-3.6989330976329075e-05,0.11330775887775758,0.0003428934011087202,-1.5705627675672966,-1.808715949803134e-05,-2.698039685769891e-07,-0.00032633437129517,-0.48721060746497397,-0.044528594380721286,-0.03801828071418402,0.000595990029694445,-6.28362681764392e-06,0.0,-0.21351043582695212,0.0,-1.5707963267948966,0.0,0.0
13.102,600.0,43.157894134521484,0.0,0.0138171595810892,0.0,-1.5707963267948966,0.0,0.0,0.0,-0.6281721059899688,0.0,0.0,0.0,0.0,-1.8156731411853823e-05,0.06833250244795956,0.0012042874266433112,-1.569816682987911,-2.761673383987889e-05,-1.0158342977029466e-07,-0.00014773110800632563,-0.6919538328590205,-0.04876765607871969,-0.04142129292222249,0.0007141668277879916,-5.591050921458862e-06,0.0,-0.06420819649456831,0.0,-1.5707963267948966,0.0,0.0
13.202,600.0,43.157894134521484,0.0,-0.040191544838442894,0.0,-1.5707963267948966,0.0,0.0,0.0,-0.7957205816227223,0.0,0.0,0.0,0.0,-7.825046706509088e-06,-0.0021406503146144803,0.003509760495041038,-1.5678226411217142,-5.334823359663551e-05,3.576889944204428e-07,0.00011141978266847824,-1.7250968177188342,-0.04912136964456345,-0.0416977123986159,0.0007268724988714614,-5.433310763646547e-06,0.0,-0.3219518806119903,0.0,-1.5707963267948966,0.0,0.0
13.302,600.0,43.157894134521484,0.0,-0.1080060137412957,0.0,-1.5707963267948966,0.0,0.0,0.0,-0.8090632032221029,0.0,0.0,0.0,0.0,-2.904325167277095e-05,-0.06349148728100838,0.0027516903903783566,-1.5684767134854376,-4.4480109537005945e-05,2.101989143586604e-07,0.0005416689230658061,-1.472769894442933,-0.06976443423182473,-0.05905833107381364,0.0010865362401829594,-6.664045457258018e-06,0.0,-0.2818661849311287,0.0,-1.5707963267948966,0.0,0.0
13.402,600.0,43.157894134521484,0.0,-0.1817769689792268,0.0,-1.5707963267948966,0.0,0.0,0.0,-0.8207458997714195,0.0,0.0,0.0,0.0,-3.9422082468923735e-05,-0.13782457852405325,0.0021172191783596366,-1.5690303846760651,-3.861029297209306e-05,5.123532860153448e-08,0.000556201648793118,-1.3869222309139562,-0.029630074375085604,-0.02476743142725054,0.0005277113517086807,-8.552856578267163e-07,0.0,-0.36340512565058286,0.0,-1.5707963267948966,0.0,0.0
13.502,600.0,43.157894134521484,0.0,-0.24509494117503294,0.0,-1.5707963267948966,0.0,0.0,0.0,-0.7976645116670446,0.0,0.0,0.0,0.0,-7.708194093096958e-06,-0.23553099878153022,0.0004934542315557723,-1.5704308079352831,-1.972740763047367e-05,-2.418350099068021e-07,0.001953449335481975,-0.8503627823966232,-0.05901827546654317,-0.05052688203817719,0.0007653541363258056,-8.672334824856977e-06,0.0,-0.38469283370165974,0.0,-1.5707963267948966,0.0,0.0
13.602,600.0,43.157894134521484,0.0,-0.3106114711250001,0.0,-1.5707963267948966,0.0,0.0,0.0,-0.6478863369559251,0.0,0.0,0.0,0.0,-7.64295373747904e-05,-0.28228811804005144,0.002473408521742166,-1.5687210585154523,-4.2094736271872884e-05,1.4264811646980168e-07,0.0010775234944802102,-1.5643590669660115,-0.03461703285036773,-0.029105030085581882,0.0005744992429613599,-2.3236231374368276e-06,0.0,-0.4581285387750621,0.0,-1.5707963267948966,0.0,0.0
13.702,600.0,43.157894134521484,0.0,-0.3700494041152087,0.0,-1.5707963267948966,0.0,0.0,0.0,-0.6147767429967821,0.0,0.0,0.0,0.0,2.1172108315992623e-05,-0.3971224924008049,0.00020529885247363674,-1.5706842077130043,-1.764058140419772e-05,-3.3230130200051477e-07,-0.00028944783469587743,-0.9593183618090813,-0.0028714983096209956,-0.0015819071544968968,0.0002446948299821682,4.33522007138063e-06,0.0,-0.45369217790095634,0.0,-1.5707963267948966,0.0,0.0
13.802,600.0,43.157894134521484,0.0,-0.422970999734126,0.0,-1.5707963267948966,0.0,0.0,0.0,-0.7764182683480096,0.0,0.0,0.0,0.0,-3.843352776784295e-05,-0.4230540581195563,0.001370321736670516,-1.5696740707115373,-2.936172487496608e-05,-7.058700372409818e-08,0.0004895126426108669,-0.868277800470559,-0.019175683632573635,-0.015729608317768044,0.0004023907345225847,7.782402898477284e-07,0.0,-0.521799094897225,0.0,-1.5707963267948966,0.0,0.0
13.902,600.0,43.157894134521484,0.0,-0.47883838135352086,0.0,-1.5707963267948966,0.0,0.0,0.0,-0.5258697748477721,0.0,0.0,0.0,0.0,-4.138659858461962e-05,-0.46576623515641064,0.0014550371770276943,-1.5696007006235055,-3.0064514783907354e-05,-4.583825061696989e-08,0.0005795388982165633,-0.7951254924370172,-0.020363272467018634,-0.01677104682471924,0.0004116840354036466,6.082095883389042e-07,0.0,-0.6606694878357575,0.0,-1.5707963267948966,0.0,0.0
14.002,600.0,43.157894134521484,0.0,-0.5363187457633565,0.0,-1.5707963267948966,0.0,0.0,0.0,-0.8011044424566545,0.0,0.0,0.0,0.0,-0.00010331685010119335,-0.5094652798247075,0.0022664346118131226,-1.5688968271473975,-3.7934201318098415e-05,1.4406915978894397e-07,0.002859744770642094,-1.0501360831433912,-0.05439036728225797,-0.04580396558200342,0.000861067469710008,-4.3499396686379225e-06,0.0,-0.7565986544127288,0.0,-1.5707963267948966,0.0,0.0
14.104,600.0,43.157894134521484,0.0,-0.5879448910757397,0.0,-1.5707963267948966,0.0,0.0,0.0,-0.5011735366710648,0.0,0.0,0.0,0.0,-1.2989830729383485e-05,-0.5919721076347207,0.0010018358191180615,-1.5699857937171309,-2.3732842790385836e-05,-1.0584528983355554e-07,0.0036381776546708733,-0.8042559404972721,-0.05251672110327874,-0.04463946926704185,0.0007249684947366499,-6.9180161631414595e-06,0.0,-0.8062121865221104,0.0,-1.5707963267948966,0.0,0.0
14.202,600.0,43.157894134521484,0.0,-0.6456117223074429,0.0,-1.5707963267948966,0.0,0.0,0.0,-0.8967651229551078,0.0,0.0,0.0,0.0,-8.770731913966885e-05,-0.6274575973165633,0.00177400455295,-1.5693235987120828,-3.2437038751910854e-05,4.3369358095146765e-08,0.001234371524211174,-0.9253699821294052,-0.02482825761042903,-0.02065434765178589,0.000443745413047447,-9.233643665940709e-07,0.0,-0.8829177244564334,0.0,-1.5707963267948966,0.0,0.0
14.302,600.0,43.157894134521484,0.0,-0.7204480166484561,0.0,-1.5707963267948966,0.0,0.0,0.0,-0.9508170612342988,0.0,0.0,0.0,0.0,-0.00012266454312137858,-0.6813142379880449,0.0020037142904254564,-1.5691258590011443,-3.456743352315031e-05,9.825045760529242e-08,0.0017246671530873553,-1.0976707788611881,-0.028043658442049826,-0.023430181261921496,0.0004722545330111708,-1.5115748361751186e-06,0.0,-0.9106338189174483,0.0,-1.5707963267948966,0.0,0.0
14.402,600.0,43.157894134521484,0.0,-0.7875689936502752,0.0,-1.5707963267948966,0.0,0.0,0.0,-1.010282569577113,0.0,0.0,0.0,0.0,-0.0003816689550598345,-0.7755487284218993,0.004054760547591916,-1.567363112675621,-5.6142098289774606e-05,5.24314030260098e-07,0.005527649876487361,-2.2897408978277065,-0.05867962124442597,-0.04937883906532527,0.0008666181710142353,-6.477714902191693e-06,0.0,-1.0065977673236566,0.0,-1.5707963267948966,0.0,0.0
14.502,600.0,43.157894134521484,0.0,-0.8649527073133108,0.0,-1.5707963267948966,0.0,0.0,0.0,-0.8595233548515057,0.0,0.0,0.0,0.0,-0.00021269354576213507,-0.8643713426255762,0.0021703280460492135,-1.5689853772536426,-3.490989858184542e-05,1.6489482091211565e-07,0.0029855783519253626,-1.6308652567621789,-0.030376851792473646,-0.025404407545132453,0.0004765705639657874,-2.7322720323194507e-06,0.0,-1.1461933693315611,0.0,-1.5707963267948966,0.0,0.0
14.602,600.0,43.157894134521484,0.0,-0.9402056469649036,0.0,-1.5707963267948966,0.0,0.0,0.0,-1.0582088845825524,0.0,0.0,0.0,0.0,-0.0001110239901821325,-0.9094963436100424,0.0012558309069694907,-1.569767813981908,-2.423501177123161e-05,-4.246569743818018e-09,0.0015544383643432758,-1.1128129801871607,-0.017575837461384372,-0.014423897886005024,0.00033212879475140336,-3.3192795311570176e-07,0.0,-1.1633285742661177,0.0,-1.5707963267948966,0.0,0.0
14.702,600.0,43.157894134521484,0.0,-1.0150595023496685,0.0,-1.5707963267948966,0.0,0.0,0.0,-0.620687010269248,0.0,0.0,0.0,0.0,-0.00017764054941016934,-0.9714033207826701,0.0015291046543624092,-1.569536651599289,-2.647849010999842e-05,6.574883790935777e-08,0.002486643704151749,-1.2629253174018125,-0.021402211139555975,-0.017673417348200555,0.00036181523867603074,-8.891857365677342e-07,0.0,-1.0905529111598158,0.0,-1.5707963267948966,0.0,0.0
14.802,600.0,43.157894134521484,0.0,-1.065228961151334,0.0,-1.5707963267948966,0.0,0.0,0.0,-0.9383785860898313,0.0,0.0,0.0,0.0,-0.00012626836866374926,-1.0598410416298034,0.001158399262518672,-1.5698465103921198,-2.192321718999369e-05,2.269216545787077e-09,0.0017628692106421062,-1.4596391786882972,-0.016214503373244222,-0.013324317162911437,0.0003003278165257125,-8.021240466068264e-08,0.0,-1.2589760132314236,0.0,-1.5707963267948966,0.0,0.0
14.902,600.0,43.157894134521484,0.0,-1.1245545103941268,0.0,-1.5707963267948966,0.0,0.0,0.0,-0.6339907041040386,0.0,0.0,0.0,0.0,0.00010388188595466497,-1.0869221941226013,-0.00018275074982608406,-1.570977421749022,-6.416957577754462e-06,-2.4206932125411176e-07,-0.0014529942932032243,-0.5748879292418624,0.00255972927087166,0.0025381222959337904,8.954745064567506e-05,3.3973349094609583e-06,0.0,-1.1756701331097688,0.0,-1.5707963267948966,0.0,0.0
15.002,600.0,43.157894134521484,0.0,-1.189831629906422,0.0,-1.5707963267948966,0.0,0.0,0.0,-0.5907000433597172,0.0,0.0,0.0,0.0,-0.00032146786052197055,-1.1682081290203812,0.0015255233008672005,-1.5695594216266093,-2.3698866517994855e-05,1.2701164768779612e-07,0.0044834556219863165,-1.3107741995492115,-0.02135634651215777,-0.017363170524476633,0.0003240139231471271,-2.1230710376051266e-06,0.0,-1.4115330918079614,0.0,-1.5707963267948966,0.0,0.0
15.101,600.0,43.157894134521484,0.0,-1.253274095957842,0.0,-1.5707963267948966,0.0,0.0,0.0,-0.8645918779685885,0.0,0.0,0.0,0.0,-0.00023269636600750676,-1.263735850479578,0.0012101588646090953,-1.5698062966596595,-1.9710823828580643e-05,9.228310586653694e-08,0.0032376559117770695,-1.636178795769105,-0.016942670912218034,-0.013895296820029823,0.0002694039227071237,-1.4522682388331613e-06,0.0,-1.3384014354029583,0.0,-1.5707963267948966,0.0,0.0
15.202,600.0,46.31578826904297,0.0,-1.3117853071464083,0.0,-1.5707963267948966,0.0,0.0,0.0,-0.006000990442245155,0.0,0.0,0.0,0.0,0.0008921536336528781,-1.3198662315107421,-0.0018739230280984105,-1.5722273764066508,1.3981416921817424e-05,-4.95706838655741e-07,-0.012422520883540168,-0.46305856598661344,0.026241703311258767,0.02011195536449382,-0.00018894307074523273,7.005301068749402e-06,0.0,-1.1355305448734556,0.0,-1.5707963267948966,0.0,0.0
15.301,600.0,46.31578826904297,0.0,-1.2679830778163517,0.0,-1.5707963267948966,0.0,0.0,0.0,0.6892780676573925,0.0,0.0,0.0,0.0,0.0004030664401287529,-1.3821892610246673,-0.0007027811639420898,-1.5713084526725187,3.0873941261673876e-06,-2.3583406153051654e-07,-0.0056093215369795255,-0.6634016167590903,0.009844340639666977,0.007203973503745835,-4.177965622688939e-05,3.4286822469494215e-06,0.0,-1.1614147213218784,0.0,-1.5707963267948966,0.0,0.0
15.402,600.0,46.31578826904297,0.0,-1.2175266664489666,0.0,-1.5707963267948966,0.0,0.0,0.0,0.6016399693969979,0.0,0.0,0.0,0.0,0.002248483761738958,-1.3505148214417555,-0.004054906449288355,-1.5737810645866028,3.477585058550991e-05,-8.028714745655978e-07,-0.029150809408601423,1.2028581184892386,0.05289911358511129,0.039088938051423126,-0.00044138211765432686,1.0908679406156693e-05,0.0,-1.1709077029989254,0.0,-1.5707963267948966,0.0,0.0
15.503,600.0,46.31578826904297,0.0,-1.1655235879857564,0.0,-1.5707963267948966,0.0,0.0,0.0,0.4758070272164863,0.0,0.0,0.0,0.0,0.0014700093958553086,-1.2484419821295254,-0.0025122982158127536,-1.572614600029148,2.0315653085638992e-05,-5.099514637475844e-07,-0.019033999301392216,1.8201531596650868,0.03301309831078627,0.024048248936063846,-0.00024505226963286914,8.349379912171093e-06,0.0,-0.9683303169661428,0.0,-1.5707963267948966,0.0,0.0
15.602,600.0,46.31578826904297,0.0,-1.1107692268739946,0.0,-1.5707963267948966,0.0,0.0,0.0,0.7248106957999454,0.0,0.0,0.0,0.0,0.000342091331889794,-1.1511251490500134,0.0003133665452918955,-1.5703960536830577,-7.4210522277238e-06,-1.7720515908393845e-08,-0.004452876082828941,1.4401420431897727,-0.00408711795483638,-0.005201888578967776,9.363027620381112e-05,1.7862169427879134e-07,0.0,-0.9742963284110617,0.0,-1.5707963267948966,0.0,0.0
15.702,600.0,46.31578826904297,0.0,-1.0451470363029651,0.0,-1.5707963267948966,0.0,0.0,0.0,1.0668492879737952,0.0,0.0,0.0,0.0,0.00028540738499810414,-1.089427496339066,-0.0003735637387148814,-1.57106250974585,-2.7376259061234356e-06,-2.016878614264448e-07,-0.008402514588173786,1.682778122733039,0.023536387293956015,0.018044909594915195,-0.000330670265426374,1.7095505747227772e-06,0.0,-0.8516798791039869,0.0,-1.5707963267948966,0.0,0.0
15.802,600.0,46.31578826904297,0.0,-0.9649853558623374,0.0,-1.5707963267948966,0.0,0.0,0.0,0.99061405939381,0.0,0.0,0.0,0.0,-4.324341954771346e-05,-1.0128871147667253,0.0008011726777086518,-1.5701013749084405,-1.4601349792128872e-05,-1.627459283267172e-10,0.0005604563997348586,1.4634369795608049,-0.010445357841049016,-0.009078117985132157,0.00018602545943723295,-1.3041694826239235e-07,0.0,-0.7210843739436503,0.0,-1.5707963267948966,0.0,0.0
15.902,600.0,46.31578826904297,0.0,-0.8853515966143535,0.0,-1.5707963267948966,0.0,0.0,0.0,0.795126917324056,0.0,0.0,0.0,0.0,-4.79606882948597e-05,-0.9048442672388647,0.0007168092479506359,-1.5701991129204462,-1.6754768252556128e-05,-9.698441280595267e-08,-0.01065302406883175,1.8423146546761813,0.061499018344330386,0.053177992324323825,-0.00047549002016315003,1.39119953634642e-05,0.0,-0.742940188982369,0.0,-1.5707963267948966,0.0,0.0
16.002,600.0,46.31578826904297,0.0,-0.8372753010557208,0.0,-1.5707963267948966,0.0,0.0,0.0,0.6915893836793691,0.0,0.0,0.0,0.0,-0.00019232683277186832,-0.8204341114872855,0.001652228261177062,-1.5693948382712424,-2.5280593863605165e-05,9.628191529014313e-08,0.0025125980815097126,1.5880980854488145,-0.021537258373958215,-0.018309199204781138,0.0003215141862611473,-2.1876515054186087e-06,0.0,-0.7691859947742825,0.0,-1.5707963267948966,0.0,0.0
16.102,600.0,46.31578826904297,0.0,-0.7781957962966182,0.0,-1.5707963267948966,0.0,0.0,0.0,0.7489238591822243,0.0,0.0,0.0,0.0,-0.0004204837802340544,-0.7583293280246921,0.0037669082038625785,-1.5675683092376116,-4.804096998812082e-05,4.6202505472186373e-07,0.002421228769579377,0.3874985605905583,-0.02377636931709118,-0.019897968290311353,0.0004118563996626749,-2.4419029849021596e-07,0.0,-0.5156285350276764,0.0,-1.5707963267948966,0.0,0.0
16.202,600.0,46.31578826904297,0.0,-0.7160823749994725,0.0,-1.5707963267948966,0.0,0.0,0.0,0.44027404194147046,0.0,0.0,0.0,0.0,-0.00017453305133548067,-0.695374330384091,0.001900174670410081,-1.5691921717122874,-3.0278488903137498e-05,8.876626889997056e-08,0.0022858951933450913,1.0908438985648246,-0.024769141676013077,-0.020955257807235023,0.0003854398377195348,-2.2261503788924896e-06,0.0,-0.6097584117920101,0.0,-1.5707963267948966,0.0,0.0
16.302,600.0,46.31578826904297,0.0,-0.6597260442020101,0.0,-1.5707963267948966,0.0,0.0,0.0,1.005517000216468,0.0,0.0,0.0,0.0,-0.00019261211805197075,-0.621306693883889,0.0023185896569150174,-1.5688254544301834,-3.494202182466933e-05,1.614713449772681e-07,0.0024050550073693245,1.078665728953083,-0.030172237796971493,-0.02566674139607287,0.0004457883618904982,-2.0081999670496705e-06,0.0,-0.47296706597833593,0.0,-1.5707963267948966,0.0,0.0
16.402,600.0,46.31578826904297,0.0,-0.5981542630018364,0.0,-1.5707963267948966,0.0,0.0,0.0,0.9174584692709519,0.0,0.0,0.0,0.0,-0.00026628218556313014,-0.5888857036684007,0.0034221560190423415,-1.5678613901155747,-4.6384967040697054e-05,3.6362508295219826e-07,0.003490865835240711,0.3920013334931234,-0.044608147995908995,-0.03832548882949227,0.0005885051556336824,-5.083751060224658e-06,0.0,-0.5456215230013177,0.0,-1.5707963267948966,0.0,0.0
16.502,600.0,46.31578826904297,0.0,-0.5349249720695184,0.0,-1.5707963267948966,0.0,0.0,0.0,0.717226116131294,0.0,0.0,0.0,0.0,-2.891951724889427e-05,-0.5114818254021155,0.0008420982986155104,-1.570118685455526,-2.209461632945583e-05,-1.565957926845959e-07,0.0003771695391966591,1.578604981427118,-0.010975787749679044,-0.008852501427423907,0.0002833218489843009,1.5166196177390914e-06,0.0,-0.47634592689917854,0.0,-1.5707963267948966,0.0,0.0
16.602,600.0,46.31578826904297,0.0,-0.46268784774990745,0.0,-1.5707963267948966,0.0,0.0,0.0,0.8268164821590057,0.0,0.0,0.0,0.0,-0.00013408146465024068,-0.43245418452969536,0.0024030581567004152,-1.5687559459257323,-3.899316301540527e-05,1.0842103204419231e-07,-0.0018246884876313835,1.1665419222843731,0.021266941281531365,0.019605859050027093,2.2309927393263972e-05,9.47080871942032e-06,0.0,-0.3353590781585651,0.0,-1.5707963267948966,0.0,0.0
16.703,600.0,46.31578826904297,0.0,-0.3925664053904381,0.0,-1.5707963267948966,0.0,0.0,0.0,0.88562230316692,0.0,0.0,0.0,0.0,-9.759944115451079e-05,-0.3435263421734466,0.0020731800126500286,-1.5690415699526434,-3.521291361633629e-05,6.416220039096509e-08,0.0012693504806536836,1.3304907795215586,-0.027022592077140438,-0.022914805495531522,0.00044889325922193484,-7.938247485267964e-07,0.0,-0.21725513744105523,0.0,-1.5707963267948966,0.0,0.0
16.802,600.0,46.31578826904297,0.0,-0.32017265723112764,0.0,-1.5707963267948966,0.0,0.0,0.0,1.0200751273433128,0.0,0.0,0.0,0.0,-8.292224413954859e-05,-0.27810392578288706,0.0020498577175002823,-1.5690672694571626,-3.660270610994675e-05,2.011435966921419e-08,-0.00046937655052847386,1.2965093766443656,0.011628792768371872,0.010889649052577192,4.2963067552467236e-05,5.243876587238444e-06,0.0,-0.11033338473671317,0.0,-1.5707963267948966,0.0,0.0
16.902,600.0,46.31578826904297,0.0,-0.24313533688339994,0.0,-1.5707963267948966,0.0,0.0,0.0,0.8306956304662375,0.0,0.0,0.0,0.0,-9.259360368890644e-05,-0.2199568993057741,0.002597333677627094,-1.5685831067709863,-4.121450252723917e-05,1.4737242436729965e-07,0.0012156541050634732,1.060388121496733,-0.033854399221520705,-0.028902126338842267,0.0005243307755925288,-2.2561831219402783e-06,0.0,-0.009073205546510477,0.0,-1.5707963267948966,0.0,0.0
17.002,600.0,46.31578826904297,0.0,-0.17579763364543943,0.0,-1.5707963267948966,0.0,0.0,0.0,0.8520261284096564,0.0,0.0,0.0,0.0,-4.8266206544730654e-05,-0.13010816081171114,0.0011832128238491325,-1.5698258708936716,-2.7867455648527958e-05,-1.346650061634362e-07,0.000632570978961624,1.8294141691977828,-0.01542203609840451,-0.012676852767642735,0.0003564284817245532,1.3425959880040176e-06,0.0,-0.030285907787323985,0.0,-1.5707963267948966,0.0,0.0
17.102,600.0,46.31578826904297,0.0,-0.12202891963992002,0.0,-1.5707963267948966,0.0,0.0,0.0,0.7605490828082199,0.0,0.0,0.0,0.0,-6.169858624773778e-05,-0.05174217398974282,0.0018503418289579246,-1.5692453017760344,-3.5877366944278106e-05,-3.739854986320812e-08,0.00030696270267313016,1.6078149317372705,0.023753399552689246,0.021577249482796036,-7.00187702771165e-05,8.367708548648244e-06,0.0,0.10639332269383961,0.0,-1.5707963267948966,0.0,0.0
17.202,600.0,46.31578826904297,0.0,-0.06002220083064724,0.0,-1.5707963267948966,0.0,0.0,0.0,0.534376643527588,0.0,0.0,0.0,0.0,-5.453622466853373e-05,0.00962575753200952,0.0019640948277983485,-1.5691446342868294,-3.685039845907334e-05,-1.1142269675811574e-08,0.0006699104349982576,1.4349989464926116,0.006257344571898763,0.006035782052771781,5.4203427060145774e-05,4.288925825579154e-06,0.0,0.17850628324914725,0.0,-1.5707963267948966,0.0,0.0
17.302,600.0,46.31578826904297,0.0,-0.009180554378832362,0.0,-1.5707963267948966,0.0,0.0,0.0,0.9675516508010236,0.0,0.0,0.0,0.0,-2.9708475064535044e-05,0.050465966389430836,0.004058792219781214,-1.567299995757786,-5.6207673592677756e-05,4.186008649776793e-07,0.00039753043302389945,0.42912333566481964,-0.05290526382275369,-0.04565134148440666,0.0007121402636274282,-5.903575431422638e-06,0.0,0.1351863748025784,0.0,-1.5707963267948966,0.0,0.0
17.402,600.0,46.31578826904297,0.0,0.06049168006148337,0.0,-1.5707963267948966,0.0,0.0,0.0,1.0230403562177572,0.0,0.0,0.0,0.0,-1.3918510428493603e-05,0.05617508884796378,0.0030391757692348332,-1.5681976142031973,-4.6751428019553475e-05,2.0748327743195827e-07,0.0001642956156353504,0.31357703176566076,-0.03914963315714171,-0.033710197370871324,0.0005389305354771618,-4.125846016777515e-06,0.0,0.17995916200158715,0.0,-1.5707963267948966,0.0,0.0
17.502,600.0,46.31578826904297,0.0,0.14432211694596528,0.0,-1.5707963267948966,0.0,0.0,0.0,1.0577189753867746,0.0,0.0,0.0,0.0,-6.123948191785043e-05,0.1350861082317736,-0.0012291671768895358,-1.571954801869081,-6.957178683306508e-06,-6.547847982246144e-07,0.0014023143896738815,2.253396738431395,0.06756869952494643,0.05980072883956526,-0.0005695842933450914,1.5493091825652824e-05,0.0,0.23144459422600333,0.0,-1.5707963267948966,0.0,0.0
17.602,600.0,46.31578826904297,0.0,0.22418360152052355,0.0,-1.5707963267948966,0.0,0.0,0.0,0.7209065209277397,0.0,0.0,0.0,0.0,-1.7689904093606345e-05,0.2522619421453032,0.0021260217840076215,-1.568998160426875,-3.717864476677024e-05,3.867482127900368e-08,0.0002406388896074,1.473811190429154,-0.027710571891086572,-0.02348281614415339,0.00047348123858457233,-6.295456516747577e-07,0.0,0.2938909205276034,0.0,-1.5707963267948966,0.0,0.0
17.704,600.0,46.31578826904297,0.0,0.28205001284174164,0.0,-1.5707963267948966,0.0,0.0,0.0,1.0596868629952108,0.0,0.0,0.0,0.0,-5.181887465460163e-05,0.32329474013579174,0.001204175594683474,-1.5698120224560033,-2.936783662160835e-05,-1.563928953442184e-07,0.002066165938136465,1.7459207400724361,0.022911917630224467,0.020536211490305656,-0.00012922973747696444,6.763755515344069e-06,0.0,0.4531514782288128,0.0,-1.5707963267948966,0.0,0.0
17.801,600.0,46.31578826904297,0.0,0.35179933403616787,0.0,-1.5707963267948966,0.0,0.0,0.0,0.7812798998682334,0.0,0.0,0.0,0.0,-2.1577968523286643e-05,0.388939164292723,0.0017789001920476223,-1.5693062881649973,-3.4541336690080716e-05,-3.8746006783848224e-08,0.0019239485846255424,1.4690140383575943,0.011925748753780618,0.010968064582517815,3.451594693408277e-06,5.219340200120068e-06,0.0,0.6354736315663453,0.0,-1.5707963267948966,0.0,0.0
17.904,600.0,46.31578826904297,0.0,0.429020532447634,0.0,-1.5707963267948966,0.0,0.0,0.0,0.744324899505184,0.0,0.0,0.0,0.0,8.112074992548037e-05,0.4809862340757271,0.0030972875566811784,-1.5681454162458317,-4.5660363397729375e-05,2.5425760672290196e-07,-0.0010578711731519855,0.9749215563197465,-0.0403721739002994,-0.034612688568839534,0.0005795924085089739,-3.8950958336776075e-06,0.0,0.5829577593579204,0.0,-1.5707963267948966,0.0,0.0
18.002,600.0,46.31578826904297,0.0,0.500625168220527,0.0,-1.5707963267948966,0.0,0.0,0.0,0.5198370158297282,0.0,0.0,0.0,0.0,0.00011982644953830963,0.5383619758116395,0.0032513810742153355,-1.5680113260849462,-4.6743406352085494e-05,2.891353452349927e-07,-0.001571022393801336,0.77622297423088,-0.04238075496157238,-0.03636685868341508,0.0005932972201312925,-4.352117791111498e-06,0.0,0.687786840257383,0.0,-1.5707963267948966,0.0,0.0
18.102,600.0,46.31578826904297,0.0,0.5578222226126511,0.0,-1.5707963267948966,0.0,0.0,0.0,0.7517606894475898,0.0,0.0,0.0,0.0,7.938965458031555e-05,0.5780263980074936,0.0024607553856723866,-1.5687081421841655,-3.9786243415466645e-05,1.2073925943352157e-07,0.0018547037955402301,0.8063591053891349,0.0021237603077128185,0.002719881479885747,0.00019042356009609643,5.2189927570762425e-06,0.0,0.8364517229922669,0.0,-1.5707963267948966,0.0,0.0
18.202,600.0,46.31578826904297,0.0,0.6381255239495119,0.0,-1.5707963267948966,0.0,0.0,0.0,1.1267141976790191,0.0,0.0,0.0,0.0,7.75271323003739e-05,0.621073400972398,0.0021827770237737077,-1.5689478266822725,-3.573252586344666e-05,9.255071225151225e-08,-0.0009808619301063175,0.8387486703037604,-0.028447637092874227,-0.024135490348304558,0.00045462243653183283,-1.6789679675010974e-06,0.0,0.9263472456856645,0.0,-1.5707963267948966,0.0,0.0
18.302,600.0,46.31578826904297,0.0,0.7143410618453893,0.0,-1.5707963267948966,0.0,0.0,0.0,0.5945226182697918,0.0,0.0,0.0,0.0,-9.85589528680568e-05,0.7212354887815234,0.0002578425623999019,-1.5706280150140035,-1.644979758104957e-05,-2.6293377764405566e-07,0.0012943408925252821,1.7866204994315722,-0.003359496051796845,-0.0022044466766239514,0.00021254887941874086,3.900591427670521e-06,0.0,0.7863690823537262,0.0,-1.5707963267948966,0.0,0.0
18.402,600.0,46.31578826904297,0.0,0.7822263282085647,0.0,-1.5707963267948966,0.0,0.0,0.0,0.7852603194686751,0.0,0.0,0.0,0.0,0.00017597680518790943,0.7943044398729457,0.0025494324081882206,-1.5686311768286623,-3.7567329909447534e-05,1.9478041497341547e-07,-0.002300162090602755,1.033022876294651,-0.03323251781747358,-0.028278426495113317,0.0004772406129553824,-3.285048073533374e-06,0.0,0.8435617094456547,0.0,-1.5707963267948966,0.0,0.0
18.502,600.0,46.31578826904297,0.0,0.8469626828462099,0.0,-1.5707963267948966,0.0,0.0,0.0,0.8919630926536719,0.0,0.0,0.0,0.0,-4.351809054441853e-05,0.8550359643194397,0.0006504826878498458,-1.5702865977622553,-1.996557272560903e-05,-1.8581339066720953e-07,0.006219917275758793,1.5962920994907701,0.03522688009523906,0.030870191981437815,-0.0002462977168123306,9.074938007593963e-06,0.0,0.9140860465581346,0.0,-1.5707963267948966,0.0,0.0
18.602,600.0,46.31578826904297,0.0,0.9056642299562702,0.0,-1.5707963267948966,0.0,0.0,0.0,0.8237182089887257,0.0,0.0,0.0,0.0,9.666764361124423e-05,0.9429488426947458,0.0014467936011417332,-1.56959550745938,-2.625483431764646e-05,-6.077316016629676e-10,0.004312548819476432,1.2938496776637034,0.01742415691343945,0.01529866516090659,-7.538110462399294e-05,5.245930260083748e-06,0.0,1.0870028397271878,0.0,-1.5707963267948966,0.0,0.0
18.702,600.0,46.31578826904297,0.0,0.9718041241993138,0.0,-1.5707963267948966,0.0,0.0,0.0,0.8860222010413906,0.0,0.0,0.0,0.0,0.00014367784964803608,1.0364488332999562,0.0014171918114099593,-1.569623071176662,-2.391930795423376e-05,4.301083125630293e-08,-0.0018686515816008697,1.5396703652384864,-0.018474231968581986,-0.015330692793906696,0.00030467794972622133,-7.24129908949043e-07,0.0,1.2566304542146267,0.0,-1.5707963267948966,0.0,0.0
18.802,600.0,46.31578826904297,0.0,1.0312899250286833,0.0,-1.5707963267948966,0.0,0.0,0.0,0.7899790439921697,0.0,0.0,0.0,0.0,0.00012693157444766237,1.0866098719057622,0.0011791581350820543,-1.5698245393131267,-2.0855498302517893e-05,9.403305375889078e-09,-0.0016490077608080724,1.3118310750278095,-0.015371058409772811,-0.01269731437525241,0.000265609828413899,-1.1275828413672272e-06,0.0,1.2390666056433506,0.0,-1.5707963267948966,0.0,0.0
18.902,600.0,46.31578826904297,0.0,1.0938764608838867,0.0,-1.5707963267948966,0.0,0.0,0.0,0.8688866481826591,0.0,0.0,0.0,0.0,0.00025890933851794884,1.1635669050306456,0.0014414212458060138,-1.5696217395961172,-2.3353217580646674e-05,5.390601524317838e-08,0.008144366893571838,1.2519963700783996,0.028093688419840484,0.02382544222136509,-0.00016392705780724702,7.799682856352127e-06,0.0,1.246349343390365,0.0,-1.5707963267948966,0.0,0.0
19.002,600.0,46.31578826904297,0.0,1.1638039535143996,0.0,-1.5707963267948966,0.0,0.0,0.0,0.5469685167376888,0.0,0.0,0.0,0.0,0.00025009940202492213,1.1975620231874526,0.0012468045073646685,-1.5697793987326498,-1.9583338645295175e-05,6.307428999576528e-08,-0.003246053451663551,0.9682794328240072,-0.016256222415898695,-0.013291905660207331,0.0002492576877260478,-7.705458106116245e-07,0.0,1.3109784039540144,0.0,-1.5707963267948966,0.0,0.0
19.104,600.0,46.31578826904297,0.0,1.2218765921748351,0.0,-1.5707963267948966,0.0,0.0,0.0,0.8678809655700079,0.0,0.0,0.0,0.0,0.0005828220764979267,1.2790812509967235,0.0017955547016478125,-1.5693687392925597,-2.3338045901066276e-05,1.84306804102308e-07,-0.007560059467584096,0.8082094031354947,-0.023414951309437604,-0.018673788038607586,0.00029719622906665194,-2.7463505870017314e-06,0.0,1.313663939425219,0.0,-1.5707963267948966,0.0,0.0
19.203,600.0,46.31578826904297,0.0,1.287811922908575,0.0,-1.5707963267948966,0.0,0.0,0.0,0.967678985845178,0.0,0.0,0.0,0.0,0.0009767924171027028,1.288584874504726,0.0027092816306134465,-1.5686518163271104,-3.174985736614309e-05,3.568868657704696e-07,-0.007988641149572708,0.18414813515710954,-0.022792187733279387,-0.01795242716487299,0.0003031559947751331,-2.2900875183214606e-06,0.0,1.4626963249531983,0.0,-1.5707963267948966,0.0,0.0
19.302,600.0,49.47368240356445,0.0,1.354033561904731,0.0,-1.5707963267948966,0.0,0.0,0.0,0.5871164447175626,0.0,0.0,0.0,0.0,-0.0003813294930468632,1.3671590456225327,-0.0007850346757183147,-1.5714085875295059,2.1373349968356477e-06,-2.613057257021733e-07,0.016868970009644692,1.4853575916513015,0.032127961352390204,0.023506518277855094,-0.0003546521090648351,4.155314926815586e-06,0.0,1.170721962525305,0.0,-1.5707963267948966,0.0,0.0
19.403,600.0,49.47368240356445,0.0,1.3308169390939568,0.0,-1.5707963267948966,0.0,0.0,0.0,-0.6390372652321149,0.0,0.0,0.0,0.0,0.0014190055697539253,1.4205688744421263,0.0021432782356334947,-1.5692923065692743,-2.3650927505269537e-05,2.819197748362531e-07,-0.018395510591234922,0.5511776728988325,-0.027967897750820876,-0.01971058994048906,0.0003030055092687125,-4.04478816420212e-06,0.0,1.1648962219462664,0.0,-1.5707963267948966,0.0,0.0
19.503,600.0,49.47368240356445,0.0,1.2714672518206047,0.0,-1.5707963267948966,0.0,0.0,0.0,-0.6767680796310811,0.0,0.0,0.0,0.0,0.0033188435739500313,1.391792886231602,0.004891516919567756,-1.567346734234917,-4.5315431696606165e-05,7.296239155742492e-07,-0.040276196071326466,-1.080692061647497,-0.05972593146363686,-0.04229131436083775,0.000540939642148646,-9.234062858004917e-06,0.0,0.9840186451202468,0.0,-1.5707963267948966,0.0,0.0
19.602,600.0,49.47368240356445,0.0,1.1997622740495482,0.0,-1.5707963267948966,0.0,0.0,0.0,-0.794102985933024,0.0,0.0,0.0,0.0,0.0018910399498488118,1.3246595219987212,0.0026398490678653376,-1.5689626072263225,-2.5705524833526965e-05,3.6269517120176827e-07,-0.03785196630410857,-1.0902948213270776,-0.06183163051972447,-0.04486476437288415,0.0006006927586613477,-8.2799624174792e-06,0.0,0.9900237118345823,0.0,-1.5707963267948966,0.0,0.0
19.702,600.0,49.47368240356445,0.0,1.1443643600156266,0.0,-1.5707963267948966,0.0,0.0,0.0,-0.813997747442776,0.0,0.0,0.0,0.0,0.0013857182667596992,1.2344871511755648,0.0019690757712746377,-1.5694302583137405,-2.1129872651945778e-05,2.2535538695642203e-07,-0.01683914884721961,-1.4964661691902401,-0.024038103956786325,-0.01677439346113595,0.00025184607744763117,-2.7824513923324802e-06,0.0,0.9444544525135461,0.0,-1.5707963267948966,0.0,0.0
19.803,600.0,49.47368240356445,0.0,1.0777044997668828,0.0,-1.5707963267948966,0.0,0.0,0.0,-0.7613752420276699,0.0,0.0,0.0,0.0,0.0008532873462715586,1.1176846341902154,0.001721409462089862,-1.569495638918502,-1.9156369749215726e-05,1.9184540382953157e-07,-0.02269519457414086,-1.73061169170417,-0.07002909418752977,-0.05703081660166588,0.0007107733129741608,-1.0246317847885166e-05,0.0,0.7941201848332635,0.0,-1.5707963267948966,0.0,0.0
19.902,600.0,49.47368240356445,0.0,1.0036696179301936,0.0,-1.5707963267948966,0.0,0.0,0.0,-0.9606081724708808,0.0,0.0,0.0,0.0,0.00023782568188632393,1.0451208181785538,-7.982561229525983e-05,-1.57098328070342,-6.151809771379286e-06,-1.7016415151199683e-07,-0.0029000159795281606,-1.0984191937065277,0.0009749939381253424,0.0022656671324794487,7.541082624297005e-05,2.703475150274043e-06,0.0,0.8949740198012633,0.0,-1.5707963267948966,0.0,0.0
20.002,600.0,49.47368240356445,0.0,0.9461616796407935,0.0,-1.5707963267948966,0.0,0.0,0.0,-0.6499541725125452,0.0,0.0,0.0,0.0,0.000432521190338915,0.961517400500187,0.0017757872324121043,-1.5693367813594787,-2.218874698053401e-05,1.6807168339992005e-07,-0.012006947079000912,-1.7763914308426323,-0.060287850131265176,-0.05078746402846304,0.0007097176062695804,-6.7987710691205286e-06,0.0,0.7332346514523738,0.0,-1.5707963267948966,0.0,0.0
20.102,600.0,49.47368240356445,0.0,0.8772329432272388,0.0,-1.5707963267948966,0.0,0.0,0.0,-1.0002331413819154,0.0,0.0,0.0,0.0,-6.820867735567126e-05,0.8870823809276085,-0.0008472765084674657,-1.5716148493559325,-2.020900432582975e-06,-3.6362943233971695e-07,0.0008315983178840877,-0.7753663684662561,0.01033714611581853,0.009994373356687413,2.7883179986049414e-05,4.364620153154902e-06,0.0,0.7079114162938466,0.0,-1.5707963267948966,0.0,0.0
20.203,600.0,49.47368240356445,0.0,0.7952081433378959,0.0,-1.5707963267948966,0.0,0.0,0.0,-0.9697777674091338,0.0,0.0,0.0,0.0,-0.00022074938049459022,0.824996572487782,-0.001578430610954745,-1.5722457522181723,2.9240631322997075e-06,-5.198398438922768e-07,0.0026973941533570654,-0.09979890753784426,0.019254328027920438,0.01770824858242635,-2.9776964012612735e-05,6.6155913754589576e-06,0.0,0.6723193205441254,0.0,-1.5707963267948966,0.0,0.0
20.302,600.0,49.47368240356445,0.0,0.7342645825199146,0.0,-1.5707963267948966,0.0,0.0,0.0,-0.6698215250176628,0.0,0.0,0.0,0.0,0.00023101846398916864,0.777279583393369,0.0022450520810179033,-1.5688772529133854,-3.057054424301786e-05,1.746490526118439e-07,-0.0028246708870708855,-1.338230458281547,-0.027385707849988936,-0.0234495307917166,0.00036310654020995454,-2.0558771275979534e-06,0.0,0.48846242754737185,0.0,-1.5707963267948966,0.0,0.0
20.402,600.0,49.47368240356445,0.0,0.6668918546159146,0.0,-1.5707963267948966,0.0,0.0,0.0,-0.6497702751962722,0.0,0.0,0.0,0.0,0.0003434231725091588,0.6816566539252019,0.0036769742421330384,-1.5676126508697614,-4.391485018216111e-05,4.232542969070357e-07,-0.004205235911113849,-2.2082894474681782,-0.044851748173056386,-0.038905600216317185,0.0005201062908003838,-5.388179232943489e-06,0.0,0.42230116053033295,0.0,-1.5707963267948966,0.0,0.0
20.502,600.0,49.47368240356445,0.0,0.5999731055425563,0.0,-1.5707963267948966,0.0,0.0,0.0,-0.904531079154654,0.0,0.0,0.0,0.0,-0.00013636389318286797,0.6166664020005349,-0.000800643491475445,-1.571571706146273,-6.550764802156099e-06,-4.2572084409307094e-07,0.001673143178335566,-0.4845850968148057,0.009768882674952564,0.009467912182259983,8.287426042654862e-05,5.564380604183889e-06,0.0,0.36949336277783773,0.0,-1.5707963267948966,0.0,0.0
20.603,600.0,49.47368240356445,0.0,0.5381768091599088,0.0,-1.5707963267948966,0.0,0.0,0.0,-0.35005600806345166,0.0,0.0,0.0,0.0,1.9705695821327764e-08,0.5712496517186506,0.0009074904766844272,-1.5700546364313095,-2.1927707535764774e-05,-1.283309566105623e-07,1.8099592015895614e-06,-0.6528692807010176,-0.01106783637574681,-0.009060095874692885,0.00026313224660949743,1.6292038628803597e-06,0.0,0.31193949000684434,0.0,-1.5707963267948966,0.0,0.0
20.704,600.0,49.47368240356445,0.0,0.4942159613712196,0.0,-1.5707963267948966,0.0,0.0,0.0,-0.7517154710375598,0.0,0.0,0.0,0.0,4.276774767057841e-05,0.5246400382950063,0.0015380539419298088,-1.5694935083896298,-2.7440696031007076e-05,-1.3221118172957687e-08,-0.0019067082576078322,-0.8198739821310146,-0.038002863508185984,-0.032785884896721275,0.0005422418668042284,-2.650216804866056e-06,0.0,0.2978329261514032,0.0,-1.5707963267948966,0.0,0.0
20.802,600.0,49.47368240356445,0.0,0.44608721313437716,0.0,-1.5707963267948966,0.0,0.0,0.0,-0.6355819507453039,0.0,0.0,0.0,0.0,6.032392860677691e-07,0.46269903923945277,0.0010903997093024318,-1.5698944472917413,-2.4800374749440396e-05,-1.2315237582252108e-07,-0.0005246911410793884,-0.7794194999082749,-0.014226220592904688,-0.012076962208237476,0.00024733575471744257,5.626520875115281e-08,0.0,0.15322222417775122,0.0,-1.5707963267948966,0.0,0.0
20.902,600.0,49.47368240356445,0.0,0.3952787499354846,0.0,-1.5707963267948966,0.0,0.0,0.0,-0.6084625126948958,0.0,0.0,0.0,0.0,7.532548122769013e-05,0.42516661065426165,0.002360462663570009,-1.5687659327798202,-3.60892503097533e-05,1.0859761082797887e-07,-0.0009239670304275974,-1.0783627278000592,-0.028791628040144596,-0.024806157534570578,0.00042963417027341725,-1.2199399582531282e-06,0.0,0.10930307293346236,0.0,-1.5707963267948966,0.0,0.0
21.002,600.0,49.47368240356445,0.0,0.3264384776966818,0.0,-1.5707963267948966,0.0,0.0,0.0,-0.9870656372272621,0.0,0.0,0.0,0.0,5.3125106080256616e-05,0.3684008326765183,0.002204392321089984,-1.5689017539954142,-3.439793820902188e-05,8.965332172229702e-08,-0.0023394504786138793,-1.0814185054138434,-0.05886752806527707,-0.05143536950978728,0.000719499846882024,-6.657571028841929e-06,0.0,0.25361264564184705,0.0,-1.5707963267948966,0.0,0.0
21.102,600.0,49.47368240356445,0.0,0.271080497073652,0.0,-1.5707963267948966,0.0,0.0,0.0,-0.7550771555195531,0.0,0.0,0.0,0.0,6.619880265219543e-05,0.2990158989000299,0.0028572051448564864,-1.56832571225163,-4.137472050254824e-05,1.7462424205457507e-07,-0.0008116899533827006,-1.4739772385231205,-0.034849924207100556,-0.03018517077301519,0.0004924141618199946,-2.866370824421608e-06,0.0,-0.013337164328269702,0.0,-1.5707963267948966,0.0,0.0
21.202,600.0,49.47368240356445,0.0,0.21010286456948268,0.0,-1.5707963267948966,0.0,0.0,0.0,-0.6914606294462747,0.0,0.0,0.0,0.0,4.374548896885662e-05,0.24626991291640893,0.0027167070126723186,-1.5684503481906458,-4.051853550567314e-05,1.4852099601944303e-07,-0.0005362040787981864,-1.3625403253440083,-0.033136508779581623,-0.028661110260190095,0.0004817052113682712,-1.5272439333003526e-06,0.0,0.1274674717279653,0.0,-1.5707963267948966,0.0,0.0
21.302,600.0,49.47368240356445,0.0,0.1501464866056006,0.0,-1.5707963267948966,0.0,0.0,0.0,-0.8268915991995797,0.0,0.0,0.0,0.0,8.109724977200146e-06,0.1784231211170094,0.002145970264973671,-1.5689570145880334,-3.548128593797785e-05,4.877252760328904e-08,-0.0005006914823496508,-1.2150949442239893,-0.045870111845578265,-0.039584868580666316,0.0007073838943309521,-1.886795164020571e-06,0.0,-0.0963003265489683,0.0,-1.5707963267948966,0.0,0.0
21.402,600.0,49.47368240356445,0.0,0.07970526527445898,0.0,-1.5707963267948966,0.0,0.0,0.0,-0.9820346297626279,0.0,0.0,0.0,0.0,1.5000514101464245e-05,0.12096542059854982,0.0028868910686324634,-1.5682994801148928,-4.261386900694616e-05,1.6582643114599271e-07,-0.0001818464876519984,-1.455430585217645,-0.03521198303789143,-0.030507513133455656,0.000506493545489187,-2.434638555325382e-06,0.0,-0.1665758807138294,0.0,-1.5707963267948966,0.0,0.0
21.502,600.0,49.47368240356445,0.0,0.029230970493237862,0.0,-1.5707963267948966,0.0,0.0,0.0,-0.4720578596913212,0.0,0.0,0.0,0.0,1.3340452826264677e-06,0.0688124748166083,0.0027921119222243905,-1.5683837691633937,-4.1997968304590696e-05,1.470095521093564e-07,-1.3810510501291705e-05,-1.353137901957429,-0.03405653314825772,-0.0294731684137987,0.0004993842512633083,-1.896233271441343e-06,0.0,-0.03557317184045096,0.0,-1.5707963267948966,0.0,0.0
21.602,600.0,49.47368240356445,0.0,-0.01970411106247205,0.0,-1.5707963267948966,0.0,0.0,0.0,-0.4815509619140997,0.0,0.0,0.0,0.0,-9.027006106275974e-06,0.015566464733865472,0.002529262083822773,-1.5686177278651572,-3.988144687313629e-05,9.859591643948395e-08,0.00011351528277986585,-1.0665641918017084,-0.030850501234128042,-0.026618836049938407,0.0004751556946181015,-1.0746029837498505e-06,0.0,-0.1653840446785813,0.0,-1.5707963267948966,0.0,0.0
21.701,600.0,49.47368240356445,0.0,-0.07087646287421911,0.0,-1.5707963267948966,0.0,0.0,0.0,-0.8048923936755494,0.0,0.0,0.0,0.0,-1.5506828016867945e-05,-0.04800050755958715,0.0012705673684213087,-1.5697349239424454,-2.8205932223626403e-05,-1.212992351397098e-07,0.00038654811194709695,-0.7223293156202463,-0.05630465995737454,-0.04955369639683499,0.0006206095105597226,-7.85375596585704e-06,0.0,-0.18129724058487423,0.0,-1.5707963267948966,0.0,0.0
21.802,600.0,49.47368240356445,0.0,-0.1356690301892094,0.0,-1.5707963267948966,0.0,0.0,0.0,-0.7193623418286811,0.0,0.0,0.0,0.0,-1.1498665124287143e-05,-0.09954799615126678,0.000972469721743503,-1.570004569002816,-2.6813719819693155e-05,-2.0791258102846198e-07,0.00014692003371388925,-0.6026169622488492,-0.011861195185373317,-0.009675341222258133,0.000322444342085236,2.173925727335651e-06,0.0,-0.21297031855048792,0.0,-1.5707963267948966,0.0,0.0
21.904,600.0,49.47368240356445,0.0,-0.19397901206611934,0.0,-1.5707963267948966,0.0,0.0,0.0,-0.8453001438932845,0.0,0.0,0.0,0.0,-3.186015326199717e-05,-0.17158711949391225,0.0021256650920706056,-1.5689737925029008,-3.565812022447061e-05,3.600855942484453e-08,0.0011440141614802034,-1.0225700355951173,-0.06162090789847195,-0.05402312569031445,0.0007395944896188378,-7.535024213209706e-06,0.0,-0.30421832153894496,0.0,-1.5707963267948966,0.0,0.0
22.004,600.0,49.47368240356445,0.0,-0.2527782965753005,0.0,-1.5707963267948966,0.0,0.0,0.0,-0.6773610341489377,0.0,0.0,0.0,0.0,-6.277689097298161e-05,-0.23235061851824398,0.0029566156948477753,-1.5682348984584584,-4.291717662505289e-05,1.9089695162427752e-07,0.0014514742888095751,-1.3944224914919463,-0.0641248743732025,-0.05588638137985317,0.000858367638140075,-5.294186746350574e-06,0.0,-0.4036351601345199,0.0,-1.5707963267948966,0.0,0.0
22.102,600.0,49.47368240356445,0.0,-0.31063777029571327,0.0,-1.5707963267948966,0.0,0.0,0.0,-0.8576168504608016,0.0,0.0,0.0,0.0,-2.828397280766331e-05,-0.2778856131525278,0.0016783843261742204,-1.569375130879176,-3.253077319600923e-05,-6.379377234604548e-08,0.00034544274717223245,-0.8452981157935651,-0.020471296938734975,-0.017365349947321834,0.0003891657925395563,7.392617773473377e-07,0.0,-0.5093433146479422,0.0,-1.5707963267948966,0.0,0.0
22.204,600.0,49.47368240356445,0.0,-0.3793253945120121,0.0,-1.5707963267948966,0.0,0.0,0.0,-0.9359572257599921,0.0,0.0,0.0,0.0,-0.0001104403752690542,-0.3415338649143902,0.0034559108056361203,-1.5677905500305787,-4.682501279894061e-05,2.8303153543125864e-07,0.0023541712055690223,-1.587310322398369,-0.07030481458413702,-0.061245755885853057,0.0009370239318872539,-6.525863193475574e-06,0.0,-0.6311168544661261,0.0,-1.5707963267948966,0.0,0.0
22.301,600.0,49.47368240356445,0.0,-0.4355641585865726,0.0,-1.5707963267948966,0.0,0.0,0.0,-0.5638515073267938,0.0,0.0,0.0,0.0,-0.00011143262383828513,-0.42204918086124216,0.002961459579154682,-1.5682335668779133,-4.318608128632885e-05,1.777406734537535e-07,0.0013684653261372165,-1.6489095047280107,-0.0361221058568584,-0.031312031212227975,0.0005134189996764377,-2.7992401551439036e-06,0.0,-0.6118504058332315,0.0,-1.5707963267948966,0.0,0.0
22.401,600.0,49.47368240356445,0.0,-0.49460663494385493,0.0,-1.5707963267948966,0.0,0.0,0.0,-0.7988551297388672,0.0,0.0,0.0,0.0,2.7072331226816937e-05,-0.47647696971800496,0.0004866175277319971,-1.5704294763547382,-2.0946644194348234e-05,-2.5899982012814096e-07,0.000894885259309067,-0.6342051154124425,-0.025110804437924225,-0.021444501305428593,0.0004351350348350776,-1.4770531124924747e-07,0.0,-0.6184877349095964,0.0,-1.5707963267948966,0.0,0.0
22.502,600.0,49.47368240356445,0.0,-0.5697546360351069,0.0,-1.5707963267948966,0.0,0.0,0.0,-1.083825133772992,0.0,0.0,0.0,0.0,2.6649013530443664e-05,-0.5277692192863357,0.0005488830922633229,-1.570375281026555,-2.1533623819008855e-05,-2.593687402570499e-07,-0.0002877250048378605,-0.5885109969030264,-0.006698513851227202,-0.00515846032784807,0.00025923571554143336,2.7874644265423026e-06,0.0,-0.7625823426547603,0.0,-1.5707963267948966,0.0,0.0
22.602,600.0,49.47368240356445,0.0,-0.6373416992574441,0.0,-1.5707963267948966,0.0,0.0,0.0,-0.8346493757329541,0.0,0.0,0.0,0.0,-0.0002595274376610846,-0.6296650249651027,0.003917103207261942,-1.5673846842804506,-4.9044535854159425e-05,4.012634761391769e-07,0.005397819212900047,-2.0515690752197404,-0.07769605200500207,-0.0673491302154478,0.0010443491937802845,-6.002485964141756e-06,0.0,-0.6968699351160974,0.0,-1.5707963267948966,0.0,0.0
22.702,600.0,49.47368240356445,0.0,-0.7035496756132105,0.0,-1.5707963267948966,0.0,0.0,0.0,-0.7145011077581038,0.0,0.0,0.0,0.0,-8.784793807637709e-05,-0.6868101369506142,0.0017300523821021723,-1.5693258623990094,-3.043543563107488e-05,-7.832460430002969e-10,0.001075123658644399,-1.2212328647463493,-0.021102555582651623,-0.017974564691434273,0.00036297360972048514,-3.106801474243874e-07,0.0,-0.8528731338716267,0.0,-1.5707963267948966,0.0,0.0
22.801,600.0,49.47368240356445,0.0,-0.7771828862967105,0.0,-1.5707963267948966,0.0,0.0,0.0,-0.6111618011469717,0.0,0.0,0.0,0.0,-5.963182028562379e-05,-0.7236405895619741,0.001330849866222961,-1.5696759349243004,-2.5785363587702973e-05,-5.347671561509396e-08,0.0025455804473576383,-0.858264314771861,-0.03444765580503869,-0.02952416794867372,0.0005240514232579701,-1.7176381496979758e-06,0.0,-0.9305847384589012,0.0,-1.5707963267948966,0.0,0.0
22.902,600.0,49.47368240356445,0.0,-0.8212280015321838,0.0,-1.5707963267948966,0.0,0.0,0.0,-0.7285129690056985,0.0,0.0,0.0,0.0,-4.2086816195938184e-05,-0.7873861465721652,0.0011164256070998265,-1.569865818310023,-2.396090562345159e-05,-9.532827239248543e-08,0.0005142856973651768,-0.9196847989923586,-0.013618269810012738,-0.011375126674541824,0.00028657775197080853,1.0569283427682046e-06,0.0,-1.0569006554166949,0.0,-1.5707963267948966,0.0,0.0
23.003,600.0,49.47368240356445,0.0,-0.888663918188179,0.0,-1.5707963267948966,0.0,0.0,0.0,-0.918766721769229,0.0,0.0,0.0,0.0,-0.00010843781109231337,-0.8329028985529819,0.0015076633467696941,-1.5695193410522037,-2.586484067602049e-05,9.099646893961115e-09,0.0036463588127187857,-0.8384479994166905,-0.03720458929381314,-0.031904322399850804,0.0005233961334863304,-2.6026933015118627e-06,0.0,-1.1164765281969335,0.0,-1.5707963267948966,0.0,0.0
23.102,600.0,49.47368240356445,0.0,-0.953078480688724,0.0,-1.5707963267948966,0.0,0.0,0.0,-0.6078369111147901,0.0,0.0,0.0,0.0,-0.00035538103237979794,-0.8826708545818922,0.0032900393021364927,-1.5679564649664905,-4.1332771326625255e-05,3.297026540738582e-07,0.004340373911455582,-1.687869420946998,-0.04013323425505965,-0.03469903116421234,0.0004903209211043072,-4.4392208478748645e-06,0.0,-1.155833861132929,0.0,-1.5707963267948966,0.0,0.0
23.202,600.0,49.47368240356445,0.0,-1.0135125525009538,0.0,-1.5707963267948966,0.0,0.0,0.0,-0.9110722208962908,0.0,0.0,0.0,0.0,-0.00033789568283845576,-0.9971979001528506,0.002869596906229436,-1.5683155922394878,-3.532370934253413e-05,3.0296931830089594e-07,0.01552753576857178,-2.0832224758300404,-0.10567976643598449,-0.09174694817290897,0.0010524386106099816,-1.661345747750625e-05,0.0,-1.2370997705628277,0.0,-1.5707963267948966,0.0,0.0
23.302,600.0,49.47368240356445,0.0,-1.0747159579463137,0.0,-1.5707963267948966,0.0,0.0,0.0,-0.6982577175874518,0.0,0.0,0.0,0.0,-2.8813345969291454e-05,-1.0524450438084898,0.0006721208717067396,-1.5702431882364871,-1.696477420649626e-05,-1.0661791725468412e-07,0.00034902770919870325,-1.1596563192859732,-0.008198040512658595,-0.006761369134290926,0.00020389334580165814,1.067278996136686e-06,0.0,-1.2924716484959538,0.0,-1.5707963267948966,0.0,0.0
23.402,600.0,49.47368240356445,0.0,-1.140095788316696,0.0,-1.5707963267948966,0.0,0.0,0.0,-0.5830613834607861,0.0,0.0,0.0,0.0,-0.0001921141407377882,-1.1326886174556128,0.001174683166205448,-1.5698154845654204,-1.8975305191277097e-05,3.0080578373655265e-08,0.009464505208599825,-1.2589877005720758,-0.04554382883896232,-0.03825942578970149,0.0005575048812367105,-4.583400567824638e-06,0.0,-1.254450008091443,0.0,-1.5707963267948966,0.0,0.0
23.502,600.0,49.47368240356445,0.0,-1.203475926590901,0.0,-1.5707963267948966,0.0,0.0,0.0,-0.8333832913120407,0.0,0.0,0.0,0.0,-0.0001422623463691825,-1.221794791736356,0.0009582766205756155,-1.569992185303747,-1.6929160278588768e-05,-7.337448987376756e-09,0.0017261009428421997,-1.4749001569988873,-0.011691600717908408,-0.009830790767323898,0.00020264450140132373,-4.610489188237902e-07,0.0,-1.4394199550111793,0.0,-1.5707963267948966,0.0,0.0
23.602,600.0,49.47368240356445,0.0,-1.2726513148213563,0.0,-1.5707963267948966,0.0,0.0,0.0,-0.9670017874254422,0.0,0.0,0.0,0.0,0.0008162246743355223,-1.2441512301392443,-0.0023091117682816427,-1.5726967585487772,1.2636483185643161e-05,-5.535625501656544e-07,-0.00496115962237063,0.09265839008885338,0.01194174956656441,0.009419953436395241,-8.18898303417191e-05,2.353026012978265e-06,0.0,-1.5437005789490126,0.0,-1.5707963267948966,0.0,0.0
23.702,600.0,49.47368240356445,0.0,-1.3315845057395723,0.0,-1.5707963267948966,0.0,0.0,0.0,-0.6356939122598554,0.0,0.0,0.0,0.0,-0.00042932471433571625,-1.268878148228412,0.0013084181955998729,-1.5697409160548983,-1.73647421048599e-05,9.89014767863465e-08,0.008903072359810991,-0.9327676444264,-0.025095243670898677,-0.019672673184469056,0.00038022915108621976,-7.330632969335262e-07,0.0,-1.5165148466644736,0.0,-1.5707963267948966,0.0,0.0
23.802,600.0,52.6315803527832,0.0,-1.3376764523536702,0.0,-1.5707963267948966,0.0,0.0,0.0,0.6863193928460118,0.0,0.0,0.0,0.0,-0.0013659085354461454,-1.3640134529009855,0.0035207140453956147,-1.5679800339421377,-3.476046556370961e-05,5.190914317655266e-07,0.04010029844251593,-2.189613098217616,-0.09304064525144222,-0.07261869377487397,0.0009528947725270262,-1.1868044827894772e-05,0.0,-1.2643412331407462,0.0,-1.5707963267948966,0.0,0.0
23.904,600.0,52.6315803527832,0.0,-1.2790917781853244,0.0,-1.5707963267948966,0.0,0.0,0.0,0.9136804257170954,0.0,0.0,0.0,0.0,0.001275265481068939,-1.4637219377974433,-0.0011045930055260632,-1.5714095196358873,3.279888239557959e-06,-2.3549314256796856e-07,-0.014553969378417476,-0.9134518701981098,0.012676505308344263,0.007090581618105956,-3.6791946754483954e-05,2.498271428112172e-06,0.0,-1.1214493098185787,0.0,-1.5707963267948966,0.0,0.0
24.002,600.0,52.6315803527832,0.0,-1.2158069541379923,0.0,-1.5707963267948966,0.0,0.0,0.0,0.7804825876235065,0.0,0.0,0.0,0.0,0.003137904664419765,-1.4630481580416532,-0.003507584713236389,-1.5730380426424708,2.2299008335266774e-05,-5.774217662199939e-07,-0.03579782022106001,0.2341918448721407,0.04025722520974885,0.025848614492579264,-0.00025045074618362616,6.823511147263135e-06,0.0,-1.0868724781146222,0.0,-1.5707963267948966,0.0,0.0
24.102,600.0,52.6315803527832,0.0,-1.1536245699293053,0.0,-1.5707963267948966,0.0,0.0,0.0,0.9911163020308035,0.0,0.0,0.0,0.0,0.004388314192043235,-1.349541835537495,-0.005740530594490416,-1.5747059804331873,4.0223550265972915e-05,-9.084516184341247e-07,-0.05006987943393039,2.410642286046797,0.06585114371417027,0.04505603759580068,-0.0004501667781738729,1.0776788198072763e-05,0.0,-0.947494762131859,0.0,-1.5707963267948966,0.0,0.0
24.202,600.0,52.6315803527832,0.0,-1.0791386908820915,0.0,-1.5707963267948966,0.0,0.0,0.0,0.7963910133676642,0.0,0.0,0.0,0.0,0.002785042581916721,-1.2234406252900252,-0.0043365950315103815,-1.573919815279396,2.9275487886023946e-05,-7.211965169202208e-07,-0.03180244192399306,2.9602774560422556,0.049723685136976906,0.035976751356799716,-0.0003258634417108086,8.275347622079845e-06,0.0,-1.0095826087622948,0.0,-1.5707963267948966,0.0,0.0
24.302,600.0,52.6315803527832,0.0,-1.0417216027266525,0.0,-1.5707963267948966,0.0,0.0,0.0,0.5425086343666711,0.0,0.0,0.0,0.0,0.0011828394871553035,-1.0825139301492204,-0.0009996333796950794,-1.5713300242773485,2.493124039099584e-06,-2.2095274325117957e-07,-0.013533984922700932,2.5423712883098224,0.011459457334934864,0.006178703817592515,-2.7500714277039677e-05,1.961237629927446e-06,0.0,-0.9639418627004442,0.0,-1.5707963267948966,0.0,0.0
24.402,600.0,52.6315803527832,0.0,-0.9874144236308586,0.0,-1.5707963267948966,0.0,0.0,0.0,0.8264173181663967,0.0,0.0,0.0,0.0,3.347185417358713e-05,-1.0005785168405972,0.0027354760565735724,-1.568235564248731,-2.8159368760261726e-05,3.570230936671305e-07,-0.0003886194088915954,1.1646404252660565,-0.03132674517725066,-0.029349945198517496,0.0003142078532246367,-4.857096793767865e-06,0.0,-0.9164539858870656,0.0,-1.5707963267948966,0.0,0.0
24.502,600.0,52.6315803527832,0.0,-0.9223234059418495,0.0,-1.5707963267948966,0.0,0.0,0.0,0.8513423385485376,0.0,0.0,0.0,0.0,0.0001533339867220469,-0.9461421725788325,0.0007692841844725302,-1.5700538374829824,-1.5094692500563068e-05,-3.5185088616043504e-08,-0.002491690186357989,1.6252394621174409,-0.004524278448516138,-0.00555493063290386,-6.485468368011809e-06,-1.9358881295745615e-06,0.0,-0.7896522433894915,0.0,-1.5707963267948966,0.0,0.0
24.602,600.0,52.6315803527832,0.0,-0.8629826017948767,0.0,-1.5707963267948966,0.0,0.0,0.0,0.7760953271963859,0.0,0.0,0.0,0.0,8.630488459565674e-05,-0.8654834121177661,0.00047356823344635275,-1.5703680904916117,-1.4869346225097287e-05,-1.38474529924757e-07,-0.005438131253455171,1.8146002024761625,0.02623526595156134,0.02250272084813919,-0.00020777802723328013,3.959433497726545e-06,0.0,-0.7674587633525606,0.0,-1.5707963267948966,0.0,0.0
24.704,600.0,52.6315803527832,0.0,-0.7978289399386158,0.0,-1.5707963267948966,0.0,0.0,0.0,0.657893724024189,0.0,0.0,0.0,0.0,-0.00020508456748431474,-0.7954238996371606,0.002316557956286531,-1.5687643348831661,-3.0390719101785278e-05,1.560871365763924e-07,5.0472161034764266e-05,0.9491937557138997,-0.007263546648825496,-0.0064120399014214405,0.00013554585377490976,2.0039999825796496e-07,0.0,-0.532664435126674,0.0,-1.5707963267948966,0.0,0.0
24.802,600.0,52.6315803527832,0.0,-0.7345408847044101,0.0,-1.5707963267948966,0.0,0.0,0.0,0.8789734869075219,0.0,0.0,0.0,0.0,4.008463806702383e-05,-0.7469050327385247,0.00016992746012904115,-1.5706830092905137,-1.4087768018434147e-05,-2.279099219344861e-07,-0.00046109438611451075,1.8155000846085003,-0.0019472030003764105,-0.0013021199756664305,0.00016009413116634043,2.1397290013174486e-06,0.0,-0.5136932167743243,0.0,-1.5707963267948966,0.0,0.0
24.902,600.0,52.6315803527832,0.0,-0.669796423894593,0.0,-1.5707963267948966,0.0,0.0,0.0,0.6800592171986218,0.0,0.0,0.0,0.0,-6.462812846540625e-05,-0.6366453033402549,0.0010639931927301028,-1.569900439404194,-2.3265501418979947e-05,-1.049911987016761e-07,-0.00311605399983918,1.7076320736062034,0.02959989118919984,0.026809139715770584,-0.00012986398561023072,6.868960659465367e-06,0.0,-0.566922629885915,0.0,-1.5707963267948966,0.0,0.0
25.002,600.0,52.6315803527832,0.0,-0.6164557493888818,0.0,-1.5707963267948966,0.0,0.0,0.0,0.6589027012859339,0.0,0.0,0.0,0.0,-0.000289329695933654,-0.5859337893371296,0.003777472162878001,-1.567469372803115,-4.3996029944576444e-05,3.786658364440804e-07,0.0029410138360788443,0.5750728192005411,-0.042279729610095906,-0.03702982350846589,0.0005463407356973005,-3.298031217508037e-06,0.0,-0.5357830997071199,0.0,-1.5707963267948966,0.0,0.0
25.103,600.0,52.6315803527832,0.0,-0.5487639265113504,0.0,-1.5707963267948966,0.0,0.0,0.0,1.0235865823204877,0.0,0.0,0.0,0.0,-0.00020331417653407627,-0.5535890986868719,0.003034813022429552,-1.5681379593947795,-3.918582119912209e-05,2.28458040003899e-07,0.00232757158381023,0.6012668727342335,-0.03478144559697729,-0.030512169504174094,0.00043762940768810006,-2.7329547274231088e-06,0.0,-0.4775109398694303,0.0,-1.5707963267948966,0.0,0.0
25.202,600.0,52.6315803527832,0.0,-0.5040386797802174,0.0,-1.5707963267948966,0.0,0.0,0.0,0.4360379668894306,0.0,0.0,0.0,0.0,-7.368325002851813e-05,-0.5302602070119413,0.001591926907986832,-1.5694345193714845,-2.891405365623434e-05,-4.4005408398718764e-08,0.0007106220797540553,0.9092841562501903,-0.013602361583688717,-0.011937175379332738,0.00016892079368940676,-1.096498752939382e-06,0.0,-0.37059363765565695,0.0,-1.5707963267948966,0.0,0.0
25.302,600.0,52.6315803527832,0.0,-0.45010343535466735,0.0,-1.5707963267948966,0.0,0.0,0.0,0.7960645718802405,0.0,0.0,0.0,0.0,-5.018095500010214e-05,-0.4904815352053229,0.00140587974859809,-1.5696038964168135,-2.8249456068315265e-05,-9.597784706892567e-08,-0.0007196533557524751,0.9978515730424106,0.00399433539902289,0.004122804053369115,0.0001018449350757387,3.1633086533915255e-06,0.0,-0.19374091931180437,0.0,-1.5707963267948966,0.0,0.0
25.403,600.0,52.6315803527832,0.0,-0.3889849481570975,0.0,-1.5707963267948966,0.0,0.0,0.0,0.8099905360040448,0.0,0.0,0.0,0.0,2.294404345753698e-05,-0.4405642424182864,0.00035188995718472545,-1.5705490522876828,-1.9945201591355235e-05,-2.7557271680501596e-07,-0.00025851532591526625,1.5097482856528468,-0.004032144744346584,-0.0028430966328628713,0.00022635193411740497,3.1369662227902215e-06,0.0,-0.3285989964294016,0.0,-1.5707963267948966,0.0,0.0
25.501,600.0,52.6315803527832,0.0,-0.32622652586268686,0.0,-1.5707963267948966,0.0,0.0,0.0,0.6015224997506994,0.0,0.0,0.0,0.0,3.6864738103996156e-06,-0.34130060529241285,0.00044508785169556384,-1.5704702227194165,-2.2286666995803624e-05,-2.8912855130120437e-07,-0.0025498303219057814,1.93702172304547,0.04594671517762087,0.041921476186831404,-0.00020371521114353938,1.1439255411538905e-05,0.0,-0.09337843622513264,0.0,-1.5707963267948966,0.0,0.0
25.602,600.0,52.6315803527832,0.0,-0.2582203402251766,0.0,-1.5707963267948966,0.0,0.0,0.0,0.7208408642951537,0.0,0.0,0.0,0.0,-0.00012011880558912852,-0.2690344141773245,0.0031226814738683295,-1.5680572656137501,-4.201970889271314e-05,2.033754079100057e-07,0.0008239516775930488,1.0578722997939622,-0.03265519026622563,-0.02798593650601696,0.0006509177921959105,2.1497553237159258e-06,0.0,-0.11225631906405148,0.0,-1.5707963267948966,0.0,0.0
25.703,600.0,52.6315803527832,0.0,-0.17848094170315942,0.0,-1.5707963267948966,0.0,0.0,0.0,0.8180376835256375,0.0,0.0,0.0,0.0,-6.702743196158299e-05,-0.18875044370541635,0.002040809081540655,-1.569032781521046,-3.4390448881188304e-05,-2.471448431858459e-09,0.0007738845741924657,1.3991430776821663,-0.023389503556865136,-0.020244387291481817,0.00038570758423733136,7.317846881187813e-08,0.0,0.07604592351225536,0.0,-1.5707963267948966,0.0,0.0
25.802,600.0,52.6315803527832,0.0,-0.11127624165312078,0.0,-1.5707963267948966,0.0,0.0,0.0,1.0596677530194905,0.0,0.0,0.0,0.0,-0.00010459785431730364,-0.1501179631424544,0.004240352706948716,-1.5670529875666812,-5.1695587233471396e-05,3.713052441315801e-07,0.0012068094974119678,0.36749838725163136,-0.048599752094368606,-0.042966234282469484,0.0005759764651285132,-4.679919635850288e-06,0.0,-0.030291687573420448,0.0,-1.5707963267948966,0.0,0.0
25.905,600.0,52.6315803527832,0.0,-0.03353118401744393,0.0,-1.5707963267948966,0.0,0.0,0.0,0.7061166208942148,0.0,0.0,0.0,0.0,-3.642864324048195e-05,-0.07137672860051551,0.0010785656123012987,-1.5699061652005377,-2.905354899058446e-05,-2.1520853572791128e-07,-0.00022886698287928107,1.7108624880084695,0.036599319357065375,0.03374879864251526,-8.60011990570462e-05,1.061666368697431e-05,0.0,0.12398801157405998,0.0,-1.5707963267948966,0.0,0.0
26.001,600.0,52.6315803527832,0.0,0.027236772019133222,0.0,-1.5707963267948966,0.0,0.0,0.0,0.655140964960357,0.0,0.0,0.0,0.0,-4.5501949688051395e-05,0.013870912251298785,0.0005644869015896929,-1.5703687562818844,-2.5009381042693028e-05,-3.0753119086088154e-07,0.00042577284676712754,2.1047902190761016,0.0348983999807238,0.03187457405823678,-0.0001729950693041018,8.682386291159942e-06,0.0,0.20856989722309277,0.0,-1.5707963267948966,0.0,0.0
26.102,600.0,52.6315803527832,0.0,0.10678180794597947,0.0,-1.5707963267948966,0.0,0.0,0.0,1.0318667316202288,0.0,0.0,0.0,0.0,-6.148990504739165e-05,0.10734405902495907,0.0012515997577727624,-1.5697502371187135,-3.0404352685551783e-05,-1.8621526454972696e-07,0.0011083686345421985,2.0345998122279187,0.03045160755651001,0.02795517283423734,-0.00011134595406941123,7.673598620310622e-06,0.0,0.3969221070023022,0.0,-1.5707963267948966,0.0,0.0
26.202,600.0,52.6315803527832,0.0,0.17220661077253793,0.0,-1.5707963267948966,0.0,0.0,0.0,0.8370339437191385,0.0,0.0,0.0,0.0,-5.811607460904976e-05,0.19169704835926407,0.001831301267461159,-1.569227458596731,-3.469388653645763e-05,-8.327005583365093e-08,0.0014088309420033317,1.8444924546575936,0.01730565352701203,0.016089725953795604,-1.4555795132689692e-05,5.283879269383738e-06,0.0,0.41249309735592643,0.0,-1.5707963267948966,0.0,0.0
26.302,600.0,52.6315803527832,0.0,0.2506752787238181,0.0,-1.5707963267948966,0.0,0.0,0.0,0.7295172219142054,0.0,0.0,0.0,0.0,7.080374164099127e-06,0.25528646090579254,0.0037100442530285573,-1.567535951830367,-4.903149556494729e-05,2.5175770894133135e-07,0.001169830829482972,0.9799804305474338,-0.004940388006165312,-0.003493319636499002,0.00028537081204612247,4.056073967634467e-06,0.0,0.324082960468054,0.0,-1.5707963267948966,0.0,0.0
26.402,600.0,52.6315803527832,0.0,0.3136486647417091,0.0,-1.5707963267948966,0.0,0.0,0.0,0.8585376889363511,0.0,0.0,0.0,0.0,-4.9469911794997e-05,0.3265576118138432,0.0016429446480646138,-1.569396303009842,-3.28646761202793e-05,-1.0481708827467478e-07,0.0016381315825652434,1.6865720620219657,0.011840143729194081,0.011086583573404746,1.2549180501516894e-05,4.228251044262715e-06,0.0,0.3880805956893851,0.0,-1.5707963267948966,0.0,0.0
26.502,600.0,52.6315803527832,0.0,0.3764310395628965,0.0,-1.5707963267948966,0.0,0.0,0.0,0.5633338038487645,0.0,0.0,0.0,0.0,-5.951997613480248e-05,0.3947216193885848,0.0012576519473945626,-1.5697386523679717,-2.87491726295476e-05,-1.4818401372880975e-07,0.0006803272569641967,1.7964684696685216,-0.014412971643454594,-0.012142132672944157,0.0003239162327287227,1.2271295910635266e-06,0.0,0.46120562428310624,0.0,-1.5707963267948966,0.0,0.0
26.602,600.0,52.6315803527832,0.0,0.43796897155811093,0.0,-1.5707963267948966,0.0,0.0,0.0,0.9724745754442488,0.0,0.0,0.0,0.0,0.00014355481823756972,0.45650492601809195,0.0043726587579633125,-1.5669384716398078,-5.21059967096258e-05,4.1806728719646743e-07,-0.0016534550317690445,0.3490161824445359,-0.05011710060900886,-0.04428251829599796,0.0005801866133234815,-5.178705618637757e-06,0.0,0.5084394693086566,0.0,-1.5707963267948966,0.0,0.0
26.702,600.0,52.6315803527832,0.0,0.5214535581923657,0.0,-1.5707963267948966,0.0,0.0,0.0,1.0964302687898047,0.0,0.0,0.0,0.0,3.303914535587723e-05,0.5056235367942137,0.0022915029159451196,-1.5688109402022425,-3.6484226000171436e-05,4.094149902856351e-08,0.0011579033007805097,0.9943801425614922,-0.002366192881177208,-0.0014944775784818995,0.00018296453092140098,2.713119234528545e-06,0.0,0.7483830655650845,0.0,-1.5707963267948966,0.0,0.0
26.802,600.0,52.6315803527832,0.0,0.5939833402287603,0.0,-1.5707963267948966,0.0,0.0,0.0,0.9505210330130079,0.0,0.0,0.0,0.0,-1.3301601938127972e-05,0.5647420844369875,0.001458519962353651,-1.5695600874168818,-3.0120999676412393e-05,-1.0326184095269866e-07,0.003371332034336836,1.3376348423037507,0.026240995909094213,0.024319670824224156,1.9479475525328537e-06,9.139990114100708e-06,0.0,0.7121160489496359,0.0,-1.5707963267948966,0.0,0.0
26.902,600.0,52.6315803527832,0.0,0.6765546409018679,0.0,-1.5707963267948966,0.0,0.0,0.0,1.0907845064086672,0.0,0.0,0.0,0.0,6.534499896086047e-05,0.6503964690498518,0.002242070849028101,-1.5688527518313569,-3.414499154579393e-05,6.168486704135713e-08,-0.0007387107570617978,1.299629669335557,-0.02569448404449093,-0.022304417296063767,0.0003822501886673726,-9.85492668772948e-07,0.0,0.9101412046980281,0.0,-1.5707963267948966,0.0,0.0
27.002,600.0,52.6315803527832,0.0,0.7558770324620323,0.0,-1.5707963267948966,0.0,0.0,0.0,1.075912570769817,0.0,0.0,0.0,0.0,-3.788191012408728e-05,0.7384180709766602,0.0010400562119127392,-1.5699314652308933,-2.534606147948304e-05,-1.5955153485074025e-07,0.00472730599063455,1.842730240964288,0.03126360121168596,0.02829369597889464,-0.0001313740096516503,7.660204792562665e-06,0.0,0.8858883631802887,0.0,-1.5707963267948966,0.0,0.0
27.102,600.0,52.6315803527832,0.0,0.8450071923655513,0.0,-1.5707963267948966,0.0,0.0,0.0,0.8250891387705795,0.0,0.0,0.0,0.0,0.00021376945699085476,0.7982910588667399,0.00311378667187206,-1.5680811009055062,-4.011864684870546e-05,2.2644313067801253e-07,0.0013555297493502672,0.9136768407311943,-0.0029443243221643537,-0.0019493353497687504,0.00020846194143533752,3.063372300165088e-06,0.0,0.9191658465305091,0.0,-1.5707963267948966,0.0,0.0
27.202,600.0,52.6315803527832,0.0,0.9004582580591822,0.0,-1.5707963267948966,0.0,0.0,0.0,0.8103206252093524,0.0,0.0,0.0,0.0,7.540190244268652e-05,0.9215940857568636,0.0015487514491112232,-1.5694743336297812,-2.5853033708022404e-05,-7.79540903547319e-09,-0.0008622402748795111,1.688363836803371,-0.017750470088677115,-0.015175706181139791,0.00029021570414103945,-9.513459765848871e-08,0.0,1.0031308924929823,0.0,-1.5707963267948966,0.0,0.0
27.302,600.0,52.6315803527832,0.0,0.9664298590792736,0.0,-1.5707963267948966,0.0,0.0,0.0,1.082502969381073,0.0,0.0,0.0,0.0,0.0004308930600445626,0.9830854100623572,0.0035431490969849307,-1.5677237046872177,-4.102845185684703e-05,3.459544421371753e-07,0.0010327017001074848,0.7175982765227478,-0.003666579851577648,-0.002489561217931877,0.00023259355537582493,3.439565239952303e-06,0.0,1.1770515346249182,0.0,-1.5707963267948966,0.0,0.0
27.402,600.0,52.6315803527832,0.0,1.048465910530341,0.0,-1.5707963267948966,0.0,0.0,0.0,0.995435175819231,0.0,0.0,0.0,0.0,0.00037086933619648717,1.0202384380607528,0.00284509348353178,-1.5683384954248625,-3.385513667852446e-05,2.645707029714232e-07,-0.004242976336741364,0.6460034516737115,-0.03261271076624427,-0.02822317214427798,0.0003772501297281814,-3.1312143641546028e-06,0.0,1.3166626370542576,0.0,-1.5707963267948966,0.0,0.0
27.502,600.0,52.6315803527832,0.0,1.1284066987272487,0.0,-1.5707963267948966,0.0,0.0,0.0,0.8593178648967109,0.0,0.0,0.0,0.0,-3.948744646143766e-05,1.102693567256105,0.0003220356677924701,-1.570556509138735,-1.4760968377391578e-05,-1.832450297164128e-07,0.01069366640377988,1.692676959346809,0.04679111201312253,0.04093238231916518,-0.0002505119774325661,1.0121927142703479e-05,0.0,1.232312271318158,0.0,-1.5707963267948966,0.0,0.0
27.602,600.0,52.6315803527832,0.0,1.1867831192855103,0.0,-1.5707963267948966,0.0,0.0,0.0,0.5493730072372313,0.0,0.0,0.0,0.0,-3.3766682962326106e-05,1.1987576493588437,0.00019099578863012443,-1.5706686282206272,-1.21391428503743e-05,-1.7551592999060755e-07,0.011615987748896174,1.930653971721036,0.04020666259974018,0.034055796617768745,-0.0002847738439419095,7.344721937149704e-06,0.0,1.4709058562682844,0.0,-1.5707963267948966,0.0,0.0
27.702,600.0,52.6315803527832,0.0,1.2382757837030574,0.0,-1.5707963267948966,0.0,0.0,0.0,0.6755055190217915,0.0,0.0,0.0,0.0,0.0012367423617597251,1.2616794906438733,0.003930733962720159,-1.5675584555415782,-3.7910741801232834e-05,5.048810938161661e-07,-0.014112567072493655,0.2099969930792572,-0.045068375521788315,-0.03721634881450152,0.00042220296905151855,-6.093630332099098e-06,0.0,1.3308603356310722,0.0,-1.5707963267948966,0.0,0.0
27.802,600.0,52.6315803527832,0.0,1.2870843257863798,0.0,-1.5707963267948966,0.0,0.0,0.0,0.835234766822812,0.0,0.0,0.0,0.0,0.0005356714465801705,1.2834198067285716,0.00168462793049937,-1.5694228014626883,-2.0391617138735604e-05,1.3574543211989495e-07,0.0005786629678892794,0.5928072083735423,-0.001175476783008805,-0.0010337374461076058,8.078600988697605e-05,1.4295408159542965e-06,0.0,1.3470915327533324,0.0,-1.5707963267948966,0.0,0.0
27.902,600.0,55.78947448730469,0.0,1.305674505484097,0.0,-1.5707963267948966,0.0,0.0,0.0,-0.41181518817488544,0.0,0.0,0.0,0.0,-0.000633825707543566,1.3383566921172168,-0.00137484208851687,-1.5718931496898458,4.142245430037633e-06,-3.4992848068770536e-07,0.007232264908990074,1.719217090664157,0.01576534877183475,0.012611580353800575,-4.4276081228884155e-05,4.267491535929558e-06,0.0,1.0145276608170701,0.0,-1.5707963267948966,0.0,0.0
28.001,600.0,55.78947448730469,0.0,1.2444579773926652,0.0,-1.5707963267948966,0.0,0.0,0.0,-0.7100035206805833,0.0,0.0,0.0,0.0,0.0003412434570803414,1.4091838607820375,0.00039954152276211333,-1.570539598065813,-8.081381447372011e-06,-4.778446263689338e-08,-0.003894152428285748,1.2947197323918325,-0.004584580842003669,-0.002959213317207903,9.162360772912569e-05,-4.1231007119483585e-08,0.0,1.153199035396671,0.0,-1.5707963267948966,0.0,0.0
28.102,600.0,55.78947448730469,0.0,1.1830115699895485,0.0,-1.5707963267948966,0.0,0.0,0.0,-0.5738715444735539,0.0,0.0,0.0,0.0,0.003403405700492502,1.4019740179209206,0.004850389285928796,-1.5673310215844856,-3.7086623155923005e-05,6.252933475650962e-07,-0.03662057471151557,-0.8785946867964443,-0.0524778597573096,-0.0376247861795572,0.0003912059455836116,-6.840428677342994e-06,0.0,1.097988947961357,0.0,-1.5707963267948966,0.0,0.0
28.202,600.0,55.78947448730469,0.0,1.1312849674534915,0.0,-1.5707963267948966,0.0,0.0,0.0,-0.8290901651117948,0.0,0.0,0.0,0.0,0.003928502525009917,1.3071120867342436,0.006221472520223507,-1.566207167604472,-4.648210480116039e-05,8.452582560181977e-07,-0.04228525566935782,-2.362513372510776,-0.06729074040854782,-0.049813962136741385,0.0004893460324962836,-9.764454982711886e-06,0.0,1.0285421943112736,0.0,-1.5707963267948966,0.0,0.0
28.302,600.0,55.78947448730469,0.0,1.0572874508852186,0.0,-1.5707963267948966,0.0,0.0,0.0,-0.5784830945282369,0.0,0.0,0.0,0.0,0.002176876457483501,1.181155486133965,0.002980322249813009,-1.5687070769197293,-2.5426235485718873e-05,3.3826015338519637e-07,-0.023389266369080553,-2.089114453425732,-0.032762621768480514,-0.023225717069230663,0.00023853327910662014,-4.3648177486871365e-06,0.0,0.9622853268447327,0.0,-1.5707963267948966,0.0,0.0
28.402,600.0,55.78947448730469,0.0,0.994431785414811,0.0,-1.5707963267948966,0.0,0.0,0.0,-0.873651701023187,0.0,0.0,0.0,0.0,0.0008855146513348386,1.0834100172770047,-7.683219744878603e-05,-1.5711848819979393,-6.010956666186846e-06,-1.688915588208635e-07,-0.00955965288032671,-1.2096739466670785,0.0008327206686345014,0.004163170709532532,6.607149627000854e-05,1.5283849332085312e-06,0.0,0.8503297328256822,0.0,-1.5707963267948966,0.0,0.0
28.502,600.0,55.78947448730469,0.0,0.915390135772479,0.0,-1.5707963267948966,0.0,0.0,0.0,-0.9192728001884012,0.0,0.0,0.0,0.0,0.0008816954598692317,1.0047165365423623,0.0019714615630968876,-1.5692610144264658,-2.0480869364385562e-05,1.6332296178708014e-07,-0.015791943972330014,-1.8840475873802134,-0.054532376186197246,-0.04535164431561027,0.000562042593044272,-5.270613954925383e-06,0.0,0.7797540657119779,0.0,-1.5707963267948966,0.0,0.0
28.602,600.0,55.78947448730469,0.0,0.8531872816395101,0.0,-1.5707963267948966,0.0,0.0,0.0,-0.8219487149317755,0.0,0.0,0.0,0.0,0.0001865030534261777,0.928099589088682,-0.0007990582084261697,-1.5716558620367196,-2.9200967448615276e-06,-3.094553979959593e-07,-0.007690597013187312,-0.7907397321748475,-0.028910498651519203,-0.024439053261870763,0.000232305994445377,-3.7407437535002626e-06,0.0,0.7491395501930016,0.0,-1.5707963267948966,0.0,0.0
28.702,600.0,55.78947448730469,0.0,0.7760091264394022,0.0,-1.5707963267948966,0.0,0.0,0.0,-1.035928623937936,0.0,0.0,0.0,0.0,0.000569981556876839,0.8031795573636894,0.0034879054091969245,-1.5677707094804576,-3.4196754463832e-05,3.8202743678568807e-07,-0.010275290038312236,-2.4758564432401124,-0.07068968297354551,-0.06143129915123671,0.0007941794741596857,-5.911947589680444e-06,0.0,0.6171449461047309,0.0,-1.5707963267948966,0.0,0.0
28.802,600.0,55.78947448730469,0.0,0.7043188827187477,0.0,-1.5707963267948966,0.0,0.0,0.0,-0.7890306061875907,0.0,0.0,0.0,0.0,0.00019995235827862968,0.7105255864577699,0.0013934580786777418,-1.5696298622374418,-2.0988544606335245e-05,1.3357229993354997e-08,-0.007086570231714023,-1.705028567324542,-0.06191544935384551,-0.05474551645837685,0.0005735744836795192,-7.770876577089891e-06,0.0,0.4362214739403439,0.0,-1.5707963267948966,0.0,0.0
28.902,600.0,55.78947448730469,0.0,0.6374274030345228,0.0,-1.5707963267948966,0.0,0.0,0.0,-0.7464674167519416,0.0,0.0,0.0,0.0,9.742547581291794e-05,0.6696712971763821,0.0009247659787546212,-1.5700470464222027,-1.9922073262888154e-05,-1.007829678564144e-07,-0.0010563713895371208,-1.3584599630798433,-0.009994926794851446,-0.008117335808507535,0.0002116403747822253,6.684282236709048e-07,0.0,0.35938409635093505,0.0,-1.5707963267948966,0.0,0.0
29.002,600.0,55.78947448730469,0.0,0.5676561093303452,0.0,-1.5707963267948966,0.0,0.0,0.0,-0.790196554751671,0.0,0.0,0.0,0.0,-5.355815421368769e-05,0.5987741539539193,-0.00014775498608030833,-1.5710057844146312,-1.4067269894763749e-05,-3.142951551468265e-07,0.0005754749768109405,-0.6084499508263952,0.0015967116253847553,0.002261872908149061,0.00015201721415889852,3.324629912752046e-06,0.0,0.4872383660164323,0.0,-1.5707963267948966,0.0,0.0
29.104,600.0,55.78947448730469,0.0,0.5119670124914615,0.0,-1.5707963267948966,0.0,0.0,0.0,-0.6463897732371894,0.0,0.0,0.0,0.0,0.00010705312662099636,0.5441916687273366,0.002148395718130515,-1.568921461387481,-3.063107247854754e-05,6.324623366584582e-08,-0.0011616799700939458,-1.3053851599253816,-0.023221458092081138,-0.020292172307697323,0.00032310931962548957,-8.087296868376216e-07,0.0,0.3275438964928361,0.0,-1.5707963267948966,0.0,0.0
29.202,600.0,55.78947448730469,0.0,0.44924094687560334,0.0,-1.5707963267948966,0.0,0.0,0.0,-0.7678163037433692,0.0,0.0,0.0,0.0,7.946058985251468e-05,0.4996416442222186,0.002070126610034982,-1.5689885730469508,-3.0450135925940847e-05,4.3142872470635226e-08,-0.0018181062665348195,-1.1022477540896256,-0.038085454791492064,-0.033468892089569525,0.000520630990751481,-1.5140059215665674e-06,0.0,0.28504071197416164,0.0,-1.5707963267948966,0.0,0.0
29.302,600.0,55.78947448730469,0.0,0.397604603165969,0.0,-1.5707963267948966,0.0,0.0,0.0,-0.5879656926756833,0.0,0.0,0.0,0.0,0.0001193863550161301,0.42685612004980794,0.003053159705626676,-1.5680981451364828,-3.841172622480053e-05,1.9042199533250502e-07,-0.0012969903997132881,-1.5908508619095747,-0.033002757755616195,-0.029205859861165803,0.00040462526061543866,-2.161774110060905e-06,0.0,0.2629063223019644,0.0,-1.5707963267948966,0.0,0.0
29.402,600.0,55.78947448730469,0.0,0.34894609159365597,0.0,-1.5707963267948966,0.0,0.0,0.0,-0.6875826072270074,0.0,0.0,0.0,0.0,-8.79527785068939e-06,0.3773862383259048,0.0010849756641945784,-1.5698840609634899,-2.5301316504564118e-05,-1.4399412491740864e-07,-0.0004553097804640539,-0.7202226220399391,-0.02386705619399218,-0.020723585678938745,0.00040285503221165346,3.127881399926439e-07,0.0,0.10257351680036186,0.0,-1.5707963267948966,0.0,0.0
29.502,600.0,55.78947448730469,0.0,0.2853286757218596,0.0,-1.5707963267948966,0.0,0.0,0.0,-0.8342787477166638,0.0,0.0,0.0,0.0,8.436733900021667e-05,0.3140908886979915,0.0032610144872951816,-1.5679074628024332,-4.106636175340671e-05,2.0589416361994184e-07,-0.0009156819076681851,-1.5611004230561907,-0.03524839760460906,-0.031270440126141504,0.0004323063689462973,-2.151398058809103e-06,0.0,0.13268569077373105,0.0,-1.5707963267948966,0.0,0.0
