7cmdehdrb/project_th/ttt.csv
Time,Stiffness,Damping,R_shoulder_pan_p,R_shoulder_lift_p,R_elbow_p,R_wrist_1_p,R_wrist_2_p,R_wrist_3_p,R_shoulder_pan_v,R_shoulder_lift_v,R_elbow_v,R_wrist_1_v,R_wrist_2_v,R_wrist_3_v,S_shoulder_pan_p,S_shoulder_lift_p,S_elbow_p,S_wrist_1_p,S_wrist_2_p,S_wrist_3_p,S_shoulder_pan_v,S_shoulder_lift_v,S_elbow_v,S_wrist_1_v,S_wrist_2_v,S_wrist_3_v,C_shoulder_pan_p,C_shoulder_lift_p,C_elbow_p,C_wrist_1_p,C_wrist_2_p,C_wrist_3_p
8.703,600.0,30.0,0.0,-1.5707963267948966,1.22281226143422,-1.655141228937726,-1.623404528450802,-1.5789738532851736,0.0,0.0,0.40801365526523564,0.0,0.0,0.0,0.00014932861454888536,-1.572238561683229,1.2558620815587043,-1.6552325149461313,-1.6234045441263765,-1.5789743618703118,-0.0007334205852128425,-0.1319399828780085,2.7071349396825175,0.0025296329498105123,1.0578504891158093e-05,6.496517463171607e-06,0.0,-1.5707963267948966,1.4568325022951476,-1.655141228937726,-1.623404528450802,-1.5789738532851736
8.803,600.0,30.0,0.0,-1.5707963267948966,1.2976961664593085,-1.655141228937726,-1.623404528450802,-1.5789738532851736,0.0,0.0,1.197418991128032,0.0,0.0,0.0,-7.41946079635493e-07,-1.5705779475855102,1.4557071544968498,-1.655136507988834,-1.6234044109683219,-1.5789743618703118,0.004897037777343166,0.02772413528729456,3.0176030637706472,0.0037908350417812592,0.00010250706805306034,5.5650572037955505e-06,0.0,-1.5707963267948966,1.6417419276364171,-1.655141228937726,-1.623404528450802,-1.5789738532851736
8.903,600.0,30.0,0.0,-1.5707963267948966,1.4168084185998373,-1.655141228937726,-1.623404528450802,-1.5789738532851736,0.0,0.0,1.7010690876697858,0.0,0.0,0.0,-8.928834347186886e-05,-1.5672567193900724,1.5125230331926003,-1.6549787156942468,-1.6233997504364142,-1.5789742287122575,0.0015577155609151595,-0.06250866016428225,0.42203829519028646,-0.0024674897502491946,-8.879142270963244e-05,9.549406025059614e-06,0.0,-1.5707963267948966,1.9353443209412204,-1.655141228937726,-1.623404528450802,-1.5789738532851736
9.003,600.0,30.0,0.0,-1.5707963267948966,1.5845356981855934,-1.655141228937726,-1.623404528450802,-1.5789738532851736,0.0,0.0,1.1671664249636438,0.0,0.0,0.0,-3.114380901068536e-05,-1.5686773826735751,1.6544940203758525,-1.6550037494084935,-1.6234001499105777,-1.5789740955542029,0.0009441101770260615,-0.025840704071903888,0.953152677832357,-0.00103582103156397,-4.805496523774581e-05,7.4823383360917655e-06,0.0,-1.5707963267948966,2.0854861015364525,-1.655141228937726,-1.623404528450802,-1.5789738532851736
9.102,600.0,30.0,0.0,-1.5707963267948966,1.7289663198160345,-1.655141228937726,-1.623404528450802,-1.5789738532851736,0.0,0.0,1.2260283528732632,0.0,0.0,0.0,3.454473797461501e-05,-1.5682420889934017,1.695583400202467,-1.6549209250985921,-1.6233982856978146,-1.578973829238094,-0.0014495112478029423,-0.06678142333363778,-0.9546744746582556,-0.006089735511832455,-0.0001809558956346312,3.872117860679785e-06,0.0,-1.5707963267948966,2.2453820813771164,-1.655141228937726,-1.623404528450802,-1.5789738532851736
9.202,600.0,30.0,0.0,-1.5707963267948966,1.9289552611530303,-1.655141228937726,-1.623404528450802,-1.5789738532851736,0.0,0.0,2.657022376770321,0.0,0.0,0.0,2.1074216746352327e-05,-1.5692407744021812,1.8286277377278826,-1.6550118720498184,-1.6234008157008502,-1.578973562921985,-0.0011857897703004068,-0.030633930061450355,0.6610004441412476,-0.002602048304994375,-9.51580909545391e-05,4.147848965034659e-07,0.0,-1.5707963267948966,2.634998456378568,-1.655141228937726,-1.623404528450802,-1.5789738532851736
9.303,600.0,30.0,0.0,-1.5707963267948966,2.179578980176846,-1.655141228937726,-1.623404528450802,-1.5789738532851736,0.0,0.0,2.6570223767703216,0.0,0.0,0.0,-0.000143434468843582,-1.5703614325888866,1.970898463691823,-1.6551576801195,-1.6234042778102673,-1.578973562921985,0.0030114177764315863,-0.008862998027189104,3.1411345898822995,0.000348255028378525,4.6223788898409045e-07,-3.5742255792546793e-06,0.0,-1.5707963267948966,2.8168648340467315,-1.655141228937726,-1.623404528450802,-1.5789738532851736
9.402,733.3333129882812,30.0,0.0,-1.5707963267948966,2.3617233158474877,-1.655141228937726,-1.623404528450802,-1.5789738532851736,0.0,0.0,0.3358099106928919,0.0,0.0,0.0,-0.00014423525394552752,-1.5700798033036107,2.1782647030225157,-1.6551286516636183,-1.6234021472813953,-1.578973562921985,0.003089754503851672,-0.014577857725336027,3.140702891469598,-0.0002393895900769965,-3.889772792903974e-05,-3.5244937299457588e-06,0.0,-1.5707963267948966,1.9214645287111303,-1.655141228937726,-1.623404528450802,-1.5789738532851736
9.502,733.3333129882812,30.0,0.0,-1.5707963267948966,2.2869496396691105,-1.655141228937726,-1.623404528450802,-1.5789738532851736,0.0,0.0,-1.4643000283072933,0.0,0.0,0.0,0.0002876249412412386,-1.5694200051435436,2.2938477585447177,-1.6549785825361922,-1.6233982856978146,-1.578973562921985,-0.005500886667978016,-0.027898913556209416,0.6733214923454719,-0.0032499992993255318,-0.00014005428283891795,-1.6419294723181516e-06,0.0,-1.5707963267948966,1.9120439653329964,-1.655141228937726,-1.623404528450802,-1.5789738532851736
9.602,733.3333129882812,30.0,0.0,-1.5707963267948966,2.137961537494636,-1.655141228937726,-1.623404528450802,-1.5789738532851736,0.0,0.0,-0.7207170313598945,0.0,0.0,0.0,0.000268159662116771,-1.569771542407434,2.192775069379867,-1.655007877308183,-1.6234004162266868,-1.5789736960800393,-0.006297693022859415,-0.025480540662795096,-2.237247329581155,-0.003257498542492762,-0.00010035110878838569,5.583456065420083e-07,0.0,-1.5707963267948966,1.367576211364883,-1.655141228937726,-1.623404528450802,-1.5789738532851736
9.703,733.3333129882812,30.0,0.0,-1.5707963267948966,2.014243591699218,-1.655141228937726,-1.623404528450802,-1.5789738532851736,0.0,0.0,-1.6757708840406675,0.0,0.0,0.0,6.258283488976682e-05,-1.5699553005226496,2.0415084515697477,-1.6550663336941105,-1.6234010820169593,-1.5789736960800393,-0.0012629785296490463,-0.02096921859701192,-3.0744256003691226,-0.0018221294863085481,-7.537222958764539e-05,-2.0094243990045573e-06,0.0,-1.5707963267948966,1.6502344585085948,-1.655141228937726,-1.623404528450802,-1.5789738532851736
9.803,733.3333129882812,30.0,0.0,-1.5707963267948966,1.8508502261732378,-1.655141228937726,-1.623404528450802,-1.5789738532851736,0.0,0.0,-1.7512071173269534,0.0,0.0,0.0,2.9278767260718304e-05,-1.5699057657263742,1.9412163349203995,-1.6550652684296743,-1.6234008157008502,-1.578973829238094,-0.00041831020906116993,-0.022239916782818808,-2.5536705481828106,-0.0018406050363338102,-7.71950417690576e-05,-1.50601625543157e-06,0.0,-1.5707963267948966,1.64127360954339,-1.655141228937726,-1.623404528450802,-1.5789738532851736
9.903,733.3333129882812,30.0,0.0,-1.5707963267948966,1.6410910410294202,-1.655141228937726,-1.623404528450802,-1.5789738532851736,0.0,0.0,-2.6570223767703216,0.0,0.0,0.0,-4.003990528308891e-05,-1.5699212120606965,1.7937144947852708,-1.6550843100314685,-1.6234009488589047,-1.5789736960800393,0.001308940554882043,-0.021899186127289187,-3.0137239033268375,-0.0013796922146075818,-7.310476345603992e-05,-2.0352842698227695e-06,0.0,-1.5707963267948966,1.1205832656845822,-1.655141228937726,-1.623404528450802,-1.5789738532851736
10.003,733.3333129882812,30.0,0.0,-1.5707963267948966,1.399984275573214,-1.655141228937726,-1.623404528450802,-1.5789738532851736,0.0,0.0,-2.1806838779143036,0.0,0.0,0.0,-9.217980918286306e-05,-1.570066886972324,1.5968336532984377,-1.6551125395390234,-1.6234014814911228,-1.5789736960800393,0.00256754892560754,-0.01828164172928262,-2.8108283125180606,-0.0006843392285233602,-5.89617875506741e-05,-2.129534798910222e-06,0.0,-1.5707963267948966,1.2184141472784475,-1.655141228937726,-1.623404528450802,-1.5789738532851736
10.103,733.3333129882812,30.0,0.0,-1.5707963267948966,1.209248723265521,-1.655141228937726,-1.623404528450802,-1.5789738532851736,0.0,0.0,-1.2901025712728982,0.0,0.0,0.0,-8.787032072298987e-05,-1.5700739443492127,1.45922505713879,-1.6551126726970777,-1.6234018809652864,-1.5789736960800393,0.0024604438166307935,-0.018100704900346955,-2.647559227149118,-0.0006778490087193368,-5.464495605477526e-05,-2.1077849405603673e-06,0.0,-1.5707963267948966,1.104455376397823,-1.655141228937726,-1.623404528450802,-1.5789738532851736
10.204,733.3333129882812,30.0,0.0,-1.5707963267948966,1.0875660323524796,-1.655141228937726,-1.623404528450802,-1.5789738532851736,0.0,0.0,-1.2685983898806446,0.0,0.0,0.0,-9.133550226805934e-05,-1.5697975082280624,1.2782542063201994,-1.6550884379311581,-1.6234014814911228,-1.5789736960800393,0.002644140034156863,-0.025024896686823155,-2.8509930428141996,-0.001270441622485073,-6.531261970737269e-05,-1.9111480514319548e-06,0.0,-1.5707963267948966,0.7475082973217668,-1.655141228937726,-1.623404528450802,-1.5789738532851736
10.302,733.3333129882812,30.0,0.0,-1.5707963267948966,0.9509585844026853,-1.655141228937726,-1.623404528450802,-1.5789738532851736,0.0,0.0,-1.4109625397600818,0.0,0.0,0.0,-0.00011208532099399551,-1.5696334575049136,1.1312547715247143,-1.6550795163415064,-1.6234013483330683,-1.5789736960800393,0.0008713698589728577,-0.03612738640595732,-3.077532976729027,-0.0030044566270432016,8.60797658852255e-05,-3.932238714161001e-06,0.0,-1.5707963267948966,0.5583403087235549,-1.655141228937726,-1.623404528450802,-1.5789738532851736
10.403,733.3333129882812,30.0,0.0,-1.5707963267948966,0.8333877721621477,-1.655141228937726,-1.623404528450802,-1.5789738532851736,0.0,0.0,-1.2504437468533525,0.0,0.0,0.0,-0.000116472027146486,-1.5696527654228165,0.936126955825426,-1.6550833779250869,-1.6234018809652864,-1.5789736960800393,0.0032969856272883407,-0.02855384728609795,-3.0479777475835457,-0.0013902859521332403,-6.12454107997328e-05,-1.8353447669367613e-06,0.0,-1.5707963267948966,0.4466846611621905,-1.655141228937726,-1.623404528450802,-1.5789738532851736
10.503,733.3333129882812,30.0,0.0,-1.5707963267948966,0.634894899774249,-1.655141228937726,-1.623404528450802,-1.5789738532851736,0.0,0.0,-2.6570223767703207,0.0,0.0,0.0,-0.00012589692563610066,-1.5699020373008479,0.8035326259452066,-1.6551036179493714,-1.623403345703886,-1.578973562921985,0.011458847720716588,-0.10536743589676704,-2.5003961411046474,-0.005876203047570441,-0.00020644291943020494,1.9340270996742435e-06,0.0,-1.5707963267948966,0.06188725482437363,-1.655141228937726,-1.623404528450802,-1.5789738532851736
10.603,733.3333129882812,30.0,0.0,-1.5707963267948966,0.44434375846549745,-1.655141228937726,-1.623404528450802,-1.5789738532851736,0.0,0.0,-1.3354066763077144,0.0,0.0,0.0,-6.209583758850145e-05,-1.569955433680704,0.6258480493327466,-1.6550982916271915,-1.62340228043945,-1.578973562921985,0.0019035605780498997,-0.02094932395143119,-2.631627132243828,-0.001026587352721961,-4.026793763869468e-05,-3.95583030001985e-06,0.0,-1.5707963267948966,-0.2039458877074416,-1.655141228937726,-1.623404528450802,-1.5789738532851736
10.703,733.3333129882812,30.0,0.0,-1.5707963267948966,0.2965651343837088,-1.655141228937726,-1.623404528450802,-1.5789738532851736,0.0,0.0,-1.6881793527062823,0.0,0.0,0.0,-0.00010793913482838184,-1.5697789992584863,0.4901485069110085,-1.6550913674083572,-1.6234024135975043,-1.578973562921985,0.0031556105244795883,-0.025294887125897548,-2.762196061536015,-0.0011833132125386608,-3.763121879289819e-05,-3.890993821542496e-06,0.0,-1.5707963267948966,-0.45363768356771583,-1.655141228937726,-1.623404528450802,-1.5789738532851736
10.803,733.3333129882812,30.0,0.0,-1.5707963267948966,0.15911759513477897,-1.655141228937726,-1.623404528450802,-1.5789738532851736,0.0,0.0,-1.1342380662126483,0.0,0.0,0.0,-0.0001394295030365536,-1.5698184140426195,0.2946478819486228,-1.6550958947822103,-1.6234026799136134,-1.578973562921985,0.003996007156785295,-0.02427619471942861,-2.9489273297924465,-0.0010771155679011291,-3.887474386054992e-05,-3.824317520397397e-06,0.0,-1.5707963267948966,-0.09921207281612099,-1.655141228937726,-1.623404528450802,-1.5789738532851736
10.903,733.3333129882812,30.0,0.0,-1.5707963267948966,0.023751201449967674,-1.655141228937726,-1.623404528450802,-1.5789738532851736,0.0,0.0,-1.649015613786998,0.0,0.0,0.0,-0.00022513186043929617,-1.5699646215864649,0.1452568119809487,-1.6551064142685161,-1.6234026799136134,-1.578973562921985,0.011536915791358739,-0.09771393536517804,-2.8691230445671323,-0.004875499462027151,-0.00027399665648911094,-1.1157338398722462e-06,0.0,-1.5707963267948966,-0.10717912696060608,-1.655141228937726,-1.623404528450802,-1.5789738532851736
11.003,733.3333129882812,30.0,0.0,-1.5707963267948966,-0.10156807878407292,-1.655141228937726,-1.623404528450802,-1.5789738532851736,0.0,0.0,-1.6142873561182065,0.0,0.0,0.0,-8.304056170287065e-05,-1.570439729524935,-0.06260755082569747,-1.655117732703149,-1.6234028130716678,-1.578973562921985,0.002309336212424293,-0.008836462123639985,-3.127340747016234,-0.0005723176745029754,-2.6420190792708958e-05,-3.881070360571467e-06,0.0,-1.5707963267948966,-0.3412911455414385,-1.655141228937726,-1.623404528450802,-1.5789738532851736
11.103,733.3333129882812,30.0,0.0,-1.5707963267948966,-0.26222227291611944,-1.655141228937726,-1.623404528450802,-1.5789738532851736,0.0,0.0,-1.7694296474780757,0.0,0.0,0.0,0.0010371738081665137,-1.5763679261114514,-0.14750117434485616,-1.6552261233595151,-1.6234056093908125,-1.5789734297639304,-0.032400377764770096,-0.09334287242327417,-0.9105152024640795,0.001470314723113097,8.562183188980156e-06,-5.113840948509918e-06,0.0,-1.5707963267948966,-0.7661578505363317,-1.655141228937726,-1.623404528450802,-1.5789738532851736
11.202,733.3333129882812,30.0,0.0,-1.5707963267948966,-0.4182003071439677,-1.655141228937726,-1.623404528450802,-1.5789738532851736,0.0,0.0,-1.797636149037167,0.0,0.0,0.0,-0.00040490555571942626,-1.57037394944601,-0.330049382187587,-1.6550970932047009,-1.6234028130716678,-1.578973562921985,0.010222556327836765,-0.010484029852909409,-3.077767334904954,-0.0010738007255706723,-2.777222780889033e-05,-3.7470081414212914e-06,0.0,-1.5707963267948966,-0.668476207494497,-1.655141228937726,-1.623404528450802,-1.5789738532851736
11.304,733.3333129882812,30.0,0.0,-1.5707963267948966,-0.6001536938216034,-1.655141228937726,-1.623404528450802,-1.5789738532851736,0.0,0.0,-1.8855908525811977,0.0,0.0,0.0,-2.7995308593163913e-05,-1.5729321819891402,-0.4917560908135212,-1.6551329127213623,-1.6234049436005398,-1.5789736960800393,-0.00024497696186107754,0.05289096597665133,-2.6981608857572774,-0.0002067154448137271,5.604931372651242e-06,-1.650544307351086e-06,0.0,-1.5707963267948966,-0.9879290613683075,-1.655141228937726,-1.623404528450802,-1.5789738532851736
11.403,733.3333129882812,30.0,0.0,-1.5707963267948966,-0.7749479105442347,-1.655141228937726,-1.623404528450802,-1.5789738532851736,0.0,0.0,-1.4824163475563974,0.0,0.0,0.0,-9.027512235294787e-05,-1.5714296265021175,-0.643875519383711,-1.6551286516636183,-1.6234049436005398,-1.5789736960800393,0.0020670569527746104,0.015637245521915432,-3.1409186075178943,-0.00030195929527700193,7.880334342794392e-06,-1.7819586701756715e-06,0.0,-1.5707963267948966,-0.9645804043738868,-1.655141228937726,-1.623404528450802,-1.5789738532851736
11.503,733.3333129882812,30.0,0.0,-1.5707963267948966,-0.9208356888527778,-1.655141228937726,-1.623404528450802,-1.5789738532851736,0.0,0.0,-1.223984857782071,0.0,0.0,0.0,-6.215492424017385e-06,-1.5713401442894908,-0.8371907876450913,-1.6551456958945947,-1.6234057425488668,-1.5789736960800393,-4.354838513964335e-05,0.013519971077761692,-3.0725845571075507,9.227809289582183e-05,1.8644515031586806e-05,-1.6278253927631336e-06,0.0,-1.5707963267948966,-1.3822889422376434,-1.655141228937726,-1.623404528450802,-1.5789738532851736
11.603,733.3333129882812,30.0,0.0,-1.5707963267948966,-1.0984400756248327,-1.655141228937726,-1.623404528450802,-1.5789738532851736,0.0,0.0,-1.5500680289702946,0.0,0.0,0.0,5.97502353768178e-05,-1.5715567924441687,-0.9944859366357957,-1.6551648706544433,-1.6234056093908125,-1.5789736960800393,-0.0012666411563708809,0.01793059964690735,-3.1415945178025564,0.00035474560578474556,-2.924087971429595e-05,1.0597964749358345e-05,0.0,-1.5707963267948966,-1.317077171457103,-1.655141228937726,-1.623404528450802,-1.5789738532851736
11.702,733.3333129882812,30.0,0.0,-1.5707963267948966,-1.294768142499418,-1.655141228937726,-1.623404528450802,-1.5789738532851736,0.0,0.0,-2.055181685128937,0.0,0.0,0.0,2.5672137792029025e-05,-1.571369039587318,-1.174734338429675,-1.6551567480131186,-1.6234054762327579,-1.5789736960800393,-0.0008435164839108426,0.014299488731800893,-3.0243840045382067,0.0003875601261650433,1.7339210120715357e-05,-1.6470119697388556e-06,0.0,-1.5707963267948966,-1.4016499508622196,-1.655141228937726,-1.623404528450802,-1.5789738532851736
11.803,733.3333129882812,30.0,0.0,-1.5707963267948966,-1.4258068533607435,-1.655141228937726,-1.623404528450802,-1.5789738532851736,0.0,0.0,-1.035864335307699,0.0,0.0,0.0,7.548782449787548e-05,-1.5715750350976359,-1.3320961330266585,-1.6551768548793486,-1.6234050767585944,-1.5789736960800393,-0.0019258536290576549,0.019260929754591392,-3.1413218101069322,0.0008885747508637589,1.7906456605951197e-05,-1.9509489473942668e-06,0.0,-1.5707963267948966,-1.8748224356649257,-1.655141228937726,-1.623404528450802,-1.5789738532851736
11.903,733.3333129882812,30.0,0.0,-1.5707963267948966,-1.5984400129299559,-1.655141228937726,-1.623404528450802,-1.5789738532851736,0.0,0.0,-1.769096637318054,0.0,0.0,0.0,0.00010814472358245486,-1.5724653298500493,-1.4971792305721088,-1.6552558176056695,-1.6234072072874663,-1.5789736960800393,0.0012891953220011397,-0.01199504607787962,-1.8362461095002176,-0.001401744436790199,-3.851218806023287e-05,-6.283765871055101e-07,0.0,-1.5707963267948966,-1.9022014706897399,-1.655141228937726,-1.623404528450802,-1.5789738532851736
12.003,733.3333129882812,30.0,0.0,-1.5707963267948966,-1.779289292035699,-1.655141228937726,-1.623404528450802,-1.5789738532851736,0.0,0.0,-1.7298359065039715,0.0,0.0,0.0,7.635919539714564e-05,-1.5714438744139494,-1.6481707438416227,-1.6551772543535122,-1.6234053430747033,-1.578973829238094,-0.0020557979451250826,0.016162271086067742,-3.140881323262633,0.000894274734830653,2.4323071312280832e-05,-1.0604237740812347e-07,0.0,-1.5707963267948966,-2.43764391521498,-1.655141228937726,-1.623404528450802,-1.5789738532851736
12.103,733.3333129882812,30.0,0.0,-1.5707963267948966,-1.9398691977156517,-1.655141228937726,-1.623404528450802,-1.5789738532851736,0.0,0.0,-1.580667351070573,0.0,0.0,0.0,0.00010100550455453254,-1.5715922124866668,-1.805674884398871,-1.6551960296391972,-1.6234058757069214,-1.578973829238094,-0.0027768263138349064,0.019922323730717967,-3.140176917154307,0.0013515151120292704,3.183844111950405e-05,-1.2997088999973558e-07,0.0,-1.5707963267948966,-2.565331302205317,-1.655141228937726,-1.623404528450802,-1.5789738532851736
12.203,733.3333129882812,30.0,0.0,-1.5707963267948966,-2.0912895118938124,-1.655141228937726,-1.623404528450802,-1.5789738532851736,0.0,0.0,-1.9955196987825083,0.0,0.0,0.0,9.406544556845713e-05,-1.5716380188574162,-1.9630525248043407,-1.6552106770251926,-1.623406807813303,-1.578973829238094,-0.011643204006880023,-0.007525998573509553,-3.023288912697966,-0.002753925989277802,-0.00011287533739341309,2.658263616238525e-06,0.0,-1.5707963267948966,-2.4498755713155975,-1.655141228937726,-1.623404528450802,-1.5789738532851736
12.303,733.3333129882812,30.0,0.0,-1.5707963267948966,-2.3067362310191193,-1.655141228937726,-1.623404528450802,-1.5789738532851736,0.0,0.0,-2.0963840398492395,0.0,0.0,0.0,0.00011305580459313602,-1.5715565261280597,-2.120558529574352,-1.6552049512288491,-1.6234065414971939,-1.578973829238094,-0.00310476937486862,0.019024260038062013,-3.1401132676042542,0.001582909871057717,4.299070857684272e-05,-1.8184295544137557e-07,0.0,-1.5707963267948966,-2.5407833553396224,-1.655141228937726,-1.623404528450802,-1.5789738532851736
12.403,866.6666870117188,30.0,0.0,-1.5707963267948966,-2.441064297195614,-1.655141228937726,-1.623404528450802,-1.5789738532851736,0.0,0.0,0.04460130309080439,0.0,0.0,0.0,0.00011960566269085757,-1.5714760986631393,-2.3306348016303096,-1.655205483861067,-1.6234065414971939,-1.578973829238094,-0.0032511209998901326,0.01698137621359205,-3.1404616090748365,0.001591961887983572,4.336850310715213e-05,-1.7674233028145154e-07,0.0,-1.5707963267948966,-2.216012995549366,-1.655141228937726,-1.623404528450802,-1.5789738532851736
12.503,866.6666870117188,30.0,0.0,-1.5707963267948966,-2.335349296557883,-1.655141228937726,-1.623404528450802,-1.5789738532851736,0.0,0.0,1.8242382894122673,0.0,0.0,0.0,-0.0005377878664200916,-1.572158001060254,-2.427630324324303,-1.6553839156541024,-1.623409204658284,-1.5789736960800393,0.015083831284721261,0.040168396303827104,1.1008246273821145,0.007028625151910134,0.0001412358492622514,-3.3390300046371654e-06,0.0,-1.5707963267948966,-1.837276836312606,-1.655141228937726,-1.623404528450802,-1.5789738532851736
12.603,866.6666870117188,30.0,0.0,-1.5707963267948966,-2.127530530213935,-1.655141228937726,-1.623404528450802,-1.5789738532851736,0.0,0.0,1.746907776106277,0.0,0.0,0.0,-0.0002476674307553031,-1.57169873893027,-2.3042873500178285,-1.6552901723837317,-1.623408938342175,-1.5789734297639304,0.00680900850888432,0.0266813308699874,2.8704479672094467,0.004323777268392749,9.556352244556268e-05,-6.775382666328245e-06,0.0,-1.5707963267948966,-1.7327299496281316,-1.655141228937726,-1.623404528450802,-1.5789738532851736
12.704,866.6666870117188,30.0,0.0,-1.5707963267948966,-1.9388988392188118,-1.655141228937726,-1.623404528450802,-1.5789738532851736,0.0,0.0,2.4027893905481337,0.0,0.0,0.0,3.1394250426702566e-05,-1.5714017964687261,-2.1136115407128258,-1.6552112096574108,-1.6234076067616299,-1.5789734297639304,-0.001261867362094616,0.01795977998619513,2.9263828722165988,0.0020506982777193385,7.507214445297438e-05,-6.677885271837085e-06,0.0,-1.5707963267948966,-1.6344758224633584,-1.655141228937726,-1.623404528450802,-1.5789738532851736
12.802,866.6666870117188,30.0,0.0,-1.5707963267948966,-1.7477986849816922,-1.655141228937726,-1.623404528450802,-1.5789738532851736,0.0,0.0,1.9294907956718528,0.0,0.0,0.0,7.461281255805248e-05,-1.5713850185538587,-1.9673298278311169,-1.6551972280616878,-1.6234069409713574,-1.5789734297639304,-0.002529528920080431,0.01750072799626573,2.9215524306314133,0.0016425343808166059,6.048628229009441e-05,-6.620512977288826e-06,0.0,-1.5707963267948966,-1.5453209182334822,-1.655141228937726,-1.623404528450802,-1.5789738532851736
12.903,866.6666870117188,30.0,0.0,-1.5707963267948966,-1.577998370095135,-1.655141228937726,-1.623404528450802,-1.5789738532851736,0.0,0.0,1.7816406096120936,0.0,0.0,0.0,8.432140337252768e-05,-1.5713681074809367,-1.7758284385881895,-1.655186442259273,-1.6234064083391395,-1.5789734297639304,-0.0028061541152650787,0.0170133299854838,2.7898346136449663,0.001326055396037843,4.902188500589877e-05,-6.5152936103528684e-06,0.0,-1.5707963267948966,-1.3575301418394017,-1.655141228937726,-1.623404528450802,-1.5789738532851736
13.002,866.6666870117188,30.0,0.0,-1.5707963267948966,-1.390564402475703,-1.655141228937726,-1.623404528450802,-1.5789738532851736,0.0,0.0,1.9387086675368177,0.0,0.0,0.0,7.885610397483882e-05,-1.5713926085629653,-1.6330975183878833,-1.6551847112045643,-1.623406275181085,-1.5789734297639304,-0.002653610640709132,0.01775041183202827,2.763409131412546,0.001282090221473755,4.918858045736993e-05,-6.5191378339722756e-06,0.0,-1.5707963267948966,-0.6245917615265808,-1.655141228937726,-1.623404528450802,-1.5789738532851736
13.103,866.6666870117188,30.0,0.0,-1.5707963267948966,-1.2010616621564347,-1.655141228937726,-1.623404528450802,-1.5789738532851736,0.0,0.0,1.459022978029005,0.0,0.0,0.0,6.883005993716264e-05,-1.5714306917665535,-1.452053830113479,-1.6551823143595834,-1.623406275181085,-1.578973562921985,-0.002368880229179531,0.018867066954720086,2.6692402878995622,0.0012093220754677545,4.651264321606509e-05,-6.5379541098091835e-06,0.0,-1.5707963267948966,-0.5399537765097424,-1.655141228937726,-1.623404528450802,-1.5789738532851736
13.203,866.6666870117188,30.0,0.0,-1.5707963267948966,-1.0661267917088404,-1.655141228937726,-1.623404528450802,-1.5789738532851736,0.0,0.0,1.3782324889739532,0.0,0.0,0.0,6.766226119841965e-05,-1.571484221304464,-1.3137643968211525,-1.6551823143595834,-1.6234066746552485,-1.5789734297639304,-0.002356504592414744,0.020442884338855192,2.744287634785777,0.0012149958569463843,4.9555008926935704e-05,-6.442855799376488e-06,0.0,-1.5707963267948966,-0.7714423976118898,-1.655141228937726,-1.623404528450802,-1.5789738532851736
13.303,866.6666870117188,30.0,0.0,-1.5707963267948966,-0.9110378664120375,-1.655141228937726,-1.623404528450802,-1.5789738532851736,0.0,0.0,1.8467073438227304,0.0,0.0,0.0,8.161392399196931e-05,-1.5716265672647287,-1.125446550345306,-1.655185643310946,-1.6234069409713574,-1.5789734297639304,-0.0028249254998352594,0.024623344009304247,2.900188818682907,0.0012964724616946464,6.102938249969969e-05,-4.591296769749017e-06,0.0,-1.5707963267948966,-0.19424050008863902,-1.655141228937726,-1.623404528450802,-1.5789738532851736
13.403,866.6666870117188,30.0,0.0,-1.5707963267948966,-0.6887838479030401,-1.655141228937726,-1.623404528450802,-1.5789738532851736,0.0,0.0,2.2652651119013587,0.0,0.0,0.0,4.596827108046313e-05,-1.5713854180280222,-0.9360984600017621,-1.6551656696027703,-1.6234065414971939,-1.578973562921985,-0.0016481387224504065,0.017426943869908323,2.736496823332859,0.0007116936509924731,4.6006542642881285e-05,-6.425883409868658e-06,0.0,-1.5707963267948966,-0.14329502571825148,-1.655141228937726,-1.623404528450802,-1.5789738532851736
13.503,866.6666870117188,30.0,0.0,-1.5707963267948966,-0.4781637172269253,-1.655141228937726,-1.623404528450802,-1.5789738532851736,0.0,0.0,1.7658304143040433,0.0,0.0,0.0,5.087521528390902e-05,-1.5714441407300583,-0.7998401530938117,-1.6551642048641708,-1.6234065414971939,-1.5789734297639304,-0.0018211031029841344,0.01910632076974468,2.711782155784706,0.0006682715116194093,4.528113033130868e-05,-6.424796380462536e-06,0.0,-1.5707963267948966,-0.2702129369908635,-1.655141228937726,-1.623404528450802,-1.5789738532851736
13.603,866.6666870117188,30.0,0.0,-1.5707963267948966,-0.30646252586300715,-1.655141228937726,-1.623404528450802,-1.5789738532851736,0.0,0.0,1.7114978951944368,0.0,0.0,0.0,4.099268350980895e-05,-1.5714061906845247,-0.6228874797279328,-1.6551572806453365,-1.623406008864976,-1.5789734297639304,-0.0015248341039054126,0.01794878820491475,2.6329222274819335,0.000462601744394097,4.032287833989382e-05,-6.5105431902565815e-06,0.0,-1.5707963267948966,0.012673288297117613,-1.655141228937726,-1.623404528450802,-1.5789738532851736
13.703,866.6666870117188,30.0,0.0,-1.5707963267948966,-0.1575243998410718,-1.655141228937726,-1.623404528450802,-1.5789738532851736,0.0,0.0,1.449609492681765,0.0,0.0,0.0,3.8684186589741383e-05,-1.5713870159246761,-0.4909772160632139,-1.65515235379732,-1.623406275181085,-1.5789734297639304,-0.0014715275797286815,0.01734714370426032,2.6325429933427063,0.00033237983149380555,3.8563394256668555e-05,-6.45044570282802e-06,0.0,-1.5707963267948966,0.5868513757821086,-1.655141228937726,-1.623404528450802,-1.5789738532851736
13.803,866.6666870117188,30.0,0.0,-1.5707963267948966,-0.016472805725507023,-1.655141228937726,-1.623404528450802,-1.5789738532851736,0.0,0.0,1.6522474139441483,0.0,0.0,0.0,4.6858493304649175e-05,-1.57136051747183,-0.31036689067719286,-1.6551491580040119,-1.6234064083391395,-1.5789734297639304,-0.0017581326069943456,0.016546231295932617,2.736160466087182,0.00021714946419442024,4.1548746799061063e-05,-6.438764708331205e-06,0.0,-1.5707963267948966,0.7220049380201251,-1.655141228937726,-1.623404528450802,-1.5789738532851736
13.903,866.6666870117188,30.0,0.0,-1.5707963267948966,0.1896063381930536,-1.655141228937726,-1.623404528450802,-1.5789738532851736,0.0,0.0,1.4721344707575301,0.0,0.0,0.0,8.04611201635388e-05,-1.5713673085326096,-0.16554673724647628,-1.6551470274751399,-1.6234065414971939,-1.5789734297639304,-0.0028250334306802187,0.016741698997566026,2.9344943282647624,0.0001727801991475481,4.0982544674787364e-05,-6.4040117686682805e-06,0.0,-1.5707963267948966,0.8623949365585916,-1.655141228937726,-1.623404528450802,-1.5789738532851736
14.003,866.6666870117188,30.0,0.0,-1.5707963267948966,0.3268892248402088,-1.655141228937726,-1.623404528450802,-1.5789738532851736,0.0,0.0,1.5277494610212945,0.0,0.0,0.0,4.532554614965976e-05,-1.5710599797428144,0.036520414887393375,-1.6551379727274336,-1.623406008864976,-1.5789734297639304,-0.0015933658992281806,0.007739494107217388,3.0874364738747047,-0.00010515721729955676,2.9744519740543655e-05,-6.385745103026431e-06,0.0,-1.5707963267948966,0.9169578151020853,-1.655141228937726,-1.623404528450802,-1.5789738532851736
14.103,866.6666870117188,30.0,0.0,-1.5707963267948966,0.5188657264238093,-1.655141228937726,-1.623404528450802,-1.5789738532851736,0.0,0.0,1.8996798464701443,0.0,0.0,0.0,-3.559509690088351e-05,-1.5706635682145562,0.19376083175650735,-1.6551277195572367,-1.623405209916649,-1.5789734297639304,-0.0007606945146783052,0.0009604390735710976,3.1415945178025564,0.0010739881741405625,-0.0004883174060308149,5.265553375877985e-05,0.0,-1.5707963267948966,0.7889076472948886,-1.655141228937726,-1.623404528450802,-1.5789738532851736
14.203,866.6666870117188,30.0,0.0,-1.5707963267948966,0.7005793098790231,-1.655141228937726,-1.623404528450802,-1.5789738532851736,0.0,0.0,1.8739204148471902,0.0,0.0,0.0,-8.642431560218357e-05,-1.5703425241451472,0.35129318517655367,-1.655117999019258,-1.623404144652213,-1.5789734297639304,0.0009473854230405061,-0.008425760031360434,3.1415950504347743,0.0009905351345579198,-0.0005792796691329172,0.00010672024773938178,0.0,-1.5707963267948966,1.2218678900613433,-1.655141228937726,-1.623404528450802,-1.5789738532851736
14.303,866.6666870117188,30.0,0.0,-1.5707963267948966,0.9293960826242479,-1.655141228937726,-1.623404528450802,-1.5789738532851736,0.0,0.0,2.103959188460264,0.0,0.0,0.0,-9.665332326871274e-05,-1.5701180196652533,0.561440497054589,-1.6551101426940422,-1.62340228043945,-1.5789734297639304,0.0018252593507752043,-0.016239110565597636,3.141593985170338,0.0005325480514623538,-0.00045378623255772375,0.00010889091745807572,0.0,-1.5707963267948966,1.392134264012404,-1.655141228937726,-1.623404528450802,-1.5789738532851736
14.403,866.6666870117188,30.0,0.0,-1.5707963267948966,1.108559188298907,-1.655141228937726,-1.623404528450802,-1.5789738532851736,0.0,0.0,1.7559536492349617,0.0,0.0,0.0,-9.457394776548773e-05,-1.5700112269055413,0.7716418045237258,-1.655105082687971,-1.62340228043945,-1.5789734297639304,0.002276648510786822,-0.021056322690008927,3.141594784118665,-0.0002026281492281266,-0.0002496960592558229,6.131562274021496e-05,0.0,-1.5707963267948966,1.5705009115247797,-1.655141228937726,-1.623404528450802,-1.5789738532851736
14.503,866.6666870117188,30.0,0.0,-1.5707963267948966,1.2613298678178118,-1.655141228937726,-1.623404528450802,-1.5789738532851736,0.0,0.0,1.5708833892649052,0.0,0.0,0.0,-9.196861257615286e-05,-1.5699724779116806,0.9818389840931728,-1.655103218475208,-1.6234025467555588,-1.5789734297639304,0.0025663094113736224,-0.023633636366230542,3.1415953167508834,-0.0009167865733644851,-9.024335264865978e-05,8.535178127603019e-06,0.0,-1.5707963267948966,1.7615752478587452,-1.655141228937726,-1.623404528450802,-1.5789738532851736
14.603,866.6666870117188,30.0,0.0,-1.5707963267948966,1.46697455540675,-1.655141228937726,-1.623404528450802,-1.5789738532851736,0.0,0.0,2.377750443558384,0.0,0.0,0.0,-9.055598636952183e-05,-1.5699698147505905,1.1394591718949214,-1.655102419526881,-1.6234024135975043,-1.5789734297639304,0.0027681707802178234,-0.024253539124811523,3.141109822484162,-0.0011096990447527746,-5.6928042900538226e-05,-6.365485719459247e-06,0.0,-1.5707963267948966,2.1201295016252844,-1.655141228937726,-1.623404528450802,-1.5789738532851736
14.702,866.6666870117188,30.0,0.0,-1.5707963267948966,1.6704509351987729,-1.655141228937726,-1.623404528450802,-1.5789738532851736,0.0,0.0,2.2714223865215617,0.0,0.0,0.0,-8.917973805912859e-05,-1.5699896553007116,1.3495536866043458,-1.655103218475208,-1.6234025467555588,-1.5789734297639304,0.00292394125700089,-0.023888896195525432,3.140032307507116,-0.0010745205462842531,-5.140611638219774e-05,-6.4390547521587264e-06,0.0,-1.5707963267948966,2.3570402507957464,-1.655141228937726,-1.623404528450802,-1.5789738532851736
14.802,866.6666870117188,30.0,0.0,-1.5707963267948966,1.8354090585793508,-1.655141228937726,-1.623404528450802,-1.5789738532851736,0.0,0.0,1.5754826812875709,0.0,0.0,0.0,-8.845955161602803e-05,-1.570019083230757,1.5070615555871203,-1.655105615320189,-1.6234024135975043,-1.5789734297639304,0.0029597722169327646,-0.023092450823807415,3.1394525373378057,-0.001011826834395062,-4.9860181765593496e-05,-6.479598917176416e-06,0.0,-1.5707963267948966,2.481020511766273,-1.655141228937726,-1.623404528450802,-1.5789738532851736
14.903,866.6666870117188,30.0,0.0,-1.5707963267948966,1.9884156100015389,-1.655141228937726,-1.623404528450802,-1.5789738532851736,0.0,0.0,1.5427859353904363,0.0,0.0,0.0,-8.802434974209138e-05,-1.5700735448750491,1.716974842184365,-1.6551101426940422,-1.6234021472813953,-1.5789734297639304,0.0029588421911458385,-0.02149485793657171,3.139127898000925,-0.0008906641879924403,-5.3213779234166864e-05,-6.491963622692222e-06,0.0,-1.5707963267948966,2.612925663087366,-1.655141228937726,-1.623404528450802,-1.5789738532851736
15.003,866.6666870117188,30.0,0.0,-1.5707963267948966,2.1610297098402915,-1.655141228937726,-1.623404528450802,-1.5789738532851736,0.0,0.0,2.198738434693869,0.0,0.0,0.0,-8.860855794972405e-05,-1.5701441186439362,1.9267725475903001,-1.6551157353323314,-1.6234020141233407,-1.5789734297639304,0.002946113633521751,-0.019378984772882163,3.1392757034414243,-0.0007299917002907842,-5.4936422163762584e-05,-6.562390937224942e-06,0.0,-1.5707963267948966,2.324789962947576,-1.655141228937726,-1.623404528450802,-1.5789738532851736
15.103,1000.0,30.0,0.0,-1.5707963267948966,2.315667196925433,-1.655141228937726,-1.623404528450802,-1.5789738532851736,0.0,0.0,0.40355698520881356,0.0,0.0,0.0,-9.021708514181427e-05,-1.5702069692456622,2.0840440610263298,-1.655120662180348,-1.6234016146491772,-1.5789734297639304,0.0029564905990973524,-0.017478640403974885,3.139630170182514,-0.0005882256407526705,-6.316386937789975e-05,-6.57759258630766e-06,0.0,-1.5707963267948966,1.825292199553112,-1.655141228937726,-1.623404528450802,-1.5789738532851736
15.203,1000.0,30.0,0.0,-1.5707963267948966,2.236117868896489,-1.655141228937726,-1.623404528450802,-1.5789738532851736,0.0,0.0,-1.1864244192846483,0.0,0.0,0.0,-9.49653840068863e-05,-1.5703024435707413,2.293642428824673,-1.6551289179797273,-1.6234014814911228,-1.5789734297639304,0.0030402522168668485,-0.014593849175444111,3.1402589425158816,-0.00036538690440262553,-6.461846507876043e-05,-6.588050926701421e-06,0.0,-1.5707963267948966,1.9500025940771193,-1.655141228937726,-1.623404528450802,-1.5789738532851736
15.303,1000.0,30.0,0.0,-1.5707963267948966,2.09253174465249,-1.655141228937726,-1.623404528450802,-1.5789738532851736,0.0,0.0,-1.680376491720503,0.0,0.0,0.0,0.0003219285171704864,-1.569885925176253,2.2418079929479156,-1.655005214147093,-1.6233992178041963,-1.5789736960800393,-0.028586273352964268,-0.059616929112457764,-2.1151001146041253,-0.010716161792612644,-0.0003669014147261549,-1.5965557727976312e-06,0.0,-1.5707963267948966,1.59448007666444,-1.655141228937726,-1.623404528450802,-1.5789738532851736
15.402,1000.0,30.0,0.0,-1.5707963267948966,1.9124116759323293,-1.655141228937726,-1.623404528450802,-1.5789738532851736,0.0,0.0,-1.8420605446993874,0.0,0.0,0.0,5.62981418689811e-06,-1.570287263552528,2.0557932481827694,-1.655104017423535,-1.6234018809652864,-1.578973562921985,0.00014952388160317687,-0.01743347173547092,-2.9277477422752645,-0.0012392624819709426,-6.926143384212522e-05,-4.776255839116029e-06,0.0,-1.5707963267948966,1.2418161203321785,-1.655141228937726,-1.623404528450802,-1.5789738532851736
15.502,1000.0,30.0,0.0,-1.5707963267948966,1.6986389324931936,-1.655141228937726,-1.623404528450802,-1.5789738532851736,0.0,0.0,-1.6399340286767048,0.0,0.0,0.0,-6.082491531615411e-05,-1.570303109361014,1.8592208007501678,-1.6551199963900756,-1.6234020141233407,-1.578973562921985,0.0024206433422733447,-0.016980290143210005,-2.982082353783388,-0.0006894464380845351,-6.127562005806967e-05,-4.75744819855945e-06,0.0,-1.5707963267948966,0.9477810779820325,-1.655141228937726,-1.623404528450802,-1.5789738532851736
15.603,1000.0,30.0,0.0,-1.5707963267948966,1.5464194463677616,-1.655141228937726,-1.623404528450802,-1.5789738532851736,0.0,0.0,-1.5974024031894167,0.0,0.0,0.0,-7.12124057746039e-05,-1.5703325372910593,1.7177837773654765,-1.6551259885025282,-1.6234025467555588,-1.578973562921985,0.0027662516917721504,-0.01599454291196049,-2.758272958934219,-0.0004894617655709989,-4.840681735411622e-05,-4.809061269085928e-06,0.0,-1.5707963267948966,1.1336645841347068,-1.655141228937726,-1.623404528450802,-1.5789738532851736
15.703,1000.0,30.0,0.0,-1.5707963267948966,1.3898145389210752,-1.655141228937726,-1.623404528450802,-1.5789738532851736,0.0,0.0,-1.783218022350037,0.0,0.0,0.0,-6.55804393710732e-05,-1.5702393266529064,1.524230688818752,-1.655116667438713,-1.6234026799136134,-1.578973562921985,0.002648384187069851,-0.019234705940232518,-2.9047529441590845,-0.0007954892734799895,-4.588447838381177e-05,-4.931789428825449e-06,0.0,-1.5707963267948966,0.747893387015072,-1.655141228937726,-1.623404528450802,-1.5789738532851736
15.803,1000.0,30.0,0.0,-1.5707963267948966,1.1905166550133215,-1.655141228937726,-1.623404528450802,-1.5789738532851736,0.0,0.0,-1.3375428371825726,0.0,0.0,0.0,-4.5915183408831054e-05,-1.5704991180172438,1.3930754646125842,-1.655137306937161,-1.6234034788619403,-1.578973562921985,0.0017889655885816307,-0.010278182064808496,-2.3141738029325296,-0.00013517642632328148,-2.1253905754930312e-05,-4.499503739851666e-06,0.0,-1.5707963267948966,0.8644143552916979,-1.655141228937726,-1.623404528450802,-1.5789738532851736
15.903,1000.0,30.0,0.0,-1.5707963267948966,1.0250443357486159,-1.655141228937726,-1.623404528450802,-1.5789738532851736,0.0,0.0,-1.6044609827464333,0.0,0.0,0.0,-7.473824965602697e-05,-1.5699129562613172,1.2271446828921617,-1.655088970563376,-1.6234025467555588,-1.5789734297639304,0.003187571838526767,-0.03046560995817894,-2.8023506718200117,-0.001698769732006611,-6.0287597696623274e-05,-4.348458972040331e-06,0.0,-1.5707963267948966,0.4558332608186436,-1.655141228937726,-1.623404528450802,-1.5789738532851736
16.003,1000.0,30.0,0.0,-1.5707963267948966,0.8694023812264771,-1.655141228937726,-1.623404528450802,-1.5789738532851736,0.0,0.0,-1.7302980664452583,0.0,0.0,0.0,-5.2838244099557656e-05,-1.5701764760511807,1.0953539618708739,-1.6551088111134973,-1.6234026799136134,-1.5789734297639304,0.0022644557062726526,-0.021358287706921084,-2.60984780084916,-0.0010471477885752134,-4.5458228755787964e-05,-6.9504584033798746e-06,0.0,-1.5707963267948966,0.1520605178258354,-1.655141228937726,-1.623404528450802,-1.5789738532851736
16.103,1000.0,30.0,0.0,-1.5707963267948966,0.6852894377789127,-1.655141228937726,-1.623404528450802,-1.5789738532851736,0.0,0.0,-1.458258305514366,0.0,0.0,0.0,-7.23943460547798e-05,-1.5700213469176836,0.9636549201701118,-1.6551001558399545,-1.6234026799136134,-1.5789734297639304,0.00305106402671419,-0.02666670220934338,-2.738103242102395,-0.0013315609094280664,-5.0098113200202305e-05,-6.80898711370741e-06,0.0,-1.5707963267948966,0.15159107971614594,-1.655141228937726,-1.623404528450802,-1.5789738532851736
16.202,1000.0,30.0,0.0,-1.5707963267948966,0.5096177568102433,-1.655141228937726,-1.623404528450802,-1.5789738532851736,0.0,0.0,-2.141367038294526,0.0,0.0,0.0,-4.12263481000199e-05,-1.5702330682243448,0.7882949502941548,-1.6551122732229142,-1.6234026799136134,-1.5789734297639304,0.0018431741805553287,-0.019323262288261457,-2.5673637235596707,-0.0009295166264159427,-4.432039951936329e-05,-6.8782207277240615e-06,0.0,-1.5707963267948966,-0.07393342813345039,-1.655141228937726,-1.623404528450802,-1.5789738532851736
16.303,1000.0,30.0,0.0,-1.5707963267948966,0.33446920610716013,-1.655141228937726,-1.623404528450802,-1.5789738532851736,0.0,0.0,-1.5308108131168372,0.0,0.0,0.0,-4.31580298321589e-05,-1.5702141597806052,0.6622369498353713,-1.6551110748004239,-1.6234026799136134,-1.5789734297639304,0.0019436540261346899,-0.019925163742349185,-2.509314801279214,-0.0009724058084780843,-3.875215945283e-05,-6.915984840433477e-06,0.0,-1.5707963267948966,0.19257673079346105,-1.655141228937726,-1.623404528450802,-1.5789738532851736
16.403,1000.0,30.0,0.0,-1.5707963267948966,0.18946588283513233,-1.655141228937726,-1.623404528450802,-1.5789738532851736,0.0,0.0,-1.4225351056025564,0.0,0.0,0.0,-3.817543650936957e-05,-1.5702531750905748,0.4957886826256328,-1.6551126726970777,-1.6234028130716678,-1.5789734297639304,0.0017870866816192012,-0.018537055522578033,-2.471252636663692,-0.0009129807107080449,-3.7202831679014123e-05,-6.906270150063344e-06,0.0,-1.5707963267948966,-0.3922664628786352,-1.655141228937726,-1.623404528450802,-1.5789738532851736
16.503,1000.0,30.0,0.0,-1.5707963267948966,0.04135011197321781,-1.655141228937726,-1.623404528450802,-1.5789738532851736,0.0,0.0,-1.4693157587205272,0.0,0.0,0.0,-0.0001247658380138246,-1.5700162869116123,0.3200848653634329,-1.6551054821621345,-1.6234034788619403,-1.5789734297639304,0.005071036343431064,-0.026562624625586322,-2.74582507768308,-0.001140183396707125,-2.8103796159725565e-05,-6.828430717262337e-06,0.0,-1.5707963267948966,-0.620935838740867,-1.655141228937726,-1.623404528450802,-1.5789738532851736
16.602,1000.0,30.0,0.0,-1.5707963267948966,-0.13950507106128818,-1.655141228937726,-1.623404528450802,-1.5789738532851736,0.0,0.0,-2.4156566595589686,0.0,0.0,0.0,-7.305367510578285e-05,-1.5703029762029594,0.18076139319885579,-1.6551161348064949,-1.6234032125458313,-1.5789734297639304,0.0030883745494821447,-0.016774900085921446,-2.792184320674743,-0.0008066369042997492,-2.229280515624455e-05,-6.8953378851668206e-06,0.0,-1.5707963267948966,-0.7134877811066214,-1.655141228937726,-1.623404528450802,-1.5789738532851736
16.703,1000.0,30.0,0.0,-1.5707963267948966,-0.357916513189096,-1.655141228937726,-1.623404528450802,-1.5789738532851736,0.0,0.0,-1.9172628319488454,0.0,0.0,0.0,-6.110997709488332e-05,-1.570536934904723,-0.008026828382890922,-1.6551241242897652,-1.623403345703886,-1.5789734297639304,0.0024292837915795657,-0.008806808449080333,-2.8494942157527032,-0.0005663596317868987,-2.367453128211238e-05,-6.8597940554172926e-06,0.0,-1.5707963267948966,-0.5054430212888309,-1.655141228937726,-1.623404528450802,-1.5789738532851736
16.803,1000.0,30.0,0.0,-1.5707963267948966,-0.49433048727226847,-1.655141228937726,-1.623404528450802,-1.5789738532851736,0.0,0.0,-1.667909674044205,0.0,0.0,0.0,-8.588977346334202e-05,-1.5706575761021035,-0.2060110398757356,-1.6551269206089096,-1.6234034788619403,-1.5789734297639304,0.003073335751627278,-0.004723336216134651,-3.047378802654387,-0.00046748467235907494,-2.1565204563045035e-05,-6.7865110028840034e-06,0.0,-1.5707963267948966,-1.0167517392791723,-1.655141228937726,-1.623404528450802,-1.5789738532851736
16.903,1000.0,30.0,0.0,-1.5707963267948966,-0.6410070625900524,-1.655141228937726,-1.623404528450802,-1.5789738532851736,0.0,0.0,-1.5246595333004367,0.0,0.0,0.0,-1.0101700268426945e-05,-1.570965304366062,-0.36247217003681115,-1.6551371737791065,-1.6234034788619403,-1.5789734297639304,0.0013946125486073181,0.002389018304328654,-3.141594251486447,-0.0009379916684513345,-4.788666464004878e-05,4.482643507396579e-05,0.0,-1.5707963267948966,-0.8253855368978723,-1.655141228937726,-1.623404528450802,-1.5789738532851736
17.003,1000.0,30.0,0.0,-1.5707963267948966,-0.791959316242755,-1.655141228937726,-1.623404528450802,-1.5789738532851736,0.0,0.0,-1.8370569621034272,0.0,0.0,0.0,4.91914331476245e-05,-1.5712519936574092,-0.5720470021490204,-1.6551482258976304,-1.6234037451780494,-1.5789734297639304,-0.0011110438890883996,0.013296995834900205,-3.1415953167508834,-0.00023831865276974633,-8.504171985279085e-05,2.742310444110389e-05,0.0,-1.5707963267948966,-1.3911364296511162,-1.655141228937726,-1.623404528450802,-1.5789738532851736
17.103,1000.0,30.0,0.0,-1.5707963267948966,-1.0321122920450367,-1.655141228937726,-1.623404528450802,-1.5789738532851736,0.0,0.0,-2.079976528202035,0.0,0.0,0.0,6.23372028169352e-05,-1.5713630474748654,-0.7817219358287029,-1.6551562153809005,-1.6234037451780494,-1.5789734297639304,-0.0018652074173122059,0.01811039422940672,-3.1415937188542293,0.000281097173206514,-5.3400768610326525e-05,7.901777267724317e-06,0.0,-1.5707963267948966,-1.6652921777361427,-1.655141228937726,-1.623404528450802,-1.5789738532851736
17.202,1000.0,30.0,0.0,-1.5707963267948966,-1.2221088433894778,-1.655141228937726,-1.623404528450802,-1.5789738532851736,0.0,0.0,-1.7206077203349335,0.0,0.0,0.0,6.70282893941239e-05,-1.5714067233167428,-0.9390309332570757,-1.6551616748611353,-1.6234038783361038,-1.5789734297639304,-0.002202251129170587,0.02032181453898667,-3.141594251486447,0.0006658868901316225,-1.3542633946332563e-05,-5.313747180168776e-06,0.0,-1.5707963267948966,-1.473292500934805,-1.655141228937726,-1.623404528450802,-1.5789738532851736
17.303,1000.0,30.0,0.0,-1.5707963267948966,-1.3836600756212825,-1.655141228937726,-1.623404528450802,-1.5789738532851736,0.0,0.0,-1.489846197701466,0.0,0.0,0.0,7.079262143175818e-05,-1.5714353522984612,-1.1488374936736354,-1.655168998554133,-1.6234042778102673,-1.5789734297639304,-0.0025797755397839856,0.021691759167885637,-3.140784384198954,0.0009273099607851761,5.162971629920639e-06,-6.8295929244030885e-06,0.0,-1.5707963267948966,-1.7342146284995017,-1.655141228937726,-1.623404528450802,-1.5789738532851736
17.403,1000.0,30.0,0.0,-1.5707963267948966,-1.5263317286306997,-1.655141228937726,-1.623404528450802,-1.5789738532851736,0.0,0.0,-1.678781622965683,0.0,0.0,0.0,7.26755107822923e-05,-1.5714402791464777,-1.3062340425228445,-1.6551732596118771,-1.6234048104424854,-1.5789734297639304,-0.002756777184105003,0.02202056385515875,-3.1400797117745194,0.0010822857804675845,1.7145529926173712e-05,-6.940204769925678e-06,0.0,-1.5707963267948966,-2.1674930772800396,-1.655141228937726,-1.623404528450802,-1.5789738532851736
17.503,1000.0,30.0,0.0,-1.5707963267948966,-1.7088442057773676,-1.655141228937726,-1.623404528450802,-1.5789738532851736,0.0,0.0,-1.6571556777047896,0.0,0.0,0.0,7.450847398971008e-05,-1.571430025976281,-1.5161455980653806,-1.6551784527760027,-1.6234050767585944,-1.5789734297639304,-0.0029048330761795712,0.02178490114641656,-3.139364386705724,0.0012641873551125899,2.6678239382738357e-05,-6.998246552678269e-06,0.0,-1.5707963267948966,-2.346358979395409,-1.655141228937726,-1.623404528450802,-1.5789738532851736
17.604,1000.0,30.0,0.0,-1.5707963267948966,-1.8687902828465752,-1.655141228937726,-1.623404528450802,-1.5789738532851736,0.0,0.0,-2.0265192054425354,0.0,0.0,0.0,7.600032533765607e-05,-1.5714036606814892,-1.7261108163038816,-1.6551823143595834,-1.6234056093908125,-1.5789734297639304,-0.002996303296948086,0.020932548117158292,-3.139032290517791,0.0013997293809185256,3.252738410245893e-05,-7.0314410782206405e-06,0.0,-1.5707963267948966,-2.2422733205249497,-1.655141228937726,-1.623404528450802,-1.5789738532851736
17.703,1000.0,30.0,0.0,-1.5707963267948966,-2.018445158092028,-1.655141228937726,-1.623404528450802,-1.5789738532851736,0.0,0.0,-1.2153973352727434,0.0,0.0,0.0,7.719279050068005e-05,-1.5713740995933894,-1.8836154894933481,-1.6551847112045643,-1.623406008864976,-1.5789734297639304,-0.003044265683853382,0.019925586103053314,-3.1390432094782605,0.0014800603582642684,4.177994881050524e-05,-7.0962930494068196e-06,0.0,-1.5707963267948966,-2.2355005625789937,-1.655141228937726,-1.623404528450802,-1.5789738532851736
17.803,1000.0,30.0,0.0,-1.5707963267948966,-2.1520528915123425,-1.655141228937726,-1.623404528450802,-1.5789738532851736,0.0,0.0,-1.264378492407629,0.0,0.0,0.0,7.87588768138262e-05,-1.5713377474445096,-2.041142000603753,-1.655185376994837,-1.6234061420230304,-1.5789734297639304,-0.003089533180600924,0.01865154440172162,-3.1392581265782296,0.0015085189912996122,4.806761135180881e-05,-7.117423072414235e-06,0.0,-1.5707963267948966,-2.464656675278981,-1.655141228937726,-1.623404528450802,-1.5789738532851736
17.903,1000.0,30.0,0.0,-1.5707963267948966,-2.3108115190460303,-1.655141228937726,-1.623404528450802,-1.5789738532851736,0.0,0.0,-1.3931145406985366,0.0,0.0,0.0,8.199044659628203e-05,-1.5712791579005279,-2.251202560009279,-1.6551852438367824,-1.623406008864976,-1.5789734297639304,-0.003172391300164665,0.016597274523294268,-3.1397665240303256,0.0015057491997361996,4.6351206142356634e-05,-7.107679428457116e-06,0.0,-1.5707963267948966,-2.6714202697148126,-1.655141228937726,-1.623404528450802,-1.5789738532851736
18.004,1133.3333740234375,30.0,0.0,-1.5707963267948966,-2.4493386511325497,-1.655141228937726,-1.623404528450802,-1.5789738532851736,0.0,0.0,-0.45853381198158066,0.0,0.0,0.0,-0.00030791802068818225,-1.571818714337378,-2.4205162221043746,-1.6553117439885612,-1.623408672026066,-1.5789732966058758,0.009735487051001891,0.03497586884012068,-0.6756196006291285,0.005699814398433927,0.00010303210935170933,-8.811530464183915e-06,0.0,-1.5707963267948966,-1.9067277857263263,-1.655141228937726,-1.623404528450802,-1.5789738532851736
18.103,1133.3333740234375,30.0,0.0,-1.5707963267948966,-2.365661895707813,-1.655141228937726,-1.623404528450802,-1.5789738532851736,0.0,0.0,1.9668508364114277,0.0,0.0,0.0,0.00010626780781407776,-1.5710694339646842,-2.5330976287619484,-1.6551664685510974,-1.623406275181085,-1.578973562921985,-0.003864620208435966,0.009340724393965383,-2.3068064340929344,0.0008610417873703941,4.115459603189318e-05,-6.132415439718002e-06,0.0,-1.5707963267948966,-2.05216850238291,-1.655141228937726,-1.623404528450802,-1.5789738532851736
18.203,1133.3333740234375,30.0,0.0,-1.5707963267948966,-2.19890984485186,-1.655141228937726,-1.623404528450802,-1.5789738532851736,0.0,0.0,1.4185705366887256,0.0,0.0,0.0,-0.0002266452329376527,-1.5713567890463038,-2.4246371975751635,-1.6552431675904917,-1.6234076067616299,-1.5789734297639304,0.008226420863322051,0.02176756979338503,2.5344156271854286,0.003857082474268606,7.865203503010371e-05,-7.634095768509078e-06,0.0,-1.5707963267948966,-1.9856336407703938,-1.655141228937726,-1.623404528450802,-1.5789738532851736
18.303,1133.3333740234375,30.0,0.0,-1.5707963267948966,-2.0199868086224537,-1.655141228937726,-1.623404528450802,-1.5789738532851736,0.0,0.0,2.34756111705523,0.0,0.0,0.0,4.58019637086491e-06,-1.5711847488398847,-2.2831125561906083,-1.6551919017395076,-1.623406807813303,-1.5789734297639304,-0.0005726412719821093,0.015165794228457652,2.8712184197128066,0.001948033417696784,6.655298731017e-05,-7.376502308548784e-06,0.0,-1.5707963267948966,-1.865180425467596,-1.655141228937726,-1.623404528450802,-1.5789738532851736
18.403,1133.3333740234375,30.0,0.0,-1.5707963267948966,-1.8522403154636642,-1.655141228937726,-1.623404528450802,-1.5789738532851736,0.0,0.0,1.2329462517943528,0.0,0.0,0.0,6.29043517742991e-05,-1.5711706340861071,-2.0901115409378574,-1.6551776538276757,-1.623406275181085,-1.5789734297639304,-0.002823774150797585,0.014663410735057522,2.892382294579557,0.0014014841023906707,5.347195176586687e-05,-7.401068665169477e-06,0.0,-1.5707963267948966,-1.4341287180860478,-1.655141228937726,-1.623404528450802,-1.5789738532851736
18.503,1133.3333740234375,30.0,0.0,-1.5707963267948966,-1.7437446263716252,-1.655141228937726,-1.623404528450802,-1.5789738532851736,0.0,0.0,1.295572718902374,0.0,0.0,0.0,6.443420241935406e-05,-1.5711839498915576,-1.9494000957921584,-1.6551752569826947,-1.623406008864976,-1.5789734297639304,-0.002893396567803092,0.015217440828253775,2.7799865102499624,0.0012972047009572555,4.5506708235470346e-05,-7.475545926176502e-06,0.0,-1.5707963267948966,-1.4705756452328242,-1.655141228937726,-1.623404528450802,-1.5789738532851736
18.603,1133.3333740234375,30.0,0.0,-1.5707963267948966,-1.614481980844121,-1.655141228937726,-1.623404528450802,-1.5789738532851736,0.0,0.0,1.6729563043703815,0.0,0.0,0.0,5.7848917322146255e-05,-1.5712811552713455,-1.8036036108610618,-1.6551823143595834,-1.6234061420230304,-1.5789734297639304,-0.0027233508713839557,0.019054813569786867,2.971628381240391,0.001589041123274379,5.2611829081161744e-05,-7.562853181921766e-06,0.0,-1.5707963267948966,-1.3925793702700104,-1.655141228937726,-1.623404528450802,-1.5789738532851736
18.703,1133.3333740234375,30.0,0.0,-1.5707963267948966,-1.4459595953496178,-1.655141228937726,-1.623404528450802,-1.5789738532851736,0.0,0.0,1.4757339435763062,0.0,0.0,0.0,5.702947188736742e-05,-1.5712121793991125,-1.6128885199299805,-1.6551699306605145,-1.6234056093908125,-1.5789734297639304,-0.002622663096381595,0.016351350321976866,2.7650456439023996,0.0011231998930855528,3.967754047485443e-05,-7.373152835696462e-06,0.0,-1.5707963267948966,-0.9205328437181312,-1.655141228937726,-1.623404528450802,-1.5789738532851736
18.803,1133.3333740234375,30.0,0.0,-1.5707963267948966,-1.3050347190183391,-1.655141228937726,-1.623404528450802,-1.5789738532851736,0.0,0.0,1.859448882019518,0.0,0.0,0.0,4.96370542492146e-05,-1.5712204351984917,-1.4232758445321374,-1.6551671343413699,-1.6234057425488668,-1.5789734297639304,-0.0023313507238297555,0.016660515236507942,2.7138519645839154,0.0010080779930344225,4.2103749472705705e-05,-7.324838950213331e-06,0.0,-1.5707963267948966,-1.1264490456327563,-1.655141228937726,-1.623404528450802,-1.5789738532851736
18.903,1133.3333740234375,30.0,0.0,-1.5707963267948966,-1.1726567828705194,-1.655141228937726,-1.623404528450802,-1.5789738532851736,0.0,0.0,1.365104347773449,0.0,0.0,0.0,4.495139265990319e-05,-1.571249330496319,-1.2892466700356104,-1.6551664685510974,-1.6234057425488668,-1.578973562921985,-0.0021653599762520223,0.01776514452240237,2.6377891543740533,0.000982207749720662,4.0589848698376083e-05,-4.9486378766626755e-06,0.0,-1.5707963267948966,-0.8237304795294766,-1.655141228937726,-1.623404528450802,-1.5789738532851736
19.003,1133.3333740234375,30.0,0.0,-1.5707963267948966,-1.056973039445941,-1.655141228937726,-1.623404528450802,-1.5789738532851736,0.0,0.0,1.4105691556189517,0.0,0.0,0.0,4.7505115286669256e-05,-1.5712999305570305,-1.1015189134782983,-1.6551664685510974,-1.623406275181085,-1.5789734297639304,-0.002295735365513474,0.01969223285431893,2.7781108458942194,0.0009694769814648101,5.247859788075382e-05,-7.325237189023798e-06,0.0,-1.5707963267948966,-0.5850197885973283,-1.655141228937726,-1.623404528450802,-1.5789738532851736
19.103,1133.3333740234375,30.0,0.0,-1.5707963267948966,-0.9191659282483746,-1.655141228937726,-1.623404528450802,-1.5789738532851736,0.0,0.0,2.008485123885668,0.0,0.0,0.0,1.07308038064478e-05,-1.5711345482533368,-0.9629315390390191,-1.6551519543231565,-1.6234050767585944,-1.578973562921985,-0.0007124877229258994,0.013184111094194472,1.9041427357015153,0.0004025216494360338,2.3029486000688847e-05,-4.952535435837056e-06,0.0,-1.5707963267948966,-0.7809525862308715,-1.655141228937726,-1.623404528450802,-1.5789738532851736
19.202,1133.3333740234375,30.0,0.0,-1.5707963267948966,-0.7550803537693103,-1.655141228937726,-1.623404528450802,-1.5789738532851736,0.0,0.0,1.4170076889767291,0.0,0.0,0.0,6.557119860520582e-05,-1.5715028634320947,-0.8476320435938832,-1.6551693980282964,-1.623406008864976,-1.5789736960800393,-0.0031590637913696345,0.027471553183251958,2.396387449996039,0.0010776709566226003,4.4594802314420494e-05,-5.098568185353902e-06,0.0,-1.5707963267948966,-0.0501097008433774,-1.655141228937726,-1.623404528450802,-1.5789738532851736
19.303,1133.3333740234375,30.0,0.0,-1.5707963267948966,-0.6082905131810099,-1.655141228937726,-1.623404528450802,-1.5789738532851736,0.0,0.0,1.5410018027672674,0.0,0.0,0.0,5.631596203983418e-05,-1.571400464888181,-0.6650826706181755,-1.6551615417030807,-1.6234064083391395,-1.578973829238094,-0.002721326972985226,0.02340626274638122,2.845177231625685,0.0007678872602532833,5.3475592806419715e-05,1.9002150642831242e-08,0.0,-1.5707963267948966,-0.1463102928169382,-1.655141228937726,-1.623404528450802,-1.5789738532851736
19.403,1133.3333740234375,30.0,0.0,-1.5707963267948966,-0.3862675755563263,-1.655141228937726,-1.623404528450802,-1.5789738532851736,0.0,0.0,2.6570223767703207,0.0,0.0,0.0,2.3382384509852063e-05,-1.5711820856787946,-0.49337888802376095,-1.6551466280009763,-1.6234049436005398,-1.5789736960800393,-0.001286388989995036,0.014894354655243228,2.4880944673973535,0.00020314374657784165,1.612562712566796e-05,-2.6588546249833953e-06,0.0,-1.5707963267948966,0.23307562120918424,-1.655141228937726,-1.623404528450802,-1.5789738532851736
19.503,1133.3333740234375,30.0,0.0,-1.5707963267948966,-0.17152305345416607,-1.655141228937726,-1.623404528450802,-1.5789738532851736,0.0,0.0,2.3494577311276896,0.0,0.0,0.0,0.00015217080430257626,-1.5715862203742141,-0.30760076512146844,-1.6551591448580998,-1.6234058757069214,-1.578973829238094,-0.006780118412543465,0.030479038115737826,2.9763738679868035,0.0006507693547748008,4.236696500811785e-05,-3.471419836665387e-07,0.0,-1.5707963267948966,-0.06783157857108613,-1.655141228937726,-1.623404528450802,-1.5789738532851736
19.603,1133.3333740234375,30.0,0.0,-1.5707963267948966,0.054567441461316826,-1.655141228937726,-1.623404528450802,-1.5789738532851736,0.0,0.0,2.6570223767703216,0.0,0.0,0.0,1.65124165703342e-05,-1.5710677029099758,-0.1580585108276619,-1.6551409022046326,-1.6234057425488668,-1.578973829238094,-0.0010299320385812349,0.010454386581322766,2.989462772112325,-1.2011932980144024e-05,3.0424439363512388e-05,3.148727188872143e-08,0.0,-1.5707963267948966,0.675098463902993,-1.655141228937726,-1.623404528450802,-1.5789738532851736
19.703,1133.3333740234375,30.0,0.0,-1.5707963267948966,0.30574525169289074,-1.655141228937726,-1.623404528450802,-1.5789738532851736,0.0,0.0,2.377618856708186,0.0,0.0,0.0,-5.9759309532570583e-05,-1.5707340088253887,-0.029675341871833148,-1.6551290511377819,-1.6234042778102673,-1.5789736960800393,0.0024073155734039894,-0.002405349151431129,2.5591806284781846,-0.00044822831419097196,-6.998054036722698e-06,-2.4850584332934576e-06,0.0,-1.5707963267948966,0.7109059346220394,-1.655141228937726,-1.623404528450802,-1.5789738532851736
19.803,1133.3333740234375,30.0,0.0,-1.5707963267948966,0.5068579934051216,-1.655141228937726,-1.623404528450802,-1.5789738532851736,0.0,0.0,1.711579440136613,0.0,0.0,0.0,8.489301423003333e-05,-1.5709890064997638,0.16510689954769286,-1.6551390379918696,-1.6234049436005398,-1.5789736960800393,-0.0036199836351026434,0.00744266295748474,3.0411004003845252,-0.00012690503061184633,2.36120794109e-06,-2.4300565231955106e-06,0.0,-1.5707963267948966,0.8141008268099541,-1.655141228937726,-1.623404528450802,-1.5789738532851736
19.903,1133.3333740234375,30.0,0.0,-1.5707963267948966,0.6583456559518601,-1.655141228937726,-1.623404528450802,-1.5789738532851736,0.0,0.0,2.075260696960722,0.0,0.0,0.0,-4.170756687487217e-05,-1.570538000169159,0.32235817295943814,-1.6551273200830732,-1.6234040114941584,-1.5789736960800393,-0.00037250185524507736,-0.0041046339606388045,3.1415950504347743,0.0014068963791353088,-0.0006920114211168502,0.0001235977141821751,0.0,-1.5707963267948966,1.0739683250345564,-1.655141228937726,-1.623404528450802,-1.5789738532851736
20.002,1133.3333740234375,30.0,0.0,-1.5707963267948966,0.8450544511626187,-1.655141228937726,-1.623404528450802,-1.5789738532851736,0.0,0.0,1.2763638171357754,0.0,0.0,0.0,-7.681244805471591e-05,-1.5702917909263812,0.5324976618017714,-1.6551181321773125,-1.6234024135975043,-1.5789736960800393,0.0019875311655396964,-0.015953224383766833,3.1415945178025564,0.0004612359315660025,-0.00043409346967193007,0.00010232120431108945,0.0,-1.5707963267948966,1.6001992355539332,-1.655141228937726,-1.623404528450802,-1.5789738532851736
20.103,1133.3333740234375,30.0,0.0,-1.5707963267948966,0.9869047948633822,-1.655141228937726,-1.623404528450802,-1.5789738532851736,0.0,0.0,1.420637094620409,0.0,0.0,0.0,-7.402758843508698e-05,-1.5702153582030958,0.7426946416341367,-1.6551149363840043,-1.6234026799136134,-1.5789736960800393,0.002429202128241452,-0.02068988212698703,3.141593985170338,-0.0003071277848510528,-0.00020961607001736203,5.282082724709171e-05,0.0,-1.5707963267948966,1.210503864347798,-1.655141228937726,-1.623404528450802,-1.5789738532851736
20.203,1133.3333740234375,30.0,0.0,-1.5707963267948966,1.0999401338930972,-1.655141228937726,-1.623404528450802,-1.5789738532851736,0.0,0.0,1.0461837786293164,0.0,0.0,0.0,-7.149578926120326e-05,-1.5701933871241027,0.9003474531592387,-1.6551141374356773,-1.6234029462297224,-1.5789736960800393,0.0026372647092957947,-0.022699245491830226,3.1415945178025564,-0.0008933543968123406,-8.307238829841737e-05,1.0072324060662994e-05,0.0,-1.5707963267948966,1.43567709639848,-1.655141228937726,-1.623404528450802,-1.5789738532851736
20.303,1133.3333740234375,30.0,0.0,-1.5707963267948966,1.236707755881573,-1.655141228937726,-1.623404528450802,-1.5789738532851736,0.0,0.0,1.7497635495644581,0.0,0.0,0.0,-6.883462749249903e-05,-1.5701919223855032,1.1105191995402754,-1.6551137379615137,-1.6234032125458313,-1.5789736960800393,0.0029156178382970916,-0.023427493133696197,3.1404344448317176,-0.001031535461814693,-4.779767858421603e-05,-2.385111920913692e-06,0.0,-1.5707963267948966,1.8245383042951149,-1.655141228937726,-1.623404528450802,-1.5789738532851736
20.403,1133.3333740234375,30.0,0.0,-1.5707963267948966,1.4333092026664764,-1.655141228937726,-1.623404528450802,-1.5789738532851736,0.0,0.0,2.0058008407297705,0.0,0.0,0.0,-6.727041859088794e-05,-1.570204572400681,1.268102103086763,-1.6551137379615137,-1.6234030793877767,-1.5789736960800393,0.003004802785970047,-0.02312693667932934,3.139379034091719,-0.0010126542608606954,-4.234998296741436e-05,-2.4902215689937045e-06,0.0,-1.5707963267948966,2.0857255082203947,-1.655141228937726,-1.623404528450802,-1.5789738532851736
20.502,1133.3333740234375,30.0,0.0,-1.5707963267948966,1.605634691252217,-1.655141228937726,-1.623404528450802,-1.5789738532851736,0.0,0.0,1.4325214838265152,0.0,0.0,0.0,-6.564447454633178e-05,-1.5702334676985084,1.478127775082009,-1.6551154690162224,-1.6234030793877767,-1.5789736960800393,0.00301917163236319,-0.022078912050166703,3.138418964518746,-0.0009485475651626759,-4.271202268274233e-05,-2.5641487118480044e-06,0.0,-1.5707963267948966,1.7014327032242318,-1.655141228937726,-1.623404528450802,-1.5789738532851736
20.603,1133.3333740234375,30.0,0.0,-1.5707963267948966,1.7591976732556345,-1.655141228937726,-1.623404528450802,-1.5789738532851736,0.0,0.0,2.162024451275751,0.0,0.0,0.0,-1.6284549808927683e-05,-1.5696036301007046,1.6804051130437239,-1.6550434305087358,-1.6234012151750137,-1.5789736960800393,0.002053871054449653,0.022667568439020493,1.9950651858456925,0.00316279143667277,5.6488212516345225e-05,-4.799449694122077e-06,0.0,-1.5707963267948966,2.3911371860760484,-1.655141228937726,-1.623404528450802,-1.5789738532851736
20.703,1133.3333740234375,30.0,0.0,-1.5707963267948966,1.9350209036099966,-1.655141228937726,-1.623404528450802,-1.5789738532851736,0.0,0.0,1.357119471111069,0.0,0.0,0.0,-6.265309153052362e-05,-1.570424150032558,1.827791105671434,-1.6551321137730353,-1.6234029462297224,-1.5789736960800393,0.0027772967882891985,-0.014624683587440186,3.139038948420516,-0.0003486041131415288,-4.424026005424876e-05,-2.7138354548381864e-06,0.0,-1.5707963267948966,2.198073032240468,-1.655141228937726,-1.623404528450802,-1.5789738532851736
20.803,1133.3333740234375,30.0,0.0,-1.5707963267948966,2.1131563456133073,-1.655141228937726,-1.623404528450802,-1.5789738532851736,0.0,0.0,1.4468634014897752,0.0,0.0,0.0,-8.073232079346694e-05,-1.57067728349417,1.9669395415733657,-1.6551592780161541,-1.6234044109683219,-1.578973562921985,0.0032562660502656244,-0.004696439329422151,2.9639438299149674,0.000683629030559812,9.332365873355005e-07,-5.576397866655869e-06,0.0,-1.5707963267948966,2.288094527723472,-1.655141228937726,-1.623404528450802,-1.5789738532851736
20.903,1133.3333740234375,30.0,0.0,-1.5707963267948966,2.2580425276794553,-1.655141228937726,-1.623404528450802,-1.5789738532851736,0.0,0.0,1.4942672587384662,0.0,0.0,0.0,-7.306901949096983e-05,-1.57045850481062,2.124118110687352,-1.6551355758824524,-1.6234032125458313,-1.578973562921985,0.003135812106399181,-0.013215610256165765,3.139671981811628,-0.00020015256674510006,-3.436647327933365e-05,-5.014275150401128e-06,0.0,-1.5707963267948966,2.6112744292015746,-1.655141228937726,-1.623404528450802,-1.5789738532851736
21.003,1266.6666259765625,30.0,0.0,-1.5707963267948966,2.2779535078401647,-1.655141228937726,-1.623404528450802,-1.5789738532851736,0.0,0.0,-1.1670369818027684,0.0,0.0,0.0,-6.991256242456171e-05,-1.5704573063881295,2.2813069329715345,-1.6551337116696894,-1.6234026799136134,-1.578973562921985,0.0030041468785218847,-0.013203155816880441,3.1398850346988345,-0.00027927551510491987,-4.8375336169782654e-05,-5.0380389339088905e-06,0.0,-1.5707963267948966,1.9734298718200276,-1.655141228937726,-1.623404528450802,-1.5789738532851736
21.102,1266.6666259765625,30.0,0.0,-1.5707963267948966,2.151464104690664,-1.655141228937726,-1.623404528450802,-1.5789738532851736,0.0,0.0,-1.3281514171070388,0.0,0.0,0.0,0.00038096477131505655,-1.5699987100484178,2.3253955648177964,-1.6550050809890386,-1.6233994841203052,-1.5789736960800393,-0.015584297510195995,-0.03458438207928444,-1.1199805453659728,-0.0057426678852949345,-0.0002197993614939141,-2.546194948128665e-07,0.0,-1.5707963267948966,1.624441762841697,-1.655141228937726,-1.623404528450802,-1.5789738532851736
21.203,1266.6666259765625,30.0,0.0,-1.5707963267948966,2.0256280976251446,-1.655141228937726,-1.623404528450802,-1.5789738532851736,0.0,0.0,-1.3848799539780892,0.0,0.0,0.0,2.4856585344805572e-05,-1.5704308079352831,2.1484737841205623,-1.6551104090101512,-1.6234026799136134,-1.578973829238094,-0.0006734406838885638,-0.015953500062551546,-2.9151408703070474,-0.0012908760523277643,-6.046835747996206e-05,2.401807219514495e-06,0.0,-1.5707963267948966,1.4758511857965546,-1.655141228937726,-1.623404528450802,-1.5789738532851736
21.303,1266.6666259765625,30.0,0.0,-1.5707963267948966,1.876054521913952,-1.655141228937726,-1.623404528450802,-1.5789738532851736,0.0,0.0,-1.017713019939989,0.0,0.0,0.0,-4.6701221483805294e-05,-1.5704783453607412,2.0006811267943974,-1.6551295837699997,-1.6234026799136134,-1.578973829238094,0.0023927118798951876,-0.013951532171219829,-2.9374240717799585,-0.00047563185819825764,-4.928858716273317e-05,-2.460441058674644e-07,0.0,-1.5707963267948966,1.117992263595836,-1.655141228937726,-1.623404528450802,-1.5789738532851736
21.402,1266.6666259765625,30.0,0.0,-1.5707963267948966,1.7377227609225905,-1.655141228937726,-1.623404528450802,-1.5789738532851736,0.0,0.0,-1.5759054137683448,0.0,0.0,0.0,-6.506723145422095e-05,-1.570606709725283,1.8310211205995366,-1.6551474269493034,-1.6234037451780494,-1.578973829238094,0.0030639244420211553,-0.008377055912479659,-2.0638726131397975,0.00024842991991286245,-9.221501064914543e-06,3.2415042280113953e-07,0.0,-1.5707963267948966,1.545819377120955,-1.655141228937726,-1.623404528450802,-1.5789738532851736
21.503,1266.6666259765625,30.0,0.0,-1.5707963267948966,1.5777514772694703,-1.655141228937726,-1.623404528450802,-1.5789738532851736,0.0,0.0,-1.3203657692600497,0.0,0.0,0.0,-8.80315586772931e-05,-1.5713185726846612,1.686068724575941,-1.65522212861788,-1.6234058757069214,-1.5789736960800393,0.0030710998926535074,-1.3490090805318884e-05,-0.6029679668805216,0.0010788913553936156,2.7943772224245063e-06,-3.855243507001572e-06,0.0,-1.5707963267948966,0.8505766130261125,-1.655141228937726,-1.623404528450802,-1.5789738532851736
21.603,1266.6666259765625,30.0,0.0,-1.5707963267948966,1.406761253300302,-1.655141228937726,-1.623404528450802,-1.5789738532851736,0.0,0.0,-1.7869655625515606,0.0,0.0,0.0,-2.984555861588504e-05,-1.5702747466954046,1.5682660574432123,-1.6551072132168432,-1.6234026799136134,-1.578973829238094,0.001924307097082835,-0.02302317950714093,-2.519941879293066,-0.0014036277650161567,-5.585538260088357e-05,-1.374226130923256e-07,0.0,-1.5707963267948966,0.9946154009640652,-1.655141228937726,-1.623404528450802,-1.5789738532851736
21.703,1266.6666259765625,30.0,0.0,-1.5707963267948966,1.2092111039708406,-1.655141228937726,-1.623404528450802,-1.5789738532851736,0.0,0.0,-1.750287744796827,0.0,0.0,0.0,-4.025332877620866e-05,-1.570387132093406,1.3889535570354141,-1.655121727444784,-1.6234032125458313,-1.5789736960800393,0.0022593962203501525,-0.018080625081846678,-2.636277011507106,-0.000808772699676898,-4.2655249270282764e-05,-2.7380424314098934e-06,0.0,-1.5707963267948966,0.48972469060431345,-1.655141228937726,-1.623404528450802,-1.5789738532851736
21.803,1266.6666259765625,30.0,0.0,-1.5707963267948966,1.0057825477626583,-1.655141228937726,-1.623404528450802,-1.5789738532851736,0.0,0.0,-2.6570223767703216,0.0,0.0,0.0,-3.5723882455795e-05,-1.5704162937073423,1.26232064667631,-1.6551233253414381,-1.6234030793877767,-1.5789736960800393,0.0020272703923935598,-0.016768157919114884,-2.463504702104325,-0.0007287359314115413,-3.653996317899152e-05,-2.6760896286047618e-06,0.0,-1.5707963267948966,0.748281121079037,-1.655141228937726,-1.623404528450802,-1.5789738532851736
21.903,1266.6666259765625,30.0,0.0,-1.5707963267948966,0.811375123373395,-1.655141228937726,-1.623404528450802,-1.5789738532851736,0.0,0.0,-2.1515869322812593,0.0,0.0,0.0,-2.986966222307163e-05,-1.570421753187577,1.0906301798873457,-1.65512279270922,-1.6234036120199948,-1.5789736960800393,0.0017680497611629884,-0.01651075923856952,-2.461660196733336,-0.0007453568914237805,-2.742106651494624e-05,-2.6615450227635476e-06,0.0,-1.5707963267948966,0.6601126198476861,-1.655141228937726,-1.623404528450802,-1.5789738532851736
22.004,1266.6666259765625,30.0,0.0,-1.5707963267948966,0.6776609305843548,-1.655141228937726,-1.623404528450802,-1.5789738532851736,0.0,0.0,-1.2213175339643012,0.0,0.0,0.0,-2.3010264882591808e-05,-1.570422019503686,0.9339824453576396,-1.6551213279706205,-1.623403345703886,-1.5789736960800393,0.0014717420110098114,-0.016446788236650675,-2.260986747538121,-0.0008057721571684491,-3.283770763185414e-05,-2.605450749703981e-06,0.0,-1.5707963267948966,-0.07920262522298271,-1.655141228937726,-1.623404528450802,-1.5789738532851736
22.103,1266.6666259765625,30.0,0.0,-1.5707963267948966,0.5481733561283146,-1.655141228937726,-1.623404528450802,-1.5789738532851736,0.0,0.0,-1.4742166256881384,0.0,0.0,0.0,-4.278037752999608e-05,-1.5702802061756391,0.8200280460000756,-1.6551137379615137,-1.6234029462297224,-1.5789736960800393,0.002523518862499314,-0.022621000570646935,-2.3161530642546766,-0.001115096237186551,-3.935592606245021e-05,-2.54195248569879e-06,0.0,-1.5707963267948966,-0.2163528861325713,-1.655141228937726,-1.623404528450802,-1.5789738532851736
22.202,1266.6666259765625,30.0,0.0,-1.5707963267948966,0.3974511111207155,-1.655141228937726,-1.623404528450802,-1.5789738532851736,0.0,0.0,-1.5650862982675282,0.0,0.0,0.0,-4.0441415340927776e-05,-1.5702993809354877,0.7049245592111697,-1.6551152027001135,-1.6234030793877767,-1.5789736960800393,0.002417308669275591,-0.02171157683146611,-2.3190423277213035,-0.0010591581509502529,-3.9914695750148965e-05,-2.502356423665459e-06,0.0,-1.5707963267948966,-0.22405005858215998,-1.655141228937726,-1.623404528450802,-1.5789738532851736
22.303,1266.6666259765625,30.0,0.0,-1.5707963267948966,0.27490491038720855,-1.655141228937726,-1.623404528450802,-1.5789738532851736,0.0,0.0,-1.4209803153215252,0.0,0.0,0.0,-8.301553158090051e-06,-1.5704675595583264,0.5447004656535962,-1.6551226595511657,-1.6234030793877767,-1.5789736960800393,0.0008308251819338403,-0.014334263789972443,-2.3168231155849406,-0.0007516837845515763,-3.245535976902301e-05,-2.590461426925823e-06,0.0,-1.5707963267948966,-0.19966212098448022,-1.655141228937726,-1.623404528450802,-1.5789738532851736
22.403,1266.6666259765625,30.0,0.0,-1.5707963267948966,0.1254273038307998,-1.655141228937726,-1.623404528450802,-1.5789738532851736,0.0,0.0,-1.1021019736699158,0.0,0.0,0.0,-5.311484127173376e-05,-1.5703124304248293,0.42407428184365203,-1.6551172000709309,-1.6234032125458313,-1.5789736960800393,0.0030715669861415724,-0.021045212314836255,-2.447849043320185,-0.0009633283042683596,-3.320692174126252e-05,-2.5672170301319676e-06,0.0,-1.5707963267948966,-0.2356497694548283,-1.655141228937726,-1.623404528450802,-1.5789738532851736
22.503,1266.6666259765625,30.0,0.0,-1.5707963267948966,-0.0082393153593312,-1.655141228937726,-1.623404528450802,-1.5789738532851736,0.0,0.0,-1.57545479195373,0.0,0.0,0.0,-5.484140969817551e-05,-1.5703933905219676,0.25525675001488135,-1.655121461128675,-1.6234037451780494,-1.5789736960800393,0.0031338989996629874,-0.01746253452116371,-2.5602099402395,-0.0008039141861891985,-2.396509932194549e-05,-2.5036720340214666e-06,0.0,-1.5707963267948966,-0.2823127084593517,-1.655141228937726,-1.623404528450802,-1.5789738532851736
22.603,1266.6666259765625,30.0,0.0,-1.5707963267948966,-0.14452340487501125,-1.655141228937726,-1.623404528450802,-1.5789738532851736,0.0,0.0,-1.385664384387389,0.0,0.0,0.0,-6.233385029633688e-05,-1.5704638311328003,0.11975382378299668,-1.6551239911317106,-1.6234034788619403,-1.5789736960800393,0.003411049024835895,-0.014398348184297076,-2.719784688544285,-0.0006982663386751462,-1.8169702618823327e-05,-2.481940335158186e-06,0.0,-1.5707963267948966,-0.6655420403412123,-1.655141228937726,-1.623404528450802,-1.5789738532851736
22.703,1266.6666259765625,30.0,0.0,-1.5707963267948966,-0.26930353277063546,-1.655141228937726,-1.623404528450802,-1.5789738532851736,0.0,0.0,-1.5158921082280352,0.0,0.0,0.0,-6.662416233838768e-05,-1.5706117697313542,-0.069021890824451,-1.6551282521894548,-1.6234037451780494,-1.5789736960800393,0.003287322045586771,-0.007990991701323892,-2.878832663585452,-0.0005249856752526808,-1.7986453842919124e-05,-2.4628794777049014e-06,0.0,-1.5707963267948966,-0.4004035699046405,-1.655141228937726,-1.623404528450802,-1.5789738532851736
22.803,1266.6666259765625,30.0,0.0,-1.5707963267948966,-0.4136951387802643,-1.655141228937726,-1.623404528450802,-1.5789738532851736,0.0,0.0,-1.9466779847501663,0.0,0.0,0.0,-5.39618911579361e-05,-1.570755180956055,-0.27193829174043327,-1.6551329127213623,-1.6234037451780494,-1.5789736960800393,0.0023948530718145844,-0.0017963411664072267,-3.1322934276954544,-0.00035961676538650807,-1.5480074902493348e-05,-2.411840145362636e-06,0.0,-1.5707963267948966,-0.7422550117106281,-1.655141228937726,-1.623404528450802,-1.5789738532851736
22.902,1266.6666259765625,30.0,0.0,-1.5707963267948966,-0.6201624793714,-1.655141228937726,-1.623404528450802,-1.5789738532851736,0.0,0.0,-2.071793013809014,0.0,0.0,0.0,2.895788633918438e-05,-1.5710613113233596,-0.42905639045291777,-1.6551428995754502,-1.623404144652213,-1.5789736960800393,-0.0005222866239057236,0.00890814380915245,-3.14159345253812,-0.0004928160416710147,-5.3036465435637024e-05,3.6576938433445e-05,0.0,-1.5707963267948966,-1.2857025667037212,-1.655141228937726,-1.623404528450802,-1.5789738532851736
23.003,1266.6666259765625,30.0,0.0,-1.5707963267948966,-0.866090463843431,-1.655141228937726,-1.623404528450802,-1.5789738532851736,0.0,0.0,-1.921552818824337,0.0,0.0,0.0,4.646612648480573e-05,-1.5711874120009748,-0.6386637131304259,-1.6551494243201208,-1.6234038783361038,-1.5789736960800393,-0.0016815206924990066,0.015492656680670147,-3.141594784118665,7.316118332996366e-05,-5.375713139077468e-05,1.665961863839913e-05,0.0,-1.5707963267948966,-1.1924426834391701,-1.655141228937726,-1.623404528450802,-1.5789738532851736
23.104,1266.6666259765625,30.0,0.0,-1.5707963267948966,-1.0555039715117296,-1.655141228937726,-1.623404528450802,-1.5789738532851736,0.0,0.0,-1.8959293226089613,0.0,0.0,0.0,5.1067556502042e-05,-1.5712354820586507,-0.7959321639312023,-1.655153685377865,-1.6234038783361038,-1.5789736960800393,-0.002097013873997449,0.018360381831981097,-3.141593186222011,0.00046394493075589883,-1.715960035353333e-05,1.6287522885149193e-06,0.0,-1.5707963267948966,-1.5545020844010082,-1.655141228937726,-1.623404528450802,-1.5789738532851736
23.202,1266.6666259765625,30.0,0.0,-1.5707963267948966,-1.1983261015280604,-1.655141228937726,-1.623404528450802,-1.5789738532851736,0.0,0.0,-1.9913823625966953,0.0,0.0,0.0,5.3603724111856856e-05,-1.571262779459824,-0.9532442905738558,-1.6551578132775546,-1.623404144652213,-1.5789736960800393,-0.002453229094775336,0.02002424373787314,-3.1409929097123075,0.000703279921479248,-3.483038542853359e-06,-2.4335388269775994e-06,0.0,-1.5707963267948966,-1.4089969590340694,-1.655141228937726,-1.623404528450802,-1.5789738532851736
23.303,1266.6666259765625,30.0,0.0,-1.5707963267948966,-1.366290851311316,-1.655141228937726,-1.623404528450802,-1.5789738532851736,0.0,0.0,-1.889401788650869,0.0,0.0,0.0,5.550469269165391e-05,-1.5712782257941464,-1.1630506512533338,-1.6551630064416802,-1.6234046772844308,-1.5789736960800393,-0.0027455396325873046,0.020966726044679175,-3.1397151250212874,0.0009275252373078629,1.3769557938310219e-05,-2.560139401987013e-06,0.0,-1.5707963267948966,-1.6561275833699025,-1.655141228937726,-1.623404528450802,-1.5789738532851736
23.403,1266.6666259765625,30.0,0.0,-1.5707963267948966,-1.5614923831321157,-1.655141228937726,-1.623404528450802,-1.5789738532851736,0.0,0.0,-1.4715271673147052,0.0,0.0,0.0,5.637277202524572e-05,-1.5712780926360919,-1.3204441374672893,-1.6551660690769339,-1.6234049436005398,-1.5789736960800393,-0.0028696476207228506,0.021098793867611886,-3.138898599831069,0.0010675867047000146,2.166004635485619e-05,-2.649804089262096e-06,0.0,-1.5707963267948966,-2.1449667010403646,-1.655141228937726,-1.623404528450802,-1.5789738532851736
23.503,1266.6666259765625,30.0,0.0,-1.5707963267948966,-1.7333187532138936,-1.655141228937726,-1.623404528450802,-1.5789738532851736,0.0,0.0,-1.7212938201858967,0.0,0.0,0.0,5.714094218134624e-05,-1.57126650788535,-1.5303499672134817,-1.65516979750246,-1.6234050767585944,-1.5789736960800393,-0.0029722165133194054,0.0207081559893731,-3.138198454780487,0.0012261418623016112,3.167367387533459e-05,-2.71384129635135e-06,0.0,-1.5707963267948966,-2.0354307496721002,-1.655141228937726,-1.623404528450802,-1.5789738532851736
23.603,1266.6666259765625,30.0,0.0,-1.5707963267948966,-1.9089981986391145,-1.655141228937726,-1.623404528450802,-1.5789738532851736,0.0,0.0,-1.5512740599470127,0.0,0.0,0.0,5.7727044055159306e-05,-1.5712436046999754,-1.7403057312301131,-1.6551721943474411,-1.6234054762327579,-1.5789736960800393,-0.0030262318700694773,0.01973414435197405,-3.137993391376551,0.0013403931635491244,4.02303000074442e-05,-2.7282350387656397e-06,0.0,-1.5707963267948966,-2.150004237038957,-1.655141228937726,-1.623404528450802,-1.5789738532851736
23.703,1266.6666259765625,30.0,0.0,-1.5707963267948966,-2.065152629061341,-1.655141228937726,-1.623404528450802,-1.5789738532851736,0.0,0.0,-1.1435356195750217,0.0,0.0,0.0,5.828478970020257e-05,-1.5712196362501647,-1.8978032138846361,-1.6551737922440952,-1.6234057425488668,-1.5789736960800393,-0.003048779273767281,0.018674863706016627,-3.1381419957653773,0.001414046342483791,4.510683583314799e-05,-2.7688873987662752e-06,0.0,-1.5707963267948966,-2.572516391834836,-1.655141228937726,-1.623404528450802,-1.5789738532851736
23.803,1266.6666259765625,30.0,0.0,-1.5707963267948966,-2.2446060035417403,-1.655141228937726,-1.623404528450802,-1.5789738532851736,0.0,0.0,-1.4078135710704687,0.0,0.0,0.0,5.960999029695205e-05,-1.571179821991868,-2.107833413253735,-1.6551741917182585,-1.623406008864976,-1.5789736960800393,-0.0030793767580530947,0.01688984565558009,-3.138695400639896,0.001432660252050061,5.381184452693927e-05,-2.792218148363421e-06,0.0,-1.5707963267948966,-2.4326448090018236,-1.655141228937726,-1.623404528450802,-1.5789738532851736
23.903,1400.0,30.0,0.0,-1.5707963267948966,-2.3309992837685947,-1.655141228937726,-1.623404528450802,-1.5789738532851736,0.0,0.0,0.4172993439552003,0.0,0.0,0.0,-0.00013521076426153096,-1.5716864883892556,-2.252011095716227,-1.6552678018305749,-1.6234074736035755,-1.5789736960800393,-0.007061523513751018,-0.00016889447741862528,-1.6140141049647025,-0.0009803134333544643,1.4994306858780689e-05,-1.8337524466419756e-06,0.0,-1.5707963267948966,-1.9661611864753041,-1.655141228937726,-1.623404528450802,-1.5789738532851736
24.003,1400.0,30.0,0.0,-1.5707963267948966,-2.2370049327680315,-1.655141228937726,-1.623404528450802,-1.5789738532851736,0.0,0.0,1.4557174241190414,0.0,0.0,0.0,-0.00024195653992139593,-1.571652266769248,-2.2727358153192236,-1.6552799192135348,-1.6234072072874663,-1.578973562921985,0.010405309515859648,0.04155538308310798,1.3792707027860496,0.006514180971753036,0.00010556436365566214,-6.408460969868385e-06,0.0,-1.5707963267948966,-1.5643883765113782,-1.655141228937726,-1.623404528450802,-1.5789738532851736
24.103,1400.0,30.0,0.0,-1.5707963267948966,-2.098745824570879,-1.655141228937726,-1.623404528450802,-1.5789738532851736,0.0,0.0,1.5154548169782853,0.0,0.0,0.0,1.748711951983076e-06,-1.5711605140739648,-2.1060612127063423,-1.655184844362619,-1.623407074129412,-1.5789734297639304,-0.0006486904506562902,0.01778557388079572,2.722844926952895,0.002068198288950764,8.410907706796738e-05,-8.048306291881247e-06,0.0,-1.5707963267948966,-1.4843755915079668,-1.655141228937726,-1.623404528450802,-1.5789738532851736
24.203,1400.0,30.0,0.0,-1.5707963267948966,-1.907204010945697,-1.655141228937726,-1.623404528450802,-1.5789738532851736,0.0,0.0,2.657022376770321,0.0,0.0,0.0,4.2050816220204224e-05,-1.5711097808551988,-1.9625246862762868,-1.655170063818569,-1.6234061420230304,-1.5789734297639304,-0.0025313247332959584,0.015361113167577045,2.8674077025090123,0.0013898771152940212,5.699281359849778e-05,-7.903877164717265e-06,0.0,-1.5707963267948966,-1.3752518769916156,-1.655141228937726,-1.623404528450802,-1.5789738532851736
24.303,1400.0,30.0,0.0,-1.5707963267948966,-1.6700378066468105,-1.655141228937726,-1.623404528450802,-1.5789738532851736,0.0,0.0,1.7089701337594145,0.0,0.0,0.0,4.442434391255655e-05,-1.57111484086127,-1.777043239519429,-1.6551660690769339,-1.6234057425488668,-1.5789734297639304,-0.0026495984740942244,0.015615021650678183,2.7401653277344433,0.0011956455469283016,4.8556453555318595e-05,-7.901426268976827e-06,0.0,-1.5707963267948966,-1.512591881514194,-1.655141228937726,-1.623404528450802,-1.5789738532851736
24.403,1400.0,30.0,0.0,-1.5707963267948966,-1.5211946937366703,-1.655141228937726,-1.623404528450802,-1.5789738532851736,0.0,0.0,1.9126611828773963,0.0,0.0,0.0,3.5210845212718665e-05,-1.571083149244298,-1.7149034354885013,-1.6551619411772442,-1.6234053430747033,-1.5789736960800393,-0.002122432238171169,0.014055010543731618,1.0753715318427095,0.000969721451330501,3.450925814753145e-05,-4.202051603744506e-06,0.0,-1.5707963267948966,-0.9634580771983896,-1.655141228937726,-1.623404528450802,-1.5789738532851736
24.502,1400.0,30.0,0.0,-1.5707963267948966,-1.3328761634054764,-1.655141228937726,-1.623404528450802,-1.5789738532851736,0.0,0.0,2.0741545036992295,0.0,0.0,0.0,3.2973624912402055e-05,-1.57124373785803,-1.5492352414515607,-1.6551751238246402,-1.6234066746552485,-1.5789736960800393,-0.0022731728775048084,0.021960155871495187,2.614328835699327,0.0016231017572745966,7.77541690589535e-05,-2.8283715273126437e-06,0.0,-1.5707963267948966,-0.6179803281893645,-1.655141228937726,-1.623404528450802,-1.5789738532851736
24.603,1400.0,30.0,0.0,-1.5707963267948966,-1.117640783578544,-1.655141228937726,-1.623404528450802,-1.5789738532851736,0.0,0.0,2.1385376614072364,0.0,0.0,0.0,3.54180472403402e-05,-1.5711598482836924,-1.3717342232172343,-1.6551635390738983,-1.6234061420230304,-1.5789736960800393,-0.002253989015054856,0.017810925926016515,2.639893051635216,0.0010695013068635782,5.6136205980844224e-05,-2.75385312173464e-06,0.0,-1.5707963267948966,-0.6997874652281841,-1.655141228937726,-1.623404528450802,-1.5789738532851736
24.704,1400.0,30.0,0.0,-1.5707963267948966,-0.9296216170613683,-1.655141228937726,-1.623404528450802,-1.5789738532851736,0.0,0.0,1.8372455662313427,0.0,0.0,0.0,3.318163357679785e-05,-1.5711525245906948,-1.2394432939642022,-1.6551608759128082,-1.6234058757069214,-1.5789736960800393,-0.0021214871280733814,0.01740651971300148,2.6137035254753767,0.0009300855390023244,4.9708607197936095e-05,-2.750442693962348e-06,0.0,-1.5707963267948966,-0.692017971870455,-1.655141228937726,-1.623404528450802,-1.5789738532851736
24.803,1400.0,30.0,0.0,-1.5707963267948966,-0.7441754158247438,-1.655141228937726,-1.623404528450802,-1.5789738532851736,0.0,0.0,2.234721157465157,0.0,0.0,0.0,3.017638738035798e-05,-1.5711482635329506,-1.1085403376922922,-1.6551579464356092,-1.6234064083391395,-1.5789736960800393,-0.0019565169121477446,0.017151708251843235,2.5832830352917284,0.0008078844808377482,5.3431359852828536e-05,-2.7054554232365513e-06,0.0,-1.5707963267948966,-0.20716134936010222,-1.655141228937726,-1.623404528450802,-1.5789738532851736
24.902,1400.0,30.0,0.0,-1.5707963267948966,-0.5237557754439299,-1.655141228937726,-1.623404528450802,-1.5789738532851736,0.0,0.0,2.5482985937742475,0.0,0.0,0.0,2.5655779523339884e-05,-1.5711389424691353,-0.9362583828252214,-1.6551546174842466,-1.623406008864976,-1.5789736960800393,-0.00171093002723013,0.01660398964237101,2.5436163161194343,0.0006444472080034399,4.599100726561174e-05,-2.6245649427122394e-06,0.0,-1.5707963267948966,-0.11996573327920224,-1.655141228937726,-1.623404528450802,-1.5789738532851736
25.003,1400.0,30.0,0.0,-1.5707963267948966,-0.2979825263050291,-1.655141228937726,-1.623404528450802,-1.5789738532851736,0.0,0.0,2.155899640899688,0.0,0.0,0.0,2.2007495494174138e-05,-1.5711276240345025,-0.8086136709889687,-1.6551519543231565,-1.623406008864976,-1.5789736960800393,-0.001517113147375947,0.01600471493896783,2.5179884506334926,0.0005140963632564291,4.6701818842020996e-05,-2.5824189331935187e-06,0.0,-1.5707963267948966,0.06329017433363471,-1.655141228937726,-1.623404528450802,-1.5789738532851736
25.103,1400.0,30.0,0.0,-1.5707963267948966,-0.0856235498594371,-1.655141228937726,-1.623404528450802,-1.5789738532851736,0.0,0.0,1.593224714656664,0.0,0.0,0.0,1.7083758210276657e-05,-1.571107117694109,-0.6399669310098562,-1.6551482258976304,-1.623406008864976,-1.5789736960800393,-0.0012662164549978243,0.014963218175367794,2.4963982036762205,0.00034333299173689466,4.667855031723798e-05,-2.6252534793290613e-06,0.0,-1.5707963267948966,0.41577562680575975,-1.655141228937726,-1.623404528450802,-1.5789738532851736
25.203,1400.0,30.0,0.0,-1.5707963267948966,0.08016013022355767,-1.655141228937726,-1.623404528450802,-1.5789738532851736,0.0,0.0,1.9413452070920494,0.0,0.0,0.0,1.3825794947474047e-05,-1.5710887418825874,-0.5139083979188548,-1.6551462285268128,-1.623406008864976,-1.5789736960800393,-0.001111078999122302,0.01401199008915383,2.4968072652196565,0.0002255484669989808,4.221023771789236e-05,-2.56325318248212e-06,0.0,-1.5707963267948966,0.4966523029831499,-1.655141228937726,-1.623404528450802,-1.5789738532851736
25.302,1400.0,30.0,0.0,-1.5707963267948966,0.28698806664530446,-1.655141228937726,-1.623404528450802,-1.5789738532851736,0.0,0.0,1.37212042955791,0.0,0.0,0.0,1.1875869407788186e-05,-1.571056384475343,-0.34455565393476223,-1.6551434322076681,-1.6234058757069214,-1.5789736960800393,-0.0010354685658347388,0.01243823977575544,2.534259033313332,6.102628598976524e-05,3.4556421000942494e-05,-2.6223322147895245e-06,0.0,-1.5707963267948966,0.8018795405852488,-1.655141228937726,-1.623404528450802,-1.5789738532851736
25.403,1400.0,30.0,0.0,-1.5707963267948966,0.46684459335330114,-1.655141228937726,-1.623404528450802,-1.5789738532851736,0.0,0.0,1.745210118738017,0.0,0.0,0.0,1.4933130469268668e-05,-1.571025491806698,-0.2146327242992445,-1.6551423669432321,-1.623406008864976,-1.5789736960800393,-0.0011987167646346243,0.010961575207955347,2.6031851044339995,2.698563504414437e-05,3.523054177919146e-05,-2.574058965919707e-06,0.0,-1.5707963267948966,1.1244055983212022,-1.655141228937726,-1.623404528450802,-1.5789738532851736
25.503,1400.0,30.0,0.0,-1.5707963267948966,0.6634999357725414,-1.655141228937726,-1.623404528450802,-1.5789738532851736,0.0,0.0,1.9860126863141434,0.0,0.0,0.0,3.5977182657558774e-05,-1.5709874086031097,-0.03222627152791156,-1.655138638517706,-1.6234056093908125,-1.578973829238094,-0.0022214784240328486,0.009144594022951357,2.804150702400796,-7.261984674937617e-05,2.6626015239139187e-05,-1.9361816418005236e-08,0.0,-1.5707963267948966,1.205374298600491,-1.655141228937726,-1.623404528450802,-1.5789738532851736
25.603,1400.0,30.0,0.0,-1.5707963267948966,0.8439752185408185,-1.655141228937726,-1.623404528450802,-1.5789738532851736,0.0,0.0,1.5561755263712593,0.0,0.0,0.0,4.0225309831329364e-05,-1.5709033858707178,0.11475186630123145,-1.655139437466033,-1.623405209916649,-1.578973829238094,-0.002228012791453575,0.005128069082502142,2.9999463057434217,-0.00012136323685325712,1.6319516598768165e-05,-5.1208656855628566e-08,0.0,-1.5707963267948966,1.2569981187407566,-1.655141228937726,-1.623404528450802,-1.5789738532851736
25.703,1400.0,30.0,0.0,-1.5707963267948966,1.005031400495809,-1.655141228937726,-1.623404528450802,-1.5789738532851736,0.0,0.0,1.3284239354431384,0.0,0.0,0.0,-5.480739278917122e-05,-1.5705314754244881,0.3236298989589782,-1.6551282521894548,-1.6234038783361038,-1.578973829238094,0.000888535414622072,-0.007502562235768205,3.1415953167508834,0.0010826789478287102,-0.0006011943119975018,0.00010941807186061699,0.0,-1.5707963267948966,1.251498668607653,-1.655141228937726,-1.623404528450802,-1.5789738532851736
25.803,1400.0,30.0,0.0,-1.5707963267948966,1.126643183950026,-1.655141228937726,-1.623404528450802,-1.5789738532851736,0.0,0.0,1.2166985316324996,0.0,0.0,0.0,-6.53774757422202e-05,-1.5704117663334891,0.4812241209400984,-1.6551243906058741,-1.6234028130716678,-1.578973829238094,0.0021364784623638983,-0.014961758638254753,3.141594251486447,0.0004475953257927184,-0.00042402261157709233,9.601145170678896e-05,0.0,-1.5707963267948966,1.6079868886936777,-1.655141228937726,-1.623404528450802,-1.5789738532851736
25.903,1400.0,30.0,0.0,-1.5707963267948966,1.2646032126484785,-1.655141228937726,-1.623404528450802,-1.5789738532851736,0.0,0.0,1.6399774552783173,0.0,0.0,0.0,-6.168177894447154e-05,-1.5703482499414907,0.6914113469449714,-1.6551218606028386,-1.6234030793877767,-1.578973829238094,0.002542869952740372,-0.0197801899911026,3.141592653589793,-0.0002988244568888763,-0.00020073882303804373,5.032317095571357e-05,0.0,-1.5707963267948966,1.5932623820628486,-1.655141228937726,-1.623404528450802,-1.5789738532851736
26.003,1400.0,30.0,0.0,-1.5707963267948966,1.4095091803185607,-1.655141228937726,-1.623404528450802,-1.5789738532851736,0.0,0.0,1.8683440529630426,0.0,0.0,0.0,-5.787644050034313e-05,-1.5703280099172061,0.9016151844171436,-1.6551205290222935,-1.6234032125458313,-1.578973829238094,0.002840826444078174,-0.022246524751273568,3.141240051061467,-0.0009898593314238797,-5.2464627013096816e-05,6.314664618429414e-08,0.0,-1.5707963267948966,2.0061662233652093,-1.655141228937726,-1.623404528450802,-1.5789738532851736
26.102,1400.0,30.0,0.0,-1.5707963267948966,1.5985037094690937,-1.655141228937726,-1.623404528450802,-1.5789738532851736,0.0,0.0,1.942853783892015,0.0,0.0,0.0,-5.5532183360560144e-05,-1.5703286757074786,1.0592465574954706,-1.6551199963900756,-1.6234036120199948,-1.578973829238094,0.0030307467603550024,-0.022563357697208932,3.1398498809724456,-0.0009681060646780836,-4.156618396983366e-05,3.06071618159058e-08,0.0,-1.5707963267948966,2.0555213142786477,-1.655141228937726,-1.623404528450802,-1.5789738532851736
26.202,1400.0,30.0,0.0,-1.5707963267948966,1.745246546150161,-1.655141228937726,-1.623404528450802,-1.5789738532851736,0.0,0.0,1.549922895187116,0.0,0.0,0.0,-5.3595048194914535e-05,-1.5703387957196209,1.2168381163155007,-1.655119863232021,-1.6234034788619403,-1.578973829238094,0.0030918400398654753,-0.022280363541874387,3.1385459973027428,-0.0009591616535042815,-3.5684891625321196e-05,-9.303808175875769e-08,0.0,-1.5707963267948966,2.031511029683004,-1.655141228937726,-1.623404528450802,-1.5789738532851736
26.303,1400.0,30.0,0.0,-1.5707963267948966,1.8919506508643245,-1.655141228937726,-1.623404528450802,-1.5789738532851736,0.0,0.0,1.5767035476150542,0.0,0.0,0.0,-5.1530058052802314e-05,-1.5703612994308322,1.4268759056937064,-1.655120928496457,-1.6234036120199948,-1.578973829238094,0.003072793756733555,-0.02128793864225096,3.137385125383577,-0.0009041198484112144,-3.363866950306757e-05,-1.3578206856658492e-07,0.0,-1.5707963267948966,2.4040474673863566,-1.655141228937726,-1.623404528450802,-1.5789738532851736
26.404,1400.0,30.0,0.0,-1.5707963267948966,2.087236495380569,-1.655141228937726,-1.623404528450802,-1.5789738532851736,0.0,0.0,1.9705230721476497,0.0,0.0,0.0,-5.0011118338421886e-05,-1.570393257363913,1.6368025080964015,-1.6551234584994927,-1.623403345703886,-1.578973829238094,0.0029975568551955647,-0.01974606823963596,3.136988314381155,-0.0008009720303667577,-3.314080597140231e-05,-2.1963591062203716e-07,0.0,-1.5707963267948966,2.3192575525128163,-1.655141228937726,-1.623404528450802,-1.5789738532851736
26.503,1400.0,30.0,0.0,-1.5707963267948966,2.2493608774124096,-1.655141228937726,-1.623404528450802,-1.5789738532851736,0.0,0.0,1.8132535500270217,0.0,0.0,0.0,-4.933793220227911e-05,-1.5704226852939585,1.7941708274380557,-1.6551251895542012,-1.6234032125458313,-1.578973829238094,0.0029289710944503168,-0.018296640735765732,3.1371755346057877,-0.0007114721977045628,-4.094758093269288e-05,-2.1781415219880392e-07,0.0,-1.5707963267948966,2.870989808381127,-1.655141228937726,-1.623404528450802,-1.5789738532851736
26.603,1533.3333740234375,30.0,0.0,-1.5707963267948966,2.37253193346427,-1.655141228937726,-1.623404528450802,-1.5789738532851736,0.0,0.0,-0.21456842365498768,0.0,0.0,0.0,-4.9372542405837775e-05,-1.5704678258744353,2.003894763281796,-1.6551291842958362,-1.6234028130716678,-1.578973829238094,0.002853577628168554,-0.016019347760801057,3.137951846063546,-0.0005360914666153734,-4.62676897746758e-05,-2.165463216107932e-07,0.0,-1.5707963267948966,1.663156417815137,-1.655141228937726,-1.623404528450802,-1.5789738532851736
26.702,1533.3333740234375,30.0,0.0,-1.5707963267948966,2.3026920837195153,-1.655141228937726,-1.623404528450802,-1.5789738532851736,0.0,0.0,-1.2063366806050542,0.0,0.0,0.0,0.0001386991980767381,-1.5700923201607342,2.1099779237215217,-1.6550502215695155,-1.6234018809652864,-1.5789739623961485,-0.006183684761068804,-0.03749789071480413,0.011458944468365564,-0.004627274123080351,-0.0001594569165603023,3.060465512419044e-06,0.0,-1.5707963267948966,1.8986718290539257,-1.655141228937726,-1.623404528450802,-1.5789738532851736
26.802,1533.3333740234375,30.0,0.0,-1.5707963267948966,2.159545480926795,-1.655141228937726,-1.623404528450802,-1.5789738532851736,0.0,0.0,-1.3173313596457452,0.0,0.0,0.0,-4.3255870606032556e-05,-1.5707796820380835,2.147896810270397,-1.6551550169584102,-1.623405209916649,-1.5789736960800393,0.01949019671552819,0.052184982777617336,1.8955100990280234,0.00948460791364072,0.00031024909937426784,-6.973592319381286e-06,0.0,-1.5707963267948966,1.792495457598251,-1.655141228937726,-1.623404528450802,-1.5789738532851736
26.903,1533.3333740234375,30.0,0.0,-1.5707963267948966,1.984859730344585,-1.655141228937726,-1.623404528450802,-1.5789738532851736,0.0,0.0,-1.8291042408204858,0.0,0.0,0.0,4.0406906728902396e-05,-1.570409902120726,2.0245017711646107,-1.655101620578554,-1.6234030793877767,-1.578973829238094,-0.0014941631486227289,-0.020625874714662658,-2.6263580680271064,-0.0020148335081251875,-5.6333407337929436e-05,1.0394036127928585e-07,0.0,-1.5707963267948966,1.641913854545931,-1.655141228937726,-1.623404528450802,-1.5789738532851736
27.003,1533.3333740234375,30.0,0.0,-1.5707963267948966,1.7840318114461517,-1.655141228937726,-1.623404528450802,-1.5789738532851736,0.0,0.0,-1.8787746612579979,0.0,0.0,0.0,-0.0001343410675907293,-1.570923492736948,1.8871136847432217,-1.6551909696331262,-1.6234050767585944,-1.5789736960800393,-0.0037114889659050606,-0.0610209018660663,-1.9310768817021406,-0.0064936153344132795,-0.00023194824595641487,3.908484073891235e-06,0.0,-1.5707963267948966,1.489901394287919,-1.655141228937726,-1.623404528450802,-1.5789738532851736
27.103,1533.3333740234375,30.0,0.0,-1.5707963267948966,1.5905775144438694,-1.655141228937726,-1.623404528450802,-1.5789738532851736,0.0,0.0,-1.6881626131628753,0.0,0.0,0.0,-3.0912627317547834e-05,-1.570484870105412,1.715385068171642,-1.6551251895542012,-1.6234030793877767,-1.5789736960800393,0.002206377728488584,-0.016790950832975677,-2.7231610441742875,-0.0007924182508294107,-4.394933034855717e-05,-5.544760231361051e-06,0.0,-1.5707963267948966,1.0733995221480725,-1.655141228937726,-1.623404528450802,-1.5789738532851736
27.203,1533.3333740234375,30.0,0.0,-1.5707963267948966,1.4021198865648765,-1.655141228937726,-1.623404528450802,-1.5789738532851736,0.0,0.0,-2.2020540807055617,0.0,0.0,0.0,-3.61255794420551e-05,-1.5705148306676753,1.5771726002348188,-1.6551301164022179,-1.623403345703886,-1.5789736960800393,0.0024453961762488704,-0.015205849835728126,-2.6851846333458664,-0.0005450416969522018,-3.42434703144966e-05,-2.8619482909989904e-06,0.0,-1.5707963267948966,0.9781725784721316,-1.655141228937726,-1.623404528450802,-1.5789738532851736
27.303,1533.3333740234375,30.0,0.0,-1.5707963267948966,1.2121225955494461,-1.655141228937726,-1.623404528450802,-1.5789738532851736,0.0,0.0,-1.5835494425914585,0.0,0.0,0.0,-3.2585275021784596e-05,-1.5705192248834738,1.3952941441167293,-1.6551299832441633,-1.6234036120199948,-1.5789736960800393,0.002257374662620349,-0.014972708807643103,-2.5893212204312652,-0.0005457662315129269,-2.845406344817677e-05,-2.875545047834679e-06,0.0,-1.5707963267948966,1.0687426741724282,-1.655141228937726,-1.623404528450802,-1.5789738532851736
27.403,1533.3333740234375,30.0,0.0,-1.5707963267948966,1.0566459153918322,-1.655141228937726,-1.623404528450802,-1.5789738532851736,0.0,0.0,-1.884617247729627,0.0,0.0,0.0,-3.564877380340862e-05,-1.5704208210811954,1.2671672003860905,-1.6551215942867297,-1.6234034788619403,-1.5789736960800393,0.0026033601198906992,-0.020290025134068447,-2.6028655251031902,-0.0009680258317487584,-3.3762481136509546e-05,-2.7072909282641316e-06,0.0,-1.5707963267948966,0.7920094731397309,-1.655141228937726,-1.623404528450802,-1.5789738532851736
27.502,1533.3333740234375,30.0,0.0,-1.5707963267948966,0.8934260014899582,-1.655141228937726,-1.623404528450802,-1.5789738532851736,0.0,0.0,-1.1411275187281928,0.0,0.0,0.0,-2.4223513641494705e-05,-1.5705072406585685,1.1428608275552796,-1.6551266542928007,-1.6234036120199948,-1.5789736960800393,0.0018360025010006919,-0.015581297292780452,-2.411420461717318,-0.0006936065869904832,-2.8435984218913825e-05,-2.8333680528983072e-06,0.0,-1.5707963267948966,0.513939289759922,-1.655141228937726,-1.623404528450802,-1.5789738532851736
27.602,1533.3333740234375,30.0,0.0,-1.5707963267948966,0.7562747799682663,-1.655141228937726,-1.623404528450802,-1.5789738532851736,0.0,0.0,-1.556555488822604,0.0,0.0,0.0,-3.3694530623558255e-05,-1.5704111005432166,0.9785734825435449,-1.655120928496457,-1.6234032125458313,-1.5789736960800393,0.0025270061991259614,-0.020725784867432664,-2.4924095873116086,-0.000995438315810973,-3.222493188506244e-05,-2.7606539129514e-06,0.0,-1.5707963267948966,0.48157580530198757,-1.655141228937726,-1.623404528450802,-1.5789738532851736
27.703,1533.3333740234375,30.0,0.0,-1.5707963267948966,0.6136323872765992,-1.655141228937726,-1.623404528450802,-1.5789738532851736,0.0,0.0,-1.714608987282274,0.0,0.0,0.0,-1.5119187235152798e-05,-1.570522420676782,0.8076405519266538,-1.6551266542928007,-1.6234037451780494,-1.5789736960800393,0.001337245093879704,-0.014665538143037683,-2.480588081548856,-0.0006954472630271078,-2.3819827493012927e-05,-2.816526208510744e-06,0.0,-1.5707963267948966,0.44251803057376365,-1.655141228937726,-1.623404528450802,-1.5789738532851736
